;LightBurn 1.6.04
;Custom GCode device profile, absolute coords
;Bounds: X4.55 Y8.28 to X127.44 Y99.71
G00 G17 G40 G21 G54
G90
M3
G1 Z10 F500
;Cut @ 1200 mm/min, 90% power

M8
G0 Z2.8F500
G0 X125.152Y96.58Z2.8F1500
G1 Z0F500
;Layer Blue
G1 X125.249Y94.887Z0S900F1200
G1 X125.335Y93.185Z0F1200
G1 X125.379Y91.44Z0F1200
G1 X125.303Y89.577Z0F1200
G1 X125.214Y87.702Z0F1200
G1 X125.179Y85.88Z0F1200
G1 X125.192Y84.105Z0F1200
G1 X125.24Y82.364Z0F1200
G1 X125.155Y80.493Z0F1200
G1 X125.253Y78.801Z0F1200
G1 X125.217Y76.978Z0F1200
G1 X124.973Y73.163Z0F1200
G1 X124.966Y71.368Z0F1200
G1 X125.022Y69.635Z0F1200
G1 X125.087Y67.911Z0F1200
G1 X125.163Y66.199Z0F1200
G1 X125.172Y64.419Z0F1200
G1 X125.044Y62.506Z0F1200
G1 X125.112Y60.785Z0F1200
G1 X125.076Y58.961Z0F1200
G1 X124.997Y57.097Z0F1200
G1 X124.91Y55.223Z0F1200
G1 X124.858Y53.384Z0F1200
G1 X124.784Y51.524Z0F1200
G1 Y49.736Z0F1200
G1 X124.72Y47.885Z0F1200
G1 X124.605Y45.984Z0F1200
G1 X124.515Y44.107Z0F1200
G1 Y42.32Z0F1200
G1 X124.563Y40.579Z0F1200
G1 X124.548Y38.777Z0F1200
G1 X124.444Y36.887Z0F1200
G1 X124.388Y35.044Z0F1200
G1 X124.23Y33.436Z0F1200
G1 X124.36Y31.664Z0F1200
G1 X124.392Y29.908Z0F1200
G1 X124.446Y28.173Z0F1200
G1 X124.395Y26.335Z0F1200
G1 X124.389Y24.542Z0F1200
G1 X124.301Y22.667Z0F1200
G1 X124.17Y20.751Z0F1200
G1 X124.004Y18.799Z0F1200
G1 X123.917Y16.927Z0F1200
G1 X123.978Y15.198Z0F1200
G1 X124.132Y13.562Z0F1200
G1 X124.218Y11.859Z0F1200
G1 X124.206Y10.059Z0F1200
G1 X124.211Y8.276Z0F1200
G0 Z2.8F500
G0 X127.438Y37.26Z2.8F1500
G1 Z0F500
G1 X120.771Y43.669Z0F1200
G1 X114.749Y50.713Z0F1200
G0 Z2.8F500
G0 X116.696Y46.145Z2.8F1500
G1 Z0F500
G1 X110.044Y52.569Z0F1200
G0 Z2.8F500
G0 X109.021Y50.893Z2.8F1500
G1 Z0F500
G1 X109.067Y44.458Z0F1200
G1 X109.797Y38.695Z0F1200
G1 X109.988Y32.401Z0F1200
G0 Z2.8F500
G0 X110.579Y33.653Z2.8F1500
G1 Z0F500
G1 X104.101Y40.248Z0F1200
G0 Z2.8F500
G0 X101.815Y40.572Z2.8F1500
G1 Z0F500
G1 X108.767Y34.442Z0F1200
G0 Z2.8F500
G0 X105.537Y31.268Z2.8F1500
G1 Z0F500
G1 X105.801Y38.008Z0F1200
G1 X105.453Y44.147Z0F1200
G1 X105.236Y50.415Z0F1200
G0 Z2.8F500
G0 X104.226Y52.998Z2.8F1500
G1 Z0F500
G1 X107.156Y54.201Z0F1200
G1 X107.267Y56.209Z0F1200
G1 X107.137Y58.204Z0F1200
G1 X107.088Y60.168Z0F1200
G1 X106.85Y62.28Z0F1200
G1 X106.423Y64.207Z0F1200
G1 X105.757Y66.011Z0F1200
G1 X104.525Y67.818Z0F1200
G1 X102.941Y69.612Z0F1200
G1 X101.166Y71.444Z0F1200
G0 Z2.8F500
G0 X100.385Y69.224Z2.8F1500
G1 Z0F500
G1 X102.227Y68.688Z0F1200
G0 Z2.8F500
G0 X103.102Y66.307Z2.8F1500
G1 Z0F500
G1 X101.217Y66.131Z0F1200
G1 X99.338Y65.96Z0F1200
G1 X97.411Y65.631Z0F1200
G1 X95.459Y65.389Z0F1200
G1 X93.564Y65.202Z0F1200
G1 X91.845Y65.078Z0F1200
G1 X90.116Y65.054Z0F1200
G1 X88.359Y65.003Z0F1200
G1 X86.561Y64.801Z0F1200
G1 X84.743Y64.691Z0F1200
G1 X82.998Y64.652Z0F1200
G1 X81.337Y64.137Z0F1200
G1 X79.553Y64.283Z0F1200
G1 X77.884Y64.319Z0F1200
G1 X76.141Y66.293Z0F1200
G0 Z2.8F500
G0 X75.345Y64.394Z2.8F1500
G1 Z0F500
G1 X75.874Y62.678Z0F1200
G1 X74.662Y64.505Z0F1200
G1 X77.053Y65.067Z0F1200
G1 X76.638Y64.77Z0F1200
G1 X75.035Y67.553Z0F1200
G1 X74.667Y65.739Z0F1200
G1 X75.389Y63.878Z0F1200
G1 X75.576Y62.833Z0F1200
G1 X76.077Y60.979Z0F1200
G1 X77.906Y62.218Z0F1200
G0 Z2.8F500
G0 X76.791Y61.345Z2.8F1500
G1 Z0F500
G1 X77.099Y55.167Z0F1200
G1 X76.885Y48.476Z0F1200
G0 Z2.8F500
G0 X81.308Y46.342Z2.8F1500
G1 Z0F500
G1 X81.488Y52.999Z0F1200
G1 X81.518Y59.509Z0F1200
G0 Z2.8F500
G0 X78.716Y54.074Z2.8F1500
G1 Z0F500
G1 X78.412Y54.781Z0F1200
G1 X78.1Y56.709Z0F1200
G1 X78Y58.623Z0F1200
G1 X78.318Y59.829Z0F1200
G1 X77.892Y61.757Z0F1200
G1 X77.953Y63.605Z0F1200
G1 X76.783Y65.471Z0F1200
G1 X75.523Y67.251Z0F1200
G1 X75.539Y68.272Z0F1200
G1 X81.319Y71.159Z0F1200
G1 X88.276Y72.744Z0F1200
G1 X89.864Y74.416Z0F1200
G1 X91.749Y76.157Z0F1200
G1 X94.728Y77.967Z0F1200
G0 Z2.8F500
G0 X92.627Y76.908Z2.8F1500
G1 Z0F500
G1 X93.268Y71.057Z0F1200
G0 Z2.8F500
G0 X87.897Y72.483Z2.8F1500
G1 Z0F500
G1 X89.752Y74.53Z0F1200
G1 X91.52Y76.155Z0F1200
G1 X93.381Y77.537Z0F1200
G1 X95.251Y78.481Z0F1200
G1 X97.108Y79.3Z0F1200
G1 X98.826Y79.648Z0F1200
G1 X100.562Y79.789Z0F1200
G1 X102.351Y79.648Z0F1200
G1 X104.598Y79.621Z0F1200
G1 X106.42Y79.066Z0F1200
G1 X108.331Y78.262Z0F1200
G1 X110.092Y76.864Z0F1200
G0 Z2.8F500
G0 X108.087Y77.687Z2.8F1500
G1 Z0F500
G1 X106.289Y78.49Z0F1200
G0 Z2.8F500
G0 X107.064Y78.135Z2.8F1500
G1 Z0F500
G1 X106.83Y71.424Z0F1200
G0 Z2.8F500
G0 X107.886Y69.221Z2.8F1500
G1 Z0F500
G1 X108.049Y75.862Z0F1200
G0 Z2.8F500
G0 X107.041Y75.43Z2.8F1500
G1 Z0F500
G1 X108.759Y73.877Z0F1200
G1 X110.726Y71.118Z0F1200
G1 X113.369Y69.693Z0F1200
G0 Z2.8F500
G0 X115.135Y65.841Z2.8F1500
G1 Z0F500
G1 X114.745Y70.262Z0F1200
G1 X113.64Y72.976Z0F1200
G1 X112.967Y73.767Z0F1200
G1 X110.873Y75.844Z0F1200
G1 X110.336Y76.322Z0F1200
G1 X109.531Y75.866Z0F1200
G1 X111.682Y75.856Z0F1200
G1 X111.796Y75.521Z0F1200
G0 Z2.8F500
G0 X113.818Y78.291Z2.8F1500
G1 Z0F500
G1 X113.318Y71.319Z0F1200
G1 X113.417Y64.935Z0F1200
G1 X112.881Y57.928Z0F1200
G1 X112.767Y51.334Z0F1200
G1 X112.544Y44.634Z0F1200
G1 X112.203Y37.818Z0F1200
G1 X112.556Y31.685Z0F1200
G0 Z2.8F500
G0 X115.321Y31.161Z2.8F1500
G1 Z0F500
G1 X115.471Y37.79Z0F1200
G1 X115.809Y44.602Z0F1200
G1 X116.57Y51.832Z0F1200
G1 X117.208Y58.94Z0F1200
G1 X117.91Y66.11Z0F1200
G1 X118.857Y73.521Z0F1200
G0 Z2.8F500
G0 X117.772Y73.126Z2.8F1500
G1 Z0F500
G1 X110.571Y79.01Z0F1200
G0 Z2.8F500
G0 X106.544Y76.17Z2.8F1500
G1 Z0F500
G1 X108.989Y74.327Z0F1200
G1 X111.014Y72.294Z0F1200
G1 X112.513Y70.528Z0F1200
G1 X113.664Y68.754Z0F1200
G1 X114.746Y66.912Z0F1200
G1 X115.491Y65.074Z0F1200
G1 X116.225Y63.225Z0F1200
G1 X117.022Y61.55Z0F1200
G1 X117.5Y59.785Z0F1200
G1 X117.621Y58.563Z0F1200
G1 X118.315Y56.787Z0F1200
G1 X119.553Y56.551Z0F1200
G0 Z2.8F500
G0 X122.3Y54.781Z2.8F1500
G1 Z0F500
G1 X119.724Y57.166Z0F1200
G1 X118.184Y63.027Z0F1200
G1 X119.527Y63.006Z0F1200
G1 X118.707Y62.201Z0F1200
G1 X119.65Y60.446Z0F1200
G1 X121.351Y58.653Z0F1200
G1 X121.621Y57.019Z0F1200
G1 X119.473Y56.025Z0F1200
G1 X120.501Y55.025Z0F1200
G1 X119.263Y52.244Z0F1200
G1 X118.243Y50.682Z0F1200
G1 X118.217Y48.869Z0F1200
G1 X118.27Y47.133Z0F1200
G1 X118.437Y44.616Z0F1200
G1 X118.254Y42.871Z0F1200
G0 Z2.8F500
G0 X117.047Y40.791Z2.8F1500
G1 Z0F500
G1 X117.415Y40.706Z0F1200
G1 X117.351Y42.431Z0F1200
G1 X117.924Y44.67Z0F1200
G1 X118.235Y46.54Z0F1200
G1 X118.349Y48.44Z0F1200
G1 X118.306Y50.297Z0F1200
G1 X118.395Y52.172Z0F1200
G1 X117.727Y54.086Z0F1200
G1 X118.257Y54.718Z0F1200
G1 X118.818Y55.94Z0F1200
G1 X118.455Y57.707Z0F1200
G1 X118.063Y59.557Z0F1200
G1 X117.575Y61.423Z0F1200
G1 X117.252Y63.341Z0F1200
G1 X116.624Y65.294Z0F1200
G1 X115.861Y67.114Z0F1200
G1 X114.851Y68.915Z0F1200
G1 X113.868Y70.741Z0F1200
G1 X112.826Y72.065Z0F1200
G1 X110.588Y72.994Z0F1200
G1 X108.494Y74.847Z0F1200
G1 X105.788Y76.545Z0F1200
G0 Z2.8F500
G0 X102.359Y77.421Z2.8F1500
G1 Z0F500
G1 X107.987Y69.99Z0F1200
G1 X113.938Y62.877Z0F1200
G0 Z2.8F500
G0 X113.889Y62.829Z2.8F1500
G1 Z0F500
G1 X111.974Y66.646Z0F1200
G1 X109.412Y70.72Z0F1200
G1 X110.64Y69.245Z0F1200
G1 X111.921Y67.264Z0F1200
G1 X113.01Y65.54Z0F1200
G1 X113.908Y63.853Z0F1200
G1 X114.68Y62.154Z0F1200
G1 X115.357Y60.473Z0F1200
G1 X115.437Y60.328Z0F1200
G0 Z2.8F500
G0 X119.925Y62.727Z2.8F1500
G1 Z0F500
G1 X118.821Y63.318Z0F1200
G1 X115.895Y64.801Z0F1200
G1 X114.037Y68.226Z0F1200
G1 X112.234Y70.923Z0F1200
G1 X110.404Y73.036Z0F1200
G1 X108.677Y74.356Z0F1200
G1 X106.887Y75.837Z0F1200
G1 X106.196Y76.722Z0F1200
G1 X105.189Y77.409Z0F1200
G1 X104.174Y79.316Z0F1200
G1 X103.982Y79.686Z0F1200
G1 X108.064Y78.67Z0F1200
G1 X109.788Y77.683Z0F1200
G1 X110.736Y76.268Z0F1200
G1 X111.332Y75.848Z0F1200
G1 X114.362Y73.685Z0F1200
G1 X113.957Y73.734Z0F1200
G1 X115.343Y71.744Z0F1200
G1 X115.322Y71.612Z0F1200
G1 X117.892Y69.221Z0F1200
G1 X118.13Y68.337Z0F1200
G1 X118.289Y67.041Z0F1200
G1 X117.583Y66.906Z0F1200
G1 X119.583Y65.184Z0F1200
G1 X118.52Y64.922Z0F1200
G1 X119.997Y64.697Z0F1200
G1 X120.557Y62.901Z0F1200
G1 X120.4Y60.959Z0F1200
G1 X120.842Y60.165Z0F1200
G1 X119.939Y59.276Z0F1200
G1 X120.154Y57.7Z0F1200
G1 X121.32Y55.829Z0F1200
G1 X121.233Y54.962Z0F1200
G1 X121.893Y54.157Z0F1200
G1 X122.437Y53.687Z0F1200
G1 X121.718Y53.091Z0F1200
G1 X122.598Y52.057Z0F1200
G1 X120.957Y52.567Z0F1200
G1 X121.334Y50.703Z0F1200
G1 X121.639Y50.444Z0F1200
G1 X121.856Y48.757Z0F1200
G1 X122.36Y47.465Z0F1200
G1 X121.765Y47.439Z0F1200
G1 X121.899Y45.559Z0F1200
G1 X121.913Y44.233Z0F1200
G1 X121.379Y43.931Z0F1200
G1 X121.353Y42.117Z0F1200
G1 X120.194Y41.761Z0F1200
G1 X120.816Y41.031Z0F1200
G1 X120.983Y39.296Z0F1200
G1 X120.332Y37.427Z0F1200
G1 X119.544Y35.758Z0F1200
G1 X119.079Y34.073Z0F1200
G1 X118.362Y32.362Z0F1200
G1 X117.581Y31.372Z0F1200
G1 X116.081Y30.902Z0F1200
G1 X114.032Y29.448Z0F1200
G1 X112.611Y27.381Z0F1200
G1 X110.683Y25.709Z0F1200
G1 X106.419Y23.754Z0F1200
G0 Z2.8F500
G0 X110.97Y23.869Z2.8F1500
G1 Z0F500
G1 X112.85Y25.716Z0F1200
G1 X114.817Y27.538Z0F1200
G1 X116.417Y29.334Z0F1200
G1 X116.161Y31.316Z0F1200
G1 X117.758Y31.769Z0F1200
G1 X118.632Y36.538Z0F1200
G1 X119.81Y37.584Z0F1200
G0 Z2.8F500
G0 X118.585Y35.04Z2.8F1500
G1 Z0F500
G1 X112.147Y41.675Z0F1200
G0 Z2.8F500
G0 X117.176Y40.136Z2.8F1500
G1 Z0F500
G1 X110.826Y46.857Z0F1200
G0 Z2.8F500
G0 X103.244Y45.217Z2.8F1500
G1 Z0F500
G1 X103.638Y39.122Z0F1200
G1 X103.85Y32.851Z0F1200
G0 Z2.8F500
G0 X101.196Y33.482Z2.8F1500
G1 Z0F500
G1 X94.734Y40.094Z0F1200
G0 Z2.8F500
G0 X96.863Y38.946Z2.8F1500
G1 Z0F500
G1 X96.448Y32.057Z0F1200
G0 Z2.8F500
G0 X101.03Y33.319Z2.8F1500
G1 Z0F500
G1 X101.538Y40.299Z0F1200
G1 X100.957Y46.209Z0F1200
G0 Z2.8F500
G0 X101.286Y42.175Z2.8F1500
G1 Z0F500
G1 X99.393Y42.214Z0F1200
G1 X97.457Y42.099Z0F1200
G1 X95.559Y42.022Z0F1200
G1 X93.769Y42.051Z0F1200
G1 X92.014Y42.225Z0F1200
G0 Z2.8F500
G0 X92.212Y37.839Z2.8F1500
G1 Z0F500
G1 X90.543Y38.098Z0F1200
G1 X88.903Y38.386Z0F1200
G1 X87.075Y38.489Z0F1200
G1 X85.207Y38.441Z0F1200
G1 X85.492Y36.821Z0F1200
G1 X86.434Y34.954Z0F1200
G1 X87.555Y33.15Z0F1200
G1 X88.811Y31.367Z0F1200
G1 X90.401Y29.578Z0F1200
G1 X92.171Y27.742Z0F1200
G1 X94.51Y25.907Z0F1200
G1 X97.828Y24.027Z0F1200
G0 Z2.8F500
G0 X99.649Y23.247Z2.8F1500
G1 Z0F500
G1 X101.595Y23.148Z0F1200
G1 X103.456Y23.189Z0F1200
G1 X105.33Y23.466Z0F1200
G1 X107.264Y24.138Z0F1200
G1 X109.112Y24.836Z0F1200
G1 X111.394Y26.409Z0F1200
G1 X113.335Y28.093Z0F1200
G1 X115.12Y29.847Z0F1200
G0 Z2.8F500
G0 X116.525Y29.886Z2.8F1500
G1 Z0F500
G1 X114.756Y27.813Z0F1200
G1 X112.874Y25.852Z0F1200
G1 X110.992Y24.003Z0F1200
G1 X109.073Y23.234Z0F1200
G1 X107.781Y23.193Z0F1200
G1 X107.119Y22.543Z0F1200
G1 X105.373Y22.28Z0F1200
G1 X103.921Y22.193Z0F1200
G1 X102.218Y22.419Z0F1200
G1 X100.329Y22.685Z0F1200
G1 X98.437Y23.396Z0F1200
G1 X96.657Y24.217Z0F1200
G1 X94.938Y25.21Z0F1200
G1 X93.138Y26.569Z0F1200
G1 X91.372Y28.074Z0F1200
G1 X89.544Y29.853Z0F1200
G1 X87.676Y32.152Z0F1200
G1 X85.814Y34.792Z0F1200
G1 X83.941Y37.979Z0F1200
G1 X82.146Y38.226Z0F1200
G1 X80.384Y38.394Z0F1200
G1 X78.675Y38.614Z0F1200
G1 X76.988Y38.856Z0F1200
G1 X75.271Y39.068Z0F1200
G1 X73.443Y39.171Z0F1200
G1 X71.633Y40.074Z0F1200
G1 X69.765Y39.914Z0F1200
G1 X67.864Y39.611Z0F1200
G1 X66.008Y39.462Z0F1200
G1 X64.303Y37.899Z0F1200
G1 X62.59Y37.444Z0F1200
G1 X60.836Y37.062Z0F1200
G1 X59.035Y36.745Z0F1200
G1 X57.2Y36.282Z0F1200
G1 X55.437Y35.89Z0F1200
G1 X53.547Y35.262Z0F1200
G1 X51.753Y33.499Z0F1200
G1 X50.091Y32.2Z0F1200
G1 X48.344Y30.819Z0F1200
G1 X46.482Y29.436Z0F1200
G1 X44.715Y28.147Z0F1200
G1 X42.912Y26.71Z0F1200
G1 X41.075Y25.352Z0F1200
G1 X39.269Y22.683Z0F1200
G0 Z2.8F500
G0 X39.293Y22.93Z2.8F1500
G1 Z0F500
G1 X40.479Y24.655Z0F1200
G1 X42.718Y26.408Z0F1200
G1 X45.055Y28.146Z0F1200
G1 X49.707Y31.6Z0F1200
G1 X51.967Y33.486Z0F1200
G1 X51.495Y34.698Z0F1200
G0 Z2.8F500
G0 X51.902Y34.987Z2.8F1500
G1 Z0F500
G1 X50.048Y34.729Z0F1200
G1 X48.152Y34.541Z0F1200
G0 Z2.8F500
G0 X47.418Y32.479Z2.8F1500
G1 Z0F500
G1 X47.837Y39.371Z0F1200
G1 X48.098Y46.109Z0F1200
G1 X48.19Y52.681Z0F1200
G0 Z2.8F500
G0 X54.081Y51.989Z2.8F1500
G1 Z0F500
G1 X54.267Y45.69Z0F1200
G1 X54.433Y39.373Z0F1200
G0 Z2.8F500
G0 X49.624Y39.229Z2.8F1500
G1 Z0F500
G1 X47.853Y39.052Z0F1200
G0 Z2.8F500
G0 X43.277Y34.89Z2.8F1500
G1 Z0F500
G1 X43.127Y41.224Z0F1200
G1 X42.51Y47.098Z0F1200
G1 X42.203Y53.277Z0F1200
G0 Z2.8F500
G0 X36.071Y52.95Z2.8F1500
G1 Z0F500
G1 X37.919Y53.313Z0F1200
G1 X39.677Y53.253Z0F1200
G1 X41.361Y53.12Z0F1200
G1 X43.051Y53.105Z0F1200
G1 X44.672Y53.022Z0F1200
G1 X46.456Y53.099Z0F1200
G1 X47.504Y52.565Z0F1200
G1 X49.081Y52.438Z0F1200
G1 X49.856Y52.53Z0F1200
G1 X51.725Y52.467Z0F1200
G1 X51.881Y52.732Z0F1200
G1 X53.645Y52.454Z0F1200
G1 X54.497Y52.51Z0F1200
G1 X56.297Y52.379Z0F1200
G1 X58.164Y52.426Z0F1200
G1 X59.879Y52.323Z0F1200
G1 X61.63Y52.368Z0F1200
G1 X62.944Y53.324Z0F1200
G1 X64.896Y53.567Z0F1200
G1 X66.589Y53.666Z0F1200
G0 Z2.8F500
G0 X68.29Y53.215Z2.8F1500
G1 Z0F500
G1 X68.672Y51.467Z0F1200
G0 Z2.8F500
G0 X66.435Y51.168Z2.8F1500
G1 Z0F500
G1 X66.596Y44.845Z0F1200
G0 Z2.8F500
G0 X67.153Y42.599Z2.8F1500
G1 Z0F500
G1 X67.551Y43.102Z0F1200
G1 X67.798Y44.797Z0F1200
G1 X70.88Y45.033Z0F1200
G1 X70.406Y45.013Z0F1200
G1 X69.159Y44.235Z0F1200
G1 X69.985Y44.6Z0F1200
G0 Z2.8F500
G0 X69.878Y43.154Z2.8F1500
G1 Z0F500
G1 X69.832Y42.662Z0F1200
G1 X67.999Y42.984Z0F1200
G0 Z2.8F500
G0 X72.057Y40.267Z2.8F1500
G1 Z0F500
G1 X74.76Y41.918Z0F1200
G1 X74.369Y42.54Z0F1200
G1 X75.197Y44.247Z0F1200
G1 X75.609Y45.881Z0F1200
G1 X75.778Y47.276Z0F1200
G1 X75.992Y48.604Z0F1200
G1 X76.228Y50.4Z0F1200
G1 X76.279Y52.126Z0F1200
G1 X75.736Y52.263Z0F1200
G1 X77.132Y54.305Z0F1200
G1 X78.007Y56.618Z0F1200
G1 X76.392Y57.712Z0F1200
G1 X76.22Y59.667Z0F1200
G1 X73.851Y59.685Z0F1200
G1 X71.399Y61.298Z0F1200
G1 X70.999Y62.693Z0F1200
G1 X70.757Y63.907Z0F1200
G1 X71.787Y61.679Z0F1200
G1 X72.322Y60.753Z0F1200
G1 X74.581Y60.067Z0F1200
G0 Z2.8F500
G0 X74.1Y57.472Z2.8F1500
G1 Z0F500
G1 X72.461Y57.425Z0F1200
G1 X71.682Y57.33Z0F1200
G1 X71.742Y59.847Z0F1200
G1 X71.848Y59.616Z0F1200
G1 X75.496Y58.173Z0F1200
G1 X76.454Y57.103Z0F1200
G1 X76.166Y55.927Z0F1200
G1 X77.167Y55.122Z0F1200
G1 X77.145Y53.312Z0F1200
G1 X77.141Y51.521Z0F1200
G1 X77.035Y49.74Z0F1200
G1 X76.838Y47.983Z0F1200
G1 X76.444Y46.255Z0F1200
G1 X76.352Y44.488Z0F1200
G0 Z2.8F500
G0 X77.446Y44.223Z2.8F1500
G1 Z0F500
G1 X77.542Y45.993Z0F1200
G1 X77.834Y47.844Z0F1200
G1 X78.161Y49.618Z0F1200
G1 X78.692Y51.369Z0F1200
G1 X81.356Y51.865Z0F1200
G1 X81.581Y53.091Z0F1200
G1 X82.2Y53.587Z0F1200
G1 X84.023Y53.703Z0F1200
G1 X85.804Y53.665Z0F1200
G1 X87.666Y53.708Z0F1200
G1 X89.45Y53.785Z0F1200
G1 X91.275Y53.79Z0F1200
G1 X93.067Y53.875Z0F1200
G1 X94.822Y53.812Z0F1200
G1 X96.672Y53.842Z0F1200
G1 X98.406Y53.758Z0F1200
G1 X100.056Y53.592Z0F1200
G1 X102.51Y53.546Z0F1200
G1 X104.395Y53.611Z0F1200
G1 X106.38Y53.662Z0F1200
G0 Z2.8F500
G0 X121.271Y59.469Z2.8F1500
G1 Z0F500
G1 X120.814Y57.231Z0F1200
G1 X121.786Y53.717Z0F1200
G1 X121.806Y51.391Z0F1200
G1 X122.272Y49.837Z0F1200
G1 X122.402Y48.065Z0F1200
G0 Z2.8F500
G0 X123.062Y45.249Z2.8F1500
G1 Z0F500
G1 X123.315Y51.979Z0F1200
G1 X123.744Y58.882Z0F1200
G0 Z2.8F500
G0 X123.664Y98.694Z2.8F1500
G1 Z0F500
G1 X121.953Y98.8Z0F1200
G1 X120.174Y98.839Z0F1200
G1 X118.259Y98.746Z0F1200
G1 X116.539Y98.843Z0F1200
G1 X114.715Y98.838Z0F1200
G1 X112.849Y98.793Z0F1200
G1 X110.975Y98.738Z0F1200
G1 X109.135Y98.718Z0F1200
G1 X107.272Y98.451Z0F1200
G1 X105.474Y97.243Z0F1200
G1 X103.612Y96.083Z0F1200
G1 X101.703Y95.213Z0F1200
G1 X99.819Y94.479Z0F1200
G0 Z2.8F500
G0 X100.113Y95.439Z2.8F1500
G1 Z0F500
G1 X102.718Y96.211Z0F1200
G1 X105.421Y97.974Z0F1200
G0 Z2.8F500
G0 X104.966Y97.75Z2.8F1500
G1 Z0F500
G1 X103.206Y96.914Z0F1200
G0 Z2.8F500
G0 X106.444Y98.866Z2.8F1500
G1 Z0F500
G1 X105.188Y96.962Z0F1200
G1 X101.581Y95.093Z0F1200
G1 X99.431Y94.545Z0F1200
G1 X97.62Y94.106Z0F1200
G1 X95.853Y94.045Z0F1200
G1 X94.034Z0F1200
G1 X92.192Y94.582Z0F1200
G1 X90.492Y95.369Z0F1200
G0 Z2.8F500
G0 X88.434Y97.258Z2.8F1500
G1 Z0F500
G1 X91.613Y95.577Z0F1200
G1 X89.827Y96.168Z0F1200
G1 X88.093Y97.594Z0F1200
G1 X86.273Y98.934Z0F1200
G1 X84.469Y98.948Z0F1200
G1 X82.795Y99.091Z0F1200
G1 X81.003Y99.118Z0F1200
G1 X79.157Y99.091Z0F1200
G1 X77.34Y99.094Z0F1200
G1 X75.548Y99.121Z0F1200
G1 X73.73Z0F1200
G1 X71.894Y99.105Z0F1200
G1 X69.97Y99.002Z0F1200
G1 X68.068Y98.921Z0F1200
G1 X66.279Y98.95Z0F1200
G1 X64.505Y98.995Z0F1200
G1 X62.649Y98.959Z0F1200
G1 X60.751Y98.881Z0F1200
G1 X59.025Y98.973Z0F1200
G1 X57.154Y98.922Z0F1200
G1 X55.302Y98.89Z0F1200
G1 X53.527Y98.934Z0F1200
G1 X51.88Y99.102Z0F1200
G1 X50.21Y99.249Z0F1200
G1 X48.396Y99.254Z0F1200
G1 X46.614Y99.29Z0F1200
G1 X44.86Y99.355Z0F1200
G1 X43.101Y99.414Z0F1200
G1 X41.422Y99.552Z0F1200
G1 X39.623Y99.572Z0F1200
G1 X37.885Y99.651Z0F1200
G1 X36.125Y99.709Z0F1200
G1 X34.28Y99.684Z0F1200
G1 X32.323Y99.549Z0F1200
G1 X30.408Y99.455Z0F1200
G1 X28.505Y99.372Z0F1200
G1 X26.58Y99.268Z0F1200
G1 X24.729Y99.237Z0F1200
G1 X22.909Z0F1200
G1 X21.033Y99.18Z0F1200
G1 X19.058Y99.027Z0F1200
G1 X17.206Y98.995Z0F1200
G1 X15.482Y99.089Z0F1200
G1 X13.714Y99.139Z0F1200
G1 X11.933Y99.176Z0F1200
G1 X10.117Y99.18Z0F1200
G1 X8.36Y99.241Z0F1200
G1 X6.643Y99.342Z0F1200
G1 X4.961Y99.476Z0F1200
G0 Z2.8F500
G0 X29.302Y83.953Z2.8F1500
G1 Z0F500
G1 X28.505Y81.942Z0F1200
G1 X28.983Y80.064Z0F1200
G1 X29.618Y78.454Z0F1200
G1 X30.764Y76.116Z0F1200
G1 X29.691Y75.844Z0F1200
G1 X30.016Y74.04Z0F1200
G1 X29.984Y73.226Z0F1200
G1 X30.061Y71.961Z0F1200
G1 X30.327Y70.212Z0F1200
G1 X30.692Y68.447Z0F1200
G1 X30.354Y66.662Z0F1200
G1 X29.901Y64.988Z0F1200
G1 X29.289Y63.157Z0F1200
G1 X28.857Y61.504Z0F1200
G1 X28.388Y59.814Z0F1200
G1 X27.873Y58.078Z0F1200
G1 X28.627Y57.143Z0F1200
G0 Z2.8F500
G0 X27.235Y56.11Z2.8F1500
G1 Z0F500
G1 X25.396Y56.762Z0F1200
G1 X23.455Y56.866Z0F1200
G1 X21.472Y56.816Z0F1200
G1 X19.621Y57.008Z0F1200
G1 X17.86Y57.624Z0F1200
G1 X16.041Y56.507Z0F1200
G0 Z2.8F500
G0 X15.926Y56.282Z2.8F1500
G1 Z0F500
G1 X15.848Y54.642Z0F1200
G1 X15.937Y52.941Z0F1200
G1 X15.767Y52.216Z0F1200
G1 X16.145Y50.464Z0F1200
G1 X19.035Y48.834Z0F1200
G1 X25.707Y50.251Z0F1200
G0 Z2.8F500
G0 X26.951Y50.691Z2.8F1500
G1 Z0F500
G1 X25.136Y49.914Z0F1200
G1 X23.389Y49.649Z0F1200
G1 X21.58Y49.436Z0F1200
G1 X19.862Y49.2Z0F1200
G1 X18.164Y48.76Z0F1200
G1 X16.295Y50.053Z0F1200
G0 Z2.8F500
G0 X19.972Y50.873Z2.8F1500
G1 Z0F500
G1 X20.094Y57.473Z0F1200
G0 Z2.8F500
G0 X34.855Y61.811Z2.8F1500
G1 Z0F500
G1 X34.92Y60.087Z0F1200
G1 X35.096Y58.36Z0F1200
G1 X35.185Y56.548Z0F1200
G1 X34.991Y54.682Z0F1200
G1 X35.037Y53.274Z0F1200
G0 Z2.8F500
G0 X33.569Y57.754Z2.8F1500
G1 Z0F500
G1 X33.528Y51.233Z0F1200
G1 X33.588Y44.811Z0F1200
G0 Z2.8F500
G0 X36.867Y42.67Z2.8F1500
G1 Z0F500
G1 X36.173Y40.312Z0F1200
G1 X34.552Y39.836Z0F1200
G1 X34.702Y37.972Z0F1200
G1 X34.494Y36.092Z0F1200
G1 X33.209Y35.946Z0F1200
G1 X33.754Y34.136Z0F1200
G1 X35.809Y32.245Z0F1200
G1 X34.005Y31.589Z0F1200
G0 Z2.8F500
G0 X32.859Y31.915Z2.8F1500
G1 Z0F500
G1 X35.926Y31.13Z0F1200
G1 X35.405Y29.836Z0F1200
G1 X34.352Y27.795Z0F1200
G1 X33.613Y29.527Z0F1200
G1 X33.224Y31.38Z0F1200
G1 X32.565Y33.079Z0F1200
G1 X31.952Y34.823Z0F1200
G1 X31.523Y36.636Z0F1200
G1 X31.395Y38.522Z0F1200
G1 X30.767Y40.363Z0F1200
G1 X30.113Y42.178Z0F1200
G1 X29.549Y44.082Z0F1200
G1 X29.042Y46.042Z0F1200
G1 X28.526Y47.993Z0F1200
G1 X27.776Y49.826Z0F1200
G1 X28.401Y50.441Z0F1200
G1 X29.2Y46.086Z0F1200
G1 X31.194Y39.777Z0F1200
G1 X32.99Y35.843Z0F1200
G1 X34.166Y34.429Z0F1200
G1 X34.651Y32.447Z0F1200
G1 X36.936Y29.106Z0F1200
G1 X36.077Y29.044Z0F1200
G1 X35.841Y30.823Z0F1200
G1 X35.457Y32.569Z0F1200
G1 X34.954Y32.856Z0F1200
G1 X34.497Y34.531Z0F1200
G1 X33.996Y36.273Z0F1200
G1 X34.066Y38.241Z0F1200
G1 X35.031Y39.078Z0F1200
G1 X35.016Y40.851Z0F1200
G1 X33.983Y40.953Z0F1200
G1 X34.861Y41.928Z0F1200
G1 X34.956Y43.809Z0F1200
G1 X33.681Y44.232Z0F1200
G1 X36.016Y45.185Z0F1200
G1 X36.827Y45.312Z0F1200
G1 X35.59Y46.667Z0F1200
G1 X35.074Y47.053Z0F1200
G1 X36.406Y48.586Z0F1200
G1 X34.871Y49.647Z0F1200
G1 X35.939Y50.921Z0F1200
G1 X35.419Y52.644Z0F1200
G1 X35.27Y54.621Z0F1200
G1 X35.447Y55.913Z0F1200
G1 X35.249Y57.729Z0F1200
G1 X35.103Y59.485Z0F1200
G1 X35.139Y61.308Z0F1200
G1 X35.072Y62.359Z0F1200
G1 X34.942Y63.908Z0F1200
G1 X34.594Y65.801Z0F1200
G1 X35.063Y65.815Z0F1200
G1 X34.981Y67.634Z0F1200
G1 X35.351Y68.668Z0F1200
G1 X34.623Y70.075Z0F1200
G1 X34.455Y71.922Z0F1200
G1 X34.48Y73.845Z0F1200
G1 X32.878Y76.741Z0F1200
G1 X32.235Y77.226Z0F1200
G1 X30.131Y78.4Z0F1200
G1 X29.579Y80.203Z0F1200
G1 X29.033Y81.901Z0F1200
G1 X28.478Y83.591Z0F1200
G1 X28.494Y85.282Z0F1200
G1 X29.087Y87.094Z0F1200
G1 X30.463Y88.782Z0F1200
G1 X32.57Y90.629Z0F1200
G1 X35.906Y92.455Z0F1200
G0 Z2.8F500
G0 X34.552Y91.124Z2.8F1500
G1 Z0F500
G1 X34.892Y84.978Z0F1200
G0 Z2.8F500
G0 X37.455Y84.255Z2.8F1500
G1 Z0F500
G1 X38.159Y91.429Z0F1200
G0 Z2.8F500
G0 X43.314Y93.254Z2.8F1500
G1 Z0F500
G1 X43.192Y86.654Z0F1200
G1 X42.86Y79.846Z0F1200
G0 Z2.8F500
G0 X37.437Y81.445Z2.8F1500
G1 Z0F500
G1 X39.167Y77.558Z0F1200
G1 X40.987Y74.542Z0F1200
G1 X42.846Y74.246Z0F1200
G1 X44.76Y74.115Z0F1200
G1 X46.707Y74.017Z0F1200
G1 X48.517Y73.674Z0F1200
G1 X50.307Y73.421Z0F1200
G1 X52.122Y73.082Z0F1200
G1 X53.999Y72.915Z0F1200
G1 X55.807Y72.569Z0F1200
G1 X57.526Y72.247Z0F1200
G1 X59.198Y71.879Z0F1200
G1 X60.887Y71.415Z0F1200
G1 X62.563Y71.051Z0F1200
G1 X64.268Y69.933Z0F1200
G1 X66.006Y69.183Z0F1200
G1 X67.693Y68.942Z0F1200
G1 X69.503Y69.044Z0F1200
G1 X71.455Y69.51Z0F1200
G1 X73.347Y69.805Z0F1200
G1 X74.107Y65.635Z0F1200
G0 Z2.8F500
G0 X73.753Y69.757Z2.8F1500
G1 Z0F500
G1 X75.639Y70.158Z0F1200
G1 X77.516Y70.438Z0F1200
G1 X79.31Y70.636Z0F1200
G1 X81.053Y70.897Z0F1200
G1 X82.845Y71.094Z0F1200
G1 X84.654Y71.308Z0F1200
G1 X86.455Y71.401Z0F1200
G1 X88.293Y71.867Z0F1200
G1 X90.169Y72.146Z0F1200
G1 X91.923Y72.305Z0F1200
G1 X93.696Y72.372Z0F1200
G1 X95.536Y72.615Z0F1200
G1 X97.355Y72.727Z0F1200
G1 X99.14Y72.358Z0F1200
G1 X101.043Y70.988Z0F1200
G1 X102.856Y68.971Z0F1200
G1 X104.583Y66.422Z0F1200
G0 Z2.8F500
G0 X78.376Y77.876Z2.8F1500
G1 Z0F500
G1 X78.066Y78.576Z0F1200
G1 X78.189Y80.374Z0F1200
G1 X77.823Y82.137Z0F1200
G1 X77.973Y83.849Z0F1200
G1 X77.968Y85.632Z0F1200
G1 X78.058Y87.508Z0F1200
G1 X77.715Y89.294Z0F1200
G0 Z2.8F500
G0 X78.544Y82.51Z2.8F1500
G1 Z0F500
G1 X78.535Y80.714Z0F1200
G0 Z2.8F500
G0 X63.197Y79.384Z2.8F1500
G1 Z0F500
G1 X61.392Y78.951Z0F1200
G1 X59.688Y80.294Z0F1200
G0 Z2.8F500
G0 X60.995Y79.567Z2.8F1500
G1 Z0F500
G1 X59.911Y81.407Z0F1200
G1 X59.662Y83.173Z0F1200
G1 X54.428Y85.069Z0F1200
G0 Z2.8F500
G0 X46.786Y92.085Z2.8F1500
G1 Z0F500
G1 X55.175Y90.049Z0F1200
G1 X60.185Y88.157Z0F1200
G1 X62.836Y86.516Z0F1200
G1 X64.322Y84.848Z0F1200
G1 X65.083Y83.137Z0F1200
G1 X64.979Y81.359Z0F1200
G1 X63.161Y79.573Z0F1200
G0 Z2.8F500
G0 X62.137Y82.589Z2.8F1500
G1 Z0F500
G1 X62.728Y89.651Z0F1200
G0 Z2.8F500
G0 X60.006Y94.126Z2.8F1500
G1 Z0F500
G1 X66.888Y87.928Z0F1200
G0 Z2.8F500
G0 X63.22Y86.447Z2.8F1500
G1 Z0F500
G1 X61.489Y87.985Z0F1200
G1 X59.669Y88.991Z0F1200
G1 X57.947Y89.757Z0F1200
G1 X56.156Y90.342Z0F1200
G1 X54.353Y90.806Z0F1200
G1 X52.566Y91.284Z0F1200
G1 X50.696Y91.682Z0F1200
G1 X48.896Y92.035Z0F1200
G1 X47.063Y92.357Z0F1200
G1 X45.231Y92.568Z0F1200
G1 X43.468Y92.847Z0F1200
G1 X41.6Y92.91Z0F1200
G1 X39.841Y93.081Z0F1200
G1 X38.075Y93.134Z0F1200
G1 X36.196Y92.74Z0F1200
G1 X34.322Y91.904Z0F1200
G1 X32.497Y90.781Z0F1200
G1 X30.73Y89.156Z0F1200
G1 X28.957Y86.855Z0F1200
G1 X29.817Y85.801Z0F1200
G1 X29.812Y83.896Z0F1200
G1 X30.243Y81.973Z0F1200
G1 X30.68Y80.056Z0F1200
G1 X33.92Y78.212Z0F1200
G1 X34.354Y76.515Z0F1200
G1 X34.445Y75.488Z0F1200
G1 X33.515Y74.797Z0F1200
G1 X33.462Y72.845Z0F1200
G1 X33.617Y70.987Z0F1200
G1 X33.614Y69.196Z0F1200
G1 X33.482Y67.725Z0F1200
G1 X33.475Y65.819Z0F1200
G1 X33.541Y63.983Z0F1200
G1 X33.598Y62.14Z0F1200
G1 X33.637Y60.279Z0F1200
G1 X33.668Y58.41Z0F1200
G1 X33.906Y56.744Z0F1200
G1 X34.03Y55.078Z0F1200
G1 X34.21Y53.356Z0F1200
G1 X35.704Y52.031Z0F1200
G1 X34.6Y50.499Z0F1200
G1 X35.421Y48.512Z0F1200
G1 X35.059Y48.044Z0F1200
G1 X35.096Y46.069Z0F1200
G1 X33.871Y45.312Z0F1200
G1 X32.715Y44.735Z0F1200
G1 X33.635Y44.634Z0F1200
G1 X34.91Y42.87Z0F1200
G1 X35.03Y41.088Z0F1200
G1 X34.9Y39.285Z0F1200
G1 X35.446Y37.586Z0F1200
G1 X34.557Y35.707Z0F1200
G1 X35.14Y35.386Z0F1200
G1 X35.451Y33.68Z0F1200
G1 X33.879Y33.365Z0F1200
G1 X33.537Y32.358Z0F1200
G1 X34.016Y30.594Z0F1200
G1 X34.603Y28.936Z0F1200
G1 X35.361Y28.899Z0F1200
G1 X35.519Y27.155Z0F1200
G1 X35.646Y25.38Z0F1200
G1 X36.547Y23.583Z0F1200
G1 X38.785Y21.76Z0F1200
G1 X39.267Y22.457Z0F1200
G1 X37.249Y22.262Z0F1200
G1 X35.352Y24.421Z0F1200
G0 Z2.8F500
G0 X34.546Y34.802Z2.8F1500
G1 Z0F500
G1 X35.516Y35.308Z0F1200
G1 X34.722Y36.987Z0F1200
G1 X34.851Y38.566Z0F1200
G1 X36.769Y37.769Z0F1200
G1 X38.616Y38.132Z0F1200
G1 X39.373Y38.652Z0F1200
G0 Z2.8F500
G0 X33.186Y40.394Z2.8F1500
G1 Z0F500
G1 X32.071Y38.739Z0F1200
G1 X32.942Y36.69Z0F1200
G0 Z2.8F500
G0 X15.451Y54.921Z2.8F1500
G1 Z0F500
G1 X13.728Y54.905Z0F1200
G1 X11.925Y54.809Z0F1200
G1 X10.19Y54.891Z0F1200
G1 X8.391Y54.8Z0F1200
G1 X6.54Y54.656Z0F1200
G1 X4.843Y54.888Z0F1200
G0 Z2.8F500
G0 X4.553Y53.374Z2.8F1500
G1 Z0F500
G1 X6.41Y53.523Z0F1200
G1 X8.256Y53.662Z0F1200
G1 X10.018Y53.605Z0F1200
G1 X11.643Y53.526Z0F1200
G1 X13.375Y53.44Z0F1200
G0 Z2.8F500
G0 X14.031Y54.308Z2.8F1500
G1 Z0F500
G1 X12.329Y54.311Z0F1200
G0 Z2.8F500
G0 X30.331Y68.093Z2.8F1500
G1 Z0F500
G1 X30.9Y69.992Z0F1200
G1 X30.455Y70.673Z0F1200
G1 X31.509Y71.485Z0F1200
G1 X31.819Y73.465Z0F1200
G1 X32.572Y74.429Z0F1200
G1 X31.65Y75.869Z0F1200
G1 X31.627Y75.959Z0F1200
G1 X33.578Y76.088Z0F1200
G1 X35.435Y75.343Z0F1200
G1 X37.173Y75.039Z0F1200
G1 X39.065Y74.887Z0F1200
G0 Z2.8F500
G0 X33.626Y77.811Z2.8F1500
G1 Z0F500
G1 X31.902Y79.022Z0F1200
G1 X30.076Y80.468Z0F1200
G0 Z2.8F500
G0 X37.571Y83.364Z2.8F1500
G1 Z0F500
G1 X39.331Y84.87Z0F1200
G1 X41.162Y85.329Z0F1200
G1 X42.976Y85.547Z0F1200
G1 X44.68Z0F1200
G1 X46.489Y85.648Z0F1200
G1 X50.285Y85.579Z0F1200
G1 X52.105Y85.356Z0F1200
G1 X53.877Y84.975Z0F1200
G1 X55.698Y84.641Z0F1200
G1 X57.525Y84.09Z0F1200
G1 X59.32Y83.284Z0F1200
G0 Z2.8F500
G0 X38.58Y84.02Z2.8F1500
G1 Z0F500
G1 X36.562Y83.155Z0F1200
G1 X36.823Y81.4Z0F1200
G1 X37.507Y79.613Z0F1200
G1 X38.391Y77.801Z0F1200
G1 X39.388Y76.099Z0F1200
G1 X38.501Y74.445Z0F1200
G1 X50.455Y72.673Z0F1200
G1 X62.374Y70.866Z0F1200
G1 X67.552Y69.027Z0F1200
G1 X66.516Y65.997Z0F1200
G1 X66.66Y64.574Z0F1200
G1 X67.82Y64.038Z0F1200
G1 X67.335Y63.674Z0F1200
G1 X68.507Y61.808Z0F1200
G1 X68.967Y59.466Z0F1200
G1 X68.865Y59.031Z0F1200
G1 X68.737Y57.229Z0F1200
G1 X68.52Y55.34Z0F1200
G1 X68.74Y53.321Z0F1200
G1 X68.845Y52.307Z0F1200
G1 X68.942Y50.614Z0F1200
G1 X68.891Y49.559Z0F1200
G1 X68.127Y49.255Z0F1200
G1 X68.977Y47.409Z0F1200
G1 X67.916Y46.813Z0F1200
G1 X68.158Y46.38Z0F1200
G1 X67.338Y44.569Z0F1200
G1 X66.831Y42.729Z0F1200
G1 X66.505Y39.393Z0F1200
G1 X63.935Y37.649Z0F1200
G0 Z2.8F500
G0 X72.717Y40.692Z2.8F1500
G1 Z0F500
G1 X74.485Y41.872Z0F1200
G1 X75.106Y44.381Z0F1200
G1 X77.072Y43.185Z0F1200
G1 X78.883Y42.953Z0F1200
G1 X80.64Y43.004Z0F1200
G0 Z2.8F500
G0 X82.312Y47.999Z2.8F1500
G1 Z0F500
G1 X82.227Y49.144Z0F1200
G1 X83.064Y49.297Z0F1200
G1 X82.976Y51.221Z0F1200
G1 X80.949Y52.916Z0F1200
G1 X82.854Y51.996Z0F1200
G0 Z2.8F500
G0 X81.116Y50.847Z2.8F1500
G1 Z0F500
G1 X80.131Y52.559Z0F1200
G1 X78.312Y53.007Z0F1200
G0 Z2.8F500
G0 X74.821Y51.14Z2.8F1500
G1 Z0F500
G1 X72.545Y52.926Z0F1200
G1 X70.126Y52.784Z0F1200
G1 X72.483Y52.866Z0F1200
G1 X74.221Y51.78Z0F1200
G0 Z2.8F500
G0 X71.328Y53.518Z2.8F1500
G1 Z0F500
G1 X73.185Y52.55Z0F1200
G1 X74.525Y51.52Z0F1200
G1 X71.093Y52.393Z0F1200
G1 X70.787Y54.104Z0F1200
G1 X68.606Y54.419Z0F1200
G1 X68.869Y54.342Z0F1200
G1 X68.743Y56.229Z0F1200
G1 X68.178Y60.032Z0F1200
G1 X67.652Y61.862Z0F1200
G0 Z2.8F500
G0 X66.519Y64.1Z2.8F1500
G1 Z0F500
G1 X64.828Y64.897Z0F1200
G1 X63.081Y65.192Z0F1200
G1 X61.731Y65.094Z0F1200
G1 X59.852Y65.258Z0F1200
G1 X58.803Y65.345Z0F1200
G1 X57.88Y65.555Z0F1200
G1 X57.097Y65.568Z0F1200
G1 X56.351Y65.841Z0F1200
G1 X55.946Y66.113Z0F1200
G1 X54.228Y66.659Z0F1200
G1 X52.424Y66.786Z0F1200
G1 X50.596Y66.889Z0F1200
G1 X49.42Y66.963Z0F1200
G1 X47.611Y67.196Z0F1200
G1 X45.818Y67.333Z0F1200
G1 X44.037Y67.595Z0F1200
G1 X40.637Y68.164Z0F1200
G1 X38.913Y68.37Z0F1200
G1 X37.134Y68.52Z0F1200
G1 X35.244Y68.786Z0F1200
G0 Z2.8F500
G0 X53.088Y65.539Z2.8F1500
G1 Z0F500
G1 X51.185Y65.568Z0F1200
G0 Z2.8F500
G0 X54.69Y61.526Z2.8F1500
G1 Z0F500
G1 X52.562Y60.776Z0F1200
G1 X51.363Y59.597Z0F1200
G1 X52.485Y59.694Z0F1200
G0 Z2.8F500
G0 X52.026Y59.914Z2.8F1500
G1 Z0F500
G1 X52.32Y59.644Z0F1200
G1 X51.153Y59.392Z0F1200
G1 X52.474Y57.113Z0F1200
G0 Z2.8F500
G0 X56.031Y53.458Z2.8F1500
G1 Z0F500
G1 X57.675Y53.286Z0F1200
G1 X57.671Y53.394Z0F1200
G1 X58.979Y53.562Z0F1200
G1 X60.136Y53.246Z0F1200
G1 X61.936Y53.339Z0F1200
G1 X63.709Y53.406Z0F1200
G0 Z2.8F500
G0 X63.108Y54.379Z2.8F1500
G1 Z0F500
G1 X63.245Y48.033Z0F1200
G0 Z2.8F500
G0 X72.723Y28.631Z2.8F1500
G1 Z0F500
G1 X74.505Y26.807Z0F1200
G1 X76.712Y24.952Z0F1200
G1 X78.958Y23.137Z0F1200
G1 X81.38Y21.383Z0F1200
G1 X83.831Y19.657Z0F1200
G1 X86.08Y17.846Z0F1200
G1 X88.421Y16.012Z0F1200
G1 X90.664Y14.193Z0F1200
G1 X92.914Y12.27Z0F1200
G1 X95.107Y10.291Z0F1200
G1 X97.495Y8.391Z0F1200
G0 Z2.8F500
G0 X97.34Y9.245Z2.8F1500
G1 Z0F500
G1 X95.545Y10.609Z0F1200
G1 X93.748Y11.86Z0F1200
G1 X91.995Y13.378Z0F1200
G1 X90.188Y14.731Z0F1200
G1 X88.353Y16.056Z0F1200
G1 X86.659Y17.632Z0F1200
G1 X84.841Y18.974Z0F1200
G1 X82.946Y20.352Z0F1200
G1 X81.107Y21.674Z0F1200
G1 X79.347Y23.185Z0F1200
G1 X77.551Y24.548Z0F1200
G1 X75.82Y26.087Z0F1200
G1 X74.026Y27.565Z0F1200
G1 X72.324Y29.244Z0F1200
G1 X72.206Y29.016Z0F1200
G1 X71.662Y27.141Z0F1200
G1 X71.846Y25.422Z0F1200
G1 X71.779Y23.568Z0F1200
G1 X71.647Y21.651Z0F1200
G1 X71.55Y19.768Z0F1200
G1 X71.557Y17.875Z0F1200
G1 X71.477Y16.009Z0F1200
G1 X71.481Y14.113Z0F1200
G1 X71.445Y12.29Z0F1200
G1 X71.39Y10.448Z0F1200
G1 X71.475Y8.632Z0F1200
G0 Z2.8F500
G0 X73.068Y12.321Z2.8F1500
G1 Z0F500
G1 X73.946Y19.664Z0F1200
G0 Z2.8F500
G0 X80.122Y19.253Z2.8F1500
G1 Z0F500
G1 X86.567Y12.625Z0F1200
G0 Z2.8F500
G0 X85.368Y14.687Z2.8F1500
G1 Z0F500
G1 X84.5Y20.315Z0F1200
G1 X83.873Y26.179Z0F1200
G0 Z2.8F500
G0 X80.966Y26.563Z2.8F1500
G1 Z0F500
G1 X87.105Y19.634Z0F1200
G1 X92.75Y12.221Z0F1200
G0 Z2.8F500
G0 X90.266Y13.02Z2.8F1500
G1 Z0F500
G1 X89.988Y19.227Z0F1200
G0 Z2.8F500
G0 X88.849Y21.348Z2.8F1500
G1 Z0F500
G1 X88.797Y14.817Z0F1200
G0 Z2.8F500
G0 X94.998Y14.429Z2.8F1500
G1 Z0F500
G1 X94.445Y20.367Z0F1200
G0 Z2.8F500
G0 X77.392Y10.089Z2.8F1500
G1 Z0F500
G1 X78.039Y17.205Z0F1200
G1 X78.757Y24.392Z0F1200
G0 Z2.8F500
G0 X77.798Y26.69Z2.8F1500
G1 Z0F500
G1 X77.965Y20.373Z0F1200
G1 X78.149Y14.073Z0F1200
G0 Z2.8F500
G0 X69.471Y13.814Z2.8F1500
G1 Z0F500
G1 X67.801Y13.626Z0F1200
G1 X64.908Y13.129Z0F1200
G1 X63.58Y13.723Z0F1200
G1 X61.807Y13.322Z0F1200
G1 X58.308Y12.789Z0F1200
G1 X56.486Y12.451Z0F1200
G1 X54.126Y11.919Z0F1200
G1 X52.221Y11.499Z0F1200
G1 X50.294Y10.947Z0F1200
G1 X48.435Y10.572Z0F1200
G1 X46.639Y10.26Z0F1200
G1 X44.885Y9.989Z0F1200
G1 X43.09Y9.789Z0F1200
G1 X41.209Y9.393Z0F1200
G1 X39.285Y9.067Z0F1200
G0 Z2.8F500
G0 X67.073Y14.028Z2.8F1500
G1 Z0F500
G1 X68.972Y14.552Z0F1200
G0 Z2.8F500
G0 X88.627Y47.054Z2.8F1500
G1 Z0F500
G1 X88.642Y53.549Z0F1200
G0 Z2.8F500
G0 X116.482Y36.661Z2.8F1500
G1 Z0F500
G1 X118.43Y37.01Z0F1200
G1 X118.895Y38.808Z0F1200
G1 X120.599Y39.03Z0F1200
G1 X121.096Y40.86Z0F1200
G1 X121.799Y43.114Z0F1200
G0 Z2.8F500
G0 X122.083Y41.047Z2.8F1500
G1 Z0F500
G1 X121.203Y46.663Z0F1200
G1 X120.483Y52.437Z0F1200
G1 X120.553Y58.986Z0F1200
G1 X121.325Y66.225Z0F1200
G0 Z2.8F500
G0 X70.948Y87.784Z2.8F1500
G1 Z0F500
G1 X70.917Y89.541Z0F1200
G1 X70.87Y91.394Z0F1200
G1 X71.264Y91.558Z0F1200
G1 X70.712Y94.368Z0F1200
M9
M5
G1 Z10 F500
G90
G1 Z10 F500
