;LightBurn 1.6.04
;Custom GCode device profile, absolute coords
;Bounds: X19.45 Y34.68 to X98.55 Y87.32
G00 G17 G40 G21 G54
G90
M4
;Cut @ 1500 mm/min, 90% power

M8
G0 Z3.5 F1000
G0 X19.45 Y34.683 Z3.5 
G1 Z0 F1000
;Layer Green
G1 X19.468 Y34.922 Z0 S900 F1000
G1 X19.518 Y35.105 Z0 F1000
G1 X19.609 Y35.278 Z0 F1000
G1 X19.751 Y35.486 Z0 F1000
G0 Z3.5 F1000
G0 X20.027 Y35.586 Z3.5 F1500
G1 Z0 F1000
G1 X19.939 Y35.563 Z0 F1000
G1 X19.851 Y35.537 Z0 F1000
G1 X19.82 Y35.525 Z0 F1000
G1 X19.755 Z0 F1000
G1 X19.708 Y35.556 Z0 F1000
G1 X19.69 Y35.597 Z0 F1000
G1 Y35.636 Z0 F1000
G1 X19.718 Y35.841 Z0 F1000
G1 X19.786 Y36.189 Z0 F1000
G1 X19.804 Y36.307 Z0 F1000
G1 X19.834 Y36.439 Z0 F1000
G1 X19.925 Y36.696 Z0 F1000
G1 X20.044 Y36.95 Z0 F1000
G1 X20.176 Y37.2 Z0 F1000
G1 X20.308 Y37.443 Z0 F1000
G1 X21.051 Y38.772 Z0 F1000
G1 X21.828 Y40.077 Z0 F1000
G1 X22.68 Y41.545 Z0 F1000
G1 X24.026 Y43.916 Z0 F1000
G1 X24.653 Y45.007 Z0 F1000
G1 X25.29 Y46.098 Z0 F1000
G1 X28.452 Y51.291 Z0 F1000
G1 X31.682 Y56.438 Z0 F1000
G1 X34.975 Y61.545 Z0 F1000
G1 X38.324 Y66.62 Z0 F1000
G1 X40.54 Y69.899 Z0 F1000
G1 X42.772 Y73.167 Z0 F1000
G1 X44.179 Y75.212 Z0 F1000
G1 X45.601 Y77.232 Z0 F1000
G1 X46.844 Y78.968 Z0 F1000
G1 X48.109 Y80.694 Z0 F1000
G1 X49.173 Y82.075 Z0 F1000
G1 X50.246 Y83.428 Z0 F1000
G1 X50.433 Y83.679 Z0 F1000
G1 X50.752 Y84.083 Z0 F1000
G1 X51.071 Y84.482 Z0 F1000
G1 X51.381 Y84.859 Z0 F1000
G1 X52.035 Y85.636 Z0 F1000
G1 X52.2 Y85.827 Z0 F1000
G1 X52.369 Y86.011 Z0 F1000
G1 X52.46 Y86.088 Z0 F1000
G1 X52.565 Y86.137 Z0 F1000
G1 X52.791 Y86.213 Z0 F1000
G1 X52.882 Y86.252 Z0 F1000
G1 X52.955 Y86.3 Z0 F1000
G1 X52.995 Y86.331 Z0 F1000
G1 X53.059 Y86.387 Z0 F1000
G1 X53.167 Y86.489 Z0 F1000
G1 X53.286 Y86.597 Z0 F1000
G1 X53.641 Y86.904 Z0 F1000
G1 X53.828 Y87.069 Z0 F1000
G1 X53.979 Y87.206 Z0 F1000
G1 X54.095 Y87.317 Z0 F1000
G0 Z3.5 F1000
G0 X52.866 Y73.268 Z3.5 
G1 Z0 F1000
G1 X53.102 Y73.536 Z0 F1000
G1 X53.343 Y73.795 Z0 F1000
G1 X53.493 Y73.935 Z0 F1000
G1 X53.644 Y74.072 Z0 F1000
G1 X54.203 Y74.559 Z0 F1000
G1 X54.798 Y75.006 Z0 F1000
G1 X55.154 Y75.249 Z0 F1000
G1 X55.525 Y75.479 Z0 F1000
G1 X56.456 Y75.992 Z0 F1000
G1 X57.407 Y76.46 Z0 F1000
G1 X58.602 Y76.956 Z0 F1000
G1 X59.815 Y77.406 Z0 F1000
G1 X60.187 Y77.537 Z0 F1000
G1 X60.568 Y77.666 Z0 F1000
G1 X60.731 Y77.719 Z0 F1000
G1 X60.894 Y77.769 Z0 F1000
G1 X61.622 Y78.006 Z0 F1000
G1 X63.503 Y78.572 Z0 F1000
G1 X64.366 Y78.835 Z0 F1000
G1 X65.234 Y79.091 Z0 F1000
G1 X66.982 Y79.585 Z0 F1000
G1 X68.721 Y80.116 Z0 F1000
G1 X69.926 Y80.442 Z0 F1000
G1 X70.546 Y80.615 Z0 F1000
G1 X71.186 Y80.768 Z0 F1000
G1 X71.83 Y80.908 Z0 F1000
G1 X72.459 Y81.04 Z0 F1000
G1 X72.823 Y81.108 Z0 F1000
G1 X73.187 Y81.168 Z0 F1000
G1 X73.618 Y81.231 Z0 F1000
G1 X74.04 Y81.271 Z0 F1000
G1 X74.266 Y81.295 Z0 F1000
G1 X74.567 Y81.3 Z0 F1000
G1 X74.868 Y81.295 Z0 F1000
G1 X74.969 Y81.287 Z0 F1000
G1 X75.068 Y81.275 Z0 F1000
G1 X75.289 Y81.253 Z0 F1000
G1 X75.495 Y81.22 Z0 F1000
G1 X75.636 Y81.181 Z0 F1000
G1 X75.762 Y81.13 Z0 F1000
G1 X75.87 Y81.062 Z0 F1000
G1 X75.959 Y80.969 Z0 F1000
G1 X76.051 Y80.787 Z0 F1000
G1 X76.091 Y80.593 Z0 F1000
G1 Y80.508 Z0 F1000
G1 X76.065 Y80.367 Z0 F1000
G1 X76.035 Y80.215 Z0 F1000
G1 X75.999 Y80.066 Z0 F1000
G1 X75.919 Y79.862 Z0 F1000
G1 X75.804 Y79.665 Z0 F1000
G1 X75.532 Y79.298 Z0 F1000
G1 X75.22 Y78.951 Z0 F1000
G1 X74.885 Y78.624 Z0 F1000
G1 X74.542 Y78.321 Z0 F1000
G1 X73.873 Y77.793 Z0 F1000
G1 X73.174 Y77.308 Z0 F1000
G1 X72.457 Y76.85 Z0 F1000
G1 X71.732 Y76.405 Z0 F1000
G1 X70.881 Y75.887 Z0 F1000
G1 X70.051 Y75.358 Z0 F1000
G1 X69.455 Y74.941 Z0 F1000
G1 X68.878 Y74.481 Z0 F1000
G1 X68.345 Y73.975 Z0 F1000
G1 X67.879 Y73.418 Z0 F1000
G1 X67.597 Y72.998 Z0 F1000
G1 X67.36 Y72.54 Z0 F1000
G1 X67.264 Y72.281 Z0 F1000
G1 X67.197 Y72.026 Z0 F1000
G1 X67.152 Y71.765 Z0 F1000
G1 X67.12 Y71.486 Z0 F1000
G1 Y71.168 Z0 F1000
G1 X67.14 Y70.859 Z0 F1000
G1 X67.161 Y70.662 Z0 F1000
G1 X67.203 Y70.472 Z0 F1000
G1 X67.264 Y70.28 Z0 F1000
G1 X67.345 Y70.082 Z0 F1000
G1 X67.463 Y69.824 Z0 F1000
G1 X67.601 Y69.58 Z0 F1000
G1 X67.846 Y69.234 Z0 F1000
G1 X68.112 Y68.906 Z0 F1000
G1 X68.391 Y68.589 Z0 F1000
G1 X68.675 Y68.275 Z0 F1000
G1 X68.785 Y68.161 Z0 F1000
G1 X68.897 Y68.05 Z0 F1000
G1 X69.272 Y67.647 Z0 F1000
G1 X69.65 Y67.247 Z0 F1000
G1 X69.874 Y67.021 Z0 F1000
G1 X70.263 Y66.58 Z0 F1000
G1 X70.638 Y66.118 Z0 F1000
G1 X70.784 Y65.931 Z0 F1000
G1 X70.92 Y65.741 Z0 F1000
G1 X71.074 Y65.498 Z0 F1000
G1 X71.218 Y65.24 Z0 F1000
G1 X71.345 Y64.968 Z0 F1000
G1 X71.445 Y64.688 Z0 F1000
G1 X71.513 Y64.397 Z0 F1000
G1 X71.556 Y64.111 Z0 F1000
G1 X71.569 Y64.012 Z0 F1000
G1 X71.575 Y63.91 Z0 F1000
G1 X71.567 Y63.82 Z0 F1000
G1 X71.515 Y63.435 Z0 F1000
G1 X71.496 Y63.126 Z0 F1000
G1 X71.468 Y62.799 Z0 F1000
G1 X71.456 Y62.706 Z0 F1000
G1 X71.448 Y62.661 Z0 F1000
G1 X71.439 Y62.581 Z0 F1000
G1 X71.444 Y62.513 Z0 F1000
G1 X71.459 Y62.476 Z0 F1000
G1 X71.482 Y62.457 Z0 F1000
G1 X71.51 Y62.445 Z0 F1000
G1 X71.65 Y62.427 Z0 F1000
G1 X71.832 Y62.43 Z0 F1000
G1 X72.033 Z0 F1000
G1 X72.206 Y62.437 Z0 F1000
G1 X72.384 Y62.451 Z0 F1000
G1 X72.772 Y62.475 Z0 F1000
G1 X73.162 Y62.48 Z0 F1000
G1 X73.354 Z0 F1000
G1 X73.538 Z0 F1000
G1 X73.739 Y62.504 Z0 F1000
G1 X73.901 Y62.507 Z0 F1000
G1 X74.04 Y62.49 Z0 F1000
G1 X74.168 Y62.412 Z0 F1000
G1 X74.241 Y62.337 Z0 F1000
G1 X74.27 Y62.313 Z0 F1000
G1 X74.341 Y62.295 Z0 F1000
G1 X74.435 Y62.304 Z0 F1000
G1 X74.517 Y62.319 Z0 F1000
G1 X74.749 Y62.346 Z0 F1000
G1 X74.993 Y62.373 Z0 F1000
G1 X75.254 Y62.395 Z0 F1000
G1 X75.52 Y62.405 Z0 F1000
G1 X75.62 Z0 F1000
G1 X75.721 Y62.415 Z0 F1000
G1 X76.076 Y62.459 Z0 F1000
G1 X76.423 Y62.48 Z0 F1000
G1 X76.749 Z0 F1000
G0 Z3.5 F1000
G0 X74.316 Y62.254 Z3.5 
G1 Z0 F1000
G1 Y61.978 Z0 F1000
G1 Y61.868 Z0 F1000
G1 X74.321 Y61.753 Z0 F1000
G1 X74.347 Y61.639 Z0 F1000
G1 X74.386 Y61.552 Z0 F1000
G1 X74.44 Y61.425 Z0 F1000
G1 X74.499 Y61.301 Z0 F1000
G1 X74.565 Y61.195 Z0 F1000
G1 X74.642 Y61.135 Z0 F1000
G1 X74.699 Y61.115 Z0 F1000
G1 X74.777 Y61.099 Z0 F1000
G1 X74.882 Y61.083 Z0 F1000
G1 X75.018 Y61.065 Z0 F1000
G1 X75.347 Y61.034 Z0 F1000
G1 X75.645 Y61.025 Z0 F1000
G1 X76.134 Y60.99 Z0 F1000
G1 X76.624 Y60.979 Z0 F1000
G1 X76.75 Y60.993 Z0 F1000
G1 X76.875 Y61 Z0 F1000
G1 X77.262 Y61.006 Z0 F1000
G1 X77.652 Y61.032 Z0 F1000
G1 X78.575 Y61.133 Z0 F1000
G1 X79.484 Y61.24 Z0 F1000
G1 X80.096 Y61.328 Z0 F1000
G1 X80.713 Y61.424 Z0 F1000
G1 X80.917 Y61.444 Z0 F1000
G1 X81.114 Y61.459 Z0 F1000
G1 X81.516 Y61.495 Z0 F1000
G1 X81.682 Z0 F1000
G1 X81.785 Y61.454 Z0 F1000
G1 X81.854 Y61.394 Z0 F1000
G1 X81.917 Y61.332 Z0 F1000
G1 X82.079 Y61.233 Z0 F1000
G1 X82.319 Y61.171 Z0 F1000
G1 X82.429 Y61.153 Z0 F1000
G1 X82.543 Y61.147 Z0 F1000
G1 X82.663 Y61.158 Z0 F1000
G1 X82.792 Y61.191 Z0 F1000
G1 X82.836 Y61.217 Z0 F1000
G1 X82.867 Y61.255 Z0 F1000
G1 X82.908 Y61.339 Z0 F1000
G1 Y61.376 Z0 F1000
G1 X82.905 Y61.455 Z0 F1000
G1 X82.885 Y61.527 Z0 F1000
G1 X82.8 Y61.677 Z0 F1000
G1 X82.67 Y61.828 Z0 F1000
G1 X82.615 Y61.882 Z0 F1000
G1 X82.569 Y61.932 Z0 F1000
G1 X82.537 Y61.993 Z0 F1000
G1 X82.521 Y62.079 Z0 F1000
G1 X82.529 Y62.226 Z0 F1000
G1 X82.549 Y62.405 Z0 F1000
G1 X82.595 Y62.756 Z0 F1000
G1 X82.633 Y62.929 Z0 F1000
G1 X82.701 Y63.107 Z0 F1000
G1 X82.921 Y63.465 Z0 F1000
G1 X83.197 Y63.785 Z0 F1000
G1 X83.389 Y63.97 Z0 F1000
G1 X83.598 Y64.15 Z0 F1000
G1 X83.75 Y64.266 Z0 F1000
G1 X83.932 Y64.391 Z0 F1000
G1 X84.123 Y64.5 Z0 F1000
G1 X84.301 Y64.567 Z0 F1000
G1 X84.43 Y64.593 Z0 F1000
G1 X84.857 Y64.666 Z0 F1000
G1 X85.053 Y64.655 Z0 F1000
G1 X85.164 Y64.615 Z0 F1000
G1 X85.304 Y64.524 Z0 F1000
G1 X85.457 Y64.389 Z0 F1000
G1 X85.551 Y64.27 Z0 F1000
G1 X85.605 Y64.156 Z0 F1000
G1 X85.638 Y64.036 Z0 F1000
G1 X85.648 Y63.881 Z0 F1000
G1 X85.633 Y63.734 Z0 F1000
G1 X85.619 Y63.633 Z0 F1000
G1 X85.594 Y63.484 Z0 F1000
G1 X85.56 Y63.299 Z0 F1000
G1 X85.512 Y63.107 Z0 F1000
G1 X85.463 Y62.979 Z0 F1000
G1 X85.389 Y62.856 Z0 F1000
G1 X85.119 Y62.497 Z0 F1000
G1 X84.825 Y62.154 Z0 F1000
G1 X84.653 Y61.962 Z0 F1000
G1 X84.476 Y61.779 Z0 F1000
G1 X84.378 Y61.688 Z0 F1000
G1 X84.275 Y61.605 Z0 F1000
G1 X84.079 Y61.51 Z0 F1000
G1 X83.899 Y61.448 Z0 F1000
G1 X83.774 Y61.41 Z0 F1000
G1 X83.689 Y61.377 Z0 F1000
G1 X83.623 Y61.338 Z0 F1000
G1 X83.544 Y61.273 Z0 F1000
G1 X83.407 Y61.134 Z0 F1000
G1 X83.363 Y61.05 Z0 F1000
G1 Y60.994 Z0 F1000
G1 X83.38 Y60.962 Z0 F1000
G1 X83.424 Y60.925 Z0 F1000
G1 X83.465 Y60.885 Z0 F1000
G1 X83.512 Y60.844 Z0 F1000
G1 X83.574 Y60.78 Z0 F1000
G1 X83.657 Y60.674 Z0 F1000
G1 X83.693 Y60.613 Z0 F1000
G1 X83.732 Y60.54 Z0 F1000
G1 X83.783 Y60.468 Z0 F1000
G1 X83.852 Y60.412 Z0 F1000
G1 X83.995 Y60.356 Z0 F1000
G1 X84.167 Y60.316 Z0 F1000
G1 X84.35 Y60.288 Z0 F1000
G1 X84.526 Y60.268 Z0 F1000
G1 X84.991 Y60.233 Z0 F1000
G1 X85.455 Y60.222 Z0 F1000
G1 X85.695 Y60.232 Z0 F1000
G1 X85.931 Y60.248 Z0 F1000
G1 X86.519 Y60.324 Z0 F1000
G1 X87.085 Y60.445 Z0 F1000
G1 X87.296 Y60.508 Z0 F1000
G1 X87.422 Y60.57 Z0 F1000
G1 X87.501 Y60.639 Z0 F1000
G1 X87.568 Y60.722 Z0 F1000
G1 X87.62 Y60.77 Z0 F1000
G1 X87.738 Y60.801 Z0 F1000
G1 X87.86 Y60.813 Z0 F1000
G1 X88.019 Y60.834 Z0 F1000
G1 X88.118 Y60.842 Z0 F1000
G1 X88.246 Y60.847 Z0 F1000
G1 X88.415 Z0 F1000
G1 X88.747 Y60.866 Z0 F1000
G1 X89.019 Y60.906 Z0 F1000
G1 X89.252 Y60.963 Z0 F1000
G1 X89.468 Y61.025 Z0 F1000
G1 X89.613 Y61.086 Z0 F1000
G1 X89.745 Y61.178 Z0 F1000
G1 X89.806 Y61.297 Z0 F1000
G1 X89.815 Y61.376 Z0 F1000
G1 X89.818 Y61.418 Z0 F1000
G1 Y61.502 Z0 F1000
G1 Y61.878 Z0 F1000
G1 X89.825 Y62.046 Z0 F1000
G1 X89.838 Y62.129 Z0 F1000
G1 X89.856 Y62.186 Z0 F1000
G1 X89.846 Y62.304 Z0 F1000
G1 X89.799 Y62.381 Z0 F1000
G1 X89.743 Y62.416 Z0 F1000
G1 X89.634 Y62.447 Z0 F1000
G1 X89.527 Y62.452 Z0 F1000
G1 X89.428 Y62.442 Z0 F1000
G1 X88.959 Y62.365 Z0 F1000
G1 X88.691 Y62.296 Z0 F1000
G1 X88.499 Y62.218 Z0 F1000
G1 X88.307 Y62.127 Z0 F1000
G1 X88.126 Y62.02 Z0 F1000
G1 X87.964 Y61.896 Z0 F1000
G1 X87.882 Y61.804 Z0 F1000
G1 X87.831 Y61.702 Z0 F1000
G1 X87.785 Y61.572 Z0 F1000
G1 X87.748 Y61.452 Z0 F1000
G1 X87.706 Y61.298 Z0 F1000
G1 X87.657 Y61.077 Z0 F1000
G1 X87.641 Y60.975 Z0 F1000
G1 X87.636 Y60.884 Z0 F1000
G1 Y60.824 Z0 F1000
G0 Z3.5 F1000
G0 X89.719 Y61.125 Z3.5 
G1 Z0 F1000
G1 X89.775 Y61.051 Z0 F1000
G1 X89.827 Y61.013 Z0 F1000
G1 X89.92 Y60.987 Z0 F1000
G1 X90.028 Y60.99 Z0 F1000
G1 X90.146 Y61 Z0 F1000
G1 X90.269 Y60.997 Z0 F1000
G1 X90.447 Y61.007 Z0 F1000
G1 X90.848 Y61.036 Z0 F1000
G1 X91.139 Y61.074 Z0 F1000
G1 X91.425 Y61.099 Z0 F1000
G1 X91.877 Y61.126 Z0 F1000
G1 X92.041 Y61.141 Z0 F1000
G1 X92.203 Y61.15 Z0 F1000
G1 X92.486 Y61.118 Z0 F1000
G1 X92.78 Y61.031 Z0 F1000
G1 X92.906 Y60.967 Z0 F1000
G1 X92.997 Y60.891 Z0 F1000
G1 X93.062 Y60.802 Z0 F1000
G1 X93.109 Y60.699 Z0 F1000
G1 X93.174 Y60.481 Z0 F1000
G1 X93.22 Y60.374 Z0 F1000
G1 X93.289 Y60.298 Z0 F1000
G1 X93.378 Y60.265 Z0 F1000
G1 X93.479 Y60.261 Z0 F1000
G1 X93.584 Y60.274 Z0 F1000
G1 X93.834 Y60.316 Z0 F1000
G1 X93.984 Y60.352 Z0 F1000
G1 X94.097 Y60.403 Z0 F1000
G1 X94.21 Y60.468 Z0 F1000
G1 X94.361 Y60.541 Z0 F1000
G1 X94.699 Y60.656 Z0 F1000
G1 X95.038 Y60.74 Z0 F1000
G1 X95.514 Y60.812 Z0 F1000
G1 X95.991 Y60.86 Z0 F1000
G1 X96.315 Y60.883 Z0 F1000
G1 X96.619 Y60.871 Z0 F1000
G1 X96.916 Y60.83 Z0 F1000
G1 X97.221 Y60.769 Z0 F1000
G1 X97.575 Y60.66 Z0 F1000
G1 X97.898 Y60.498 Z0 F1000
G1 X98.025 Y60.4 Z0 F1000
G1 X98.154 Y60.297 Z0 F1000
G1 X98.324 Y60.214 Z0 F1000
G1 X98.475 Y60.147 Z0 F1000
G0 Z3.5 F1000
G0 X98.074 Y60.423 Z3.5 
G1 Z0 F1000
G1 X98.233 Y60.625 Z0 F1000
G1 X98.355 Y60.71 Z0 F1000
G1 X98.55 Y60.749 Z0 F1000
G0 Z3.5 F1000
G0 X83.322 Y61.05 Z3.5 
G1 Z0 F1000
G1 X83.118 Z0 F1000
G1 X83.064 Y61.054 Z0 F1000
G1 X83.021 Y61.065 Z0 F1000
G1 X82.919 Y61.127 Z0 F1000
G1 X82.846 Y61.201 Z0 F1000
G0 Z3.5 F1000
G0 X71.431 Y62.48 Z3.5 
G1 Z0 F1000
G1 X71.389 Y62.449 Z0 F1000
G1 X71.244 Y62.371 Z0 F1000
G1 X71.029 Y62.334 Z0 F1000
G1 X70.926 Y62.327 Z0 F1000
G1 X70.829 Y62.309 Z0 F1000
G1 X70.695 Y62.251 Z0 F1000
G1 X70.553 Y62.217 Z0 F1000
G1 X70.402 Y62.25 Z0 F1000
G1 X70.275 Y62.243 Z0 F1000
G1 X70.151 Y62.23 Z0 F1000
G1 X70.017 Z0 F1000
G1 X69.825 Y62.215 Z0 F1000
G1 X69.641 Y62.206 Z0 F1000
G1 X69.449 Y62.2 Z0 F1000
G1 X68.938 Y62.138 Z0 F1000
G1 X68.42 Y62.064 Z0 F1000
G1 X66.843 Y61.874 Z0 F1000
G1 X65.259 Y61.688 Z0 F1000
G1 X64.694 Y61.627 Z0 F1000
G1 X64.13 Y61.602 Z0 F1000
G1 X63.772 Z0 F1000
G1 X63.604 Z0 F1000
G1 X63.378 Y61.578 Z0 F1000
G1 X63.232 Z0 F1000
G1 X63.102 Y61.573 Z0 F1000
G1 X63.006 Y61.549 Z0 F1000
G1 X62.954 Y61.517 Z0 F1000
G1 X62.901 Y61.451 Z0 F1000
G1 X62.831 Y61.404 Z0 F1000
G1 X62.796 Y61.359 Z0 F1000
G1 X62.767 Y61.276 Z0 F1000
G1 X62.788 Y61.173 Z0 F1000
G1 X62.822 Y61.1 Z0 F1000
G1 X62.896 Y60.965 Z0 F1000
G1 X62.991 Y60.799 Z0 F1000
G1 X63.05 Y60.707 Z0 F1000
G1 X63.115 Y60.645 Z0 F1000
G1 X63.22 Y60.593 Z0 F1000
G1 X63.403 Y60.534 Z0 F1000
G1 X63.638 Y60.464 Z0 F1000
G1 X63.879 Y60.403 Z0 F1000
G1 X64.091 Y60.358 Z0 F1000
G1 X64.632 Y60.252 Z0 F1000
G1 X64.958 Y60.194 Z0 F1000
G1 X65.143 Y60.167 Z0 F1000
G1 X65.335 Y60.143 Z0 F1000
G1 X65.736 Y60.118 Z0 F1000
G1 X65.85 Y60.104 Z0 F1000
G1 X65.962 Y60.097 Z0 F1000
G1 X66.2 Z0 F1000
G1 X66.552 Y60.122 Z0 F1000
G1 X66.664 Z0 F1000
G1 X66.901 Y60.133 Z0 F1000
G1 X67.141 Y60.158 Z0 F1000
G1 X67.404 Y60.195 Z0 F1000
G1 X67.668 Y60.236 Z0 F1000
G1 X68.022 Y60.307 Z0 F1000
G1 X68.368 Y60.399 Z0 F1000
G1 X68.71 Y60.51 Z0 F1000
G1 X69.047 Y60.639 Z0 F1000
G1 X69.337 Y60.768 Z0 F1000
G1 X69.611 Y60.914 Z0 F1000
G1 X69.873 Y61.084 Z0 F1000
G1 X70.126 Y61.283 Z0 F1000
G1 X70.299 Y61.519 Z0 F1000
G1 X70.402 Y61.727 Z0 F1000
G1 X70.443 Y61.848 Z0 F1000
G1 X70.491 Y61.999 Z0 F1000
G1 X70.553 Y62.154 Z0 F1000
G0 Z3.5 F1000
G0 X62.725 Y61.276 Z3.5 
G1 Z0 F1000
G1 X62.399 Y61.337 Z0 F1000
G1 X62.3 Y61.362 Z0 F1000
G1 X62.199 Y61.389 Z0 F1000
G1 X61.618 Y61.533 Z0 F1000
G1 X61.045 Y61.698 Z0 F1000
G1 X60.835 Y61.77 Z0 F1000
G1 X60.638 Y61.842 Z0 F1000
G1 X60.469 Y61.912 Z0 F1000
G1 X60.342 Y61.978 Z0 F1000
G0 Z3.5 F1000
G0 X54.171 Y59.194 Z3.5 
G1 Z0 F1000
G1 X54.089 Y59.494 Z0 F1000
G1 X54.073 Y59.796 Z0 F1000
G1 X54.091 Y59.946 Z0 F1000
G1 X54.107 Y60.106 Z0 F1000
G1 X54.127 Y60.272 Z0 F1000
G1 X54.196 Y60.576 Z0 F1000
G1 X54.29 Y60.875 Z0 F1000
G1 X54.434 Y61.225 Z0 F1000
G1 X54.603 Y61.552 Z0 F1000
G1 X54.797 Y61.903 Z0 F1000
G1 X55.004 Y62.254 Z0 F1000
G1 X55.323 Y62.754 Z0 F1000
G1 X55.662 Y63.241 Z0 F1000
G1 X56.016 Y63.718 Z0 F1000
G1 X56.378 Y64.186 Z0 F1000
G1 X56.73 Y64.663 Z0 F1000
G1 X58.35 Y66.703 Z0 F1000
G1 X59.991 Y68.727 Z0 F1000
G0 Z3.5 F1000
G0 X48.1 Y66.845 Z3.5 
G1 Z0 F1000
G1 X47.9 Y66.62 Z0 F1000
G1 X47.713 Y66.318 Z0 F1000
G1 X47.548 Y66.068 Z0 F1000
G0 Z3.5 F1000
G0 X48.978 Y65.641 Z3.5 
G1 Z0 F1000
G1 X49.104 Y65.62 Z0 F1000
G1 X49.168 Y65.588 Z0 F1000
G1 X49.197 Y65.551 Z0 F1000
G1 X49.213 Y65.514 Z0 F1000
G1 X49.222 Y65.486 Z0 F1000
G1 X49.226 Y65.415 Z0 F1000
G1 X49.212 Y65.329 Z0 F1000
G1 X49.081 Y64.898 Z0 F1000
G1 X49.036 Y64.763 Z0 F1000
G1 X48.994 Y64.661 Z0 F1000
G1 X48.952 Y64.587 Z0 F1000
G1 X47.798 Y65.741 Z0 F1000
G1 X47.671 Y65.863 Z0 F1000
G1 X47.523 Y66.043 Z0 F1000
G1 X47.548 Y66.068 Z0 F1000
G1 X47.71 Y65.929 Z0 F1000
G1 X47.849 Y65.792 Z0 F1000
G1 X47.921 Y65.712 Z0 F1000
G1 X48.049 Y65.649 Z0 F1000
G1 X48.219 Y65.639 Z0 F1000
G1 X48.426 Z0 F1000
G1 X48.576 Z0 F1000
G1 X48.715 Z0 F1000
G1 X48.852 Y65.645 Z0 F1000
G1 X48.96 Y65.682 Z0 F1000
G1 X48.995 Y65.72 Z0 F1000
G1 X49.027 Y65.769 Z0 F1000
G1 X49.04 Y65.818 Z0 F1000
G1 X49.035 Y65.868 Z0 F1000
G1 X49.013 Y65.917 Z0 F1000
G1 X48.909 Y66.041 Z0 F1000
G1 X48.777 Y66.168 Z0 F1000
G1 X48.1 Y66.845 Z0 F1000
G1 X49.354 Y67.194 Z0 F1000
G1 X49.881 Y67.322 Z0 F1000
G0 Z3.5 F1000
G0 X48.953 Y64.562 Z3.5 
G1 Z0 F1000
G1 X48.336 Y63.996 Z0 F1000
G1 X47.709 Y63.464 Z0 F1000
G1 X47.083 Y62.928 Z0 F1000
G1 X46.469 Y62.355 Z0 F1000
G1 X46.353 Y62.244 Z0 F1000
G1 X46.244 Y62.137 Z0 F1000
G1 X46.152 Y62.02 Z0 F1000
G1 X46.086 Y61.878 Z0 F1000
G1 X46.061 Y61.79 Z0 F1000
G1 X46.007 Y61.569 Z0 F1000
G1 X46.021 Y61.452 Z0 F1000
G1 X46.051 Y61.354 Z0 F1000
G1 X46.105 Y61.269 Z0 F1000
G1 X46.195 Y61.222 Z0 F1000
G1 X46.293 Y61.198 Z0 F1000
G1 X46.399 Y61.174 Z0 F1000
G1 X46.74 Y61.111 Z0 F1000
G1 X46.92 Y61.08 Z0 F1000
G1 X47.541 Y61.026 Z0 F1000
G1 X47.698 Z0 F1000
G1 X47.892 Y61.033 Z0 F1000
G1 X48.074 Y61.048 Z0 F1000
G1 X48.3 Y61.054 Z0 F1000
G1 X48.39 Y61.066 Z0 F1000
G1 X48.476 Y61.074 Z0 F1000
G1 X48.626 Z0 F1000
G1 X49.075 Y61.126 Z0 F1000
G1 X49.53 Y61.197 Z0 F1000
G1 X49.867 Y61.242 Z0 F1000
G1 X50.207 Y61.304 Z0 F1000
G1 X50.8 Y61.438 Z0 F1000
G1 X51.386 Y61.619 Z0 F1000
G1 X51.712 Y61.762 Z0 F1000
G1 X52.013 Y61.953 Z0 F1000
G0 Z3.5 F1000
G0 X39.394 Y63.684 Z3.5 
G1 Z0 F1000
G1 X39.194 Y63.634 Z0 F1000
G0 Z3.5 F1000
G0 X40.899 Y61.527 Z3.5 
G1 Z0 F1000
G1 X40.818 Y61.605 Z0 F1000
G1 X40.732 Y61.702 Z0 F1000
G1 X40.706 Y61.759 Z0 F1000
G1 X40.666 Y61.878 Z0 F1000
G1 X40.629 Y61.959 Z0 F1000
G1 X40.595 Y61.996 Z0 F1000
G1 X40.524 Y62.068 Z0 F1000
G1 X40.398 Y62.172 Z0 F1000
G1 X40.291 Y62.235 Z0 F1000
G1 X40.175 Y62.269 Z0 F1000
G1 X40.05 Y62.281 Z0 F1000
G1 X39.921 Y62.277 Z0 F1000
G1 X39.721 Y62.249 Z0 F1000
G1 X39.565 Y62.196 Z0 F1000
G1 X39.423 Y62.121 Z0 F1000
G1 X39.269 Y62.024 Z0 F1000
G1 X38.785 Y61.714 Z0 F1000
G1 X38.265 Y61.368 Z0 F1000
G1 X38.094 Y61.244 Z0 F1000
G1 X37.647 Y60.901 Z0 F1000
G1 X37.3 Y60.624 Z0 F1000
G1 X37.219 Y60.554 Z0 F1000
G1 X37.15 Y60.467 Z0 F1000
G1 X37.099 Y60.348 Z0 F1000
G1 X37.064 Y60.197 Z0 F1000
G1 X37.033 Y60.072 Z0 F1000
G1 X37.008 Y60.016 Z0 F1000
G1 X36.978 Y59.942 Z0 F1000
G1 Y59.846 Z0 F1000
G1 X37.049 Y59.728 Z0 F1000
G1 X37.17 Y59.638 Z0 F1000
G1 X37.302 Y59.605 Z0 F1000
G1 X37.43 Z0 F1000
G1 X37.538 Y59.617 Z0 F1000
G1 X37.738 Y59.643 Z0 F1000
G1 X37.918 Y59.684 Z0 F1000
G1 X38.103 Y59.745 Z0 F1000
G1 X38.315 Y59.832 Z0 F1000
G1 X38.685 Y60 Z0 F1000
G1 X39.043 Y60.179 Z0 F1000
G1 X39.841 Y60.636 Z0 F1000
G1 X40.598 Y61.14 Z0 F1000
G1 X40.763 Y61.3 Z0 F1000
G1 X40.86 Y61.45 Z0 F1000
G1 X40.908 Y61.514 Z0 F1000
G1 X40.976 Y61.552 Z0 F1000
G1 X41.072 Y61.584 Z0 F1000
G1 X41.175 Y61.613 Z0 F1000
G1 X41.295 Y61.657 Z0 F1000
G1 X41.401 Y61.719 Z0 F1000
G1 X41.732 Y61.965 Z0 F1000
G1 X42.191 Y62.332 Z0 F1000
G1 X42.329 Y62.455 Z0 F1000
G1 X42.424 Y62.565 Z0 F1000
G1 X42.479 Y62.681 Z0 F1000
G1 X42.515 Y62.797 Z0 F1000
G1 X42.547 Y62.907 Z0 F1000
G1 X42.596 Y63.044 Z0 F1000
G1 Y63.095 Z0 F1000
G1 X42.578 Y63.183 Z0 F1000
G1 X42.534 Y63.304 Z0 F1000
G1 X42.47 Y63.398 Z0 F1000
G1 X42.358 Y63.467 Z0 F1000
G1 X42.229 Y63.508 Z0 F1000
G1 X42.061 Y63.539 Z0 F1000
G1 X41.878 Y63.563 Z0 F1000
G1 X41.582 Y63.584 Z0 F1000
G1 X41.301 Z0 F1000
G1 X40.766 Y63.537 Z0 F1000
G1 X40.114 Y63.468 Z0 F1000
G1 X39.996 Y63.459 Z0 F1000
G1 X39.822 Y63.456 Z0 F1000
G1 X39.67 Y63.463 Z0 F1000
G1 X39.566 Y63.509 Z0 F1000
G1 X39.521 Y63.56 Z0 F1000
G1 X39.465 Y63.607 Z0 F1000
G1 X39.444 Y63.644 Z0 F1000
G1 X39.432 Y63.709 Z0 F1000
G1 X39.446 Y63.794 Z0 F1000
G1 X39.465 Y63.835 Z0 F1000
G1 X39.495 Y63.914 Z0 F1000
G1 X39.545 Y64.036 Z0 F1000
G1 X39.627 Y64.227 Z0 F1000
G1 X39.751 Y64.427 Z0 F1000
G1 X39.908 Y64.526 Z0 F1000
G1 X40.323 Y64.7 Z0 F1000
G1 X40.548 Y64.787 Z0 F1000
G1 X41.054 Y64.97 Z0 F1000
G1 X41.563 Y65.141 Z0 F1000
G1 X42.08 Y65.292 Z0 F1000
G1 X42.605 Y65.421 Z0 F1000
G1 X42.905 Y65.491 Z0 F1000
G1 X43.581 Y65.675 Z0 F1000
G1 X43.96 Y65.749 Z0 F1000
G1 X44.437 Y65.81 Z0 F1000
G1 X44.581 Y65.816 Z0 F1000
G1 X44.699 Y65.799 Z0 F1000
G1 X44.799 Y65.762 Z0 F1000
G1 X44.888 Y65.713 Z0 F1000
G1 X44.926 Y65.688 Z0 F1000
G1 X44.97 Y65.664 Z0 F1000
G1 X45.042 Y65.642 Z0 F1000
G1 X45.164 Y65.621 Z0 F1000
G1 X45.445 Y65.599 Z0 F1000
G1 X45.716 Y65.618 Z0 F1000
G1 X45.808 Y65.641 Z0 F1000
G1 X46.212 Y65.728 Z0 F1000
G1 X46.544 Y65.811 Z0 F1000
G1 X46.695 Y65.843 Z0 F1000
G1 X46.845 Y65.878 Z0 F1000
G1 X47.247 Y65.978 Z0 F1000
G1 X47.396 Y66.023 Z0 F1000
G1 X47.486 Y66.041 Z0 F1000
G1 X47.523 Z0 F1000
G0 Z3.5 F1000
G0 X37.161 Y60.498 Z3.5 
G1 Z0 F1000
G1 X37.964 Y59.695 Z0 F1000
G0 Z3.5 F1000
G0 X84.276 Y70.834 Z3.5 
G1 Z0 F1000
G1 X84.1 Y71.006 Z0 F1000
G1 X83.938 Y71.185 Z0 F1000
G1 X83.814 Y71.376 Z0 F1000
G1 X83.72 Y71.587 Z0 F1000
G1 X83.677 Y71.726 Z0 F1000
G1 X83.646 Y71.872 Z0 F1000
G1 X83.63 Y72.02 Z0 F1000
G1 X83.638 Y72.164 Z0 F1000
G1 X83.671 Y72.371 Z0 F1000
G1 X83.724 Y72.565 Z0 F1000
G1 X83.816 Y72.769 Z0 F1000
G1 X83.94 Y72.942 Z0 F1000
G1 X84.086 Y73.102 Z0 F1000
G1 X84.25 Y73.252 Z0 F1000
G1 X84.435 Y73.396 Z0 F1000
G1 X84.627 Y73.526 Z0 F1000
G1 X84.926 Y73.71 Z0 F1000
G1 X85.244 Y73.884 Z0 F1000
G1 X85.574 Y74.041 Z0 F1000
G1 X85.906 Y74.171 Z0 F1000
M9

G90
G1 Z10 F800
