;LightBurn 1.6.04
;Custom GCode device profile, absolute coords
;Bounds: X13.85 Y13.86 to X61.22 Y59.94
G00 G17 G40 G21 G54
G90
M3
G1 Z10 F500
;Offset @ 555 mm/min, 90% power

M8
G0 Z3.5 F500
G0 X27.664 Y27.169 Z3.5 
G1 Z0 F500
;Layer C1
G1 X27.867 Y27.234 Z0 S900 F800
G1 X28.234 Y27.396 Z0 F800
G1 X28.527 Y27.523 Z0 F800
G1 X28.833 Y27.588 Z0 F800
G1 X28.778 Y27.655 Z0 F800
G1 X28.672 Y27.792 Z0 F800
G1 X28.501 Y27.977 Z0 F800
G1 X28.38 Y28.078 Z0 F800
G1 X28.301 Y28.13 Z0 F800
G1 X28.237 Y28.175 Z0 F800
G1 X28.197 Y28.193 Z0 F800
G1 X28.099 Y28.213 Z0 F800
G1 X27.952 Z0 F800
G1 X27.823 Y28.19 Z0 F800
G1 X27.434 Y28.029 Z0 F800
G1 X27.104 Y27.854 Z0 F800
G1 X27.02 Y27.79 Z0 F800
G1 X26.956 Y27.731 Z0 F800
G1 X26.94 Y27.712 Z0 F800
G1 Y27.7 Z0 F800
G1 X26.944 Y27.546 Z0 F800
G1 X26.972 Y27.498 Z0 F800
G1 X27.013 Y27.43 Z0 F800
G1 X27.073 Y27.315 Z0 F800
G1 X27.194 Y27.212 Z0 F800
G1 X27.229 Y27.199 Z0 F800
G1 X27.377 Y27.17 Z0 F800
G1 X27.551 Y27.16 Z0 F800
G1 X27.664 Y27.169 Z0 F800
G0 Z3.5 F500
G0 X28.985 Y27.109 Z3.5 F555
G1 Z0 F500
G1 X29.167 Y27.112 Z0 F800
G1 X29.359 Y27.086 Z0 F800
G1 X29.566 Y27.02 Z0 F800
G1 X29.759 Y26.91 Z0 F800
G1 X29.917 Y26.783 Z0 F800
G1 X30.07 Y26.643 Z0 F800
G1 X30.246 Y26.471 Z0 F800
G1 X30.459 Y26.258 Z0 F800
G1 X30.658 Y26.064 Z0 F800
G1 X30.817 Y25.917 Z0 F800
G1 X30.938 Y25.811 Z0 F800
G1 X30.945 Y25.805 Z0 F800
G1 X30.962 Y25.796 Z0 F800
G1 X31.039 Y25.751 Z0 F800
G1 X31.045 Y25.747 Z0 F800
G1 X31.187 Y25.69 Z0 F800
G1 X31.354 Y25.616 Z0 F800
G1 X31.386 Y25.604 Z0 F800
G1 X31.436 Y25.592 Z0 F800
G1 X31.537 Y25.58 Z0 F800
G1 X31.646 Y25.542 Z0 F800
G1 X31.804 Y25.505 Z0 F800
G1 X31.813 Z0 F800
G1 X31.821 Y25.501 Z0 F800
G1 X31.852 Y25.492 Z0 F800
G1 X32.166 Y25.439 Z0 F800
G1 X32.163 Y25.395 Z0 F800
G1 X32.231 Y25.373 Z0 F800
G1 X32.406 Y25.321 Z0 F800
G1 X32.482 Y25.296 Z0 F800
G1 X32.527 Y25.278 Z0 F800
G1 X32.643 Y25.242 Z0 F800
G1 X32.73 Y25.162 Z0 F800
G1 X32.833 Y25.095 Z0 F800
G1 X33.135 Y24.871 Z0 F800
G1 X33.377 Y24.585 Z0 F800
G1 X33.466 Y24.428 Z0 F800
G1 X33.528 Y24.257 Z0 F800
G1 X33.56 Y24.063 Z0 F800
G1 X33.546 Y23.83 Z0 F800
G1 X33.414 Y23.504 Z0 F800
G1 X33.24 Y23.3 Z0 F800
G1 X33.289 Y23.338 Z0 F800
G1 X33.445 Y23.482 Z0 F800
G1 X33.593 Y23.625 Z0 F800
G1 X33.653 Y23.695 Z0 F800
G1 X33.686 Y23.75 Z0 F800
G1 X33.742 Y23.882 Z0 F800
G1 X33.766 Y23.954 Z0 F800
G1 Y24.109 Z0 F800
G1 X33.76 Y24.227 Z0 F800
G1 Y24.234 Z0 F800
G1 X33.703 Y24.341 Z0 F800
G1 X33.59 Y24.577 Z0 F800
G1 X33.508 Y24.867 Z0 F800
G1 X33.519 Y25.196 Z0 F800
G1 X33.616 Y25.482 Z0 F800
G1 X33.748 Y25.689 Z0 F800
G1 X33.423 Y25.551 Z0 F800
G1 X32.953 Y25.448 Z0 F800
G1 X32.472 Y25.425 Z0 F800
G1 X32.012 Y25.486 Z0 F800
G1 X31.717 Y25.578 Z0 F800
G1 X31.47 Y25.688 Z0 F800
G1 X31.324 Y25.757 Z0 F800
G1 X31.045 Y25.874 Z0 F800
G1 X30.812 Y26.039 Z0 F800
G1 X30.756 Y26.074 Z0 F800
G1 X30.492 Y26.247 Z0 F800
G1 X30.228 Y26.514 Z0 F800
G1 X30.093 Y26.686 Z0 F800
G1 X29.965 Y26.869 Z0 F800
G1 X29.83 Y27.077 Z0 F800
G1 X29.694 Y27.297 Z0 F800
G1 X29.584 Y27.463 Z0 F800
G1 X29.498 Y27.578 Z0 F800
G1 X29.292 Y27.818 Z0 F800
G1 X29.168 Y27.968 Z0 F800
G1 X29.05 Y28.12 Z0 F800
G1 X28.848 Y28.338 Z0 F800
G1 X28.681 Y28.479 Z0 F800
G1 X28.583 Y28.543 Z0 F800
G1 X28.488 Y28.61 Z0 F800
G1 X28.354 Y28.673 Z0 F800
G1 X28.153 Y28.712 Z0 F800
G1 X27.907 Y28.716 Z0 F800
G1 X27.681 Y28.672 Z0 F800
G1 X27.216 Y28.479 Z0 F800
G1 X26.833 Y28.276 Z0 F800
G1 X26.701 Y28.176 Z0 F800
G1 X26.596 Y28.08 Z0 F800
G1 X26.524 Y27.994 Z0 F800
G1 X26.465 Y27.898 Z0 F800
G1 X26.438 Y27.848 Z0 F800
G1 Y27.701 Z0 F800
G1 X26.446 Y27.499 Z0 F800
G1 X26.459 Y27.408 Z0 F800
G1 X26.477 Y27.357 Z0 F800
G1 X26.536 Y27.252 Z0 F800
G1 X26.576 Y27.185 Z0 F800
G1 X26.625 Y27.093 Z0 F800
G1 X26.656 Y27.023 Z0 F800
G1 X26.664 Y27.015 Z0 F800
G1 X26.729 Y26.951 Z0 F800
G1 X26.889 Y26.815 Z0 F800
G1 X26.958 Y26.767 Z0 F800
G1 X27.095 Y26.716 Z0 F800
G1 X27.317 Y26.673 Z0 F800
G1 X27.56 Y26.658 Z0 F800
G1 X27.76 Y26.675 Z0 F800
G1 X28.043 Y26.766 Z0 F800
G1 X28.434 Y26.938 Z0 F800
G1 X28.68 Y27.044 Z0 F800
G1 X28.985 Y27.109 Z0 F800
G0 Z3.5 F500
G0 X37.086 Y18.631 Z3.5 
G1 Z0 F500
G1 X37.025 Y18.457 Z0 F800
G1 X36.991 Y18.367 Z0 F800
G1 X36.977 Y18.299 Z0 F800
G1 X36.959 Y18.105 Z0 F800
G1 X36.953 Y17.795 Z0 F800
G1 Y17.584 Z0 F800
G1 X36.957 Y17.553 Z0 F800
G1 X36.965 Y17.544 Z0 F800
G1 X37.023 Y17.487 Z0 F800
G1 X37.111 Y17.462 Z0 F800
G1 X37.171 Y17.454 Z0 F800
G1 X37.189 Y17.461 Z0 F800
G1 X37.203 Y17.47 Z0 F800
G1 X37.271 Y17.525 Z0 F800
G1 X37.415 Y17.663 Z0 F800
G1 X37.592 Y17.841 Z0 F800
G1 X37.363 Y18.083 Z0 F800
G1 X37.238 Y18.284 Z0 F800
G1 X37.129 Y18.481 Z0 F800
G1 X37.086 Y18.631 Z0 F800
G0 Z3.5 F500
G0 X36.667 Y19.79 Z3.5 
G1 Z0 F500
G1 Y19.679 Z0 F800
G1 X36.671 Y19.509 Z0 F800
G1 X36.679 Y19.274 Z0 F800
G1 X36.657 Y18.921 Z0 F800
G1 X36.556 Y18.628 Z0 F800
G1 X36.508 Y18.505 Z0 F800
G1 X36.481 Y18.374 Z0 F800
G1 X36.46 Y18.139 Z0 F800
G1 X36.453 Y17.784 Z0 F800
G1 Y17.571 Z0 F800
G1 X36.461 Y17.427 Z0 F800
G1 X36.47 Y17.345 Z0 F800
G1 Y17.339 Z0 F800
G1 X36.474 Y17.335 Z0 F800
G1 X36.518 Y17.285 Z0 F800
G1 X36.612 Y17.19 Z0 F800
G1 X36.736 Y17.067 Z0 F800
G1 X36.759 Y17.047 Z0 F800
G1 X36.843 Y17.018 Z0 F800
G1 X37.01 Y16.971 Z0 F800
G1 X37.156 Y16.952 Z0 F800
G1 X37.24 Z0 F800
G1 X37.327 Y16.977 Z0 F800
G1 X37.419 Y17.016 Z0 F800
G1 X37.49 Y17.059 Z0 F800
G1 X37.6 Y17.149 Z0 F800
G1 X37.776 Y17.317 Z0 F800
G1 X38.267 Y17.809 Z0 F800
G1 X38.436 Y17.973 Z0 F800
G1 X38.591 Y18.113 Z0 F800
G1 X38.684 Y18.175 Z0 F800
G1 X38.653 Y18.159 Z0 F800
G1 X38.435 Y18.089 Z0 F800
G1 X38.166 Y18.108 Z0 F800
G1 X37.919 Y18.222 Z0 F800
G1 X37.761 Y18.39 Z0 F800
G1 X37.669 Y18.537 Z0 F800
G1 X37.594 Y18.674 Z0 F800
G1 X37.529 Y18.895 Z0 F800
G1 X37.533 Y19.131 Z0 F800
G1 X37.563 Y19.252 Z0 F800
G1 X37.607 Y19.562 Z0 F800
G1 X37.62 Y19.88 Z0 F800
G1 X37.599 Y19.971 Z0 F800
G1 X37.548 Y20.111 Z0 F800
G1 X37.498 Y20.217 Z0 F800
G1 X37.494 Y20.22 Z0 F800
G1 X37.371 Y20.291 Z0 F800
G1 X37.336 Y20.307 Z0 F800
G1 X37.258 Y20.303 Z0 F800
G1 X37.131 Y20.292 Z0 F800
G1 X37.084 Y20.275 Z0 F800
G1 X36.948 Y20.197 Z0 F800
G1 X36.821 Y20.094 Z0 F800
G1 X36.735 Y19.998 Z0 F800
G1 X36.683 Y19.909 Z0 F800
G1 X36.676 Y19.893 Z0 F800
G1 X36.67 Y19.847 Z0 F800
G1 X36.667 Y19.79 Z0 F800
G0 Z3.5 F500
G0 X40.001 Y33.213 Z3.5 
G1 Z0 F500
G1 X40.084 Y33.202 Z0 F800
G1 X40.146 Y33.207 Z0 F800
G1 X40.269 Y33.238 Z0 F800
G1 X40.35 Y33.264 Z0 F800
G1 X40.38 Y33.28 Z0 F800
G1 X40.401 Y33.296 Z0 F800
G1 X40.48 Y33.361 Z0 F800
G1 X40.58 Y33.449 Z0 F800
G1 X40.73 Y33.583 Z0 F800
G1 X40.751 Y33.602 Z0 F800
G1 X40.556 Y33.527 Z0 F800
G1 X40.301 Y33.52 Z0 F800
G1 X40.073 Y33.578 Z0 F800
G1 X39.919 Y33.667 Z0 F800
G1 X39.809 Y33.754 Z0 F800
G1 X39.65 Y33.944 Z0 F800
G1 X39.551 Y34.177 Z0 F800
G1 X39.513 Y34.371 Z0 F800
G1 Y34.375 Z0 F800
G1 X39.503 Y34.235 Z0 F800
G1 X39.491 Y33.95 Z0 F800
G1 X39.501 Y33.777 Z0 F800
G1 X39.53 Y33.648 Z0 F800
G1 X39.584 Y33.513 Z0 F800
G1 X39.656 Y33.381 Z0 F800
G1 X39.705 Y33.322 Z0 F800
G1 X39.748 Y33.292 Z0 F800
G1 X39.845 Y33.254 Z0 F800
G1 X40.001 Y33.213 Z0 F800
G0 Z3.5 F500
G0 X43.308 Y32.701 Z3.5 
G1 Z0 F500
G1 X43.346 Y32.746 Z0 F800
G1 X43.415 Y32.862 Z0 F800
G1 X43.454 Y32.965 Z0 F800
G1 X43.48 Y33.157 Z0 F800
G1 X43.472 Y33.389 Z0 F800
G1 X43.423 Y33.616 Z0 F800
G1 X43.415 Y33.639 Z0 F800
G1 X43.396 Y33.661 Z0 F800
G1 X43.272 Y33.783 Z0 F800
G1 X43.243 Y33.809 Z0 F800
G1 X43.392 Y33.51 Z0 F800
G1 X43.437 Y33.202 Z0 F800
G1 X43.409 Y32.948 Z0 F800
G1 X43.308 Y32.701 Z0 F800
G0 Z3.5 F500
G0 X29.039 Y23.953 Z3.5 
G1 Z0 F500
G1 X29.036 Z0 F800
G1 X28.915 Y23.948 Z0 F800
G1 X28.846 Y23.938 Z0 F800
G1 X28.713 Y23.886 Z0 F800
G1 X28.566 Y23.777 Z0 F800
G1 X28.506 Y23.718 Z0 F800
G1 Y23.712 Z0 F800
G1 X28.494 Y23.597 Z0 F800
G1 X28.501 Y23.394 Z0 F800
G1 X28.634 Y23.658 Z0 F800
G1 X28.851 Y23.864 Z0 F800
G1 X29.039 Y23.953 Z0 F800
G0 Z3.5 F500
G0 X34.225 Y20.75 Z3.5 
G1 Z0 F500
G1 X34.307 Y20.627 Z0 F800
G1 X34.351 Y20.466 Z0 F800
G1 X34.336 Y20.555 Z0 F800
G1 X34.302 Y20.651 Z0 F800
G1 X34.229 Y20.747 Z0 F800
G1 X34.225 Y20.75 Z0 F800
G0 Z3.5 F500
G0 X39.303 Y18.457 Z3.5 
G1 Z0 F500
G1 X39.383 Y18.483 Z0 F800
G1 X39.571 Y18.513 Z0 F800
G1 X39.792 Y18.478 Z0 F800
G1 X39.996 Y18.378 Z0 F800
G1 X40.132 Y18.243 Z0 F800
G1 X40.244 Y18.09 Z0 F800
G1 X40.336 Y17.903 Z0 F800
G1 X40.342 Y18.024 Z0 F800
G1 Y18.212 Z0 F800
G1 X40.337 Y18.367 Z0 F800
G1 X40.327 Y18.5 Z0 F800
G1 Y18.511 Z0 F800
G1 X40.272 Y18.646 Z0 F800
G1 X40.242 Y18.687 Z0 F800
G1 X40.231 Y18.694 Z0 F800
G1 X40.194 Y18.705 Z0 F800
G1 X39.979 Y18.689 Z0 F800
G1 X39.725 Y18.629 Z0 F800
G1 X39.594 Y18.572 Z0 F800
G1 X39.437 Y18.519 Z0 F800
G1 X39.386 Y18.498 Z0 F800
G1 X39.303 Y18.457 Z0 F800
G0 Z3.5 F500
G0 X36.151 Y16.944 Z3.5 
G1 Z0 F500
G1 X36.26 Y16.835 Z0 F800
G1 X36.397 Y16.699 Z0 F800
G1 X36.479 Y16.628 Z0 F800
G1 X36.56 Y16.587 Z0 F800
G1 X36.69 Y16.542 Z0 F800
G1 X36.91 Y16.48 Z0 F800
G1 X37.12 Y16.452 Z0 F800
G1 X37.312 Y16.449 Z0 F800
G1 X37.497 Y16.506 Z0 F800
G1 X37.646 Y16.568 Z0 F800
G1 X37.782 Y16.651 Z0 F800
G1 X37.932 Y16.774 Z0 F800
G1 X38.122 Y16.957 Z0 F800
G1 X38.618 Y17.453 Z0 F800
G1 X38.777 Y17.607 Z0 F800
G1 X38.899 Y17.718 Z0 F800
G1 X39.099 Y17.852 Z0 F800
G1 X39.276 Y17.922 Z0 F800
G1 X39.501 Y17.996 Z0 F800
G1 X39.571 Y18.007 Z0 F800
G1 X39.64 Y17.996 Z0 F800
G1 X39.702 Y17.965 Z0 F800
G1 X39.752 Y17.916 Z0 F800
G1 X39.814 Y17.831 Z0 F800
G1 X39.878 Y17.701 Z0 F800
G1 X39.9 Y17.537 Z0 F800
G1 X39.867 Y17.373 Z0 F800
G1 X39.798 Y17.162 Z0 F800
G1 X39.725 Y16.963 Z0 F800
G1 X39.644 Y16.778 Z0 F800
G1 X39.603 Y16.696 Z0 F800
G1 X39.562 Y16.624 Z0 F800
G1 X39.529 Y16.573 Z0 F800
G1 X39.481 Y16.516 Z0 F800
G1 X39.446 Y16.439 Z0 F800
G1 X39.374 Y16.304 Z0 F800
G1 X39.312 Y16.195 Z0 F800
G1 X39.21 Y16.036 Z0 F800
G1 X39.095 Y15.884 Z0 F800
G1 X38.948 Y15.722 Z0 F800
G1 X38.753 Y15.527 Z0 F800
G1 X38.605 Y15.386 Z0 F800
G1 X38.477 Y15.269 Z0 F800
G1 X38.423 Y15.222 Z0 F800
G1 X38.357 Y15.168 Z0 F800
G1 X38.321 Y15.144 Z0 F800
G1 X38.284 Y15.125 Z0 F800
G1 X38.255 Y15.115 Z0 F800
G1 X38.158 Y15.062 Z0 F800
G1 X38.084 Y15.016 Z0 F800
G1 X37.852 Y14.88 Z0 F800
G1 X37.595 Y14.748 Z0 F800
G1 X37.42 Y14.671 Z0 F800
G1 X37.271 Y14.625 Z0 F800
G1 X37.109 Y14.604 Z0 F800
G1 X36.898 Y14.599 Z0 F800
G1 X36.565 Z0 F800
G1 X36.513 Y14.604 Z0 F800
G1 X36.464 Y14.623 Z0 F800
G1 X36.181 Y14.765 Z0 F800
G1 X35.946 Y14.894 Z0 F800
G1 X35.728 Y15.042 Z0 F800
G1 X35.492 Y15.236 Z0 F800
G1 X35.203 Y15.502 Z0 F800
G1 X34.965 Y15.73 Z0 F800
G1 X34.753 Y15.939 Z0 F800
G1 X34.567 Y16.132 Z0 F800
G1 X34.405 Y16.309 Z0 F800
G1 X34.268 Y16.472 Z0 F800
G1 X34.155 Y16.623 Z0 F800
G1 X34.065 Y16.763 Z0 F800
G1 X33.999 Y16.894 Z0 F800
G1 X33.96 Y16.963 Z0 F800
G1 X33.953 Y16.981 Z0 F800
G1 X33.895 Y17.061 Z0 F800
G1 X33.833 Y17.204 Z0 F800
G1 X33.801 Y17.29 Z0 F800
G1 X33.74 Y17.549 Z0 F800
G1 X33.722 Y17.896 Z0 F800
G1 Y18.246 Z0 F800
G1 X33.727 Y18.298 Z0 F800
G1 X33.746 Y18.347 Z0 F800
G1 X33.862 Y18.563 Z0 F800
G1 X33.956 Y18.719 Z0 F800
G1 X34.079 Y18.882 Z0 F800
G1 X34.161 Y18.979 Z0 F800
G1 X34.264 Y19.092 Z0 F800
G1 X34.678 Y19.531 Z0 F800
G1 X34.755 Y19.634 Z0 F800
G1 X34.803 Y19.745 Z0 F800
G1 X34.849 Y19.912 Z0 F800
G1 X34.878 Y20.143 Z0 F800
G1 X34.867 Y20.414 Z0 F800
G1 X34.822 Y20.68 Z0 F800
G1 X34.747 Y20.893 Z0 F800
G1 X34.6 Y21.084 Z0 F800
G1 X34.401 Y21.269 Z0 F800
G1 X34.358 Y21.292 Z0 F800
G1 X34.278 Y21.327 Z0 F800
G1 X34.172 Y21.368 Z0 F800
G1 X34.05 Y21.408 Z0 F800
G1 X33.786 Y21.477 Z0 F800
G1 X33.536 Y21.522 Z0 F800
G1 X33.351 Y21.541 Z0 F800
G1 X33.12 Y21.554 Z0 F800
G1 X32.863 Y21.563 Z0 F800
G1 X32.604 Y21.567 Z0 F800
G1 X32.361 Z0 F800
G1 X32.157 Y21.558 Z0 F800
G1 X32.075 Y21.552 Z0 F800
G1 X32.014 Y21.546 Z0 F800
G1 X31.976 Y21.538 Z0 F800
G1 X31.997 Y21.548 Z0 F800
G1 X31.837 Y21.488 Z0 F800
G1 X31.66 Y21.451 Z0 F800
G1 X31.468 Y21.431 Z0 F800
G1 X31.265 Y21.423 Z0 F800
G1 X30.848 Y21.44 Z0 F800
G1 X30.464 Y21.514 Z0 F800
G1 X30.24 Y21.591 Z0 F800
G1 X30.051 Y21.68 Z0 F800
G1 X29.878 Y21.791 Z0 F800
G1 X29.706 Y21.933 Z0 F800
G1 X29.496 Y22.137 Z0 F800
G1 X29.317 Y22.343 Z0 F800
G1 X29.171 Y22.552 Z0 F800
G1 X29.058 Y22.765 Z0 F800
G1 X29.008 Y22.885 Z0 F800
G1 X28.974 Y23.001 Z0 F800
G1 X28.963 Y23.118 Z0 F800
G1 X28.982 Y23.238 Z0 F800
G1 X29.042 Y23.355 Z0 F800
G1 X29.137 Y23.447 Z0 F800
G1 X29.249 Y23.5 Z0 F800
G1 X29.366 Y23.525 Z0 F800
G1 X29.479 Y23.528 Z0 F800
G1 X29.6 Y23.508 Z0 F800
G1 X29.719 Y23.464 Z0 F800
G1 X30.031 Y23.32 Z0 F800
G1 X30.083 Y23.298 Z0 F800
G1 X30.109 Y23.291 Z0 F800
G1 X30.147 Y23.275 Z0 F800
G1 X30.192 Y23.25 Z0 F800
G1 X30.281 Y23.188 Z0 F800
G1 X30.346 Y23.138 Z0 F800
G1 X30.468 Y23.062 Z0 F800
G1 X30.613 Y22.999 Z0 F800
G1 X30.696 Y22.971 Z0 F800
G1 X30.855 Y22.912 Z0 F800
G1 X30.901 Y22.883 Z0 F800
G1 X30.879 Y22.897 Z0 F800
G1 X30.915 Y22.885 Z0 F800
G1 X31.074 Y22.84 Z0 F800
G1 X31.309 Y22.781 Z0 F800
G1 X31.597 Y22.713 Z0 F800
G1 X31.76 Y22.679 Z0 F800
G1 X31.916 Y22.661 Z0 F800
G1 X32.115 Y22.652 Z0 F800
G1 X32.413 Z0 F800
G1 X32.733 Z0 F800
G1 X32.836 Y22.655 Z0 F800
G1 X32.912 Y22.66 Z0 F800
G1 X33.017 Y22.678 Z0 F800
G1 X33.142 Y22.718 Z0 F800
G1 X33.35 Y22.792 Z0 F800
G1 X33.486 Y22.859 Z0 F800
G1 X33.612 Y22.955 Z0 F800
G1 X33.785 Y23.116 Z0 F800
G1 X33.958 Y23.283 Z0 F800
G1 X34.062 Y23.403 Z0 F800
G1 X34.133 Y23.526 Z0 F800
G1 X34.209 Y23.703 Z0 F800
G1 X34.267 Y23.875 Z0 F800
G1 X34.264 Y24.115 Z0 F800
G1 X34.258 Y24.271 Z0 F800
G1 X34.248 Y24.36 Z0 F800
G1 X34.216 Y24.439 Z0 F800
G1 X34.15 Y24.565 Z0 F800
G1 X34.06 Y24.754 Z0 F800
G1 X34.01 Y24.928 Z0 F800
G1 X34.016 Y25.105 Z0 F800
G1 X34.07 Y25.265 Z0 F800
G1 X34.143 Y25.379 Z0 F800
G1 X34.25 Y25.491 Z0 F800
G1 X34.397 Y25.609 Z0 F800
G1 X34.782 Y25.889 Z0 F800
G1 X34.91 Y25.987 Z0 F800
G1 X35.32 Y26.3 Z0 F800
G1 X35.743 Y26.573 Z0 F800
G1 X35.944 Y26.688 Z0 F800
G1 X36.132 Y26.783 Z0 F800
G1 X36.308 Y26.856 Z0 F800
G1 X36.472 Y26.902 Z0 F800
G1 X36.716 Y26.935 Z0 F800
G1 X36.973 Y26.921 Z0 F800
G1 X37.114 Y26.894 Z0 F800
G1 X37.274 Y26.854 Z0 F800
G1 X37.461 Y26.798 Z0 F800
G1 X37.684 Y26.728 Z0 F800
G1 X38.026 Y26.647 Z0 F800
G1 X38.425 Y26.602 Z0 F800
G1 X38.847 Y26.595 Z0 F800
G1 X39.258 Y26.631 Z0 F800
G1 X39.513 Y26.681 Z0 F800
G1 X39.742 Y26.777 Z0 F800
G1 X39.879 Y26.85 Z0 F800
G1 X40.008 Y26.942 Z0 F800
G1 X40.086 Y27.009 Z0 F800
G1 X40.184 Y27.097 Z0 F800
G1 X40.459 Y27.357 Z0 F800
G1 X40.763 Y27.656 Z0 F800
G1 X41.004 Y27.911 Z0 F800
G1 X41.093 Y28.014 Z0 F800
G1 X41.156 Y28.093 Z0 F800
G1 X41.179 Y28.126 Z0 F800
G1 X41.186 Y28.147 Z0 F800
G1 X41.204 Y28.187 Z0 F800
G1 X41.232 Y28.244 Z0 F800
G1 X41.318 Y28.396 Z0 F800
G1 X41.43 Y28.611 Z0 F800
G1 X41.567 Y28.903 Z0 F800
G1 X41.629 Y29.043 Z0 F800
G1 X41.679 Y29.162 Z0 F800
G1 X41.71 Y29.244 Z0 F800
G1 X41.713 Y29.27 Z0 F800
G1 Y29.226 Z0 F800
G1 X41.716 Y29.279 Z0 F800
G1 X41.732 Y29.338 Z0 F800
G1 X41.766 Y29.447 Z0 F800
G1 X41.892 Y29.81 Z0 F800
G1 X41.972 Y30.075 Z0 F800
G1 X42.001 Y30.195 Z0 F800
G1 X42.023 Y30.297 Z0 F800
G1 X42.041 Y30.397 Z0 F800
G1 X42.05 Y30.48 Z0 F800
G1 X42.07 Y30.542 Z0 F800
G1 X42.095 Y30.606 Z0 F800
G1 X42.126 Y30.67 Z0 F800
G1 X42.165 Y30.759 Z0 F800
G1 X42.201 Y30.867 Z0 F800
G1 X42.274 Y31.055 Z0 F800
G1 X42.383 Y31.248 Z0 F800
G1 X42.512 Y31.44 Z0 F800
G1 X42.65 Y31.606 Z0 F800
G1 X42.799 Y31.733 Z0 F800
G1 X42.971 Y31.844 Z0 F800
G1 X43.038 Y31.884 Z0 F800
G1 X43.119 Y31.936 Z0 F800
G1 X43.142 Y31.954 Z0 F800
G1 X43.126 Y31.938 Z0 F800
G1 X43.162 Y31.972 Z0 F800
G1 X43.212 Y32.009 Z0 F800
G1 X43.312 Y32.074 Z0 F800
G1 X43.388 Y32.12 Z0 F800
G1 X43.616 Y32.293 Z0 F800
G1 X43.754 Y32.454 Z0 F800
G1 X43.866 Y32.643 Z0 F800
G1 X43.941 Y32.841 Z0 F800
G1 X43.982 Y33.13 Z0 F800
G1 X43.97 Y33.452 Z0 F800
G1 X43.905 Y33.753 Z0 F800
G1 X43.868 Y33.859 Z0 F800
G1 X43.833 Y33.921 Z0 F800
G1 X43.76 Y34.003 Z0 F800
G1 X43.615 Y34.147 Z0 F800
G1 X43.444 Y34.3 Z0 F800
G1 X43.298 Y34.409 Z0 F800
G1 X43.191 Y34.463 Z0 F800
G1 X43.173 Y34.476 Z0 F800
G1 X43.045 Y34.493 Z0 F800
G1 X42.955 Y34.537 Z0 F800
G1 Y34.533 Z0 F800
G1 X42.893 Y34.55 Z0 F800
G1 X42.81 Y34.567 Z0 F800
G1 X42.711 Y34.583 Z0 F800
G1 X42.501 Y34.61 Z0 F800
G1 X42.336 Y34.621 Z0 F800
G1 X42.039 Y34.596 Z0 F800
G1 X41.649 Y34.534 Z0 F800
G1 X41.472 Y34.498 Z0 F800
G1 X41.331 Y34.462 Z0 F800
G1 X41.276 Y34.444 Z0 F800
G1 X41.26 Y34.427 Z0 F800
G1 X41.231 Y34.405 Z0 F800
G1 X41.206 Y34.389 Z0 F800
G1 X41.152 Y34.358 Z0 F800
G1 X41.094 Y34.329 Z0 F800
G1 X41.034 Y34.301 Z0 F800
G1 X40.934 Y34.262 Z0 F800
G1 X40.855 Y34.245 Z0 F800
G1 X40.825 Z0 F800
G1 X40.858 Z0 F800
G1 X40.873 Z0 F800
G1 X40.792 Y34.203 Z0 F800
G1 X40.727 Y34.163 Z0 F800
G1 X40.598 Y34.078 Z0 F800
G1 X40.457 Y34.024 Z0 F800
G1 X40.356 Y34.021 Z0 F800
G1 X40.263 Y34.045 Z0 F800
G1 X40.201 Y34.081 Z0 F800
G1 X40.16 Y34.113 Z0 F800
G1 X40.081 Y34.208 Z0 F800
G1 X40.031 Y34.325 Z0 F800
G1 X40.007 Y34.449 Z0 F800
G1 X39.987 Y34.612 Z0 F800
G1 X39.953 Y34.842 Z0 F800
G1 X39.902 Y35.076 Z0 F800
G1 X39.875 Y35.178 Z0 F800
G1 X39.849 Y35.258 Z0 F800
G1 X39.821 Y35.309 Z0 F800
G1 X39.846 Y35.287 Z0 F800
G1 X39.792 Y35.344 Z0 F800
G1 X39.73 Y35.414 Z0 F800
G1 X39.671 Y35.472 Z0 F800
G1 X39.581 Y35.553 Z0 F800
G1 X39.427 Y35.356 Z0 F800
G1 X39.271 Y35.19 Z0 F800
G1 X39.101 Y35.04 Z0 F800
G1 X38.927 Y34.912 Z0 F800
G1 X38.957 Y34.859 Z0 F800
G1 X38.998 Y34.753 Z0 F800
G1 X39.019 Y34.626 Z0 F800
G1 Y34.477 Z0 F800
G1 X39.004 Y34.266 Z0 F800
G1 X38.991 Y33.95 Z0 F800
G1 X39.004 Y33.708 Z0 F800
G1 X39.049 Y33.504 Z0 F800
G1 X39.13 Y33.301 Z0 F800
G1 X39.241 Y33.098 Z0 F800
G1 X39.364 Y32.952 Z0 F800
G1 X39.509 Y32.849 Z0 F800
G1 X39.686 Y32.779 Z0 F800
G1 X39.905 Y32.721 Z0 F800
G1 X40.073 Y32.699 Z0 F800
G1 X40.227 Y32.711 Z0 F800
G1 X40.405 Y32.756 Z0 F800
G1 X40.549 Y32.803 Z0 F800
G1 X40.649 Y32.857 Z0 F800
G1 X40.713 Y32.905 Z0 F800
G1 X40.799 Y32.977 Z0 F800
G1 X40.913 Y33.076 Z0 F800
G1 X41.061 Y33.208 Z0 F800
G1 X41.271 Y33.39 Z0 F800
G1 X41.467 Y33.539 Z0 F800
G1 X41.655 Y33.656 Z0 F800
G1 X41.838 Y33.741 Z0 F800
G1 X42.023 Y33.792 Z0 F800
G1 X42.208 Y33.804 Z0 F800
G1 X42.388 Y33.78 Z0 F800
G1 X42.559 Y33.72 Z0 F800
G1 X42.71 Y33.632 Z0 F800
G1 X42.832 Y33.513 Z0 F800
G1 X42.909 Y33.359 Z0 F800
G1 X42.933 Y33.193 Z0 F800
G1 X42.919 Y33.072 Z0 F800
G1 X42.866 Y32.941 Z0 F800
G1 X42.776 Y32.835 Z0 F800
G1 X42.652 Y32.722 Z0 F800
G1 X42.556 Y32.639 Z0 F800
G1 X42.458 Y32.562 Z0 F800
G1 X42.372 Y32.499 Z0 F800
G1 X42.281 Y32.448 Z0 F800
G1 X42.193 Y32.386 Z0 F800
G1 X42.114 Y32.322 Z0 F800
G1 X42.031 Y32.251 Z0 F800
G1 X41.953 Y32.18 Z0 F800
G1 X41.892 Y32.12 Z0 F800
G1 X41.869 Y32.095 Z0 F800
G1 X41.84 Y32.033 Z0 F800
G1 X41.779 Y31.929 Z0 F800
G1 X41.728 Y31.85 Z0 F800
G1 X41.63 Y31.674 Z0 F800
G1 X41.539 Y31.471 Z0 F800
G1 X41.434 Y31.169 Z0 F800
G1 X41.332 Y30.842 Z0 F800
G1 X41.288 Y30.694 Z0 F800
G1 X41.254 Y30.571 Z0 F800
G1 X41.235 Y30.474 Z0 F800
G1 X41.229 Y30.468 Z0 F800
G1 X41.208 Y30.313 Z0 F800
G1 X41.155 Y30.18 Z0 F800
G1 X41.116 Y30.076 Z0 F800
G1 X41.036 Y29.803 Z0 F800
G1 X40.947 Y29.576 Z0 F800
G1 X40.834 Y29.328 Z0 F800
G1 X40.706 Y29.073 Z0 F800
G1 X40.54 Y28.791 Z0 F800
G1 X40.341 Y28.51 Z0 F800
G1 X40.119 Y28.24 Z0 F800
G1 X39.882 Y27.986 Z0 F800
G1 X39.641 Y27.758 Z0 F800
G1 X39.4 Y27.563 Z0 F800
G1 X39.161 Y27.411 Z0 F800
G1 X38.923 Y27.311 Z0 F800
G1 X38.729 Y27.276 Z0 F800
G1 X38.517 Y27.287 Z0 F800
G1 X38.284 Y27.341 Z0 F800
G1 X38.001 Y27.437 Z0 F800
G1 X37.541 Y27.606 Z0 F800
G1 X37.397 Y27.654 Z0 F800
G1 X37.285 Y27.684 Z0 F800
G1 X37.181 Y27.698 Z0 F800
G1 X37.066 Y27.702 Z0 F800
G1 X36.538 Y27.689 Z0 F800
G1 X36.306 Y27.681 Z0 F800
G1 X36.229 Y27.674 Z0 F800
G1 X36.106 Y27.649 Z0 F800
G1 X35.956 Y27.598 Z0 F800
G1 X35.561 Y27.433 Z0 F800
G1 X35.145 Y27.215 Z0 F800
G1 X34.767 Y26.979 Z0 F800
G1 X34.486 Y26.762 Z0 F800
G1 X34.231 Y26.553 Z0 F800
G1 X33.963 Y26.375 Z0 F800
G1 X33.611 Y26.175 Z0 F800
G1 X33.271 Y26.029 Z0 F800
G1 X32.887 Y25.945 Z0 F800
G1 X32.493 Y25.926 Z0 F800
G1 X32.12 Y25.976 Z0 F800
G1 X31.894 Y26.046 Z0 F800
G1 X31.679 Y26.142 Z0 F800
G1 X31.53 Y26.213 Z0 F800
G1 X31.289 Y26.314 Z0 F800
G1 X31.089 Y26.455 Z0 F800
G1 X31.025 Y26.495 Z0 F800
G1 X30.811 Y26.636 Z0 F800
G1 X30.604 Y26.845 Z0 F800
G1 X30.495 Y26.983 Z0 F800
G1 X30.379 Y27.149 Z0 F800
G1 X30.252 Y27.344 Z0 F800
G1 X30.111 Y27.573 Z0 F800
G1 X29.991 Y27.754 Z0 F800
G1 X29.888 Y27.893 Z0 F800
G1 X29.674 Y28.141 Z0 F800
G1 X29.559 Y28.281 Z0 F800
G1 X29.433 Y28.442 Z0 F800
G1 X29.194 Y28.701 Z0 F800
G1 X28.976 Y28.883 Z0 F800
G1 X28.864 Y28.957 Z0 F800
G1 X28.74 Y29.044 Z0 F800
G1 X28.511 Y29.151 Z0 F800
G1 X28.204 Y29.212 Z0 F800
G1 X27.863 Y29.216 Z0 F800
G1 X27.536 Y29.154 Z0 F800
G1 X27.005 Y28.933 Z0 F800
G1 X26.564 Y28.7 Z0 F800
G1 X26.379 Y28.56 Z0 F800
G1 X26.232 Y28.424 Z0 F800
G1 X26.118 Y28.288 Z0 F800
G1 X26.03 Y28.146 Z0 F800
G1 X25.968 Y28.029 Z0 F800
G1 X25.942 Y27.959 Z0 F800
G1 X25.938 Y27.869 Z0 F800
G1 Y27.687 Z0 F800
G1 X25.947 Y27.457 Z0 F800
G1 X25.971 Y27.289 Z0 F800
G1 X26.02 Y27.15 Z0 F800
G1 X26.1 Y27.008 Z0 F800
G1 X26.14 Y26.94 Z0 F800
G1 X26.174 Y26.875 Z0 F800
G1 X26.202 Y26.813 Z0 F800
G1 X26.217 Y26.768 Z0 F800
G1 X26.241 Y26.736 Z0 F800
G1 X26.306 Y26.665 Z0 F800
G1 X26.39 Y26.583 Z0 F800
G1 X26.583 Y26.419 Z0 F800
G1 X26.725 Y26.319 Z0 F800
G1 X26.96 Y26.232 Z0 F800
G1 X27.252 Y26.176 Z0 F800
G1 X27.565 Y26.157 Z0 F800
G1 X27.859 Y26.182 Z0 F800
G1 X28.221 Y26.297 Z0 F800
G1 X28.634 Y26.48 Z0 F800
G1 X28.832 Y26.565 Z0 F800
G1 X29.042 Y26.61 Z0 F800
G1 X29.137 Z0 F800
G1 X29.248 Y26.596 Z0 F800
G1 X29.364 Y26.559 Z0 F800
G1 X29.477 Y26.495 Z0 F800
G1 X29.591 Y26.403 Z0 F800
G1 X29.726 Y26.279 Z0 F800
G1 X29.895 Y26.115 Z0 F800
G1 X30.11 Y25.9 Z0 F800
G1 X30.309 Y25.706 Z0 F800
G1 X30.488 Y25.54 Z0 F800
G1 X30.623 Y25.422 Z0 F800
G1 X30.669 Y25.388 Z0 F800
G1 X30.665 Z0 F800
G1 X30.72 Y25.359 Z0 F800
G1 X30.769 Y25.33 Z0 F800
G1 X30.806 Y25.304 Z0 F800
G1 X30.992 Y25.229 Z0 F800
G1 X31.166 Y25.152 Z0 F800
G1 X31.24 Y25.125 Z0 F800
G1 X31.302 Y25.11 Z0 F800
G1 X31.28 Y25.107 Z0 F800
G1 X31.424 Y25.09 Z0 F800
G1 X31.612 Y25.025 Z0 F800
G1 X31.638 Y25.021 Z0 F800
G1 X31.625 Z0 F800
G1 X31.712 Y25.012 Z0 F800
G1 X31.85 Y24.972 Z0 F800
G1 X32.079 Y24.896 Z0 F800
G1 X32.258 Y24.844 Z0 F800
G1 X32.31 Y24.827 Z0 F800
G1 X32.359 Y24.807 Z0 F800
G1 X32.387 Y24.798 Z0 F800
G1 X32.448 Y24.742 Z0 F800
G1 X32.431 Y24.76 Z0 F800
G1 X32.547 Y24.684 Z0 F800
G1 X32.791 Y24.503 Z0 F800
G1 X32.965 Y24.298 Z0 F800
G1 X33.01 Y24.218 Z0 F800
G1 X33.042 Y24.13 Z0 F800
G1 X33.057 Y24.037 Z0 F800
G1 X33.052 Y23.941 Z0 F800
G1 X32.981 Y23.767 Z0 F800
G1 X32.859 Y23.624 Z0 F800
G1 X32.727 Y23.523 Z0 F800
G1 X32.579 Y23.452 Z0 F800
G1 X32.411 Y23.41 Z0 F800
G1 X32.222 Y23.396 Z0 F800
G1 X31.905 Y23.435 Z0 F800
G1 X31.556 Y23.53 Z0 F800
G1 X31.218 Y23.651 Z0 F800
G1 X30.941 Y23.8 Z0 F800
G1 X30.803 Y23.889 Z0 F800
G1 X30.653 Y23.972 Z0 F800
G1 X30.464 Y24.072 Z0 F800
G1 X30.275 Y24.184 Z0 F800
G1 X30.113 Y24.271 Z0 F800
G1 X29.932 Y24.339 Z0 F800
G1 X29.718 Y24.39 Z0 F800
G1 X29.458 Y24.427 Z0 F800
G1 X29.228 Y24.447 Z0 F800
G1 X29.031 Y24.454 Z0 F800
G1 X28.863 Y24.446 Z0 F800
G1 X28.717 Y24.423 Z0 F800
G1 X28.469 Y24.328 Z0 F800
G1 X28.241 Y24.158 Z0 F800
G1 X28.118 Y24.038 Z0 F800
G1 X28.046 Y23.931 Z0 F800
G1 X28.01 Y23.801 Z0 F800
G1 X27.993 Y23.614 Z0 F800
G1 X28.004 Y23.285 Z0 F800
G1 X28.062 Y22.918 Z0 F800
G1 X28.105 Y22.745 Z0 F800
G1 X28.155 Y22.592 Z0 F800
G1 X28.204 Y22.473 Z0 F800
G1 X28.242 Y22.401 Z0 F800
G1 X28.305 Y22.303 Z0 F800
G1 X28.351 Y22.191 Z0 F800
G1 X28.371 Y22.147 Z0 F800
G1 X28.422 Y22.049 Z0 F800
G1 X28.49 Y21.936 Z0 F800
G1 X28.564 Y21.822 Z0 F800
G1 X28.582 Y21.804 Z0 F800
G1 X28.658 Y21.721 Z0 F800
G1 X28.873 Y21.505 Z0 F800
G1 X29.112 Y21.274 Z0 F800
G1 X29.285 Y21.115 Z0 F800
G1 X29.42 Y21.041 Z0 F800
G1 X29.529 Y20.992 Z0 F800
G1 X29.607 Y20.962 Z0 F800
G1 X30.041 Y20.85 Z0 F800
G1 X30.481 Y20.773 Z0 F800
G1 X30.951 Y20.729 Z0 F800
G1 X31.474 Y20.716 Z0 F800
G1 X31.809 Z0 F800
G1 X31.92 Y20.719 Z0 F800
G1 X32.01 Y20.725 Z0 F800
G1 X32.165 Y20.75 Z0 F800
G1 X32.571 Y20.852 Z0 F800
G1 X32.728 Y20.879 Z0 F800
G1 X32.872 Z0 F800
G1 X33.016 Y20.861 Z0 F800
G1 X33.106 Y20.845 Z0 F800
G1 X33.225 Y20.817 Z0 F800
G1 X33.292 Y20.799 Z0 F800
G1 X33.354 Y20.761 Z0 F800
G1 X33.338 Y20.774 Z0 F800
G1 X33.372 Y20.755 Z0 F800
G1 X33.462 Y20.719 Z0 F800
G1 X33.62 Y20.653 Z0 F800
G1 X33.753 Y20.557 Z0 F800
G1 X33.846 Y20.417 Z0 F800
G1 X33.887 Y20.267 Z0 F800
G1 X33.896 Y20.154 Z0 F800
G1 X33.868 Y20.023 Z0 F800
G1 X33.802 Y19.913 Z0 F800
G1 X33.666 Y19.764 Z0 F800
G1 X33.625 Y19.717 Z0 F800
G1 Y19.733 Z0 F800
G1 X33.614 Y19.702 Z0 F800
G1 Y19.705 Z0 F800
G1 X33.597 Y19.672 Z0 F800
G1 X33.57 Y19.63 Z0 F800
G1 X33.492 Y19.525 Z0 F800
G1 X33.426 Y19.44 Z0 F800
G1 X33.282 Y19.248 Z0 F800
G1 X33.159 Y19.062 Z0 F800
G1 X33.061 Y18.891 Z0 F800
G1 X32.992 Y18.744 Z0 F800
G1 X32.966 Y18.645 Z0 F800
G1 X32.942 Y18.49 Z0 F800
G1 X32.927 Y18.295 Z0 F800
G1 X32.923 Y18.075 Z0 F800
G1 X32.951 Y17.601 Z0 F800
G1 X33.022 Y17.142 Z0 F800
G1 X33.09 Y16.878 Z0 F800
G1 X33.173 Y16.649 Z0 F800
G1 X33.282 Y16.433 Z0 F800
G1 X33.424 Y16.208 Z0 F800
G1 X33.618 Y15.933 Z0 F800
G1 X33.803 Y15.708 Z0 F800
G1 X33.923 Y15.581 Z0 F800
G1 X34.078 Y15.424 Z0 F800
G1 X34.543 Y14.968 Z0 F800
G1 X34.943 Y14.581 Z0 F800
G1 X35.08 Y14.454 Z0 F800
G1 X35.185 Y14.361 Z0 F800
G1 X35.336 Y14.246 Z0 F800
G1 X35.493 Y14.157 Z0 F800
G1 X35.666 Y14.073 Z0 F800
G1 X35.84 Y14.008 Z0 F800
G1 X36.058 Y13.947 Z0 F800
G1 X36.362 Y13.878 Z0 F800
G1 X36.564 Y13.867 Z0 F800
G1 X36.749 Y13.864 Z0 F800
G1 X36.952 Z0 F800
G1 X37.213 Y13.874 Z0 F800
G1 X37.394 Y13.887 Z0 F800
G1 X37.537 Y13.908 Z0 F800
G1 X37.686 Y13.944 Z0 F800
G1 X38.19 Y14.12 Z0 F800
G1 X38.642 Y14.346 Z0 F800
G1 X39.036 Y14.587 Z0 F800
G1 X39.222 Y14.729 Z0 F800
G1 X39.46 Y14.938 Z0 F800
G1 X39.599 Y15.081 Z0 F800
G1 X39.711 Y15.215 Z0 F800
G1 X39.826 Y15.379 Z0 F800
G1 X39.969 Y15.609 Z0 F800
G1 X40.112 Y15.849 Z0 F800
G1 X40.238 Y16.065 Z0 F800
G1 X40.345 Y16.262 Z0 F800
G1 X40.437 Y16.439 Z0 F800
G1 X40.575 Y16.744 Z0 F800
G1 X40.66 Y16.993 Z0 F800
G1 X40.708 Y17.16 Z0 F800
G1 X40.766 Y17.35 Z0 F800
G1 X40.79 Y17.456 Z0 F800
G1 X40.813 Y17.616 Z0 F800
G1 X40.831 Y17.808 Z0 F800
G1 X40.842 Y18.014 Z0 F800
G1 Y18.218 Z0 F800
G1 X40.836 Y18.407 Z0 F800
G1 X40.824 Y18.557 Z0 F800
G1 X40.809 Y18.646 Z0 F800
G1 X40.713 Y18.89 Z0 F800
G1 X40.594 Y19.051 Z0 F800
G1 X40.447 Y19.152 Z0 F800
G1 X40.246 Y19.209 Z0 F800
G1 X39.906 Y19.186 Z0 F800
G1 X39.566 Y19.105 Z0 F800
G1 X39.414 Y19.039 Z0 F800
G1 X39.264 Y18.989 Z0 F800
G1 X39.182 Y18.955 Z0 F800
G1 X39.065 Y18.897 Z0 F800
G1 X38.919 Y18.817 Z0 F800
G1 X38.757 Y18.763 Z0 F800
G1 X38.694 Y18.739 Z0 F800
G1 X38.589 Y18.693 Z0 F800
G1 X38.457 Y18.621 Z0 F800
G1 X38.375 Y18.595 Z0 F800
G1 X38.292 Y18.601 Z0 F800
G1 X38.217 Y18.635 Z0 F800
G1 X38.159 Y18.697 Z0 F800
G1 X38.101 Y18.789 Z0 F800
G1 X38.059 Y18.867 Z0 F800
G1 X38.03 Y18.963 Z0 F800
G1 Y19.066 Z0 F800
G1 X38.053 Y19.152 Z0 F800
G1 X38.106 Y19.518 Z0 F800
G1 X38.122 Y19.928 Z0 F800
G1 X38.081 Y20.111 Z0 F800
G1 X38.009 Y20.306 Z0 F800
G1 X37.929 Y20.473 Z0 F800
G1 X37.866 Y20.57 Z0 F800
G1 X37.766 Y20.64 Z0 F800
G1 X37.604 Y20.733 Z0 F800
G1 X37.494 Y20.785 Z0 F800
G1 X37.432 Y20.807 Z0 F800
G1 X37.362 Z0 F800
G1 X37.229 Y20.802 Z0 F800
G1 X37.023 Y20.784 Z0 F800
G1 X36.873 Y20.73 Z0 F800
G1 X36.663 Y20.61 Z0 F800
G1 X36.477 Y20.459 Z0 F800
G1 X36.329 Y20.293 Z0 F800
G1 X36.229 Y20.125 Z0 F800
G1 X36.189 Y20.018 Z0 F800
G1 X36.171 Y19.895 Z0 F800
G1 X36.167 Y19.798 Z0 F800
G1 Y19.667 Z0 F800
G1 X36.171 Y19.498 Z0 F800
G1 X36.179 Y19.281 Z0 F800
G1 X36.163 Y19.021 Z0 F800
G1 X36.086 Y18.8 Z0 F800
G1 X36.027 Y18.647 Z0 F800
G1 X35.986 Y18.443 Z0 F800
G1 X35.961 Y18.166 Z0 F800
G1 X35.953 Y17.795 Z0 F800
G1 Y17.565 Z0 F800
G1 X35.962 Y17.391 Z0 F800
G1 X35.976 Y17.263 Z0 F800
G1 X35.997 Y17.172 Z0 F800
G1 X36.028 Y17.101 Z0 F800
G1 X36.077 Y17.029 Z0 F800
G1 X36.151 Y16.944 Z0 F800
G0 Z3.5 F500
G0 X37.333 Y22.948 Z3.5 
G1 Z0 F500
G1 X37.342 Y22.954 Z0 F800
G1 X37.42 Y23.017 Z0 F800
G1 X37.512 Y23.097 Z0 F800
G1 X37.625 Y23.223 Z0 F800
G1 X37.729 Y23.374 Z0 F800
G1 X37.802 Y23.514 Z0 F800
G1 X37.846 Y23.646 Z0 F800
G1 X37.941 Y23.962 Z0 F800
G1 X38.148 Y24.318 Z0 F800
G1 X37.686 Y24.363 Z0 F800
G1 X37.559 Y24.359 Z0 F800
G1 X37.371 Y24.333 Z0 F800
G1 X37.211 Y24.296 Z0 F800
G1 X37.182 Y24.286 Z0 F800
G1 X37.173 Y24.281 Z0 F800
G1 X37.104 Y24.222 Z0 F800
G1 X37.041 Y24.156 Z0 F800
G1 X37.016 Y24.122 Z0 F800
G1 X36.905 Y23.9 Z0 F800
G1 X36.796 Y23.598 Z0 F800
G1 X36.721 Y23.304 Z0 F800
G1 X36.707 Y23.182 Z0 F800
G1 X36.712 Y23.148 Z0 F800
G1 X36.726 Y23.116 Z0 F800
G1 X36.744 Y23.093 Z0 F800
G1 X36.813 Y23.043 Z0 F800
G1 X36.911 Y22.991 Z0 F800
G1 X36.962 Y22.979 Z0 F800
G1 X37.076 Y22.957 Z0 F800
G1 X37.176 Y22.945 Z0 F800
G1 X37.321 Z0 F800
G1 X37.333 Y22.948 Z0 F800
G0 Z3.5 F500
G0 X38.158 Y23.117 Z3.5 
G1 Z0 F500
G1 X38.264 Y23.32 Z0 F800
G1 X38.321 Y23.49 Z0 F800
G1 X38.403 Y23.761 Z0 F800
G1 X38.578 Y24.062 Z0 F800
G1 X38.843 Y24.316 Z0 F800
G1 X39.175 Y24.473 Z0 F800
G1 X39.344 Y24.505 Z0 F800
G1 X39.532 Y24.515 Z0 F800
G1 X39.643 Y24.518 Z0 F800
G1 X39.892 Z0 F800
G1 X39.908 Z0 F800
G1 X39.728 Y24.535 Z0 F800
G1 X39.399 Y24.607 Z0 F800
G1 X39.141 Y24.673 Z0 F800
G1 X39.011 Y24.703 Z0 F800
G1 X38.797 Y24.739 Z0 F800
G1 X38.256 Y24.81 Z0 F800
G1 X37.705 Y24.864 Z0 F800
G1 X37.514 Y24.858 Z0 F800
G1 X37.28 Y24.825 Z0 F800
G1 X37.069 Y24.777 Z0 F800
G1 X36.961 Y24.737 Z0 F800
G1 X36.875 Y24.683 Z0 F800
G1 X36.762 Y24.589 Z0 F800
G1 X36.657 Y24.479 Z0 F800
G1 X36.588 Y24.384 Z0 F800
G1 X36.445 Y24.097 Z0 F800
G1 X36.316 Y23.74 Z0 F800
G1 X36.229 Y23.398 Z0 F800
G1 X36.203 Y23.172 Z0 F800
G1 X36.227 Y23.01 Z0 F800
G1 X36.293 Y22.857 Z0 F800
G1 X36.396 Y22.729 Z0 F800
G1 X36.549 Y22.616 Z0 F800
G1 X36.722 Y22.524 Z0 F800
G1 X36.739 Y22.519 Z0 F800
G1 X36.859 Y22.489 Z0 F800
G1 X37.007 Y22.461 Z0 F800
G1 X37.146 Y22.445 Z0 F800
G1 X37.378 Z0 F800
G1 X37.519 Y22.478 Z0 F800
G1 X37.555 Y22.496 Z0 F800
G1 X37.636 Y22.549 Z0 F800
G1 X37.737 Y22.629 Z0 F800
G1 X37.869 Y22.746 Z0 F800
G1 X38.016 Y22.909 Z0 F800
G1 X38.158 Y23.117 Z0 F800
G0 Z3.5 F500
G0 X50.578 Y23.594 Z3.5 
G1 Z0 F500
G1 X50.607 Y23.45 Z0 F800
G1 X50.625 Y23.417 Z0 F800
G1 X50.652 Y23.377 Z0 F800
G1 X50.72 Y23.292 Z0 F800
G1 X50.831 Y23.167 Z0 F800
G1 X50.949 Y23.044 Z0 F800
G1 X51.065 Y22.937 Z0 F800
G1 X51.183 Y22.836 Z0 F800
G1 X51.23 Z0 F800
G1 X51.337 Z0 F800
G1 X51.414 Y22.872 Z0 F800
G1 X51.428 Y22.888 Z0 F800
G1 X51.445 Y22.93 Z0 F800
G1 X51.449 Y22.951 Z0 F800
G1 X51.458 Y23.058 Z0 F800
G1 Y23.218 Z0 F800
G1 X51.443 Y23.481 Z0 F800
G1 X51.301 Y23.45 Z0 F800
G1 X51.033 Y23.465 Z0 F800
G1 X50.865 Y23.5 Z0 F800
G1 X50.579 Y23.593 Z0 F800
G0 Z3.5 F500
G0 X49.265 Y24.446 Z3.5 
G1 Z0 F500
G1 X49.277 Y24.337 Z0 F800
G1 X49.286 Y24.294 Z0 F800
G1 X49.291 Y24.288 Z0 F800
G1 X49.345 Y24.228 Z0 F800
G1 X49.411 Y24.163 Z0 F800
G1 X49.656 Y23.933 Z0 F800
G1 X49.757 Y23.833 Z0 F800
G1 X49.843 Y23.746 Z0 F800
G1 X49.92 Y23.662 Z0 F800
G1 X49.936 Y23.643 Z0 F800
G1 X49.948 Z0 F800
G1 X49.972 Y23.598 Z0 F800
G1 X49.988 Y23.578 Z0 F800
G1 X50.104 Y23.416 Z0 F800
G1 X50.131 Y23.28 Z0 F800
G1 X50.149 Y23.244 Z0 F800
G1 X50.196 Y23.158 Z0 F800
G1 X50.249 Y23.081 Z0 F800
G1 X50.34 Y22.967 Z0 F800
G1 X50.459 Y22.831 Z0 F800
G1 X50.598 Y22.688 Z0 F800
G1 X50.739 Y22.557 Z0 F800
G1 X50.873 Y22.443 Z0 F800
G1 X50.973 Y22.368 Z0 F800
G1 X51.016 Y22.34 Z0 F800
G1 X51.049 Z0 F800
G1 X51.23 Y22.335 Z0 F800
G1 X51.411 Y22.338 Z0 F800
G1 X51.453 Z0 F800
G1 X51.479 Y22.352 Z0 F800
G1 X51.629 Y22.421 Z0 F800
G1 X51.677 Y22.441 Z0 F800
G1 X51.689 Y22.449 Z0 F800
G1 X51.725 Y22.477 Z0 F800
G1 X51.754 Y22.501 Z0 F800
G1 X51.86 Y22.625 Z0 F800
G1 X51.926 Y22.784 Z0 F800
G1 X51.945 Y22.883 Z0 F800
G1 X51.958 Y23.035 Z0 F800
G1 Y23.23 Z0 F800
G1 X51.922 Y23.86 Z0 F800
G1 X51.93 Y24.212 Z0 F800
G1 X51.981 Y24.541 Z0 F800
G1 X52.022 Y24.662 Z0 F800
G1 X51.994 Y24.608 Z0 F800
G1 X51.977 Y24.565 Z0 F800
G1 X51.934 Y24.41 Z0 F800
G1 X51.737 Y24.145 Z0 F800
G1 X51.494 Y24.003 Z0 F800
G1 X51.262 Y23.953 Z0 F800
G1 X51.098 Y23.962 Z0 F800
G1 X50.994 Y23.984 Z0 F800
G1 X50.796 Y24.048 Z0 F800
G1 X50.569 Y24.195 Z0 F800
G1 X50.412 Y24.383 Z0 F800
G1 X50.337 Y24.518 Z0 F800
G1 X50.295 Y24.583 Z0 F800
G1 X50.263 Y24.625 Z0 F800
G1 X50.179 Y24.721 Z0 F800
G1 X50.116 Y24.8 Z0 F800
G1 X50.018 Y24.892 Z0 F800
G1 X49.838 Y24.999 Z0 F800
G1 X49.757 Y25.032 Z0 F800
G1 X49.668 Y25.058 Z0 F800
G1 X49.623 Y25.066 Z0 F800
G1 X49.551 Y25.049 Z0 F800
G1 X49.447 Y24.995 Z0 F800
G1 X49.354 Y24.916 Z0 F800
G1 X49.299 Y24.842 Z0 F800
G1 X49.286 Y24.786 Z0 F800
G1 X49.271 Y24.68 Z0 F800
G1 X49.262 Y24.561 Z0 F800
G1 X49.265 Y24.446 Z0 F800
G0 Z3.5 F500
G0 X44.663 Y37.938 Z3.5 
G1 Z0 F500
G1 X44.659 Y38 Z0 F800
G1 X44.641 Y38.084 Z0 F800
G1 X44.621 Y38.129 Z0 F800
G1 X44.547 Y38.237 Z0 F800
G1 X44.427 Y38.374 Z0 F800
G1 X44.285 Y38.507 Z0 F800
G1 X44.252 Y38.529 Z0 F800
G1 X44.21 Y38.556 Z0 F800
G1 X44.111 Y38.615 Z0 F800
G1 X43.936 Z0 F800
G1 X43.984 Y38.605 Z0 F800
G1 X44.228 Y38.482 Z0 F800
G1 X44.387 Y38.37 Z0 F800
G1 X44.557 Y38.183 Z0 F800
G1 X44.663 Y37.938 Z0 F800
G0 Z3.5 F500
G0 X42.16 Y36.222 Z3.5 
G1 Z0 F500
G1 X42.185 Y36.321 Z0 F800
G1 X42.208 Y36.469 Z0 F800
G1 X42.229 Y36.674 Z0 F800
G1 X42.242 Y36.905 Z0 F800
G1 X42.18 Y36.712 Z0 F800
G1 X42.045 Y36.497 Z0 F800
G1 X41.791 Y36.312 Z0 F800
G1 X41.095 Y36.139 Z0 F800
G1 X41.129 Y36.107 Z0 F800
G1 X41.204 Y36.047 Z0 F800
G1 X41.366 Y35.95 Z0 F800
G1 X41.517 Y35.898 Z0 F800
G1 X41.668 Y35.877 Z0 F800
G1 X41.776 Y35.89 Z0 F800
G1 X41.887 Y35.937 Z0 F800
G1 X42.038 Y36.048 Z0 F800
G1 X42.089 Y36.097 Z0 F800
G1 X42.121 Y36.136 Z0 F800
G1 X42.138 Y36.166 Z0 F800
G1 X42.16 Y36.222 Z0 F800
G0 Z3.5 F500
G0 X40.882 Y36.38 Z3.5 
G1 Z0 F500
G1 X40.828 Y36.418 Z0 F800
G1 X40.879 Y36.36 Z0 F800
G1 X40.882 Y36.38 Z0 F800
G0 Z3.5 F500
G0 X43.022 Y26.429 Z3.5 
G1 Z0 F500
G1 X42.984 Y26.313 Z0 F800
G1 X42.787 Y25.93 Z0 F800
G1 X42.673 Y25.742 Z0 F800
G1 X42.55 Y25.565 Z0 F800
G1 X42.407 Y25.393 Z0 F800
G1 X42.235 Y25.237 Z0 F800
G1 X41.917 Y25.029 Z0 F800
G1 X41.558 Y24.858 Z0 F800
G1 X41.154 Y24.714 Z0 F800
G1 X40.693 Y24.586 Z0 F800
G1 X40.37 Y24.523 Z0 F800
G1 X40.18 Y24.511 Z0 F800
G1 X40.435 Y24.506 Z0 F800
G1 X40.623 Z0 F800
G1 X40.777 Z0 F800
G1 X40.866 Y24.512 Z0 F800
G1 X41.021 Y24.538 Z0 F800
G1 X41.167 Y24.587 Z0 F800
G1 X41.338 Y24.66 Z0 F800
G1 X41.53 Y24.75 Z0 F800
G1 X41.702 Y24.841 Z0 F800
G1 X41.99 Y25.013 Z0 F800
G1 X42.228 Y25.131 Z0 F800
G1 X42.523 Y25.272 Z0 F800
G1 X42.648 Y25.315 Z0 F800
G1 X42.781 Y25.331 Z0 F800
G1 X43.401 Z0 F800
G1 X43.66 Y25.307 Z0 F800
G1 X43.949 Y25.173 Z0 F800
G1 X44.16 Y24.983 Z0 F800
G1 X44.322 Y24.69 Z0 F800
G1 X44.381 Y24.396 Z0 F800
G1 X44.375 Y24.247 Z0 F800
G1 X44.381 Y24.264 Z0 F800
G1 X44.398 Y24.367 Z0 F800
G1 X44.406 Y24.514 Z0 F800
G1 X44.4 Y24.731 Z0 F800
G1 X44.387 Y24.898 Z0 F800
G1 X44.375 Y24.965 Z0 F800
G1 X44.363 Y24.994 Z0 F800
G1 X44.313 Y25.074 Z0 F800
G1 X44.222 Y25.194 Z0 F800
G1 X44.135 Y25.272 Z0 F800
G1 X44.093 Y25.298 Z0 F800
G1 X44.003 Y25.346 Z0 F800
G1 X43.888 Y25.399 Z0 F800
G1 X43.711 Y25.474 Z0 F800
G1 X43.509 Y25.572 Z0 F800
G1 X43.287 Y25.756 Z0 F800
G1 X43.126 Y26.004 Z0 F800
G1 X43.05 Y26.239 Z0 F800
G1 X43.024 Y26.387 Z0 F800
G1 Y26.429 Z0 F800
G0 Z3.5 F500
G0 X52.58 Y25.823 Z3.5 
G1 Z0 F500
G1 X52.534 Y25.773 Z0 F800
G1 X52.442 Y25.662 Z0 F800
G1 X52.414 Y25.624 Z0 F800
G1 X52.407 Y25.612 Z0 F800
G1 X52.382 Y25.548 Z0 F800
G1 X52.313 Y25.396 Z0 F800
G1 X52.217 Y25.186 Z0 F800
G1 X52.184 Y25.105 Z0 F800
G1 X52.179 Y25.091 Z0 F800
G1 Y25.088 Z0 F800
G1 X52.174 Y25.043 Z0 F800
G1 X52.178 Y25.053 Z0 F800
G1 X52.375 Y25.303 Z0 F800
G1 X52.615 Y25.445 Z0 F800
G1 X52.868 Y25.502 Z0 F800
G1 X53.063 Y25.488 Z0 F800
G1 X53.216 Y25.452 Z0 F800
G1 X53.267 Y25.426 Z0 F800
G1 X53.118 Y25.574 Z0 F800
G1 X52.963 Y25.721 Z0 F800
G1 X52.885 Y25.789 Z0 F800
G1 X52.842 Y25.817 Z0 F800
G1 X52.762 Y25.856 Z0 F800
G1 X52.7 Y25.884 Z0 F800
G1 X52.672 Y25.879 Z0 F800
G1 X52.651 Y25.873 Z0 F800
G1 X52.626 Y25.858 Z0 F800
G1 X52.58 Y25.823 Z0 F800
G0 Z3.5 F500
G0 X47.166 Y23.132 Z3.5 
G1 Z0 F500
G1 X47.154 Y23.14 Z0 F800
G1 X47.083 Y23.167 Z0 F800
G1 X47.063 Y23.17 Z0 F800
G1 X47.166 Y23.132 Z0 F800
G0 Z3.5 F500
G0 X47.541 Y22.811 Z3.5 
G1 Z0 F500
G1 X47.605 Y22.698 Z0 F800
G1 X47.584 Y22.747 Z0 F800
G1 X47.541 Y22.811 Z0 F800
G0 Z3.5 F500
G0 X41.002 Y21.976 Z3.5 
G1 Z0 F500
G1 X40.987 Y21.963 Z0 F800
G1 X40.902 Y21.878 Z0 F800
G1 X40.785 Y21.707 Z0 F800
G1 X40.734 Y21.546 Z0 F800
G1 X40.725 Y21.422 Z0 F800
G1 X40.738 Y21.359 Z0 F800
G1 X40.778 Y21.293 Z0 F800
G1 X40.9 Y21.174 Z0 F800
G1 X41.025 Y21.08 Z0 F800
G1 X40.974 Y21.167 Z0 F800
G1 X40.909 Y21.354 Z0 F800
G1 X40.886 Y21.589 Z0 F800
G1 X40.93 Y21.814 Z0 F800
G1 X40.998 Y21.969 Z0 F800
G1 X41.002 Y21.976 Z0 F800
G0 Z3.5 F500
G0 X41.601 Y22.905 Z3.5 
G1 Z0 F500
G1 X41.45 Y22.857 Z0 F800
G1 X41.241 Y22.751 Z0 F800
G1 X41.01 Y22.608 Z0 F800
G1 X40.814 Y22.47 Z0 F800
G1 X40.65 Y22.333 Z0 F800
G1 X40.516 Y22.199 Z0 F800
G1 X40.33 Y21.926 Z0 F800
G1 X40.24 Y21.643 Z0 F800
G1 X40.222 Y21.388 Z0 F800
G1 X40.267 Y21.174 Z0 F800
G1 X40.381 Y20.982 Z0 F800
G1 X40.574 Y20.793 Z0 F800
G1 X40.854 Y20.583 Z0 F800
G1 X41.141 Y20.412 Z0 F800
G1 X41.453 Y20.27 Z0 F800
G1 X41.804 Y20.15 Z0 F800
G1 X41.993 Y20.096 Z0 F800
G1 X42.137 Y20.07 Z0 F800
G1 X42.222 Y20.064 Z0 F800
G1 X42.333 Z0 F800
G1 X42.906 Z0 F800
G1 X43.079 Y20.068 Z0 F800
G1 X43.21 Y20.077 Z0 F800
G1 X43.309 Y20.091 Z0 F800
G1 X43.468 Y20.144 Z0 F800
G1 X43.674 Y20.257 Z0 F800
G1 X43.913 Y20.397 Z0 F800
G1 X44.092 Y20.513 Z0 F800
G1 X44.319 Y20.681 Z0 F800
G1 X44.569 Y20.881 Z0 F800
G1 X44.821 Y21.096 Z0 F800
G1 X45.053 Y21.309 Z0 F800
G1 X45.248 Y21.501 Z0 F800
G1 X45.326 Y21.587 Z0 F800
G1 X45.42 Y21.708 Z0 F800
G1 X45.428 Y21.713 Z0 F800
G1 X45.468 Y21.793 Z0 F800
G1 X45.578 Y21.963 Z0 F800
G1 X45.646 Y22.063 Z0 F800
G1 X45.715 Y22.162 Z0 F800
G1 X45.829 Y22.317 Z0 F800
G1 X45.9 Y22.387 Z0 F800
G1 X46.065 Y22.493 Z0 F800
G1 X46.258 Y22.584 Z0 F800
G1 X46.453 Y22.671 Z0 F800
G1 X46.642 Y22.729 Z0 F800
G1 X46.826 Y22.725 Z0 F800
G1 X46.999 Y22.661 Z0 F800
G1 X47.106 Y22.563 Z0 F800
G1 X47.201 Y22.398 Z0 F800
G1 X47.226 Y22.298 Z0 F800
G1 X47.25 Y22.17 Z0 F800
G1 X47.31 Y21.783 Z0 F800
G1 X47.356 Y21.529 Z0 F800
G1 X47.395 Y21.356 Z0 F800
G1 X47.414 Y21.286 Z0 F800
G1 X47.441 Y21.159 Z0 F800
G1 X47.447 Y21.09 Z0 F800
G1 X47.456 Y21.059 Z0 F800
G1 X47.488 Y20.99 Z0 F800
G1 X47.549 Y20.888 Z0 F800
G1 X47.646 Y20.761 Z0 F800
G1 X47.78 Y20.613 Z0 F800
G1 X47.95 Y20.444 Z0 F800
G1 X48.154 Y20.254 Z0 F800
G1 X48.395 Y20.043 Z0 F800
G1 X48.549 Y19.922 Z0 F800
G1 X48.729 Y19.799 Z0 F800
G1 X48.814 Y19.746 Z0 F800
G1 X48.888 Y19.704 Z0 F800
G1 X48.945 Y19.678 Z0 F800
G1 X48.953 Y19.672 Z0 F800
G1 X49.083 Y19.628 Z0 F800
G1 X49.202 Y19.568 Z0 F800
G1 X49.319 Y19.511 Z0 F800
G1 X49.454 Y19.47 Z0 F800
G1 X49.543 Y19.452 Z0 F800
G1 X49.656 Y19.433 Z0 F800
G1 X49.975 Y19.388 Z0 F800
G1 X50.261 Y19.354 Z0 F800
G1 X50.529 Y19.336 Z0 F800
G1 X50.687 Y19.332 Z0 F800
G1 X50.878 Z0 F800
G1 X51.114 Z0 F800
G1 X51.7 Y19.335 Z0 F800
G1 X52.106 Y19.343 Z0 F800
G1 X52.24 Y19.348 Z0 F800
G1 X52.426 Y19.366 Z0 F800
G1 X52.574 Y19.396 Z0 F800
G1 X52.772 Y19.456 Z0 F800
G1 X52.888 Y19.497 Z0 F800
G1 X53.193 Y19.657 Z0 F800
G1 X53.444 Y19.816 Z0 F800
G1 X53.516 Y19.874 Z0 F800
G1 X53.625 Y19.969 Z0 F800
G1 X53.755 Y20.087 Z0 F800
G1 X53.888 Y20.216 Z0 F800
G1 X54.012 Y20.341 Z0 F800
G1 X54.116 Y20.451 Z0 F800
G1 X54.186 Y20.532 Z0 F800
G1 X54.201 Y20.556 Z0 F800
G1 X54.192 Y20.534 Z0 F800
G1 X54.223 Y20.598 Z0 F800
G1 X54.299 Y20.721 Z0 F800
G1 X54.384 Y20.848 Z0 F800
G1 X54.417 Y20.905 Z0 F800
G1 X54.439 Y20.953 Z0 F800
G1 X54.442 Z0 F800
G1 X54.493 Y21.098 Z0 F800
G1 X54.563 Y21.242 Z0 F800
G1 X54.608 Y21.354 Z0 F800
G1 X54.667 Y21.549 Z0 F800
G1 X54.701 Y21.681 Z0 F800
G1 X54.739 Y21.838 Z0 F800
G1 X54.781 Y22.021 Z0 F800
G1 X54.827 Y22.23 Z0 F800
G1 X54.858 Y22.646 Z0 F800
G1 X54.836 Y23.066 Z0 F800
G1 X54.775 Y23.344 Z0 F800
G1 X54.696 Y23.656 Z0 F800
G1 X54.62 Y23.932 Z0 F800
G1 X54.588 Y24.034 Z0 F800
G1 X54.503 Y24.263 Z0 F800
G1 X54.462 Y24.417 Z0 F800
G1 X54.448 Y24.447 Z0 F800
G1 X54.4 Y24.568 Z0 F800
G1 X54.333 Y24.715 Z0 F800
G1 X54.255 Y24.877 Z0 F800
G1 X54.174 Y25.037 Z0 F800
G1 X54.099 Y25.178 Z0 F800
G1 X54.041 Y25.28 Z0 F800
G1 X54.02 Y25.31 Z0 F800
G1 X54.025 Y25.305 Z0 F800
G1 X53.992 Y25.343 Z0 F800
G1 X53.962 Y25.383 Z0 F800
G1 X53.948 Y25.404 Z0 F800
G1 X53.935 Y25.43 Z0 F800
G1 X53.917 Y25.468 Z0 F800
G1 X53.888 Y25.503 Z0 F800
G1 X53.841 Y25.555 Z0 F800
G1 X53.688 Y25.714 Z0 F800
G1 X53.463 Y25.936 Z0 F800
G1 X53.3 Y26.091 Z0 F800
G1 X53.187 Y26.188 Z0 F800
G1 X53.088 Y26.253 Z0 F800
G1 X52.971 Y26.311 Z0 F800
G1 X52.798 Y26.387 Z0 F800
G1 X52.667 Z0 F800
G1 X52.554 Y26.368 Z0 F800
G1 X52.449 Y26.333 Z0 F800
G1 X52.348 Y26.275 Z0 F800
G1 X52.241 Y26.192 Z0 F800
G1 X52.159 Y26.105 Z0 F800
G1 X52.049 Y25.971 Z0 F800
G1 X52.002 Y25.907 Z0 F800
G1 X51.956 Y25.836 Z0 F800
G1 X51.951 Y25.82 Z0 F800
G1 X51.92 Y25.741 Z0 F800
G1 X51.858 Y25.602 Z0 F800
G1 X51.756 Y25.381 Z0 F800
G1 X51.717 Y25.285 Z0 F800
G1 X51.693 Y25.216 Z0 F800
G1 X51.69 Y25.199 Z0 F800
G1 Y25.224 Z0 F800
G1 X51.681 Y25.133 Z0 F800
G1 X51.657 Y25.063 Z0 F800
G1 X51.627 Y24.991 Z0 F800
G1 X51.589 Y24.919 Z0 F800
G1 X51.54 Y24.818 Z0 F800
G1 X51.501 Y24.722 Z0 F800
G1 X51.477 Y24.633 Z0 F800
G1 X51.396 Y24.525 Z0 F800
G1 X51.311 Y24.475 Z0 F800
G1 X51.223 Y24.456 Z0 F800
G1 X51.163 Y24.459 Z0 F800
G1 X51.122 Y24.468 Z0 F800
G1 X51.013 Y24.503 Z0 F800
G1 X50.904 Y24.574 Z0 F800
G1 X50.826 Y24.668 Z0 F800
G1 X50.766 Y24.774 Z0 F800
G1 X50.706 Y24.869 Z0 F800
G1 X50.648 Y24.944 Z0 F800
G1 X50.563 Y25.042 Z0 F800
G1 X50.484 Y25.141 Z0 F800
G1 X50.318 Y25.295 Z0 F800
G1 X50.063 Y25.447 Z0 F800
G1 X49.921 Y25.504 Z0 F800
G1 X49.786 Y25.544 Z0 F800
G1 X49.667 Y25.567 Z0 F800
G1 X49.58 Y25.57 Z0 F800
G1 X49.372 Y25.52 Z0 F800
G1 X49.167 Y25.413 Z0 F800
G1 X48.987 Y25.261 Z0 F800
G1 X48.853 Y25.079 Z0 F800
G1 X48.823 Y25 Z0 F800
G1 X48.794 Y24.879 Z0 F800
G1 X48.772 Y24.731 Z0 F800
G1 X48.762 Y24.571 Z0 F800
G1 X48.766 Y24.412 Z0 F800
G1 X48.782 Y24.264 Z0 F800
G1 X48.805 Y24.144 Z0 F800
G1 X48.831 Y24.067 Z0 F800
G1 X48.852 Y24.037 Z0 F800
G1 X48.908 Y23.965 Z0 F800
G1 X48.981 Y23.884 Z0 F800
G1 X49.06 Y23.807 Z0 F800
G1 X49.31 Y23.572 Z0 F800
G1 X49.404 Y23.479 Z0 F800
G1 X49.48 Y23.401 Z0 F800
G1 X49.541 Y23.335 Z0 F800
G1 X49.589 Y23.275 Z0 F800
G1 X49.635 Y23.212 Z0 F800
G1 X49.659 Y23.094 Z0 F800
G1 Y23.103 Z0 F800
G1 X49.706 Y23.014 Z0 F800
G1 X49.77 Y22.896 Z0 F800
G1 X49.844 Y22.786 Z0 F800
G1 X49.956 Y22.646 Z0 F800
G1 X50.094 Y22.49 Z0 F800
G1 X50.247 Y22.332 Z0 F800
G1 X50.406 Y22.184 Z0 F800
G1 X50.56 Y22.054 Z0 F800
G1 X50.689 Y21.955 Z0 F800
G1 X50.776 Y21.9 Z0 F800
G1 X50.863 Y21.86 Z0 F800
G1 X50.92 Y21.845 Z0 F800
G1 X51.025 Y21.838 Z0 F800
G1 X51.23 Y21.835 Z0 F800
G1 X51.433 Y21.838 Z0 F800
G1 X51.541 Y21.845 Z0 F800
G1 X51.602 Y21.86 Z0 F800
G1 X51.688 Y21.897 Z0 F800
G1 X51.831 Y21.963 Z0 F800
G1 X51.94 Y22.01 Z0 F800
G1 X51.926 Y22.007 Z0 F800
G1 X51.979 Y22.041 Z0 F800
G1 X52.04 Y22.088 Z0 F800
G1 X52.105 Y22.143 Z0 F800
G1 X52.291 Y22.359 Z0 F800
G1 X52.408 Y22.641 Z0 F800
G1 X52.441 Y22.815 Z0 F800
G1 X52.458 Y23.015 Z0 F800
G1 Y23.244 Z0 F800
G1 X52.422 Y23.869 Z0 F800
G1 X52.429 Y24.168 Z0 F800
G1 X52.468 Y24.421 Z0 F800
G1 X52.543 Y24.643 Z0 F800
G1 X52.61 Y24.793 Z0 F800
G1 X52.71 Y24.92 Z0 F800
G1 X52.803 Y24.975 Z0 F800
G1 X52.906 Y24.999 Z0 F800
G1 X52.986 Y24.993 Z0 F800
G1 X53.045 Y24.979 Z0 F800
G1 X53.193 Y24.905 Z0 F800
G1 X53.297 Y24.8 Z0 F800
G1 X53.389 Y24.675 Z0 F800
G1 X53.474 Y24.531 Z0 F800
G1 X53.629 Y24.187 Z0 F800
G1 X53.751 Y23.793 Z0 F800
G1 X53.805 Y23.593 Z0 F800
G1 X53.854 Y23.435 Z0 F800
G1 X53.89 Y23.285 Z0 F800
G1 X53.907 Y23.112 Z0 F800
G1 X53.918 Y22.908 Z0 F800
G1 X53.922 Y22.686 Z0 F800
G1 X53.913 Y22.259 Z0 F800
G1 X53.861 Y21.912 Z0 F800
G1 X53.813 Y21.73 Z0 F800
G1 X53.763 Y21.53 Z0 F800
G1 X53.69 Y21.297 Z0 F800
G1 X53.591 Y21.082 Z0 F800
G1 X53.465 Y20.887 Z0 F800
G1 X53.314 Y20.714 Z0 F800
G1 X53.14 Y20.563 Z0 F800
G1 X52.943 Y20.436 Z0 F800
G1 X52.726 Y20.333 Z0 F800
G1 X52.488 Y20.257 Z0 F800
G1 X52.322 Y20.224 Z0 F800
G1 X52.114 Y20.202 Z0 F800
G1 X51.979 Y20.194 Z0 F800
G1 X51.816 Y20.187 Z0 F800
G1 X51.619 Y20.182 Z0 F800
G1 X51.083 Y20.172 Z0 F800
G1 X50.831 Z0 F800
G1 X50.614 Y20.176 Z0 F800
G1 X50.421 Y20.186 Z0 F800
G1 X50.066 Y20.224 Z0 F800
G1 X49.679 Y20.292 Z0 F800
G1 X49.38 Y20.369 Z0 F800
G1 X49.142 Y20.478 Z0 F800
G1 X49.082 Y20.513 Z0 F800
G1 X49.008 Y20.549 Z0 F800
G1 X49.022 Z0 F800
G1 X49.054 Y20.546 Z0 F800
G1 X49.022 Z0 F800
G1 X48.999 Y20.553 Z0 F800
G1 X48.96 Y20.565 Z0 F800
G1 X48.936 Y20.577 Z0 F800
G1 X48.912 Y20.59 Z0 F800
G1 X48.856 Y20.63 Z0 F800
G1 X48.819 Y20.66 Z0 F800
G1 X48.735 Y20.734 Z0 F800
G1 X48.643 Y20.822 Z0 F800
G1 X48.518 Y20.953 Z0 F800
G1 X48.424 Y21.074 Z0 F800
G1 X48.351 Y21.199 Z0 F800
G1 X48.289 Y21.342 Z0 F800
G1 X48.237 Y21.496 Z0 F800
G1 X48.203 Y21.657 Z0 F800
G1 X48.182 Y21.869 Z0 F800
G1 X48.155 Y22.395 Z0 F800
G1 X48.141 Y22.568 Z0 F800
G1 X48.123 Y22.705 Z0 F800
G1 X48.099 Y22.813 Z0 F800
G1 X48.026 Y22.987 Z0 F800
G1 X47.891 Y23.184 Z0 F800
G1 X47.819 Y23.253 Z0 F800
G1 X47.671 Y23.382 Z0 F800
G1 X47.508 Y23.505 Z0 F800
G1 X47.383 Y23.588 Z0 F800
G1 X47.214 Y23.652 Z0 F800
G1 X47.001 Y23.688 Z0 F800
G1 X46.778 Y23.691 Z0 F800
G1 X46.577 Y23.658 Z0 F800
G1 X46.416 Y23.591 Z0 F800
G1 X46.207 Y23.477 Z0 F800
G1 X45.976 Y23.326 Z0 F800
G1 X45.747 Y23.149 Z0 F800
G1 X45.492 Y22.938 Z0 F800
G1 X45.267 Y22.753 Z0 F800
G1 X45.113 Y22.615 Z0 F800
G1 X44.962 Y22.455 Z0 F800
G1 X44.842 Y22.301 Z0 F800
G1 X44.783 Y22.208 Z0 F800
G1 X44.704 Y22.062 Z0 F800
G1 X44.603 Y21.922 Z0 F800
G1 X44.464 Y21.762 Z0 F800
G1 X44.29 Y21.582 Z0 F800
G1 X44.205 Y21.497 Z0 F800
G1 X44.095 Y21.395 Z0 F800
G1 X44.048 Y21.356 Z0 F800
G1 X44.012 Y21.33 Z0 F800
G1 X43.984 Y21.315 Z0 F800
G1 X43.954 Y21.29 Z0 F800
G1 X43.869 Y21.227 Z0 F800
G1 X43.779 Y21.177 Z0 F800
G1 X43.67 Y21.123 Z0 F800
G1 X43.554 Y21.069 Z0 F800
G1 X43.293 Y20.958 Z0 F800
G1 X43.25 Y20.944 Z0 F800
G1 X43.204 Y20.939 Z0 F800
G1 X42.726 Z0 F800
G1 X42.446 Y20.944 Z0 F800
G1 X42.249 Y20.958 Z0 F800
G1 X42.094 Y20.986 Z0 F800
G1 X41.938 Y21.033 Z0 F800
G1 X41.746 Y21.1 Z0 F800
G1 X41.607 Y21.165 Z0 F800
G1 X41.495 Y21.269 Z0 F800
G1 X41.43 Y21.378 Z0 F800
G1 X41.401 Y21.462 Z0 F800
G1 X41.391 Y21.565 Z0 F800
G1 X41.41 Y21.664 Z0 F800
G1 X41.445 Y21.745 Z0 F800
G1 X41.482 Y21.81 Z0 F800
G1 X41.526 Y21.867 Z0 F800
G1 X41.576 Y21.922 Z0 F800
G1 X41.679 Y21.974 Z0 F800
G1 X41.956 Y22.083 Z0 F800
G1 X42.213 Y22.17 Z0 F800
G1 X42.471 Y22.228 Z0 F800
G1 X42.574 Y22.248 Z0 F800
G1 X42.683 Y22.281 Z0 F800
G1 X42.814 Y22.334 Z0 F800
G1 X42.986 Y22.415 Z0 F800
G1 X43.135 Y22.489 Z0 F800
G1 X43.28 Y22.564 Z0 F800
G1 X43.399 Y22.629 Z0 F800
G1 X43.471 Y22.671 Z0 F800
G1 X43.775 Y22.859 Z0 F800
G1 X43.835 Y22.906 Z0 F800
G1 X43.964 Y23.013 Z0 F800
G1 X44.117 Y23.151 Z0 F800
G1 X44.277 Y23.304 Z0 F800
G1 X44.475 Y23.507 Z0 F800
G1 X44.626 Y23.684 Z0 F800
G1 X44.739 Y23.842 Z0 F800
G1 X44.816 Y23.991 Z0 F800
G1 X44.867 Y24.143 Z0 F800
G1 X44.896 Y24.313 Z0 F800
G1 X44.906 Y24.514 Z0 F800
G1 X44.899 Y24.756 Z0 F800
G1 X44.883 Y24.963 Z0 F800
G1 X44.857 Y25.106 Z0 F800
G1 X44.809 Y25.224 Z0 F800
G1 X44.727 Y25.355 Z0 F800
G1 X44.59 Y25.536 Z0 F800
G1 X44.438 Y25.672 Z0 F800
G1 X44.343 Y25.732 Z0 F800
G1 X44.228 Y25.793 Z0 F800
G1 X44.088 Y25.857 Z0 F800
G1 X43.919 Y25.929 Z0 F800
G1 X43.782 Y25.996 Z0 F800
G1 X43.665 Y26.093 Z0 F800
G1 X43.582 Y26.221 Z0 F800
G1 X43.537 Y26.36 Z0 F800
G1 X43.522 Y26.444 Z0 F800
G1 X43.517 Y26.541 Z0 F800
G1 X43.521 Y26.662 Z0 F800
G1 X43.535 Y26.818 Z0 F800
G1 X43.559 Y27.019 Z0 F800
G1 X43.595 Y27.277 Z0 F800
G1 X43.702 Y28.005 Z0 F800
G1 X43.784 Y28.421 Z0 F800
G1 X43.901 Y28.795 Z0 F800
G1 X44.059 Y29.114 Z0 F800
G1 X44.259 Y29.362 Z0 F800
G1 X44.357 Y29.438 Z0 F800
G1 X44.473 Y29.51 Z0 F800
G1 X44.613 Y29.589 Z0 F800
G1 X44.763 Y29.667 Z0 F800
G1 X44.968 Y29.768 Z0 F800
G1 X45.134 Y29.854 Z0 F800
G1 X45.272 Y29.933 Z0 F800
G1 X45.393 Y30.012 Z0 F800
G1 X45.508 Y30.101 Z0 F800
G1 X45.629 Y30.205 Z0 F800
G1 X45.767 Y30.334 Z0 F800
G1 X45.932 Y30.496 Z0 F800
G1 X46.155 Y30.732 Z0 F800
G1 X46.312 Y30.94 Z0 F800
G1 X46.417 Y31.141 Z0 F800
G1 X46.485 Y31.354 Z0 F800
G1 X46.491 Y31.392 Z0 F800
G1 X46.499 Y31.465 Z0 F800
G1 X46.507 Y31.565 Z0 F800
G1 X46.515 Y31.682 Z0 F800
G1 X46.523 Y31.952 Z0 F800
G1 X46.527 Y32.25 Z0 F800
G1 Y32.548 Z0 F800
G1 X46.518 Y32.821 Z0 F800
G1 X46.503 Y33.042 Z0 F800
G1 X46.489 Y33.165 Z0 F800
G1 X46.35 Y33.624 Z0 F800
G1 X46.18 Y34.079 Z0 F800
G1 X46.06 Y34.33 Z0 F800
G1 X45.942 Y34.564 Z0 F800
G1 X45.847 Y34.748 Z0 F800
G1 X45.792 Y34.845 Z0 F800
G1 X45.759 Y34.899 Z0 F800
G1 X45.731 Y34.952 Z0 F800
G1 X45.707 Y35.005 Z0 F800
G1 X45.694 Y35.039 Z0 F800
G1 X45.701 Y35.03 Z0 F800
G1 X45.694 Y35.043 Z0 F800
G1 X45.689 Y35.066 Z0 F800
G1 Y35.101 Z0 F800
G1 Y35.063 Z0 F800
G1 X45.693 Y35.044 Z0 F800
G1 X45.617 Y35.17 Z0 F800
G1 X45.553 Y35.266 Z0 F800
G1 X45.282 Y35.713 Z0 F800
G1 X45.098 Y36.144 Z0 F800
G1 X45.042 Y36.351 Z0 F800
G1 X45.01 Y36.552 Z0 F800
G1 X45.005 Y36.745 Z0 F800
G1 X45.029 Y36.931 Z0 F800
G1 X45.125 Y37.382 Z0 F800
G1 X45.16 Y37.62 Z0 F800
G1 X45.169 Y37.855 Z0 F800
G1 X45.155 Y38.069 Z0 F800
G1 X45.12 Y38.241 Z0 F800
G1 X45.056 Y38.378 Z0 F800
G1 X44.944 Y38.543 Z0 F800
G1 X44.787 Y38.723 Z0 F800
G1 X44.59 Y38.907 Z0 F800
G1 X44.585 Z0 F800
G1 X44.532 Y38.944 Z0 F800
G1 X44.465 Y38.986 Z0 F800
G1 X44.248 Y39.115 Z0 F800
G1 X43.406 Z0 F800
G1 X43.197 Y39.013 Z0 F800
G1 X42.997 Y38.9 Z0 F800
G1 X42.858 Y38.806 Z0 F800
G1 X42.8 Y38.757 Z0 F800
G1 X42.747 Y38.715 Z0 F800
G1 X42.699 Y38.681 Z0 F800
G1 X42.681 Y38.67 Z0 F800
G1 X42.676 Y38.666 Z0 F800
G1 X42.679 Y38.669 Z0 F800
G1 X42.65 Y38.65 Z0 F800
G1 X42.663 Z0 F800
G1 X42.622 Y38.61 Z0 F800
G1 X42.417 Y38.383 Z0 F800
G1 X42.23 Y38.17 Z0 F800
G1 X42.157 Y38.063 Z0 F800
G1 X42.071 Y37.915 Z0 F800
G1 X41.896 Y37.458 Z0 F800
G1 X41.723 Y36.925 Z0 F800
G1 X41.673 Y36.844 Z0 F800
G1 X41.576 Y36.774 Z0 F800
G1 X41.438 Y36.74 Z0 F800
G1 Y36.743 Z0 F800
G1 X41.355 Y36.722 Z0 F800
G1 X41.301 Z0 F800
G1 X41.267 Y36.738 Z0 F800
G1 X41.241 Y36.753 Z0 F800
G1 X41.197 Y36.774 Z0 F800
G1 X41.157 Y36.798 Z0 F800
G1 X41.077 Y36.854 Z0 F800
G1 X40.992 Y36.923 Z0 F800
G1 X40.809 Y37.065 Z0 F800
G1 X40.589 Y37.214 Z0 F800
G1 X40.389 Y37.338 Z0 F800
G1 X40.104 Z0 F800
G1 X39.98 Z0 F800
G1 X40.013 Y37.089 Z0 F800
G1 X40.02 Y36.875 Z0 F800
G1 X40.006 Y36.663 Z0 F800
G1 X39.972 Y36.456 Z0 F800
G1 X40.048 Y36.433 Z0 F800
G1 X40.122 Y36.399 Z0 F800
G1 X40.26 Y36.297 Z0 F800
G1 X40.386 Y36.164 Z0 F800
G1 X40.536 Y35.993 Z0 F800
G1 X40.672 Y35.85 Z0 F800
G1 X40.799 Y35.731 Z0 F800
G1 X40.92 Y35.634 Z0 F800
G1 X41.154 Y35.494 Z0 F800
G1 X41.4 Y35.41 Z0 F800
G1 X41.663 Y35.374 Z0 F800
G1 X41.905 Y35.402 Z0 F800
G1 X42.135 Y35.498 Z0 F800
G1 X42.361 Y35.665 Z0 F800
G1 X42.458 Y35.759 Z0 F800
G1 X42.533 Y35.85 Z0 F800
G1 X42.59 Y35.95 Z0 F800
G1 X42.637 Y36.069 Z0 F800
G1 X42.675 Y36.218 Z0 F800
G1 X42.705 Y36.406 Z0 F800
G1 X42.727 Y36.638 Z0 F800
G1 X42.756 Y37.131 Z0 F800
G1 X42.78 Y37.319 Z0 F800
G1 X42.819 Y37.485 Z0 F800
G1 X42.878 Y37.636 Z0 F800
G1 X42.96 Y37.77 Z0 F800
G1 X43.064 Y37.886 Z0 F800
G1 X43.188 Y37.986 Z0 F800
G1 X43.328 Y38.074 Z0 F800
G1 X43.483 Y38.139 Z0 F800
G1 X43.652 Y38.161 Z0 F800
G1 X43.82 Y38.128 Z0 F800
G1 X43.97 Y38.052 Z0 F800
G1 X44.054 Y37.993 Z0 F800
G1 X44.131 Y37.909 Z0 F800
G1 X44.178 Y37.799 Z0 F800
G1 X44.192 Y37.698 Z0 F800
G1 X44.184 Y37.341 Z0 F800
G1 X44.11 Y36.881 Z0 F800
G1 X44.1 Y36.674 Z0 F800
G1 X44.111 Y36.473 Z0 F800
G1 X44.13 Y36.353 Z0 F800
G1 X44.224 Y36.047 Z0 F800
G1 X44.283 Y35.889 Z0 F800
G1 X44.359 Y35.719 Z0 F800
G1 X44.538 Y35.376 Z0 F800
G1 X44.68 Y35.118 Z0 F800
G1 X44.738 Y35.02 Z0 F800
G1 X44.787 Y34.944 Z0 F800
G1 X44.823 Y34.892 Z0 F800
G1 X44.945 Y34.739 Z0 F800
G1 X45.018 Y34.587 Z0 F800
G1 X45.055 Y34.505 Z0 F800
G1 X45.2 Y34.234 Z0 F800
G1 X45.292 Y34.032 Z0 F800
G1 X45.387 Y33.794 Z0 F800
G1 X45.485 Y33.526 Z0 F800
G1 X45.576 Y33.188 Z0 F800
G1 X45.64 Y32.79 Z0 F800
G1 X45.672 Y32.38 Z0 F800
G1 X45.668 Y32.004 Z0 F800
G1 X45.644 Y31.727 Z0 F800
G1 X45.613 Y31.484 Z0 F800
G1 X45.58 Y31.293 Z0 F800
G1 X45.522 Y31.131 Z0 F800
G1 X45.365 Y30.917 Z0 F800
G1 X45.128 Y30.728 Z0 F800
G1 X44.803 Y30.55 Z0 F800
G1 X44.38 Y30.366 Z0 F800
G1 X44.194 Y30.277 Z0 F800
G1 X44.016 Y30.162 Z0 F800
G1 X43.83 Y30.006 Z0 F800
G1 X43.622 Y29.797 Z0 F800
G1 X43.406 Y29.564 Z0 F800
G1 X43.336 Y29.483 Z0 F800
G1 X43.286 Y29.422 Z0 F800
G1 X43.228 Y29.335 Z0 F800
G1 X43.125 Y29.091 Z0 F800
G1 X43.058 Y28.951 Z0 F800
G1 X43.028 Y28.877 Z0 F800
G1 X42.978 Y28.719 Z0 F800
G1 X42.9 Y28.448 Z0 F800
G1 X42.79 Y28.037 Z0 F800
G1 X42.767 Y27.891 Z0 F800
G1 X42.754 Y27.708 Z0 F800
G1 X42.74 Y27.462 Z0 F800
G1 X42.704 Y27.217 Z0 F800
G1 X42.627 Y26.828 Z0 F800
G1 X42.521 Y26.506 Z0 F800
G1 X42.351 Y26.174 Z0 F800
G1 X42.253 Y26.014 Z0 F800
G1 X42.152 Y25.868 Z0 F800
G1 X42.045 Y25.74 Z0 F800
G1 X41.928 Y25.633 Z0 F800
G1 X41.672 Y25.466 Z0 F800
G1 X41.366 Y25.32 Z0 F800
G1 X41.003 Y25.191 Z0 F800
G1 X40.578 Y25.073 Z0 F800
G1 X40.306 Y25.02 Z0 F800
G1 X40.06 Y25.005 Z0 F800
G1 X39.806 Y25.029 Z0 F800
G1 X39.515 Y25.094 Z0 F800
G1 X39.253 Y25.16 Z0 F800
G1 X39.116 Y25.192 Z0 F800
G1 X38.87 Y25.234 Z0 F800
G1 X38.309 Y25.307 Z0 F800
G1 X37.719 Y25.365 Z0 F800
G1 X37.473 Y25.357 Z0 F800
G1 X37.19 Y25.317 Z0 F800
G1 X36.926 Y25.257 Z0 F800
G1 X36.739 Y25.189 Z0 F800
G1 X36.58 Y25.088 Z0 F800
G1 X36.418 Y24.953 Z0 F800
G1 X36.273 Y24.8 Z0 F800
G1 X36.16 Y24.647 Z0 F800
G1 X35.985 Y24.295 Z0 F800
G1 X35.838 Y23.888 Z0 F800
G1 X35.736 Y23.489 Z0 F800
G1 X35.699 Y23.165 Z0 F800
G1 X35.742 Y22.871 Z0 F800
G1 X35.862 Y22.597 Z0 F800
G1 X36.046 Y22.364 Z0 F800
G1 X36.281 Y22.193 Z0 F800
G1 X36.525 Y22.063 Z0 F800
G1 X36.602 Y22.038 Z0 F800
G1 X36.747 Y22.001 Z0 F800
G1 X36.93 Y21.967 Z0 F800
G1 X37.12 Y21.945 Z0 F800
G1 X37.436 Z0 F800
G1 X37.687 Y22.003 Z0 F800
G1 X37.805 Y22.062 Z0 F800
G1 X37.929 Y22.143 Z0 F800
G1 X38.064 Y22.251 Z0 F800
G1 X38.218 Y22.387 Z0 F800
G1 X38.412 Y22.602 Z0 F800
G1 X38.588 Y22.86 Z0 F800
G1 X38.725 Y23.122 Z0 F800
G1 X38.799 Y23.345 Z0 F800
G1 X38.864 Y23.56 Z0 F800
G1 X38.975 Y23.75 Z0 F800
G1 X39.13 Y23.899 Z0 F800
G1 X39.332 Y23.994 Z0 F800
G1 X39.405 Y24.008 Z0 F800
G1 X39.551 Y24.016 Z0 F800
G1 X39.648 Z0 F800
G1 X39.887 Z0 F800
G1 X40.424 Y24.006 Z0 F800
G1 X40.626 Z0 F800
G1 X40.791 Z0 F800
G1 X40.925 Y24.015 Z0 F800
G1 X41.141 Y24.051 Z0 F800
G1 X41.346 Y24.12 Z0 F800
G1 X41.538 Y24.201 Z0 F800
G1 X41.753 Y24.303 Z0 F800
G1 X41.946 Y24.405 Z0 F800
G1 X42.229 Y24.574 Z0 F800
G1 X42.446 Y24.682 Z0 F800
G1 X42.713 Y24.809 Z0 F800
G1 X42.761 Y24.825 Z0 F800
G1 X42.811 Y24.831 Z0 F800
G1 X43.378 Z0 F800
G1 X43.528 Y24.817 Z0 F800
G1 X43.67 Y24.751 Z0 F800
G1 X43.763 Y24.668 Z0 F800
G1 X43.847 Y24.515 Z0 F800
G1 X43.879 Y24.357 Z0 F800
G1 X43.871 Y24.155 Z0 F800
G1 X43.803 Y23.964 Z0 F800
G1 X43.688 Y23.789 Z0 F800
G1 X43.533 Y23.633 Z0 F800
G1 X43.314 Y23.483 Z0 F800
G1 X43.04 Y23.336 Z0 F800
G1 X42.897 Y23.266 Z0 F800
G1 X42.767 Y23.206 Z0 F800
G1 X42.708 Y23.181 Z0 F800
G1 X42.604 Y23.143 Z0 F800
G1 X42.521 Y23.134 Z0 F800
G1 Y23.131 Z0 F800
G1 X42.458 Y23.122 Z0 F800
G1 X42.279 Y23.082 Z0 F800
G1 X42.081 Y23.03 Z0 F800
G1 X41.774 Y22.941 Z0 F800
G1 X41.601 Y22.905 Z0 F800
G0 Z3.5 F500
G0 X43.939 Y21.304 Z3.5 
G1 Z0 F500
G1 X43.968 Y21.313 Z0 F800
G1 X43.914 Y21.303 Z0 F800
G1 Y21.3 Z0 F800
G1 X43.939 Y21.304 Z0 F800
G0 Z3.5 F500
G0 X41.186 Y28.137 Z3.5 
G1 Z0 F500
G1 X41.18 Y28.128 Z0 F800
G1 X41.186 Y28.137 Z0 F800
G0 Z3.5 F500
G0 X35.159 Y33.197 Z3.5 
G1 Z0 F500
G1 X35.088 Y33.213 Z0 F800
G1 X35.132 Y33.2 Z0 F800
G1 X35.165 Y33.193 Z0 F800
G1 X35.159 Y33.197 Z0 F800
G0 Z3.5 F500
G0 X37.692 Y36.456 Z3.5 
G1 Z0 F500
G1 X37.787 Y36.496 Z0 F800
G1 X37.904 Y36.585 Z0 F800
G1 X37.993 Y36.697 Z0 F800
G1 X38.029 Y36.775 Z0 F800
G1 X38.04 Y36.918 Z0 F800
G1 X38.025 Y37.075 Z0 F800
G1 X38.003 Y37.125 Z0 F800
G1 X37.938 Y37.217 Z0 F800
G1 X37.863 Y37.289 Z0 F800
G1 X37.748 Y37.36 Z0 F800
G1 X37.69 Y37.385 Z0 F800
G1 X37.664 Y37.393 Z0 F800
G1 X37.63 Y37.398 Z0 F800
G1 X37.524 Y37.401 Z0 F800
G1 X37.418 Y37.398 Z0 F800
G1 X37.387 Y37.394 Z0 F800
G1 X37.364 Y37.386 Z0 F800
G1 X37.299 Y37.357 Z0 F800
G1 X37.211 Y37.306 Z0 F800
G1 X37.143 Y37.249 Z0 F800
G1 X37.089 Y37.187 Z0 F800
G1 X37.047 Y37.12 Z0 F800
G1 X37.015 Y37.043 Z0 F800
G1 X37 Y36.975 Z0 F800
G1 Y36.897 Z0 F800
G1 X37.015 Y36.78 Z0 F800
G1 X37.024 Y36.752 Z0 F800
G1 X37.041 Y36.716 Z0 F800
G1 X37.08 Y36.658 Z0 F800
G1 X37.127 Y36.603 Z0 F800
G1 X37.191 Y36.544 Z0 F800
G1 X37.26 Y36.495 Z0 F800
G1 X37.322 Y36.461 Z0 F800
G1 X37.518 Y36.445 Z0 F800
G1 X37.692 Y36.456 Z0 F800
G0 Z3.5 F500
G0 X38.423 Y36.433 Z3.5 
G1 Z0 F500
G1 X38.521 Y36.65 Z0 F800
G1 X38.541 Y36.92 Z0 F800
G1 X38.515 Y37.202 Z0 F800
G1 X38.441 Y37.371 Z0 F800
G1 X38.318 Y37.546 Z0 F800
G1 X38.169 Y37.687 Z0 F800
G1 X37.981 Y37.803 Z0 F800
G1 X37.865 Y37.854 Z0 F800
G1 X37.771 Y37.882 Z0 F800
G1 X37.673 Y37.897 Z0 F800
G1 X37.524 Y37.902 Z0 F800
G1 X37.375 Y37.897 Z0 F800
G1 X37.278 Y37.883 Z0 F800
G1 X37.187 Y37.854 Z0 F800
G1 X37.072 Y37.804 Z0 F800
G1 X36.919 Y37.713 Z0 F800
G1 X36.794 Y37.609 Z0 F800
G1 X36.687 Y37.486 Z0 F800
G1 X36.603 Y37.352 Z0 F800
G1 X36.536 Y37.192 Z0 F800
G1 X36.502 Y37.037 Z0 F800
G1 X36.498 Y36.868 Z0 F800
G1 X36.526 Y36.669 Z0 F800
G1 X36.556 Y36.571 Z0 F800
G1 X36.607 Y36.466 Z0 F800
G1 X36.68 Y36.356 Z0 F800
G1 X36.77 Y36.251 Z0 F800
G1 X36.872 Y36.158 Z0 F800
G1 X36.989 Y36.074 Z0 F800
G1 X37.117 Y36.004 Z0 F800
G1 X37.206 Y35.969 Z0 F800
G1 X37.515 Y35.944 Z0 F800
G1 X37.81 Y35.962 Z0 F800
G1 X38.039 Y36.061 Z0 F800
G1 X38.255 Y36.225 Z0 F800
G1 X38.423 Y36.433 Z0 F800
G0 Z3.5 F500
G0 X39.006 Y37.328 Z3.5 
G1 Z0 F500
G1 X38.879 Y37.618 Z0 F800
G1 X38.699 Y37.874 Z0 F800
G1 X38.475 Y38.086 Z0 F800
G1 X38.214 Y38.247 Z0 F800
G1 X38.038 Y38.324 Z0 F800
G1 X37.882 Y38.372 Z0 F800
G1 X37.72 Y38.396 Z0 F800
G1 X37.524 Y38.402 Z0 F800
G1 X37.328 Y38.396 Z0 F800
G1 X37.167 Y38.372 Z0 F800
G1 X37.013 Y38.324 Z0 F800
G1 X36.84 Y38.248 Z0 F800
G1 X36.631 Y38.124 Z0 F800
G1 X36.444 Y37.968 Z0 F800
G1 X36.284 Y37.786 Z0 F800
G1 X36.156 Y37.582 Z0 F800
G1 X36.057 Y37.342 Z0 F800
G1 X36.003 Y37.097 Z0 F800
G1 X35.997 Y36.838 Z0 F800
G1 X36.037 Y36.561 Z0 F800
G1 X36.09 Y36.387 Z0 F800
G1 X36.172 Y36.218 Z0 F800
G1 X36.279 Y36.056 Z0 F800
G1 X36.408 Y35.905 Z0 F800
G1 X36.558 Y35.768 Z0 F800
G1 X36.724 Y35.649 Z0 F800
G1 X36.903 Y35.55 Z0 F800
G1 X37.094 Y35.477 Z0 F800
G1 X37.509 Y35.442 Z0 F800
G1 X37.927 Y35.469 Z0 F800
G1 X38.293 Y35.625 Z0 F800
G1 X38.606 Y35.864 Z0 F800
G1 X38.852 Y36.169 Z0 F800
G1 X39.013 Y36.524 Z0 F800
G1 X39.043 Y36.926 Z0 F800
G1 X39.006 Y37.328 Z0 F800
G0 Z3.5 F500
G0 X37.1 Y39.137 Z3.5 
G1 Z0 F500
G1 X37.097 Y39.153 Z0 F800
G1 Y39.129 Z0 F800
G1 X37.1 Y39.137 Z0 F800
G0 Z3.5 F500
G0 X36.955 Y39.282 Z3.5 
G1 Z0 F500
G1 X36.952 Z0 F800
G1 X36.933 Z0 F800
G1 X36.955 Z0 F800
G0 Z3.5 F500
G0 X33.731 Y39.217 Z3.5 
G1 Z0 F500
G1 X33.748 Y39.284 Z0 F800
G1 X33.734 Y39.242 Z0 F800
G1 X33.728 Y39.211 Z0 F800
G1 X33.731 Y39.217 Z0 F800
G0 Z3.5 F500
G0 X39.954 Y40.603 Z3.5 
G1 Z0 F500
G1 X39.9 Y40.607 Z0 F800
G1 X39.952 Y40.603 Z0 F800
G1 X39.991 Y40.59 Z0 F800
G1 X39.954 Y40.603 Z0 F800
G0 Z3.5 F500
G0 X46.549 Y40.449 Z3.5 
G1 Z0 F500
G1 X46.558 Y40.444 Z0 F800
G1 X46.549 Y40.449 Z0 F800
G0 Z3.5 F500
G0 X40.202 Y45.255 Z3.5 
G1 Z0 F500
G1 X40.212 Y45.332 Z0 F800
G1 X40.203 Y45.27 Z0 F800
G1 X40.179 Y45.217 Z0 F800
G1 X40.202 Y45.255 Z0 F800
G0 Z3.5 F500
G0 X28.042 Y45.438 Z3.5 
G1 Z0 F500
G1 X28.212 Y45.564 Z0 F800
G1 X28.399 Y45.73 Z0 F800
G1 X28.51 Y45.854 Z0 F800
G1 X28.56 Y45.925 Z0 F800
G1 X28.606 Y45.988 Z0 F800
G1 X28.619 Y46.013 Z0 F800
G1 X28.636 Y46.095 Z0 F800
G1 Y46.224 Z0 F800
G1 X28.617 Y46.333 Z0 F800
G1 X28.456 Y46.699 Z0 F800
G1 X28.275 Y47.02 Z0 F800
G1 X28.215 Y47.096 Z0 F800
G1 X28.153 Y47.159 Z0 F800
G1 X28.12 Y47.186 Z0 F800
G1 X28.117 Z0 F800
G1 X28.08 Z0 F800
G1 X27.913 Y47.182 Z0 F800
G1 X27.897 Z0 F800
G1 X27.861 Y47.161 Z0 F800
G1 X27.771 Y47.11 Z0 F800
G1 X27.651 Y47.05 Z0 F800
G1 X27.647 Z0 F800
G1 X27.544 Y46.934 Z0 F800
G1 X27.536 Y46.912 Z0 F800
G1 X27.508 Y46.776 Z0 F800
G1 X27.498 Y46.618 Z0 F800
G1 X27.506 Y46.526 Z0 F800
G1 X27.568 Y46.341 Z0 F800
G1 X27.734 Y45.985 Z0 F800
G1 X27.868 Y45.694 Z0 F800
G1 X27.943 Y45.358 Z0 F800
G1 X28.042 Y45.438 Z0 F800
G0 Z3.5 F500
G0 X29.139 Y46.271 Z3.5 
G1 Z0 F500
G1 X29.097 Y46.483 Z0 F800
G1 X28.904 Y46.922 Z0 F800
G1 X28.691 Y47.3 Z0 F800
G1 X28.59 Y47.428 Z0 F800
G1 X28.491 Y47.53 Z0 F800
G1 X28.401 Y47.601 Z0 F800
G1 X28.305 Y47.657 Z0 F800
G1 X28.242 Y47.689 Z0 F800
G1 X28.082 Z0 F800
G1 X27.872 Y47.681 Z0 F800
G1 X27.771 Y47.667 Z0 F800
G1 X27.712 Y47.648 Z0 F800
G1 X27.604 Y47.59 Z0 F800
G1 X27.536 Y47.551 Z0 F800
G1 X27.442 Y47.504 Z0 F800
G1 X27.369 Y47.474 Z0 F800
G1 X27.352 Y47.459 Z0 F800
G1 X27.292 Y47.401 Z0 F800
G1 X27.152 Y47.246 Z0 F800
G1 X27.104 Y47.18 Z0 F800
G1 X27.054 Y47.052 Z0 F800
G1 X27.012 Y46.845 Z0 F800
G1 X26.997 Y46.611 Z0 F800
G1 X27.013 Y46.423 Z0 F800
G1 X27.104 Y46.153 Z0 F800
G1 X27.28 Y45.775 Z0 F800
G1 X27.392 Y45.534 Z0 F800
G1 X27.459 Y45.229 Z0 F800
G1 X27.462 Y45.047 Z0 F800
G1 X27.436 Y44.856 Z0 F800
G1 X27.366 Y44.647 Z0 F800
G1 X27.25 Y44.456 Z0 F800
G1 X27.118 Y44.298 Z0 F800
G1 X26.969 Y44.143 Z0 F800
G1 X26.785 Y43.961 Z0 F800
G1 X26.55 Y43.733 Z0 F800
G1 X26.35 Y43.536 Z0 F800
G1 X26.173 Y43.353 Z0 F800
G1 X26.079 Y43.249 Z0 F800
G1 X25.971 Y43.021 Z0 F800
G1 X25.915 Y42.883 Z0 F800
G1 X25.892 Y42.814 Z0 F800
G1 X25.799 Y42.443 Z0 F800
G1 X25.669 Y42.041 Z0 F800
G1 X25.649 Y41.984 Z0 F800
G1 X25.637 Y41.946 Z0 F800
G1 X25.63 Y41.905 Z0 F800
G1 X25.623 Y41.848 Z0 F800
G1 X25.619 Y41.839 Z0 F800
G1 X25.559 Y41.498 Z0 F800
G1 X25.427 Y41.511 Z0 F800
G1 X25.418 Y41.497 Z0 F800
G1 X25.349 Y41.402 Z0 F800
G1 X25.271 Y41.308 Z0 F800
G1 X25.109 Y41.132 Z0 F800
G1 X24.908 Y40.961 Z0 F800
G1 X24.757 Y40.873 Z0 F800
G1 X24.594 Y40.807 Z0 F800
G1 X24.407 Y40.767 Z0 F800
G1 X24.179 Y40.764 Z0 F800
G1 X23.841 Y40.869 Z0 F800
G1 X23.572 Y41.063 Z0 F800
G1 X23.579 Y41.054 Z0 F800
G1 X23.719 Y40.912 Z0 F800
G1 X23.874 Y40.76 Z0 F800
G1 X23.947 Y40.7 Z0 F800
G1 X24.004 Y40.669 Z0 F800
G1 X24.145 Y40.613 Z0 F800
G1 X24.225 Y40.587 Z0 F800
G1 X24.391 Z0 F800
G1 X24.518 Y40.593 Z0 F800
G1 X24.528 Z0 F800
G1 X24.535 Y40.597 Z0 F800
G1 X24.65 Y40.653 Z0 F800
G1 X24.817 Y40.733 Z0 F800
G1 X25.004 Y40.803 Z0 F800
G1 X25.223 Y40.84 Z0 F800
G1 X25.45 Y40.834 Z0 F800
G1 X25.757 Y40.747 Z0 F800
G1 X26.02 Y40.585 Z0 F800
G1 X25.945 Y40.724 Z0 F800
G1 X25.852 Y41.01 Z0 F800
G1 X25.796 Y41.298 Z0 F800
G1 X25.767 Y41.591 Z0 F800
G1 Y41.92 Z0 F800
G1 X25.812 Y42.242 Z0 F800
G1 X25.903 Y42.553 Z0 F800
G1 X26.029 Y42.822 Z0 F800
G1 X26.102 Y42.965 Z0 F800
G1 X26.222 Y43.237 Z0 F800
G1 X26.393 Y43.465 Z0 F800
G1 X26.429 Y43.52 Z0 F800
G1 X26.606 Y43.778 Z0 F800
G1 X26.882 Y44.038 Z0 F800
G1 X27.056 Y44.165 Z0 F800
G1 X27.238 Y44.286 Z0 F800
G1 X27.448 Y44.415 Z0 F800
G1 X27.671 Y44.546 Z0 F800
G1 X27.887 Y44.687 Z0 F800
G1 X28.121 Y44.861 Z0 F800
G1 X28.348 Y45.041 Z0 F800
G1 X28.532 Y45.179 Z0 F800
G1 X28.749 Y45.372 Z0 F800
G1 X28.904 Y45.544 Z0 F800
G1 X28.966 Y45.633 Z0 F800
G1 X29.033 Y45.723 Z0 F800
G1 X29.097 Y45.851 Z0 F800
G1 X29.135 Y46.038 Z0 F800
G1 X29.139 Y46.271 Z0 F800
G0 Z3.5 F500
G0 X18.541 Y37.401 Z3.5 
G1 Z0 F500
G1 X18.517 Y37.406 Z0 F800
G1 X18.288 Y37.444 Z0 F800
G1 X18.264 Z0 F800
G1 X18.149 Y37.451 Z0 F800
G1 X17.984 Y37.455 Z0 F800
G1 X17.837 Z0 F800
G1 X17.643 Y37.446 Z0 F800
G1 X17.626 Z0 F800
G1 X17.594 Y37.415 Z0 F800
G1 X17.548 Y37.372 Z0 F800
G1 X17.528 Y37.303 Z0 F800
G1 X17.524 Y37.272 Z0 F800
G1 X17.53 Y37.264 Z0 F800
G1 X17.568 Y37.218 Z0 F800
G1 X17.692 Y37.093 Z0 F800
G1 X17.948 Y36.85 Z0 F800
G1 X17.953 Y36.86 Z0 F800
G1 X18.235 Y37.112 Z0 F800
G1 X18.437 Y37.23 Z0 F800
G1 X18.633 Y37.333 Z0 F800
G1 X18.66 Y37.34 Z0 F800
G1 X18.643 Y37.345 Z0 F800
G1 X18.541 Y37.401 Z0 F800
G0 Z3.5 F500
G0 X17.635 Y37.946 Z3.5 
G1 Z0 F500
G1 X17.493 Y37.937 Z0 F800
G1 X17.428 Y37.927 Z0 F800
G1 X17.416 Y37.924 Z0 F800
G1 X17.406 Y37.918 Z0 F800
G1 X17.347 Y37.869 Z0 F800
G1 X17.257 Y37.785 Z0 F800
G1 X17.132 Y37.665 Z0 F800
G1 X17.113 Y37.644 Z0 F800
G1 X17.085 Y37.567 Z0 F800
G1 X17.039 Y37.41 Z0 F800
G1 X17.019 Y37.272 Z0 F800
G1 Y37.199 Z0 F800
G1 X17.043 Y37.123 Z0 F800
G1 X17.079 Y37.041 Z0 F800
G1 X17.123 Y36.971 Z0 F800
G1 X17.199 Y36.879 Z0 F800
G1 X17.327 Y36.75 Z0 F800
G1 X17.855 Y36.249 Z0 F800
G1 X18.089 Y36.024 Z0 F800
G1 X18.184 Y35.926 Z0 F800
G1 X18.281 Y35.813 Z0 F800
G1 X18.34 Y35.717 Z0 F800
G1 X18.291 Y35.803 Z0 F800
G1 X18.216 Y36.025 Z0 F800
G1 X18.236 Y36.304 Z0 F800
G1 X18.358 Y36.552 Z0 F800
G1 X18.531 Y36.706 Z0 F800
G1 X18.68 Y36.793 Z0 F800
G1 X18.817 Y36.865 Z0 F800
G1 X19.035 Y36.925 Z0 F800
G1 X19.267 Z0 F800
G1 X19.386 Y36.895 Z0 F800
G1 X19.717 Y36.85 Z0 F800
G1 X20.047 Y36.837 Z0 F800
G1 X20.147 Y36.858 Z0 F800
G1 X20.293 Y36.91 Z0 F800
G1 X20.409 Y36.962 Z0 F800
G1 X20.482 Y37.081 Z0 F800
G1 X20.496 Y37.108 Z0 F800
G1 X20.493 Y37.162 Z0 F800
G1 X20.481 Y37.29 Z0 F800
G1 X20.466 Y37.33 Z0 F800
G1 X20.386 Y37.463 Z0 F800
G1 X20.285 Y37.58 Z0 F800
G1 X20.182 Y37.667 Z0 F800
G1 X20.085 Y37.721 Z0 F800
G1 X20.066 Y37.728 Z0 F800
G1 X20.027 Y37.733 Z0 F800
G1 X19.965 Y37.736 Z0 F800
G1 X19.846 Z0 F800
G1 X19.419 Y37.727 Z0 F800
G1 X19.25 Z0 F800
G1 X19.053 Y37.743 Z0 F800
G1 X18.839 Y37.808 Z0 F800
G1 X18.716 Y37.876 Z0 F800
G1 X18.686 Y37.883 Z0 F800
G1 X18.599 Y37.899 Z0 F800
G1 X18.349 Y37.941 Z0 F800
G1 X18.295 Y37.945 Z0 F800
G1 X18.164 Y37.951 Z0 F800
G1 X17.99 Y37.955 Z0 F800
G1 X17.814 Z0 F800
G1 X17.635 Y37.946 Z0 F800
G0 Z3.5 F500
G0 X23.701 Y45.683 Z3.5 
G1 Z0 F500
G1 X23.908 Y45.583 Z0 F800
G1 X24.119 Y45.373 Z0 F800
G1 X24.234 Y45.144 Z0 F800
G1 X24.23 Y45.279 Z0 F800
G1 X24.21 Y45.406 Z0 F800
G1 X24.197 Y45.442 Z0 F800
G1 X24.165 Y45.488 Z0 F800
G1 X24.044 Y45.627 Z0 F800
G1 X24.021 Y45.649 Z0 F800
G1 X24.007 Y45.652 Z0 F800
G1 X23.948 Y45.683 Z0 F800
G1 X23.938 Z0 F800
G1 X23.889 Y45.688 Z0 F800
G1 X23.701 Y45.683 Z0 F800
G0 Z3.5 F500
G0 X20.933 Y40.12 Z3.5 
G1 Z0 F500
G1 X20.89 Y40.09 Z0 F800
G1 X20.906 Y40.098 Z0 F800
G1 X20.933 Y40.12 Z0 F800
G0 Z3.5 F500
G0 X18.539 Y35.272 Z3.5 
G1 Z0 F500
G1 X18.595 Y35.11 Z0 F800
G1 X18.623 Y34.846 Z0 F800
G1 X18.515 Y34.543 Z0 F800
G1 X18.288 Y34.318 Z0 F800
G1 X18.043 Y34.229 Z0 F800
G1 X17.861 Y34.205 Z0 F800
G1 X17.883 Z0 F800
G1 X18.135 Y34.194 Z0 F800
G1 X18.325 Y34.189 Z0 F800
G1 X18.468 Z0 F800
G1 X18.556 Z0 F800
G1 X18.615 Y34.196 Z0 F800
G1 X18.705 Y34.217 Z0 F800
G1 X18.794 Y34.257 Z0 F800
G1 X18.835 Y34.293 Z0 F800
G1 X18.846 Y34.307 Z0 F800
G1 X18.849 Y34.324 Z0 F800
G1 X18.852 Y34.466 Z0 F800
G1 X18.828 Y34.616 Z0 F800
G1 X18.785 Y34.739 Z0 F800
G1 X18.715 Y34.89 Z0 F800
G1 X18.663 Y35.037 Z0 F800
G1 X18.639 Y35.091 Z0 F800
G1 X18.595 Y35.175 Z0 F800
G1 X18.539 Y35.272 Z0 F800
G0 Z3.5 F500
G0 X33.801 Y34.716 Z3.5 
G1 Z0 F500
G1 X33.777 Y34.656 Z0 F800
G1 X33.734 Y34.506 Z0 F800
G1 X33.723 Y34.429 Z0 F800
G1 X33.728 Y34.372 Z0 F800
G1 X33.758 Y34.259 Z0 F800
G1 X33.786 Y34.183 Z0 F800
G1 X33.803 Y34.153 Z0 F800
G1 X33.828 Y34.121 Z0 F800
G1 X33.879 Y34.063 Z0 F800
G1 X33.979 Y33.954 Z0 F800
G1 X34.109 Y33.817 Z0 F800
G1 X34.169 Y33.75 Z0 F800
G1 X34.085 Y33.959 Z0 F800
G1 X34.076 Y34.219 Z0 F800
G1 X34.14 Y34.453 Z0 F800
G1 X34.233 Y34.605 Z0 F800
G1 X34.324 Y34.714 Z0 F800
G1 X34.521 Y34.868 Z0 F800
G1 X34.754 Y34.961 Z0 F800
G1 X34.838 Y34.977 Z0 F800
G1 X34.65 Y34.989 Z0 F800
G1 X34.463 Z0 F800
G1 X34.3 Y34.972 Z0 F800
G1 X34.186 Y34.95 Z0 F800
G1 X33.982 Y34.87 Z0 F800
G1 X33.836 Y34.757 Z0 F800
G1 X33.801 Y34.716 Z0 F800
G0 Z3.5 F500
G0 X33.267 Y31.262 Z3.5 
G1 Z0 F500
G1 X33.388 Y31.194 Z0 F800
G1 X33.437 Y31.171 Z0 F800
G1 X33.498 Y31.148 Z0 F800
G1 X33.531 Y31.145 Z0 F800
G1 X33.629 Y31.142 Z0 F800
G1 X33.79 Z0 F800
G1 X33.936 Y31.149 Z0 F800
G1 X34.052 Y31.158 Z0 F800
G1 X34.121 Y31.167 Z0 F800
G1 X34.14 Y31.172 Z0 F800
G1 X34.201 Y31.202 Z0 F800
G1 X34.294 Y31.278 Z0 F800
G1 X34.433 Y31.414 Z0 F800
G1 X34.47 Y31.458 Z0 F800
G1 X34.344 Y31.336 Z0 F800
G1 X34.041 Y31.194 Z0 F800
G1 X33.736 Y31.152 Z0 F800
G1 X33.485 Y31.177 Z0 F800
G1 X33.267 Y31.262 Z0 F800
G0 Z3.5 F500
G0 X32.432 Y31.498 Z3.5 
G1 Z0 F500
G1 X32.6 Y31.242 Z0 F800
G1 X32.699 Y31.104 Z0 F800
G1 X32.794 Y30.995 Z0 F800
G1 X32.88 Y30.915 Z0 F800
G1 X32.954 Y30.864 Z0 F800
G1 X33.162 Y30.748 Z0 F800
G1 X33.243 Y30.71 Z0 F800
G1 X33.354 Y30.667 Z0 F800
G1 X33.413 Y30.654 Z0 F800
G1 X33.498 Y30.645 Z0 F800
G1 X33.622 Y30.642 Z0 F800
G1 X33.796 Z0 F800
G1 X33.965 Y30.65 Z0 F800
G1 X34.104 Y30.661 Z0 F800
G1 X34.217 Y30.676 Z0 F800
G1 X34.312 Y30.7 Z0 F800
G1 X34.47 Y30.777 Z0 F800
G1 X34.629 Y30.907 Z0 F800
G1 X34.799 Y31.073 Z0 F800
G1 X34.919 Y31.216 Z0 F800
G1 X35.004 Y31.354 Z0 F800
G1 X35.065 Y31.503 Z0 F800
G1 X35.141 Y31.768 Z0 F800
G1 X35.182 Y32.031 Z0 F800
G1 X35.19 Y32.301 Z0 F800
G1 X35.166 Y32.583 Z0 F800
G1 X35.123 Y32.829 Z0 F800
G1 X35.065 Y33.079 Z0 F800
G1 X35.036 Y33.184 Z0 F800
G1 X35.007 Y33.272 Z0 F800
G1 X34.974 Y33.311 Z0 F800
G1 X34.957 Y33.335 Z0 F800
G1 X34.925 Y33.388 Z0 F800
G1 X34.895 Y33.444 Z0 F800
G1 X34.867 Y33.502 Z0 F800
G1 X34.826 Y33.6 Z0 F800
G1 X34.809 Y33.676 Z0 F800
G1 Y33.706 Z0 F800
G1 Y33.673 Z0 F800
G1 Y33.659 Z0 F800
G1 X34.766 Y33.738 Z0 F800
G1 X34.724 Y33.802 Z0 F800
G1 X34.637 Y33.927 Z0 F800
G1 X34.582 Y34.064 Z0 F800
G1 X34.579 Y34.161 Z0 F800
G1 X34.604 Y34.253 Z0 F800
G1 X34.64 Y34.313 Z0 F800
G1 X34.673 Y34.353 Z0 F800
G1 X34.772 Y34.43 Z0 F800
G1 X34.894 Y34.479 Z0 F800
G1 X35.025 Y34.503 Z0 F800
G1 X35.2 Y34.523 Z0 F800
G1 X35.485 Y34.565 Z0 F800
G1 X35.72 Y34.616 Z0 F800
G1 X35.89 Y34.674 Z0 F800
G1 X36.013 Y34.773 Z0 F800
G1 X36.079 Y34.84 Z0 F800
G1 X36.142 Y34.908 Z0 F800
G1 X35.953 Y35.042 Z0 F800
G1 X35.779 Y35.191 Z0 F800
G1 X35.624 Y35.354 Z0 F800
G1 X35.477 Y35.542 Z0 F800
G1 X35.397 Y35.502 Z0 F800
G1 X35.311 Y35.476 Z0 F800
G1 X35.128 Y35.459 Z0 F800
G1 X34.665 Y35.489 Z0 F800
G1 X34.437 Z0 F800
G1 X34.23 Y35.468 Z0 F800
G1 X34.045 Y35.432 Z0 F800
G1 X33.733 Y35.309 Z0 F800
G1 X33.49 Y35.122 Z0 F800
G1 X33.37 Y34.981 Z0 F800
G1 X33.304 Y34.822 Z0 F800
G1 X33.244 Y34.612 Z0 F800
G1 X33.22 Y34.444 Z0 F800
G1 X33.233 Y34.288 Z0 F800
G1 X33.279 Y34.113 Z0 F800
G1 X33.33 Y33.973 Z0 F800
G1 X33.389 Y33.871 Z0 F800
G1 X33.438 Y33.808 Z0 F800
G1 X33.511 Y33.725 Z0 F800
G1 X33.611 Y33.616 Z0 F800
G1 X33.743 Y33.477 Z0 F800
G1 X33.929 Y33.272 Z0 F800
G1 X34.083 Y33.081 Z0 F800
G1 X34.203 Y32.898 Z0 F800
G1 X34.291 Y32.72 Z0 F800
G1 X34.343 Y32.54 Z0 F800
G1 X34.355 Y32.36 Z0 F800
G1 X34.331 Y32.185 Z0 F800
G1 X34.269 Y32.019 Z0 F800
G1 X34.179 Y31.872 Z0 F800
G1 X34.056 Y31.753 Z0 F800
G1 X33.897 Y31.679 Z0 F800
G1 X33.727 Y31.655 Z0 F800
G1 X33.603 Y31.668 Z0 F800
G1 X33.468 Y31.72 Z0 F800
G1 X33.359 Y31.808 Z0 F800
G1 X33.243 Y31.928 Z0 F800
G1 X33.157 Y32.022 Z0 F800
G1 X33.079 Y32.117 Z0 F800
G1 X33.014 Y32.201 Z0 F800
G1 X32.961 Y32.289 Z0 F800
G1 X32.897 Y32.375 Z0 F800
G1 X32.832 Y32.452 Z0 F800
G1 X32.759 Y32.533 Z0 F800
G1 X32.686 Y32.608 Z0 F800
G1 X32.624 Y32.668 Z0 F800
G1 X32.598 Y32.69 Z0 F800
G1 X32.535 Y32.718 Z0 F800
G1 X32.428 Y32.777 Z0 F800
G1 X32.347 Y32.828 Z0 F800
G1 X32.166 Y32.923 Z0 F800
G1 X31.957 Y33.011 Z0 F800
G1 X31.646 Y33.113 Z0 F800
G1 X31.311 Y33.213 Z0 F800
G1 X31.159 Y33.255 Z0 F800
G1 X31.032 Y33.288 Z0 F800
G1 X30.932 Y33.307 Z0 F800
G1 X30.926 Y33.312 Z0 F800
G1 X30.767 Y33.334 Z0 F800
G1 X30.63 Y33.385 Z0 F800
G1 X30.523 Y33.422 Z0 F800
G1 X30.242 Y33.501 Z0 F800
G1 X30.009 Y33.587 Z0 F800
G1 X29.754 Y33.697 Z0 F800
G1 X29.492 Y33.821 Z0 F800
G1 X29.194 Y33.988 Z0 F800
G1 X28.899 Y34.187 Z0 F800
G1 X28.615 Y34.41 Z0 F800
G1 X28.351 Y34.647 Z0 F800
G1 X28.113 Y34.887 Z0 F800
G1 X27.913 Y35.124 Z0 F800
G1 X27.762 Y35.359 Z0 F800
G1 X27.67 Y35.596 Z0 F800
G1 X27.644 Y35.776 Z0 F800
G1 X27.657 Y35.97 Z0 F800
G1 X27.714 Y36.185 Z0 F800
G1 X27.813 Y36.456 Z0 F800
G1 X27.979 Y36.884 Z0 F800
G1 X28.028 Y37.024 Z0 F800
G1 X28.059 Y37.139 Z0 F800
G1 X28.075 Y37.247 Z0 F800
G1 X28.08 Y37.366 Z0 F800
G1 Y37.515 Z0 F800
G1 X28.065 Y38.008 Z0 F800
G1 X28.061 Y38.104 Z0 F800
G1 X28.054 Y38.178 Z0 F800
G1 X28.028 Y38.296 Z0 F800
G1 X27.977 Y38.443 Z0 F800
G1 X27.895 Y38.641 Z0 F800
G1 X27.784 Y38.87 Z0 F800
G1 X27.643 Y39.13 Z0 F800
G1 X27.471 Y39.424 Z0 F800
G1 X27.388 Y39.556 Z0 F800
G1 X27.31 Y39.661 Z0 F800
G1 X27.205 Y39.776 Z0 F800
G1 X27.002 Y39.981 Z0 F800
G1 X26.948 Y40.043 Z0 F800
G1 X26.923 Y40.079 Z0 F800
G1 X26.895 Y40.124 Z0 F800
G1 X26.835 Y40.196 Z0 F800
G1 X26.733 Y40.356 Z0 F800
G1 X26.569 Y40.635 Z0 F800
G1 X26.506 Y40.737 Z0 F800
G1 X26.407 Y40.922 Z0 F800
G1 X26.336 Y41.136 Z0 F800
G1 X26.291 Y41.371 Z0 F800
G1 X26.267 Y41.615 Z0 F800
G1 Y41.886 Z0 F800
G1 X26.302 Y42.137 Z0 F800
G1 X26.372 Y42.375 Z0 F800
G1 X26.479 Y42.604 Z0 F800
G1 X26.552 Y42.749 Z0 F800
G1 X26.656 Y42.983 Z0 F800
G1 X26.801 Y43.177 Z0 F800
G1 X26.843 Y43.239 Z0 F800
G1 X26.988 Y43.451 Z0 F800
G1 X27.203 Y43.653 Z0 F800
G1 X27.342 Y43.755 Z0 F800
G1 X27.507 Y43.865 Z0 F800
G1 X27.705 Y43.986 Z0 F800
G1 X27.94 Y44.125 Z0 F800
G1 X28.172 Y44.276 Z0 F800
G1 X28.419 Y44.46 Z0 F800
G1 X28.653 Y44.645 Z0 F800
G1 X28.847 Y44.79 Z0 F800
G1 X29.102 Y45.017 Z0 F800
G1 X29.297 Y45.233 Z0 F800
G1 X29.373 Y45.342 Z0 F800
G1 X29.462 Y45.463 Z0 F800
G1 X29.572 Y45.685 Z0 F800
G1 X29.635 Y45.984 Z0 F800
G1 X29.64 Y46.315 Z0 F800
G1 X29.576 Y46.635 Z0 F800
G1 X29.352 Y47.146 Z0 F800
G1 X29.108 Y47.579 Z0 F800
G1 X28.965 Y47.759 Z0 F800
G1 X28.826 Y47.902 Z0 F800
G1 X28.686 Y48.014 Z0 F800
G1 X28.54 Y48.099 Z0 F800
G1 X28.419 Y48.16 Z0 F800
G1 X28.348 Y48.185 Z0 F800
G1 X28.254 Y48.189 Z0 F800
G1 X28.067 Z0 F800
G1 X27.831 Y48.18 Z0 F800
G1 X27.659 Y48.157 Z0 F800
G1 X27.516 Y48.11 Z0 F800
G1 X27.369 Y48.032 Z0 F800
G1 X27.3 Y47.992 Z0 F800
G1 X27.233 Y47.959 Z0 F800
G1 X27.169 Y47.932 Z0 F800
G1 X27.123 Y47.917 Z0 F800
G1 X27.09 Y47.894 Z0 F800
G1 X27.018 Y47.831 Z0 F800
G1 X26.932 Y47.749 Z0 F800
G1 X26.764 Y47.562 Z0 F800
G1 X26.662 Y47.423 Z0 F800
G1 X26.573 Y47.194 Z0 F800
G1 X26.515 Y46.91 Z0 F800
G1 X26.495 Y46.606 Z0 F800
G1 X26.521 Y46.319 Z0 F800
G1 X26.639 Y45.968 Z0 F800
G1 X26.827 Y45.565 Z0 F800
G1 X26.915 Y45.373 Z0 F800
G1 X26.96 Y45.169 Z0 F800
G1 Y45.079 Z0 F800
G1 X26.947 Y44.972 Z0 F800
G1 X26.909 Y44.858 Z0 F800
G1 X26.842 Y44.747 Z0 F800
G1 X26.746 Y44.632 Z0 F800
G1 X26.613 Y44.494 Z0 F800
G1 X26.435 Y44.319 Z0 F800
G1 X26.202 Y44.092 Z0 F800
G1 X25.992 Y43.884 Z0 F800
G1 X25.813 Y43.7 Z0 F800
G1 X25.689 Y43.563 Z0 F800
G1 X25.654 Y43.515 Z0 F800
G1 X25.659 Y43.529 Z0 F800
G1 X25.514 Y43.224 Z0 F800
G1 X25.446 Y43.057 Z0 F800
G1 X25.411 Y42.955 Z0 F800
G1 X25.318 Y42.581 Z0 F800
G1 X25.196 Y42.202 Z0 F800
G1 X25.174 Y42.14 Z0 F800
G1 X25.15 Y42.063 Z0 F800
G1 X25.146 Y42.041 Z0 F800
G1 Y42.064 Z0 F800
G1 X25.137 Y41.99 Z0 F800
G1 X25.102 Y41.915 Z0 F800
G1 X25.084 Y41.897 Z0 F800
G1 X25.063 Y41.878 Z0 F800
G1 X25.03 Y41.817 Z0 F800
G1 X25.007 Y41.782 Z0 F800
G1 X24.954 Y41.71 Z0 F800
G1 X24.893 Y41.636 Z0 F800
G1 X24.762 Y41.493 Z0 F800
G1 X24.618 Y41.371 Z0 F800
G1 X24.536 Y41.323 Z0 F800
G1 X24.446 Y41.287 Z0 F800
G1 X24.351 Y41.266 Z0 F800
G1 X24.252 Z0 F800
G1 X24.067 Y41.322 Z0 F800
G1 X23.912 Y41.434 Z0 F800
G1 X23.799 Y41.564 Z0 F800
G1 X23.72 Y41.715 Z0 F800
G1 X23.672 Y41.885 Z0 F800
G1 X23.657 Y42.073 Z0 F800
G1 X23.696 Y42.381 Z0 F800
G1 X23.794 Y42.722 Z0 F800
G1 X23.918 Y43.052 Z0 F800
G1 X24.072 Y43.321 Z0 F800
G1 X24.163 Y43.456 Z0 F800
G1 X24.25 Y43.602 Z0 F800
G1 X24.352 Y43.785 Z0 F800
G1 X24.467 Y43.969 Z0 F800
G1 X24.558 Y44.127 Z0 F800
G1 X24.627 Y44.306 Z0 F800
G1 X24.679 Y44.517 Z0 F800
G1 X24.717 Y44.777 Z0 F800
G1 X24.737 Y45.077 Z0 F800
G1 X24.729 Y45.329 Z0 F800
G1 X24.696 Y45.53 Z0 F800
G1 X24.646 Y45.674 Z0 F800
G1 X24.557 Y45.799 Z0 F800
G1 X24.41 Y45.968 Z0 F800
G1 X24.335 Y46.042 Z0 F800
G1 X24.272 Y46.097 Z0 F800
G1 X24.247 Y46.115 Z0 F800
G1 X24.175 Y46.129 Z0 F800
G1 X24.105 Y46.166 Z0 F800
G1 X23.997 Y46.182 Z0 F800
G1 X23.899 Y46.189 Z0 F800
G1 X23.552 Y46.18 Z0 F800
G1 X23.172 Y46.125 Z0 F800
G1 X22.992 Y46.082 Z0 F800
G1 X22.834 Y46.034 Z0 F800
G1 X22.71 Y45.986 Z0 F800
G1 X22.633 Y45.946 Z0 F800
G1 X22.532 Y45.886 Z0 F800
G1 X22.418 Y45.842 Z0 F800
G1 X22.373 Y45.822 Z0 F800
G1 X22.271 Y45.771 Z0 F800
G1 X22.153 Y45.705 Z0 F800
G1 X22.034 Y45.631 Z0 F800
G1 X21.892 Y45.508 Z0 F800
G1 X21.765 Y45.39 Z0 F800
G1 X21.628 Y45.258 Z0 F800
G1 X21.489 Y45.12 Z0 F800
G1 X21.382 Y45.009 Z0 F800
G1 X21.302 Y44.914 Z0 F800
G1 X21.242 Y44.823 Z0 F800
G1 X21.194 Y44.725 Z0 F800
G1 X21.152 Y44.606 Z0 F800
G1 X21.11 Y44.457 Z0 F800
G1 X21.06 Y44.265 Z0 F800
G1 X20.987 Y43.934 Z0 F800
G1 X20.938 Y43.598 Z0 F800
G1 X20.911 Y43.23 Z0 F800
G1 X20.902 Y42.803 Z0 F800
G1 Y42.478 Z0 F800
G1 X20.906 Y42.369 Z0 F800
G1 X20.912 Y42.282 Z0 F800
G1 X20.937 Y42.131 Z0 F800
G1 X20.987 Y41.938 Z0 F800
G1 X21.047 Y41.665 Z0 F800
G1 X21.061 Y41.432 Z0 F800
G1 X21.027 Y41.207 Z0 F800
G1 X20.943 Y40.959 Z0 F800
G1 X20.859 Y40.761 Z0 F800
G1 X20.758 Y40.608 Z0 F800
G1 X20.606 Y40.501 Z0 F800
G1 X20.44 Y40.456 Z0 F800
G1 X20.324 Y40.447 Z0 F800
G1 X20.189 Y40.474 Z0 F800
G1 X20.077 Y40.539 Z0 F800
G1 X19.875 Y40.71 Z0 F800
G1 X19.881 Z0 F800
G1 X19.824 Y40.742 Z0 F800
G1 X19.776 Y40.772 Z0 F800
G1 X19.643 Y40.866 Z0 F800
G1 X19.427 Y41.022 Z0 F800
G1 X19.336 Y41.082 Z0 F800
G1 X19.286 Y41.113 Z0 F800
G1 X19.307 Y41.108 Z0 F800
G1 X19.347 Z0 F800
G1 X19.316 Z0 F800
G1 X19.285 Y41.114 Z0 F800
G1 X19.273 Y41.12 Z0 F800
G1 X19.283 Y41.114 Z0 F800
G1 X19.245 Y41.125 Z0 F800
G1 X19.205 Y41.144 Z0 F800
G1 X19.168 Y41.171 Z0 F800
G1 X19.132 Y41.209 Z0 F800
G1 X19.093 Y41.231 Z0 F800
G1 X19.036 Y41.258 Z0 F800
G1 X18.889 Y41.317 Z0 F800
G1 X18.752 Y41.36 Z0 F800
G1 X18.647 Y41.378 Z0 F800
G1 X18.494 Y41.39 Z0 F800
G1 X18.305 Y41.396 Z0 F800
G1 X18.094 Y41.393 Z0 F800
G1 X17.648 Y41.36 Z0 F800
G1 X17.228 Y41.297 Z0 F800
G1 X16.962 Y41.233 Z0 F800
G1 X16.726 Y41.152 Z0 F800
G1 X16.501 Y41.045 Z0 F800
G1 X16.268 Y40.906 Z0 F800
G1 X15.984 Y40.716 Z0 F800
G1 X15.753 Y40.536 Z0 F800
G1 X15.622 Y40.419 Z0 F800
G1 X15.461 Y40.268 Z0 F800
G1 X14.994 Y39.816 Z0 F800
G1 X14.597 Y39.427 Z0 F800
G1 X14.466 Y39.294 Z0 F800
G1 X14.371 Y39.192 Z0 F800
G1 X14.251 Y39.043 Z0 F800
G1 X14.161 Y38.892 Z0 F800
G1 X14.011 Y38.572 Z0 F800
G1 X13.912 Y38.229 Z0 F800
G1 X13.86 Y37.853 Z0 F800
G1 X13.854 Y37.429 Z0 F800
G1 X13.881 Y37.06 Z0 F800
G1 X13.942 Y36.77 Z0 F800
G1 X14.12 Y36.276 Z0 F800
G1 X14.345 Y35.844 Z0 F800
G1 X14.593 Y35.461 Z0 F800
G1 X14.746 Y35.268 Z0 F800
G1 X14.964 Y35.034 Z0 F800
G1 X15.109 Y34.899 Z0 F800
G1 X15.248 Y34.79 Z0 F800
G1 X15.417 Y34.678 Z0 F800
G1 X15.653 Y34.539 Z0 F800
G1 X15.899 Y34.399 Z0 F800
G1 X16.122 Y34.277 Z0 F800
G1 X16.324 Y34.172 Z0 F800
G1 X16.506 Y34.083 Z0 F800
G1 X16.819 Y33.949 Z0 F800
G1 X17.075 Y33.867 Z0 F800
G1 X17.248 Y33.819 Z0 F800
G1 X17.442 Y33.763 Z0 F800
G1 X17.551 Y33.736 Z0 F800
G1 X17.679 Y33.717 Z0 F800
G1 X17.859 Y33.704 Z0 F800
G1 X18.123 Y33.694 Z0 F800
G1 X18.313 Y33.689 Z0 F800
G1 X18.467 Z0 F800
G1 X18.592 Y33.692 Z0 F800
G1 X18.694 Y33.701 Z0 F800
G1 X18.865 Y33.742 Z0 F800
G1 X19.039 Y33.818 Z0 F800
G1 X19.105 Y33.864 Z0 F800
G1 X19.199 Y33.949 Z0 F800
G1 X19.277 Y34.044 Z0 F800
G1 X19.313 Y34.1 Z0 F800
G1 X19.349 Y34.269 Z0 F800
G1 X19.352 Y34.501 Z0 F800
G1 X19.314 Y34.74 Z0 F800
G1 X19.247 Y34.931 Z0 F800
G1 X19.179 Y35.079 Z0 F800
G1 X19.127 Y35.224 Z0 F800
G1 X19.092 Y35.304 Z0 F800
G1 X19.032 Y35.417 Z0 F800
G1 X18.951 Y35.56 Z0 F800
G1 X18.895 Y35.717 Z0 F800
G1 X18.87 Y35.779 Z0 F800
G1 X18.823 Y35.881 Z0 F800
G1 X18.749 Y36.01 Z0 F800
G1 X18.722 Y36.089 Z0 F800
G1 X18.728 Y36.17 Z0 F800
G1 X18.764 Y36.243 Z0 F800
G1 X18.827 Y36.3 Z0 F800
G1 X18.922 Y36.355 Z0 F800
G1 X19.001 Y36.397 Z0 F800
G1 X19.101 Y36.424 Z0 F800
G1 X19.206 Z0 F800
G1 X19.295 Y36.402 Z0 F800
G1 X19.67 Y36.351 Z0 F800
G1 X20.092 Y36.335 Z0 F800
G1 X20.28 Y36.375 Z0 F800
G1 X20.481 Y36.446 Z0 F800
G1 X20.652 Y36.523 Z0 F800
G1 X20.752 Y36.584 Z0 F800
G1 X20.824 Y36.682 Z0 F800
G1 X20.92 Y36.839 Z0 F800
G1 X20.974 Y36.946 Z0 F800
G1 X20.996 Y37.006 Z0 F800
G1 Y37.075 Z0 F800
G1 X20.991 Y37.205 Z0 F800
G1 X20.973 Y37.404 Z0 F800
G1 X20.917 Y37.551 Z0 F800
G1 X20.793 Y37.755 Z0 F800
G1 X20.639 Y37.936 Z0 F800
G1 X20.468 Y38.08 Z0 F800
G1 X20.295 Y38.176 Z0 F800
G1 X20.188 Y38.216 Z0 F800
G1 X20.071 Y38.232 Z0 F800
G1 X19.973 Y38.236 Z0 F800
G1 X19.835 Z0 F800
G1 X19.411 Y38.227 Z0 F800
G1 X19.27 Z0 F800
G1 X19.15 Y38.236 Z0 F800
G1 X19.035 Y38.271 Z0 F800
G1 X18.94 Y38.323 Z0 F800
G1 X18.91 Y38.342 Z0 F800
G1 X18.848 Y38.359 Z0 F800
G1 X18.782 Y38.374 Z0 F800
G1 X18.689 Y38.391 Z0 F800
G1 X18.408 Y38.438 Z0 F800
G1 X18.327 Y38.444 Z0 F800
G1 X18.179 Y38.451 Z0 F800
G1 X17.995 Y38.455 Z0 F800
G1 X17.807 Z0 F800
G1 X17.601 Y38.445 Z0 F800
G1 X17.444 Y38.435 Z0 F800
G1 X17.329 Y38.418 Z0 F800
G1 X17.246 Y38.397 Z0 F800
G1 X17.177 Y38.366 Z0 F800
G1 X17.106 Y38.319 Z0 F800
G1 X17.021 Y38.248 Z0 F800
G1 X16.912 Y38.146 Z0 F800
G1 X16.773 Y38.013 Z0 F800
G1 X16.7 Y37.933 Z0 F800
G1 X16.658 Y37.855 Z0 F800
G1 X16.611 Y37.729 Z0 F800
G1 X16.548 Y37.515 Z0 F800
G1 X16.52 Y37.311 Z0 F800
G1 X16.517 Y37.124 Z0 F800
G1 X16.575 Y36.943 Z0 F800
G1 X16.636 Y36.806 Z0 F800
G1 X16.716 Y36.678 Z0 F800
G1 X16.828 Y36.543 Z0 F800
G1 X16.982 Y36.388 Z0 F800
G1 X17.51 Y35.887 Z0 F800
G1 X17.735 Y35.671 Z0 F800
G1 X17.813 Y35.589 Z0 F800
G1 X17.877 Y35.516 Z0 F800
G1 X17.968 Y35.37 Z0 F800
G1 X18.029 Y35.216 Z0 F800
G1 X18.104 Y35 Z0 F800
G1 X18.114 Y34.907 Z0 F800
G1 X18.082 Y34.818 Z0 F800
G1 X18.014 Y34.75 Z0 F800
G1 X17.924 Y34.718 Z0 F800
G1 X17.788 Y34.7 Z0 F800
G1 X17.604 Y34.683 Z0 F800
G1 X17.432 Z0 F800
G1 X17.271 Y34.705 Z0 F800
G1 X17.12 Y34.747 Z0 F800
G1 X16.949 Y34.813 Z0 F800
G1 X16.797 Y34.881 Z0 F800
G1 X16.732 Y34.914 Z0 F800
G1 X16.673 Y34.947 Z0 F800
G1 X16.631 Y34.975 Z0 F800
G1 X16.583 Y35.014 Z0 F800
G1 X16.506 Y35.047 Z0 F800
G1 X16.367 Y35.118 Z0 F800
G1 X16.255 Y35.178 Z0 F800
G1 X16.091 Y35.276 Z0 F800
G1 X15.936 Y35.389 Z0 F800
G1 X15.769 Y35.532 Z0 F800
G1 X15.568 Y35.721 Z0 F800
G1 X15.423 Y35.865 Z0 F800
G1 X15.303 Y35.99 Z0 F800
G1 X15.255 Y36.042 Z0 F800
G1 X15.2 Y36.107 Z0 F800
G1 X15.175 Y36.142 Z0 F800
G1 X15.155 Y36.178 Z0 F800
G1 X15.146 Y36.206 Z0 F800
G1 X15.09 Y36.3 Z0 F800
G1 X15.043 Y36.373 Z0 F800
G1 X14.904 Y36.599 Z0 F800
G1 X14.768 Y36.849 Z0 F800
G1 X14.689 Y37.019 Z0 F800
G1 X14.642 Y37.164 Z0 F800
G1 X14.62 Y37.321 Z0 F800
G1 X14.614 Y37.526 Z0 F800
G1 Y37.85 Z0 F800
G1 X14.621 Y37.9 Z0 F800
G1 X14.639 Y37.949 Z0 F800
G1 X14.785 Y38.224 Z0 F800
G1 X14.918 Y38.454 Z0 F800
G1 X15.072 Y38.667 Z0 F800
G1 X15.271 Y38.896 Z0 F800
G1 X15.544 Y39.176 Z0 F800
G1 X15.784 Y39.412 Z0 F800
G1 X16.002 Y39.62 Z0 F800
G1 X16.2 Y39.802 Z0 F800
G1 X16.381 Y39.958 Z0 F800
G1 X16.547 Y40.09 Z0 F800
G1 X16.699 Y40.198 Z0 F800
G1 X16.841 Y40.283 Z0 F800
G1 X16.974 Y40.346 Z0 F800
G1 X17.044 Y40.384 Z0 F800
G1 X17.063 Y40.391 Z0 F800
G1 X17.187 Y40.475 Z0 F800
G1 X17.319 Y40.529 Z0 F800
G1 X17.464 Y40.563 Z0 F800
G1 X17.622 Y40.589 Z0 F800
G1 X17.96 Y40.622 Z0 F800
G1 X18.295 Y40.608 Z0 F800
G1 X18.545 Y40.545 Z0 F800
G1 X18.8 Y40.418 Z0 F800
G1 X19.081 Y40.218 Z0 F800
G1 X19.407 Y39.938 Z0 F800
G1 X19.54 Y39.82 Z0 F800
G1 X19.644 Y39.73 Z0 F800
G1 X19.725 Y39.666 Z0 F800
G1 X19.788 Y39.622 Z0 F800
G1 X19.902 Y39.567 Z0 F800
G1 X20.076 Y39.52 Z0 F800
G1 X20.229 Y39.493 Z0 F800
G1 X20.396 Y39.485 Z0 F800
G1 X20.59 Y39.497 Z0 F800
G1 X20.819 Y39.531 Z0 F800
G1 X21.005 Y39.586 Z0 F800
G1 X21.181 Y39.678 Z0 F800
G1 X21.338 Y39.804 Z0 F800
G1 X21.469 Y39.959 Z0 F800
G1 X21.533 Y40.089 Z0 F800
G1 X21.611 Y40.302 Z0 F800
G1 X21.684 Y40.556 Z0 F800
G1 X21.733 Y40.806 Z0 F800
G1 X21.751 Y40.983 Z0 F800
G1 X21.765 Y41.206 Z0 F800
G1 X21.773 Y41.454 Z0 F800
G1 X21.777 Y41.706 Z0 F800
G1 X21.774 Y41.941 Z0 F800
G1 X21.767 Y42.14 Z0 F800
G1 X21.762 Y42.219 Z0 F800
G1 X21.755 Y42.279 Z0 F800
G1 X21.746 Y42.316 Z0 F800
G1 X21.758 Y42.294 Z0 F800
G1 X21.696 Y42.45 Z0 F800
G1 X21.658 Y42.622 Z0 F800
G1 X21.637 Y42.809 Z0 F800
G1 X21.629 Y43.006 Z0 F800
G1 X21.647 Y43.412 Z0 F800
G1 X21.723 Y43.786 Z0 F800
G1 X21.802 Y44.003 Z0 F800
G1 X21.894 Y44.188 Z0 F800
G1 X22.007 Y44.355 Z0 F800
G1 X22.153 Y44.523 Z0 F800
G1 X22.363 Y44.728 Z0 F800
G1 X22.575 Y44.901 Z0 F800
G1 X22.79 Y45.043 Z0 F800
G1 X23.008 Y45.154 Z0 F800
G1 X23.132 Y45.202 Z0 F800
G1 X23.251 Y45.235 Z0 F800
G1 X23.371 Y45.246 Z0 F800
G1 X23.495 Y45.228 Z0 F800
G1 X23.615 Y45.169 Z0 F800
G1 X23.709 Y45.076 Z0 F800
G1 X23.764 Y44.967 Z0 F800
G1 X23.79 Y44.854 Z0 F800
G1 X23.793 Y44.744 Z0 F800
G1 X23.772 Y44.626 Z0 F800
G1 X23.728 Y44.51 Z0 F800
G1 X23.579 Y44.207 Z0 F800
G1 X23.557 Y44.157 Z0 F800
G1 X23.549 Y44.131 Z0 F800
G1 X23.533 Y44.094 Z0 F800
G1 X23.507 Y44.05 Z0 F800
G1 X23.444 Y43.964 Z0 F800
G1 X23.392 Y43.901 Z0 F800
G1 X23.314 Y43.781 Z0 F800
G1 X23.249 Y43.641 Z0 F800
G1 X23.22 Y43.56 Z0 F800
G1 X23.18 Y43.456 Z0 F800
G1 X23.157 Y43.402 Z0 F800
G1 X23.126 Y43.357 Z0 F800
G1 X23.141 Y43.376 Z0 F800
G1 X23.129 Y43.348 Z0 F800
G1 X23.091 Y43.227 Z0 F800
G1 X23.051 Y43.073 Z0 F800
G1 X22.984 Y42.771 Z0 F800
G1 X22.938 Y42.603 Z0 F800
G1 X22.918 Y42.521 Z0 F800
G1 X22.905 Y42.395 Z0 F800
G1 X22.897 Y42.203 Z0 F800
G1 X22.893 Y41.917 Z0 F800
G1 Y41.585 Z0 F800
G1 X22.896 Y41.479 Z0 F800
G1 X22.9 Y41.404 Z0 F800
G1 X22.919 Y41.302 Z0 F800
G1 X22.962 Y41.177 Z0 F800
G1 X23.04 Y40.974 Z0 F800
G1 X23.107 Y40.842 Z0 F800
G1 X23.204 Y40.722 Z0 F800
G1 X23.369 Y40.554 Z0 F800
G1 X23.541 Y40.387 Z0 F800
G1 X23.664 Y40.286 Z0 F800
G1 X23.791 Y40.216 Z0 F800
G1 X23.973 Y40.143 Z0 F800
G1 X24.15 Y40.086 Z0 F800
G1 X24.396 Y40.089 Z0 F800
G1 X24.558 Y40.094 Z0 F800
G1 X24.649 Y40.105 Z0 F800
G1 X24.732 Y40.137 Z0 F800
G1 X24.867 Y40.203 Z0 F800
G1 X25.012 Y40.272 Z0 F800
G1 X25.135 Y40.318 Z0 F800
G1 X25.259 Y40.339 Z0 F800
G1 X25.374 Y40.336 Z0 F800
G1 X25.554 Y40.285 Z0 F800
G1 X25.72 Y40.183 Z0 F800
G1 X25.867 Y40.039 Z0 F800
G1 X26.015 Y39.849 Z0 F800
G1 X26.167 Y39.647 Z0 F800
G1 X26.631 Y39.074 Z0 F800
G1 X26.92 Y38.655 Z0 F800
G1 X27.039 Y38.458 Z0 F800
G1 X27.138 Y38.274 Z0 F800
G1 X27.214 Y38.102 Z0 F800
G1 X27.262 Y37.94 Z0 F800
G1 X27.296 Y37.696 Z0 F800
G1 X27.282 Y37.445 Z0 F800
G1 X27.213 Y37.164 Z0 F800
G1 X27.088 Y36.8 Z0 F800
G1 X27.008 Y36.481 Z0 F800
G1 X26.959 Y36.075 Z0 F800
G1 X26.949 Y35.638 Z0 F800
G1 X26.982 Y35.23 Z0 F800
G1 X27.034 Y34.982 Z0 F800
G1 X27.133 Y34.76 Z0 F800
G1 X27.208 Y34.626 Z0 F800
G1 X27.302 Y34.5 Z0 F800
G1 X27.371 Y34.424 Z0 F800
G1 X27.461 Y34.33 Z0 F800
G1 X27.729 Y34.062 Z0 F800
G1 X28.036 Y33.767 Z0 F800
G1 X28.298 Y33.532 Z0 F800
G1 X28.404 Y33.445 Z0 F800
G1 X28.485 Y33.383 Z0 F800
G1 X28.52 Y33.361 Z0 F800
G1 X28.541 Y33.354 Z0 F800
G1 X28.582 Y33.337 Z0 F800
G1 X28.642 Y33.308 Z0 F800
G1 X28.805 Y33.222 Z0 F800
G1 X29.026 Y33.112 Z0 F800
G1 X29.323 Y32.98 Z0 F800
G1 X29.464 Y32.921 Z0 F800
G1 X29.584 Y32.874 Z0 F800
G1 X29.667 Y32.844 Z0 F800
G1 X29.691 Y32.841 Z0 F800
G1 X29.649 Z0 F800
G1 X29.704 Z0 F800
G1 X29.765 Y32.823 Z0 F800
G1 X29.877 Y32.79 Z0 F800
G1 X30.25 Y32.667 Z0 F800
G1 X30.523 Y32.59 Z0 F800
G1 X30.646 Y32.561 Z0 F800
G1 X30.75 Y32.54 Z0 F800
G1 X30.824 Y32.527 Z0 F800
G1 X30.938 Y32.514 Z0 F800
G1 X31.003 Y32.495 Z0 F800
G1 X31.068 Y32.471 Z0 F800
G1 X31.134 Y32.44 Z0 F800
G1 X31.226 Y32.402 Z0 F800
G1 X31.337 Y32.367 Z0 F800
G1 X31.525 Y32.298 Z0 F800
G1 X31.718 Y32.195 Z0 F800
G1 X31.913 Y32.075 Z0 F800
G1 X32.081 Y31.947 Z0 F800
G1 X32.184 Y31.84 Z0 F800
G1 X32.297 Y31.694 Z0 F800
G1 X32.432 Y31.498 Z0 F800
G0 Z3.5 F500
G0 X41.349 Y34.605 Z3.5 
G1 Z0 F500
G1 X41.343 Y34.556 Z0 F800
G1 X41.349 Y34.605 Z0 F800
G0 Z3.5 F500
G0 X48.192 Y33.647 Z3.5 
G1 Z0 F500
G1 X48.184 Y33.678 Z0 F800
G1 X48.196 Y33.62 Z0 F800
G1 X48.192 Y33.647 Z0 F800
G0 Z3.5 F500
G0 X55.996 Y32.52 Z3.5 
G1 Z0 F500
G1 X55.954 Y32.587 Z0 F800
G1 X55.994 Y32.488 Z0 F800
G1 X56.008 Y32.476 Z0 F800
G1 X55.996 Y32.52 Z0 F800
G0 Z3.5 F500
G0 X57.246 Y36.351 Z3.5 
G1 Z0 F500
G1 X57.425 Y36.357 Z0 F800
G1 X57.453 Z0 F800
G1 X57.477 Y36.381 Z0 F800
G1 X57.531 Y36.434 Z0 F800
G1 X57.551 Y36.501 Z0 F800
G1 X57.556 Y36.533 Z0 F800
G1 X57.553 Y36.537 Z0 F800
G1 X57.504 Y36.594 Z0 F800
G1 X57.361 Y36.735 Z0 F800
G1 X57.131 Y36.953 Z0 F800
G1 X57.128 Y36.945 Z0 F800
G1 X56.846 Y36.694 Z0 F800
G1 X56.642 Y36.573 Z0 F800
G1 X56.445 Y36.472 Z0 F800
G1 X56.417 Y36.464 Z0 F800
G1 X56.439 Y36.457 Z0 F800
G1 X56.537 Y36.403 Z0 F800
G1 X56.563 Y36.398 Z0 F800
G1 X56.794 Y36.359 Z0 F800
G1 X56.82 Z0 F800
G1 X56.922 Y36.353 Z0 F800
G1 X57.095 Y36.35 Z0 F800
G1 X57.246 Z0 F800
G0 Z3.5 F500
G0 X58.041 Y36.394 Z3.5 
G1 Z0 F500
G1 X58.061 Y36.534 Z0 F800
G1 Y36.604 Z0 F800
G1 X58.037 Y36.681 Z0 F800
G1 X57.999 Y36.766 Z0 F800
G1 X57.955 Y36.835 Z0 F800
G1 X57.865 Y36.94 Z0 F800
G1 X57.712 Y37.091 Z0 F800
G1 X57.196 Y37.58 Z0 F800
G1 X57.026 Y37.746 Z0 F800
G1 X56.88 Y37.898 Z0 F800
G1 X56.718 Y38.124 Z0 F800
G1 X56.789 Y38 Z0 F800
G1 X56.863 Y37.779 Z0 F800
G1 X56.843 Y37.501 Z0 F800
G1 X56.722 Y37.253 Z0 F800
G1 X56.549 Y37.099 Z0 F800
G1 X56.4 Y37.011 Z0 F800
G1 X56.262 Y36.939 Z0 F800
G1 X56.045 Y36.879 Z0 F800
G1 X55.811 Z0 F800
G1 X55.693 Y36.91 Z0 F800
G1 X55.363 Y36.954 Z0 F800
G1 X55.03 Y36.966 Z0 F800
G1 X54.934 Y36.946 Z0 F800
G1 X54.785 Y36.894 Z0 F800
G1 X54.671 Y36.843 Z0 F800
G1 X54.667 Y36.838 Z0 F800
G1 X54.599 Y36.726 Z0 F800
G1 X54.583 Y36.695 Z0 F800
G1 X54.586 Y36.646 Z0 F800
G1 X54.599 Y36.513 Z0 F800
G1 X54.615 Y36.472 Z0 F800
G1 X54.692 Y36.343 Z0 F800
G1 X54.794 Y36.225 Z0 F800
G1 X54.899 Y36.136 Z0 F800
G1 X54.994 Y36.083 Z0 F800
G1 X55.013 Y36.076 Z0 F800
G1 X55.052 Y36.07 Z0 F800
G1 X55.11 Z0 F800
G1 X55.235 Z0 F800
G1 X55.661 Y36.077 Z0 F800
G1 X55.829 Z0 F800
G1 X56.026 Y36.062 Z0 F800
G1 X56.242 Y35.995 Z0 F800
G1 X56.364 Y35.927 Z0 F800
G1 X56.393 Y35.921 Z0 F800
G1 X56.481 Y35.905 Z0 F800
G1 X56.736 Y35.862 Z0 F800
G1 X56.781 Y35.858 Z0 F800
G1 X56.912 Y35.853 Z0 F800
G1 X57.089 Y35.85 Z0 F800
G1 X57.268 Z0 F800
G1 X57.452 Y35.857 Z0 F800
G1 X57.579 Y35.867 Z0 F800
G1 X57.654 Y35.877 Z0 F800
G1 X57.664 Z0 F800
G1 X57.674 Y35.886 Z0 F800
G1 X57.728 Y35.932 Z0 F800
G1 X57.822 Y36.02 Z0 F800
G1 X57.949 Y36.141 Z0 F800
G1 X57.967 Y36.161 Z0 F800
G1 X57.993 Y36.231 Z0 F800
G1 X58.041 Y36.394 Z0 F800
G0 Z3.5 F500
G0 X47.137 Y28.446 Z3.5 
G1 Z0 F500
G1 X47.038 Y28.367 Z0 F800
G1 X46.865 Y28.238 Z0 F800
G1 X46.691 Y28.087 Z0 F800
G1 X46.534 Y27.902 Z0 F800
G1 X46.501 Y27.857 Z0 F800
G1 X46.452 Y27.792 Z0 F800
G1 X46.44 Y27.753 Z0 F800
G1 X46.432 Y27.713 Z0 F800
G1 X46.427 Y27.636 Z0 F800
G1 X46.44 Y27.548 Z0 F800
G1 X46.495 Y27.376 Z0 F800
G1 X46.625 Y27.092 Z0 F800
G1 X46.711 Y26.934 Z0 F800
G1 X46.792 Y26.806 Z0 F800
G1 X46.859 Y26.714 Z0 F800
G1 X46.896 Y26.674 Z0 F800
G1 X46.971 Y26.614 Z0 F800
G1 X47.031 Z0 F800
G1 X47.181 Y26.627 Z0 F800
G1 X47.186 Z0 F800
G1 X47.237 Y26.653 Z0 F800
G1 X47.311 Y26.695 Z0 F800
G1 X47.432 Y26.756 Z0 F800
G1 X47.536 Y26.871 Z0 F800
G1 X47.544 Y26.893 Z0 F800
G1 X47.571 Y27.024 Z0 F800
G1 X47.581 Y27.187 Z0 F800
G1 X47.573 Y27.278 Z0 F800
G1 X47.51 Y27.463 Z0 F800
G1 X47.344 Y27.82 Z0 F800
G1 X47.211 Y28.111 Z0 F800
G1 X47.137 Y28.446 Z0 F800
G0 Z3.5 F500
G0 X46.967 Y28.949 Z3.5 
G1 Z0 F500
G1 X46.732 Y28.763 Z0 F800
G1 X46.548 Y28.625 Z0 F800
G1 X46.333 Y28.438 Z0 F800
G1 X46.141 Y28.211 Z0 F800
G1 X46.099 Y28.154 Z0 F800
G1 X46.002 Y28.026 Z0 F800
G1 X45.99 Y27.994 Z0 F800
G1 X45.957 Y27.882 Z0 F800
G1 X45.935 Y27.779 Z0 F800
G1 X45.925 Y27.615 Z0 F800
G1 X45.951 Y27.435 Z0 F800
G1 X46.028 Y27.195 Z0 F800
G1 X46.178 Y26.868 Z0 F800
G1 X46.278 Y26.682 Z0 F800
G1 X46.376 Y26.526 Z0 F800
G1 X46.472 Y26.397 Z0 F800
G1 X46.552 Y26.309 Z0 F800
G1 X46.716 Y26.177 Z0 F800
G1 X46.849 Y26.119 Z0 F800
G1 X46.875 Z0 F800
G1 X46.961 Y26.114 Z0 F800
G1 X47.05 Z0 F800
G1 X47.251 Y26.131 Z0 F800
G1 X47.329 Y26.145 Z0 F800
G1 X47.377 Y26.165 Z0 F800
G1 X47.475 Y26.214 Z0 F800
G1 X47.545 Y26.254 Z0 F800
G1 X47.637 Y26.3 Z0 F800
G1 X47.711 Y26.331 Z0 F800
G1 X47.725 Y26.343 Z0 F800
G1 X47.788 Y26.404 Z0 F800
G1 X47.926 Y26.557 Z0 F800
G1 X47.976 Y26.624 Z0 F800
G1 X48.025 Y26.751 Z0 F800
G1 X48.068 Y26.96 Z0 F800
G1 X48.083 Y27.192 Z0 F800
G1 X48.066 Y27.382 Z0 F800
G1 X47.976 Y27.648 Z0 F800
G1 X47.798 Y28.029 Z0 F800
G1 X47.688 Y28.271 Z0 F800
G1 X47.62 Y28.574 Z0 F800
G1 X47.616 Y28.758 Z0 F800
G1 X47.645 Y28.952 Z0 F800
G1 X47.714 Y29.159 Z0 F800
G1 X47.829 Y29.35 Z0 F800
G1 X47.96 Y29.505 Z0 F800
G1 X48.105 Y29.655 Z0 F800
G1 X48.282 Y29.826 Z0 F800
G1 X48.5 Y30.033 Z0 F800
G1 X48.7 Y30.227 Z0 F800
G1 X48.855 Y30.385 Z0 F800
G1 X48.958 Y30.496 Z0 F800
G1 X48.964 Y30.505 Z0 F800
G1 X48.974 Y30.521 Z0 F800
G1 X49.02 Y30.595 Z0 F800
G1 Y30.598 Z0 F800
G1 X49.076 Y30.723 Z0 F800
G1 X49.115 Y30.806 Z0 F800
G1 X49.167 Y30.93 Z0 F800
G1 X49.188 Y30.989 Z0 F800
G1 X49.28 Y31.36 Z0 F800
G1 X49.41 Y31.762 Z0 F800
G1 X49.433 Y31.829 Z0 F800
G1 X49.436 Y31.838 Z0 F800
G1 X49.515 Y32.292 Z0 F800
G1 X49.647 Y32.284 Z0 F800
G1 X49.662 Y32.307 Z0 F800
G1 X49.73 Y32.401 Z0 F800
G1 X49.808 Y32.495 Z0 F800
G1 X49.97 Y32.673 Z0 F800
G1 X50.171 Y32.842 Z0 F800
G1 X50.321 Y32.93 Z0 F800
G1 X50.485 Y32.997 Z0 F800
G1 X50.673 Y33.038 Z0 F800
G1 X50.9 Z0 F800
G1 X51.238 Y32.936 Z0 F800
G1 X51.506 Y32.743 Z0 F800
G1 X51.501 Y32.749 Z0 F800
G1 X51.36 Y32.892 Z0 F800
G1 X51.206 Y33.043 Z0 F800
G1 X51.133 Y33.103 Z0 F800
G1 X51.074 Y33.135 Z0 F800
G1 X50.938 Y33.19 Z0 F800
G1 X50.854 Y33.217 Z0 F800
G1 X50.688 Z0 F800
G1 X50.561 Y33.211 Z0 F800
G1 X50.55 Z0 F800
G1 X50.546 Y33.208 Z0 F800
G1 X50.43 Y33.15 Z0 F800
G1 X50.262 Y33.071 Z0 F800
G1 X50.075 Y33.001 Z0 F800
G1 X49.855 Y32.963 Z0 F800
G1 X49.628 Y32.97 Z0 F800
G1 X49.322 Y33.057 Z0 F800
G1 X49.06 Y33.218 Z0 F800
G1 X49.133 Y33.081 Z0 F800
G1 X49.228 Y32.794 Z0 F800
G1 X49.284 Y32.505 Z0 F800
G1 X49.312 Y32.212 Z0 F800
G1 Y31.884 Z0 F800
G1 X49.268 Y31.561 Z0 F800
G1 X49.176 Y31.251 Z0 F800
G1 X49.05 Y30.982 Z0 F800
G1 X48.978 Y30.838 Z0 F800
G1 X48.857 Y30.567 Z0 F800
G1 X48.688 Y30.34 Z0 F800
G1 X48.651 Y30.285 Z0 F800
G1 X48.472 Y30.025 Z0 F800
G1 X48.197 Y29.767 Z0 F800
G1 X48.024 Y29.639 Z0 F800
G1 X47.841 Y29.518 Z0 F800
G1 X47.631 Y29.389 Z0 F800
G1 X47.402 Y29.254 Z0 F800
G1 X47.193 Y29.118 Z0 F800
G1 X46.967 Y28.949 Z0 F800
G0 Z3.5 F500
G0 X40.611 Y42.348 Z3.5 
G1 Z0 F500
G1 X40.735 Y42.468 Z0 F800
G1 X41.038 Y42.61 Z0 F800
G1 X41.344 Y42.652 Z0 F800
G1 X41.594 Y42.626 Z0 F800
G1 X41.811 Y42.542 Z0 F800
G1 X41.695 Y42.608 Z0 F800
G1 X41.604 Y42.646 Z0 F800
G1 X41.457 Y42.667 Z0 F800
G1 X41.39 Z0 F800
G1 X41.29 Z0 F800
G1 X41.051 Y42.649 Z0 F800
G1 X40.932 Y42.625 Z0 F800
G1 X40.875 Y42.597 Z0 F800
G1 X40.782 Y42.523 Z0 F800
G1 X40.648 Y42.392 Z0 F800
G1 X40.611 Y42.348 Z0 F800
G0 Z3.5 F500
G0 X40.247 Y38.828 Z3.5 
G1 Z0 F500
G1 X40.274 Z0 F800
G1 X40.569 Y38.814 Z0 F800
G1 X40.758 Y38.824 Z0 F800
G1 X40.893 Y38.853 Z0 F800
G1 X41.03 Y38.904 Z0 F800
G1 X41.196 Y38.998 Z0 F800
G1 X41.265 Y39.069 Z0 F800
G1 X41.315 Y39.175 Z0 F800
G1 X41.353 Y39.388 Z0 F800
G1 Y39.431 Z0 F800
G1 X41.326 Y39.53 Z0 F800
G1 X41.293 Y39.621 Z0 F800
G1 X41.276 Y39.65 Z0 F800
G1 X41.253 Y39.68 Z0 F800
G1 X41.201 Y39.74 Z0 F800
G1 X41.101 Y39.849 Z0 F800
G1 X40.97 Y39.987 Z0 F800
G1 X40.91 Y40.053 Z0 F800
G1 X40.994 Y39.845 Z0 F800
G1 X41.003 Y39.584 Z0 F800
G1 X40.939 Y39.352 Z0 F800
G1 X40.847 Y39.2 Z0 F800
G1 X40.756 Y39.091 Z0 F800
G1 X40.559 Y38.936 Z0 F800
G1 X40.325 Y38.843 Z0 F800
G1 X40.247 Y38.828 Z0 F800
G0 Z3.5 F500
G0 X56.228 Y39.338 Z3.5 
G1 Z0 F500
G1 X56.252 Y39.188 Z0 F800
G1 X56.297 Y39.061 Z0 F800
G1 X56.364 Y38.915 Z0 F800
G1 X56.416 Y38.769 Z0 F800
G1 X56.442 Y38.709 Z0 F800
G1 X56.485 Y38.627 Z0 F800
G1 X56.541 Y38.53 Z0 F800
G1 X56.487 Y38.685 Z0 F800
G1 X56.454 Y38.877 Z0 F800
G1 X56.493 Y39.106 Z0 F800
G1 X56.598 Y39.309 Z0 F800
G1 X56.737 Y39.442 Z0 F800
G1 X56.893 Y39.55 Z0 F800
G1 X57.016 Y39.607 Z0 F800
G1 X56.943 Y39.61 Z0 F800
G1 X56.753 Y39.615 Z0 F800
G1 X56.622 Z0 F800
G1 X56.513 Z0 F800
G1 X56.467 Y39.608 Z0 F800
G1 X56.375 Y39.586 Z0 F800
G1 X56.287 Y39.548 Z0 F800
G1 X56.241 Y39.507 Z0 F800
G1 X56.234 Y39.499 Z0 F800
G1 X56.23 Y39.479 Z0 F800
G1 Y39.338 Z0 F800
G0 Z3.5 F500
G0 X54.189 Y33.714 Z3.5 
G1 Z0 F500
G1 X54.173 Y33.706 Z0 F800
G1 X54.146 Y33.684 Z0 F800
G1 X54.189 Y33.714 Z0 F800
G0 Z3.5 F500
G0 X50.845 Y28.66 Z3.5 
G1 Z0 F500
G1 X50.85 Y28.524 Z0 F800
G1 X50.87 Y28.398 Z0 F800
G1 X50.883 Y28.361 Z0 F800
G1 X50.916 Y28.314 Z0 F800
G1 X51.035 Y28.177 Z0 F800
G1 X51.058 Y28.154 Z0 F800
G1 X51.071 Z0 F800
G1 X51.13 Y28.121 Z0 F800
G1 X51.134 Z0 F800
G1 X51.193 Y28.116 Z0 F800
G1 X51.377 Y28.121 Z0 F800
G1 X51.17 Y28.221 Z0 F800
G1 X50.96 Y28.431 Z0 F800
G1 X50.845 Y28.66 Z0 F800
G0 Z3.5 F500
G0 X50.452 Y29.499 Z3.5 
G1 Z0 F500
G1 X50.4 Y29.287 Z0 F800
G1 X50.362 Y29.027 Z0 F800
G1 X50.342 Y28.728 Z0 F800
G1 X50.351 Y28.475 Z0 F800
G1 X50.383 Y28.274 Z0 F800
G1 X50.434 Y28.13 Z0 F800
G1 X50.522 Y28.005 Z0 F800
G1 X50.669 Y27.835 Z0 F800
G1 X50.744 Y27.762 Z0 F800
G1 X50.807 Y27.707 Z0 F800
G1 X50.833 Y27.688 Z0 F800
G1 X50.904 Y27.675 Z0 F800
G1 X50.975 Y27.638 Z0 F800
G1 X51.083 Y27.623 Z0 F800
G1 X51.181 Y27.615 Z0 F800
G1 X51.527 Y27.625 Z0 F800
G1 X51.908 Y27.679 Z0 F800
G1 X52.087 Y27.722 Z0 F800
G1 X52.246 Y27.771 Z0 F800
G1 X52.37 Y27.818 Z0 F800
G1 X52.446 Y27.857 Z0 F800
G1 X52.547 Y27.918 Z0 F800
G1 X52.661 Y27.962 Z0 F800
G1 X52.706 Y27.982 Z0 F800
G1 X52.808 Y28.032 Z0 F800
G1 X52.926 Y28.099 Z0 F800
G1 X53.045 Y28.173 Z0 F800
G1 X53.188 Y28.296 Z0 F800
G1 X53.314 Y28.414 Z0 F800
G1 X53.451 Y28.546 Z0 F800
G1 X53.59 Y28.684 Z0 F800
G1 X53.697 Y28.795 Z0 F800
G1 X53.777 Y28.89 Z0 F800
G1 X53.838 Y28.981 Z0 F800
G1 X53.886 Y29.08 Z0 F800
G1 X53.927 Y29.198 Z0 F800
G1 X53.97 Y29.347 Z0 F800
G1 X54.019 Y29.539 Z0 F800
G1 X54.093 Y29.87 Z0 F800
G1 X54.142 Y30.206 Z0 F800
G1 X54.169 Y30.574 Z0 F800
G1 X54.177 Y31.001 Z0 F800
G1 Y31.326 Z0 F800
G1 X54.174 Y31.435 Z0 F800
G1 X54.168 Y31.521 Z0 F800
G1 X54.143 Y31.673 Z0 F800
G1 X54.092 Y31.866 Z0 F800
G1 X54.032 Y32.139 Z0 F800
G1 X54.018 Y32.373 Z0 F800
G1 X54.052 Y32.597 Z0 F800
G1 X54.136 Y32.845 Z0 F800
G1 X54.22 Y33.043 Z0 F800
G1 X54.321 Y33.196 Z0 F800
G1 X54.474 Y33.303 Z0 F800
G1 X54.639 Y33.349 Z0 F800
G1 X54.755 Y33.357 Z0 F800
G1 X54.89 Y33.331 Z0 F800
G1 X55.003 Y33.266 Z0 F800
G1 X55.204 Y33.094 Z0 F800
G1 X55.199 Z0 F800
G1 X55.255 Y33.063 Z0 F800
G1 X55.303 Y33.031 Z0 F800
G1 X55.437 Y32.938 Z0 F800
G1 X55.653 Y32.782 Z0 F800
G1 X55.743 Y32.722 Z0 F800
G1 X55.793 Y32.691 Z0 F800
G1 X55.772 Y32.695 Z0 F800
G1 X55.732 Z0 F800
G1 X55.764 Z0 F800
G1 X55.795 Y32.69 Z0 F800
G1 X55.806 Y32.684 Z0 F800
G1 X55.796 Y32.69 Z0 F800
G1 X55.835 Y32.679 Z0 F800
G1 X55.875 Y32.66 Z0 F800
G1 X55.911 Y32.633 Z0 F800
G1 X55.947 Y32.594 Z0 F800
G1 X55.987 Y32.573 Z0 F800
G1 X56.043 Y32.546 Z0 F800
G1 X56.19 Y32.487 Z0 F800
G1 X56.327 Y32.443 Z0 F800
G1 X56.432 Y32.426 Z0 F800
G1 X56.585 Y32.414 Z0 F800
G1 X56.774 Y32.408 Z0 F800
G1 X56.985 Y32.411 Z0 F800
G1 X57.431 Y32.444 Z0 F800
G1 X57.852 Y32.507 Z0 F800
G1 X58.117 Y32.571 Z0 F800
G1 X58.353 Y32.652 Z0 F800
G1 X58.579 Y32.759 Z0 F800
G1 X58.811 Y32.898 Z0 F800
G1 X59.095 Y33.088 Z0 F800
G1 X59.326 Y33.268 Z0 F800
G1 X59.457 Y33.385 Z0 F800
G1 X59.618 Y33.536 Z0 F800
G1 X60.085 Y33.988 Z0 F800
G1 X60.482 Y34.377 Z0 F800
G1 X60.613 Y34.51 Z0 F800
G1 X60.708 Y34.612 Z0 F800
G1 X60.828 Y34.76 Z0 F800
G1 X60.919 Y34.912 Z0 F800
G1 X61.068 Y35.232 Z0 F800
G1 X61.167 Y35.575 Z0 F800
G1 X61.219 Y35.951 Z0 F800
G1 X61.225 Y36.375 Z0 F800
G1 X61.198 Y36.744 Z0 F800
G1 X61.137 Y37.035 Z0 F800
G1 X60.958 Y37.533 Z0 F800
G1 X60.725 Y37.975 Z0 F800
G1 X60.477 Y38.358 Z0 F800
G1 X60.332 Y38.539 Z0 F800
G1 X60.116 Y38.77 Z0 F800
G1 X59.97 Y38.905 Z0 F800
G1 X59.831 Y39.015 Z0 F800
G1 X59.663 Y39.126 Z0 F800
G1 X59.426 Y39.266 Z0 F800
G1 X59.18 Y39.405 Z0 F800
G1 X58.957 Y39.527 Z0 F800
G1 X58.755 Y39.632 Z0 F800
G1 X58.573 Y39.721 Z0 F800
G1 X58.26 Y39.855 Z0 F800
G1 X58.004 Y39.938 Z0 F800
G1 X57.832 Y39.984 Z0 F800
G1 X57.637 Y40.041 Z0 F800
G1 X57.529 Y40.068 Z0 F800
G1 X57.4 Y40.087 Z0 F800
G1 X57.22 Y40.1 Z0 F800
