;LightBurn 1.6.04
;Custom GCode device profile, absolute coords
;Bounds: X15.79 Y13.81 to X60.21 Y58.19
G00 G17 G40 G21 G54
G90
M3
G1 Z10 F500
;Offset @ 555 mm/min, 90% power

M8
G0 Z3.5 F500
G0 X28.546 Y26.588 Z3.5 
G1 Z0 F500
;Layer C1
G1 X28.646 Y26.612 Z0 S900 F800
G1 X28.816 Y26.678 Z0 F800
G1 X29.037 Y26.777 Z0 F800
G1 X29.323 Y26.894 Z0 F800
G1 X29.522 Y26.95 Z0 F800
G1 X29.361 Y27.135 Z0 F800
G1 X29.109 Y27.345 Z0 F800
G1 X29.047 Y27.378 Z0 F800
G1 X28.992 Y27.396 Z0 F800
G1 X28.959 Z0 F800
G1 X28.882 Y27.385 Z0 F800
G1 X28.574 Y27.279 Z0 F800
G1 X28.268 Y27.123 Z0 F800
G1 X28.173 Y27.056 Z0 F800
G1 X28.094 Y26.982 Z0 F800
G1 X28.067 Y26.947 Z0 F800
G1 X28.078 Y26.89 Z0 F800
G1 X28.114 Y26.805 Z0 F800
G1 X28.165 Y26.727 Z0 F800
G1 X28.225 Y26.666 Z0 F800
G1 X28.288 Y26.625 Z0 F800
G1 X28.349 Y26.601 Z0 F800
G1 X28.448 Y26.587 Z0 F800
G1 X28.546 Z0 F800
G0 Z3.5 F500
G0 X29.453 Y26.515 Z3.5 F555
G1 Z0 F500
G1 X29.75 Y26.599 Z0 F800
G1 X30.088 Y26.621 Z0 F800
G1 X30.31 Y26.571 Z0 F800
G1 X29.913 Y27.11 Z0 F800
G1 X29.639 Y27.425 Z0 F800
G1 X29.337 Y27.677 Z0 F800
G1 X29.205 Y27.748 Z0 F800
G1 X29.07 Y27.791 Z0 F800
G1 X28.939 Y27.801 Z0 F800
G1 X28.785 Y27.775 Z0 F800
G1 X28.415 Y27.647 Z0 F800
G1 X28.061 Y27.467 Z0 F800
G1 X27.918 Y27.365 Z0 F800
G1 X27.8 Y27.255 Z0 F800
G1 X27.704 Y27.132 Z0 F800
G1 X27.661 Y27.051 Z0 F800
G1 Y26.939 Z0 F800
G1 X27.694 Y26.773 Z0 F800
G1 X27.759 Y26.617 Z0 F800
G1 X27.854 Y26.473 Z0 F800
G1 X27.968 Y26.357 Z0 F800
G1 X28.102 Y26.267 Z0 F800
G1 X28.247 Y26.211 Z0 F800
G1 X28.425 Y26.187 Z0 F800
G1 X28.596 Z0 F800
G1 X28.768 Y26.23 Z0 F800
G1 X28.965 Y26.307 Z0 F800
G1 X29.194 Y26.409 Z0 F800
G1 X29.453 Y26.515 Z0 F800
G0 Z3.5 F500
G0 X37.603 Y17.756 Z3.5 
G1 Z0 F500
G1 Y17.752 Z0 F800
G1 X37.59 Y17.545 Z0 F800
G1 X37.581 Y17.312 Z0 F800
G1 X37.585 Y17.156 Z0 F800
G1 X37.596 Y17.148 Z0 F800
G1 X37.856 Y17.356 Z0 F800
G1 X37.89 Y17.391 Z0 F800
G1 X37.721 Y17.556 Z0 F800
G1 X37.603 Y17.756 Z0 F800
G0 Z3.5 F500
G0 X37.274 Y18.12 Z3.5 
G1 Z0 F500
G1 X37.204 Y17.805 Z0 F800
G1 X37.191 Y17.568 Z0 F800
G1 X37.181 Y17.31 Z0 F800
G1 X37.187 Y17.078 Z0 F800
G1 X37.202 Y16.966 Z0 F800
G1 X37.294 Y16.866 Z0 F800
G1 X37.477 Y16.751 Z0 F800
G1 X37.544 Y16.729 Z0 F800
G1 X37.616 Y16.72 Z0 F800
G1 X37.681 Y16.726 Z0 F800
G1 X37.726 Y16.74 Z0 F800
G1 X38.124 Y17.058 Z0 F800
G1 X38.523 Y17.465 Z0 F800
G1 X38.231 Y17.618 Z0 F800
G1 X38.039 Y17.805 Z0 F800
G1 X37.911 Y18.022 Z0 F800
G1 X37.832 Y18.26 Z0 F800
G1 X37.796 Y18.684 Z0 F800
G1 X37.847 Y19.023 Z0 F800
G1 X37.854 Y19.267 Z0 F800
G1 X37.809 Y19.497 Z0 F800
G1 X37.786 Y19.544 Z0 F800
G1 X37.764 Y19.571 Z0 F800
G1 X37.754 Y19.577 Z0 F800
G1 X37.628 Y19.544 Z0 F800
G1 X37.48 Y19.447 Z0 F800
G1 X37.443 Y19.405 Z0 F800
G1 X37.414 Y19.357 Z0 F800
G1 X37.4 Y19.313 Z0 F800
G1 X37.396 Y19.227 Z0 F800
G1 X37.391 Y18.862 Z0 F800
G1 X37.344 Y18.481 Z0 F800
G1 X37.274 Y18.12 Z0 F800
G0 Z3.5 F500
G0 X33.96 Y24.361 Z3.5 
G1 Z0 F500
G1 Y24.386 Z0 F800
G1 X33.992 Y24.632 Z0 F800
G1 X34.013 Y24.691 Z0 F800
G1 X33.983 Y24.681 Z0 F800
G1 X33.643 Y24.614 Z0 F800
G1 X33.639 Z0 F800
G1 X33.757 Y24.539 Z0 F800
G1 X33.96 Y24.361 Z0 F800
G0 Z3.5 F500
G0 X34.435 Y24.048 Z3.5 
G1 Z0 F500
G1 X34.376 Y24.213 Z0 F800
G1 X34.361 Y24.377 Z0 F800
G1 X34.383 Y24.538 Z0 F800
G1 X34.437 Y24.692 Z0 F800
G1 X34.621 Y24.971 Z0 F800
G1 X34.869 Y25.195 Z0 F800
G1 X35.369 Y25.585 Z0 F800
G1 X35.879 Y25.972 Z0 F800
G1 X36.145 Y26.146 Z0 F800
G1 X36.422 Y26.298 Z0 F800
G1 X36.712 Y26.42 Z0 F800
G1 X37.019 Y26.506 Z0 F800
G1 X37.265 Y26.524 Z0 F800
G1 X37.507 Y26.502 Z0 F800
G1 X37.747 Y26.455 Z0 F800
G1 X37.984 Y26.394 Z0 F800
G1 X38.461 Y26.279 Z0 F800
G1 X38.95 Y26.256 Z0 F800
G1 X39.288 Y26.251 Z0 F800
G1 X39.628 Y26.268 Z0 F800
G1 X39.792 Y26.299 Z0 F800
G1 X39.946 Y26.354 Z0 F800
G1 X40.09 Y26.438 Z0 F800
G1 X40.647 Y26.949 Z0 F800
G1 X41.036 Y27.379 Z0 F800
G1 X41.207 Y27.612 Z0 F800
G1 X41.359 Y27.857 Z0 F800
G1 X41.488 Y28.116 Z0 F800
G1 X41.591 Y28.39 Z0 F800
G1 X41.827 Y29.05 Z0 F800
G1 X42.013 Y29.735 Z0 F800
G1 X42.119 Y30.071 Z0 F800
G1 X42.25 Y30.394 Z0 F800
G1 X42.42 Y30.698 Z0 F800
G1 X42.64 Y30.976 Z0 F800
G1 X42.961 Y31.253 Z0 F800
G1 X43.32 Y31.504 Z0 F800
G1 X43.486 Y31.639 Z0 F800
G1 X43.63 Y31.791 Z0 F800
G1 X43.741 Y31.966 Z0 F800
G1 X43.807 Y32.174 Z0 F800
G1 X43.826 Y32.47 Z0 F800
G1 X43.776 Y32.758 Z0 F800
G1 X43.722 Y32.892 Z0 F800
G1 X43.647 Y33.014 Z0 F800
G1 X43.548 Y33.122 Z0 F800
G1 X43.425 Y33.212 Z0 F800
G1 X43.209 Y33.333 Z0 F800
G1 X42.978 Y33.411 Z0 F800
G1 X42.735 Y33.452 Z0 F800
G1 X42.487 Y33.459 Z0 F800
G1 X41.991 Y33.39 Z0 F800
G1 X41.524 Y33.238 Z0 F800
G1 X41.24 Y33.096 Z0 F800
G1 X40.936 Y32.954 Z0 F800
G1 X40.781 Y32.911 Z0 F800
G1 X40.628 Y32.903 Z0 F800
G1 X40.479 Y32.939 Z0 F800
G1 X40.337 Y33.033 Z0 F800
G1 X40.225 Y33.146 Z0 F800
G1 X40.146 Y33.277 Z0 F800
G1 X40.093 Y33.422 Z0 F800
G1 X40.057 Y33.576 Z0 F800
G1 X40.011 Y33.893 Z0 F800
G1 X39.946 Y34.195 Z0 F800
G1 X39.765 Y34.07 Z0 F800
G1 X39.669 Y33.9 Z0 F800
G1 X39.639 Y33.7 Z0 F800
G1 X39.656 Y33.482 Z0 F800
G1 X39.674 Y33.137 Z0 F800
G1 X39.721 Y32.777 Z0 F800
G1 X39.772 Y32.608 Z0 F800
G1 X39.849 Y32.457 Z0 F800
G1 X39.959 Y32.33 Z0 F800
G1 X40.109 Y32.233 Z0 F800
G1 X40.28 Y32.183 Z0 F800
G1 X40.445 Y32.179 Z0 F800
G1 X40.602 Y32.214 Z0 F800
G1 X40.752 Y32.281 Z0 F800
G1 X41.032 Y32.475 Z0 F800
G1 X41.451 Y32.848 Z0 F800
G1 X41.638 Y32.981 Z0 F800
G1 X41.84 Y33.092 Z0 F800
G1 X42.052 Y33.175 Z0 F800
G1 X42.271 Y33.225 Z0 F800
G1 X42.493 Y33.233 Z0 F800
G1 X42.715 Y33.196 Z0 F800
G1 X42.933 Y33.107 Z0 F800
G1 X43.108 Y33 Z0 F800
G1 X43.244 Y32.854 Z0 F800
G1 X43.338 Y32.678 Z0 F800
G1 X43.389 Y32.484 Z0 F800
G1 X43.393 Y32.286 Z0 F800
G1 X43.348 Y32.094 Z0 F800
G1 X43.253 Y31.919 Z0 F800
G1 X43.106 Y31.773 Z0 F800
G1 X42.792 Y31.511 Z0 F800
G1 X42.487 Y31.234 Z0 F800
G1 X42.351 Y31.083 Z0 F800
G1 X42.23 Y30.92 Z0 F800
G1 X42.131 Y30.742 Z0 F800
G1 X42.059 Y30.545 Z0 F800
G1 X41.824 Y29.795 Z0 F800
G1 X41.593 Y29.042 Z0 F800
G1 X41.458 Y28.673 Z0 F800
G1 X41.3 Y28.315 Z0 F800
G1 X41.112 Y27.972 Z0 F800
G1 X40.884 Y27.647 Z0 F800
G1 X40.555 Y27.253 Z0 F800
G1 X40.197 Y26.876 Z0 F800
G1 X40.001 Y26.708 Z0 F800
G1 X39.793 Y26.561 Z0 F800
G1 X39.568 Y26.44 Z0 F800
G1 X39.326 Y26.352 Z0 F800
G1 X39.06 Y26.327 Z0 F800
G1 X38.801 Y26.355 Z0 F800
G1 X38.548 Y26.421 Z0 F800
G1 X38.297 Y26.506 Z0 F800
G1 X38.046 Y26.594 Z0 F800
G1 X37.793 Y26.667 Z0 F800
G1 X37.535 Y26.708 Z0 F800
G1 X37.27 Y26.701 Z0 F800
G1 X37.037 Y26.71 Z0 F800
G1 X36.812 Y26.684 Z0 F800
G1 X36.592 Y26.627 Z0 F800
G1 X36.379 Y26.547 Z0 F800
G1 X35.969 Y26.335 Z0 F800
G1 X35.58 Y26.093 Z0 F800
G1 X35.124 Y25.751 Z0 F800
G1 X34.651 Y25.422 Z0 F800
G1 X34.404 Y25.279 Z0 F800
G1 X34.147 Y25.159 Z0 F800
G1 X33.88 Y25.068 Z0 F800
G1 X33.599 Y25.013 Z0 F800
G1 X33.194 Y25.002 Z0 F800
G1 X32.796 Y25.056 Z0 F800
G1 X32.413 Y25.173 Z0 F800
G1 X32.049 Y25.353 Z0 F800
G1 X31.744 Y25.521 Z0 F800
G1 X31.477 Y25.732 Z0 F800
G1 X31.24 Y25.976 Z0 F800
G1 X31.025 Y26.242 Z0 F800
G1 X30.63 Y26.81 Z0 F800
G1 X30.224 Y27.362 Z0 F800
G1 X29.921 Y27.71 Z0 F800
G1 X29.561 Y28.01 Z0 F800
G1 X29.361 Y28.118 Z0 F800
G1 X29.147 Y28.186 Z0 F800
G1 X28.922 Y28.204 Z0 F800
G1 X28.684 Y28.163 Z0 F800
G1 X28.259 Y28.016 Z0 F800
G1 X27.852 Y27.809 Z0 F800
G1 X27.667 Y27.678 Z0 F800
G1 X27.504 Y27.526 Z0 F800
G1 X27.367 Y27.351 Z0 F800
G1 X27.261 Y27.151 Z0 F800
G1 Y26.9 Z0 F800
G1 X27.31 Y26.656 Z0 F800
G1 X27.405 Y26.427 Z0 F800
G1 X27.541 Y26.221 Z0 F800
G1 X27.712 Y26.046 Z0 F800
G1 X27.916 Y25.91 Z0 F800
G1 X28.146 Y25.821 Z0 F800
G1 X28.398 Y25.786 Z0 F800
G1 X28.647 Y25.79 Z0 F800
G1 X28.887 Y25.847 Z0 F800
G1 X29.121 Y25.938 Z0 F800
G1 X29.352 Y26.042 Z0 F800
G1 X29.583 Y26.136 Z0 F800
G1 X29.817 Y26.202 Z0 F800
G1 X30.057 Y26.218 Z0 F800
G1 X30.304 Y26.162 Z0 F800
G1 X30.788 Y25.775 Z0 F800
G1 X31.243 Y25.342 Z0 F800
G1 X31.478 Y25.138 Z0 F800
G1 X31.728 Y24.958 Z0 F800
G1 X31.999 Y24.812 Z0 F800
G1 X32.301 Y24.714 Z0 F800
G1 X32.804 Y24.568 Z0 F800
G1 X33.296 Y24.358 Z0 F800
G1 X33.517 Y24.218 Z0 F800
G1 X33.711 Y24.048 Z0 F800
G1 X33.869 Y23.843 Z0 F800
G1 X33.984 Y23.6 Z0 F800
G1 X34.003 Y23.363 Z0 F800
G1 X33.951 Y23.145 Z0 F800
G1 X33.839 Y22.951 Z0 F800
G1 X33.68 Y22.786 Z0 F800
G1 X33.485 Y22.656 Z0 F800
G1 X33.267 Y22.566 Z0 F800
G1 X33.038 Y22.523 Z0 F800
G1 X32.81 Y22.532 Z0 F800
G1 X32.511 Y22.578 Z0 F800
G1 X32.226 Y22.663 Z0 F800
G1 X31.952 Y22.777 Z0 F800
G1 X31.686 Y22.912 Z0 F800
G1 X31.16 Y23.203 Z0 F800
G1 X30.624 Y23.463 Z0 F800
G1 X30.207 Y23.536 Z0 F800
G1 X29.751 Y23.522 Z0 F800
G1 X29.547 Y23.461 Z0 F800
G1 X29.38 Y23.354 Z0 F800
G1 X29.266 Y23.191 Z0 F800
G1 X29.219 Y22.965 Z0 F800
G1 X29.244 Y22.615 Z0 F800
G1 X29.318 Y22.271 Z0 F800
G1 X29.44 Y21.94 Z0 F800
G1 X29.604 Y21.628 Z0 F800
G1 X29.808 Y21.341 Z0 F800
G1 X30.047 Y21.083 Z0 F800
G1 X30.319 Y20.862 Z0 F800
G1 X30.62 Y20.683 Z0 F800
G1 X31.305 Y20.539 Z0 F800
G1 X32.001 Y20.479 Z0 F800
G1 X32.699 Y20.503 Z0 F800
G1 X33.391 Y20.611 Z0 F800
G1 X33.62 Z0 F800
G1 X33.855 Y20.581 Z0 F800
G1 X34.088 Y20.516 Z0 F800
G1 X34.306 Y20.417 Z0 F800
G1 X34.499 Y20.285 Z0 F800
G1 X34.657 Y20.119 Z0 F800
G1 X34.77 Y19.92 Z0 F800
G1 X34.826 Y19.687 Z0 F800
G1 X34.794 Y19.512 Z0 F800
G1 X34.731 Y19.351 Z0 F800
G1 X34.644 Y19.199 Z0 F800
G1 X34.54 Y19.054 Z0 F800
G1 X34.314 Y18.772 Z0 F800
G1 X34.115 Y18.48 Z0 F800
G1 X34.008 Y18.26 Z0 F800
G1 X33.941 Y18.028 Z0 F800
G1 X33.91 Y17.789 Z0 F800
G1 X33.905 Y17.545 Z0 F800
G1 X33.955 Y17.053 Z0 F800
G1 X34.04 Y16.575 Z0 F800
G1 X34.161 Y16.259 Z0 F800
G1 X34.32 Y15.966 Z0 F800
G1 X34.511 Y15.691 Z0 F800
G1 X34.725 Y15.431 Z0 F800
G1 X35.194 Y14.939 Z0 F800
G1 X35.667 Y14.463 Z0 F800
G1 X35.825 Y14.302 Z0 F800
G1 X36 Y14.163 Z0 F800
G1 X36.189 Y14.046 Z0 F800
G1 X36.391 Y13.953 Z0 F800
G1 X36.82 Y13.834 Z0 F800
G1 X37.267 Y13.807 Z0 F800
G1 X37.768 Y13.821 Z0 F800
G1 X38.254 Y13.927 Z0 F800
G1 X38.716 Y14.115 Z0 F800
G1 X39.144 Y14.376 Z0 F800
G1 X39.417 Y14.581 Z0 F800
G1 X39.66 Y14.816 Z0 F800
G1 X39.876 Y15.076 Z0 F800
G1 X40.068 Y15.356 Z0 F800
G1 X40.394 Y15.957 Z0 F800
G1 X40.661 Y16.58 Z0 F800
G1 X40.781 Y17 Z0 F800
G1 X40.832 Y17.435 Z0 F800
G1 X40.817 Y17.874 Z0 F800
G1 X40.745 Y18.303 Z0 F800
G1 X40.604 Y18.403 Z0 F800
G1 X40.42 Y18.415 Z0 F800
G1 X40.225 Y18.379 Z0 F800
G1 X40.05 Y18.339 Z0 F800
G1 X39.694 Y18.21 Z0 F800
G1 X39.343 Y18.054 Z0 F800
G1 X38.987 Y17.921 Z0 F800
G1 X38.617 Y17.867 Z0 F800
G1 X38.468 Y17.945 Z0 F800
G1 X38.356 Y18.054 Z0 F800
G1 X38.277 Y18.188 Z0 F800
G1 X38.227 Y18.341 Z0 F800
G1 X38.199 Y18.671 Z0 F800
G1 X38.246 Y18.989 Z0 F800
G1 X38.255 Y19.3 Z0 F800
G1 X38.192 Y19.624 Z0 F800
G1 X38.124 Y19.765 Z0 F800
G1 X38.028 Y19.879 Z0 F800
G1 X37.9 Y19.957 Z0 F800
G1 X37.738 Y19.987 Z0 F800
G1 X37.462 Y19.914 Z0 F800
G1 X37.217 Y19.752 Z0 F800
G1 X37.119 Y19.644 Z0 F800
G1 X37.046 Y19.521 Z0 F800
G1 X37.003 Y19.385 Z0 F800
G1 X36.996 Y19.239 Z0 F800
G1 X36.991 Y18.889 Z0 F800
G1 X36.949 Y18.543 Z0 F800
G1 X36.882 Y18.201 Z0 F800
G1 X36.807 Y17.86 Z0 F800
G1 X36.792 Y17.59 Z0 F800
G1 X36.781 Y17.316 Z0 F800
G1 X36.787 Y17.046 Z0 F800
G1 X36.822 Y16.788 Z0 F800
G1 X37.037 Y16.555 Z0 F800
G1 X37.306 Y16.387 Z0 F800
G1 X37.454 Y16.338 Z0 F800
G1 X37.606 Y16.318 Z0 F800
G1 X37.762 Y16.331 Z0 F800
G1 X37.918 Y16.381 Z0 F800
G1 X38.393 Y16.761 Z0 F800
G1 X38.828 Y17.204 Z0 F800
G1 X39.052 Y17.412 Z0 F800
G1 X39.294 Y17.591 Z0 F800
G1 X39.561 Y17.727 Z0 F800
G1 X39.863 Y17.802 Z0 F800
G1 X40.035 Y17.787 Z0 F800
G1 X40.19 Y17.721 Z0 F800
G1 X40.324 Y17.612 Z0 F800
G1 X40.43 Y17.473 Z0 F800
G1 X40.502 Y17.313 Z0 F800
G1 X40.536 Y17.144 Z0 F800
G1 X40.525 Y16.975 Z0 F800
G1 X40.464 Y16.816 Z0 F800
G1 X40.298 Y16.353 Z0 F800
G1 X40.081 Y15.909 Z0 F800
G1 X39.816 Y15.491 Z0 F800
G1 X39.506 Y15.105 Z0 F800
G1 X39.156 Y14.757 Z0 F800
G1 X38.769 Y14.453 Z0 F800
G1 X38.347 Y14.199 Z0 F800
G1 X37.896 Y14 Z0 F800
G1 X37.503 Y13.95 Z0 F800
G1 X37.108 Y13.956 Z0 F800
G1 X36.915 Y13.988 Z0 F800
G1 X36.729 Y14.043 Z0 F800
G1 X36.55 Y14.126 Z0 F800
G1 X36.383 Y14.239 Z0 F800
G1 X35.827 Y14.69 Z0 F800
G1 X35.304 Y15.183 Z0 F800
G1 X34.825 Y15.717 Z0 F800
G1 X34.395 Y16.29 Z0 F800
G1 X34.288 Y16.489 Z0 F800
G1 X34.207 Y16.699 Z0 F800
G1 X34.149 Y16.917 Z0 F800
G1 X34.114 Y17.142 Z0 F800
G1 X34.107 Y17.595 Z0 F800
G1 X34.176 Y18.04 Z0 F800
G1 X34.377 Y18.418 Z0 F800
G1 X34.653 Y18.75 Z0 F800
G1 X34.935 Y19.078 Z0 F800
G1 X35.156 Y19.44 Z0 F800
G1 X35.181 Y19.792 Z0 F800
G1 X35.108 Y20.139 Z0 F800
G1 X35.03 Y20.292 Z0 F800
G1 X34.921 Y20.423 Z0 F800
G1 X34.78 Y20.523 Z0 F800
G1 X34.604 Y20.586 Z0 F800
G1 X34.268 Y20.662 Z0 F800
G1 X33.929 Y20.702 Z0 F800
G1 X33.587 Y20.714 Z0 F800
G1 X33.244 Y20.704 Z0 F800
G1 X32.557 Y20.651 Z0 F800
G1 X31.874 Y20.603 Z0 F800
G1 X31.609 Y20.618 Z0 F800
G1 X31.351 Y20.663 Z0 F800
G1 X31.101 Y20.738 Z0 F800
G1 X30.861 Y20.841 Z0 F800
G1 X30.634 Y20.97 Z0 F800
G1 X30.423 Y21.124 Z0 F800
G1 X30.229 Y21.302 Z0 F800
G1 X30.057 Y21.501 Z0 F800
G1 X29.821 Y21.823 Z0 F800
G1 X29.642 Y22.197 Z0 F800
G1 X29.596 Y22.392 Z0 F800
G1 X29.59 Y22.587 Z0 F800
G1 X29.634 Y22.777 Z0 F800
G1 X29.735 Y22.958 Z0 F800
G1 X29.886 Y23.087 Z0 F800
G1 X30.055 Y23.162 Z0 F800
G1 X30.235 Y23.189 Z0 F800
G1 X30.422 Y23.179 Z0 F800
G1 X30.795 Y23.07 Z0 F800
G1 X31.13 Y22.897 Z0 F800
G1 X31.624 Y22.657 Z0 F800
G1 X32.144 Y22.484 Z0 F800
G1 X32.68 Y22.389 Z0 F800
G1 X33.224 Y22.381 Z0 F800
G1 X33.541 Y22.39 Z0 F800
G1 X33.843 Y22.47 Z0 F800
G1 X34.114 Y22.622 Z0 F800
G1 X34.337 Y22.848 Z0 F800
G1 X34.454 Y22.974 Z0 F800
G1 X34.534 Y23.114 Z0 F800
G1 X34.58 Y23.265 Z0 F800
G1 X34.596 Y23.422 Z0 F800
G1 X34.554 Y23.743 Z0 F800
G1 X34.435 Y24.048 Z0 F800
G0 Z3.5 F500
G0 X37.739 Y22.477 Z3.5 
G1 Z0 F500
G1 X37.765 Y22.491 Z0 F800
G1 X37.839 Y22.552 Z0 F800
G1 X37.918 Y22.644 Z0 F800
G1 X37.993 Y22.756 Z0 F800
G1 X38.174 Y23.124 Z0 F800
G1 X38.376 Y23.607 Z0 F800
G1 X38.337 Y23.612 Z0 F800
G1 X38.139 Y23.619 Z0 F800
G1 X37.959 Y23.608 Z0 F800
G1 X37.801 Y23.578 Z0 F800
G1 X37.72 Y23.55 Z0 F800
G1 X37.697 Y23.533 Z0 F800
G1 X37.639 Y23.467 Z0 F800
G1 X37.579 Y23.375 Z0 F800
G1 X37.526 Y23.265 Z0 F800
G1 X37.416 Y22.916 Z0 F800
G1 X37.354 Y22.606 Z0 F800
G1 Y22.587 Z0 F800
G1 X37.36 Y22.581 Z0 F800
G1 X37.412 Y22.543 Z0 F800
G1 X37.501 Y22.503 Z0 F800
G1 X37.612 Y22.478 Z0 F800
G1 X37.716 Y22.473 Z0 F800
G1 X37.739 Y22.477 Z0 F800
G0 Z3.5 F500
G0 X38.339 Y22.555 Z3.5 
G1 Z0 F500
G1 X38.542 Y22.965 Z0 F800
G1 X38.74 Y23.441 Z0 F800
G1 X38.954 Y23.712 Z0 F800
G1 X39.208 Y23.898 Z0 F800
G1 X38.891 Y23.947 Z0 F800
G1 X38.373 Y24.011 Z0 F800
G1 X38.134 Y24.02 Z0 F800
G1 X37.907 Y24.005 Z0 F800
G1 X37.696 Y23.965 Z0 F800
G1 X37.527 Y23.906 Z0 F800
G1 X37.425 Y23.828 Z0 F800
G1 X37.319 Y23.71 Z0 F800
G1 X37.229 Y23.572 Z0 F800
G1 X37.153 Y23.41 Z0 F800
G1 X37.028 Y23.017 Z0 F800
G1 X36.951 Y22.638 Z0 F800
G1 X36.958 Y22.493 Z0 F800
G1 X37 Y22.388 Z0 F800
G1 X37.083 Y22.288 Z0 F800
G1 X37.211 Y22.194 Z0 F800
G1 X37.376 Y22.122 Z0 F800
G1 X37.56 Y22.079 Z0 F800
G1 X37.737 Y22.071 Z0 F800
G1 X37.871 Y22.093 Z0 F800
G1 X37.993 Y22.159 Z0 F800
G1 X38.121 Y22.267 Z0 F800
G1 X38.236 Y22.4 Z0 F800
G1 X38.339 Y22.555 Z0 F800
G0 Z3.5 F500
G0 X50.614 Y22.804 Z3.5 
G1 Z0 F500
G1 X50.639 Y22.763 Z0 F800
G1 X50.774 Y22.605 Z0 F800
G1 X50.921 Y22.443 Z0 F800
G1 X51.02 Y22.358 Z0 F800
G1 X51.041 Y22.364 Z0 F800
G1 X51.061 Y22.767 Z0 F800
G1 X51.009 Y22.756 Z0 F800
G1 X50.614 Y22.804 Z0 F800
G0 Z3.5 F500
G0 X50.145 Y22.799 Z3.5 
G1 Z0 F500
G1 X50.315 Y22.526 Z0 F800
G1 X50.468 Y22.348 Z0 F800
G1 X50.643 Y22.154 Z0 F800
G1 X50.796 Y22.023 Z0 F800
G1 X50.926 Y21.956 Z0 F800
G1 X50.987 Y21.951 Z0 F800
G1 X51.094 Y21.963 Z0 F800
G1 X51.202 Y21.995 Z0 F800
G1 X51.296 Y22.043 Z0 F800
G1 X51.364 Y22.098 Z0 F800
G1 X51.409 Y22.156 Z0 F800
G1 X51.431 Y22.211 Z0 F800
G1 X51.439 Y22.329 Z0 F800
G1 X51.463 Y22.799 Z0 F800
G1 X51.466 Y23.299 Z0 F800
G1 Y23.326 Z0 F800
G1 X51.302 Y23.228 Z0 F800
G1 X50.991 Y23.161 Z0 F800
G1 X50.681 Y23.199 Z0 F800
G1 X50.426 Y23.314 Z0 F800
G1 X50.231 Y23.472 Z0 F800
G1 X50.083 Y23.638 Z0 F800
G1 X49.875 Y23.917 Z0 F800
G1 X49.66 Y24.135 Z0 F800
G1 X49.603 Y24.187 Z0 F800
G1 X49.57 Y24.203 Z0 F800
G1 X49.523 Y24.213 Z0 F800
G1 X49.479 Z0 F800
G1 X49.438 Y24.201 Z0 F800
G1 X49.415 Y24.187 Z0 F800
G1 X49.401 Y24.172 Z0 F800
G1 X49.386 Y24.142 Z0 F800
G1 X49.355 Y23.987 Z0 F800
G1 X49.351 Y23.82 Z0 F800
G1 X49.358 Y23.783 Z0 F800
G1 X49.372 Y23.747 Z0 F800
G1 X49.387 Y23.724 Z0 F800
G1 X49.454 Y23.661 Z0 F800
G1 X49.708 Y23.391 Z0 F800
G1 X49.939 Y23.099 Z0 F800
G1 X50.145 Y22.799 Z0 F800
G0 Z3.5 F500
G0 X43.452 Y24.876 Z3.5 
G1 Z0 F500
G1 X43.352 Y24.96 Z0 F800
G1 X43.194 Y25.146 Z0 F800
G1 X43.168 Y25.199 Z0 F800
G1 X43.154 Y25.171 Z0 F800
G1 X42.951 Y24.864 Z0 F800
G1 X42.947 Y24.86 Z0 F800
G1 X43.25 Y24.886 Z0 F800
G1 X43.452 Y24.876 Z0 F800
G0 Z3.5 F500
G0 X44.343 Y24.793 Z3.5 
G1 Z0 F500
G1 X44.053 Y24.961 Z0 F800
G1 X43.762 Y25.139 Z0 F800
G1 X43.635 Y25.245 Z0 F800
G1 X43.53 Y25.368 Z0 F800
G1 X43.457 Y25.515 Z0 F800
G1 X43.42 Y25.689 Z0 F800
G1 X43.425 Y26.248 Z0 F800
G1 X43.485 Y26.804 Z0 F800
G1 X43.583 Y27.357 Z0 F800
G1 X43.702 Y27.903 Z0 F800
G1 X43.826 Y28.276 Z0 F800
G1 X44.02 Y28.615 Z0 F800
G1 X44.143 Y28.765 Z0 F800
G1 X44.284 Y28.898 Z0 F800
G1 X44.442 Y29.013 Z0 F800
G1 X44.618 Y29.106 Z0 F800
G1 X45.078 Y29.368 Z0 F800
G1 X45.503 Y29.686 Z0 F800
G1 X45.875 Y30.062 Z0 F800
G1 X46.175 Y30.497 Z0 F800
G1 X46.23 Y30.93 Z0 F800
G1 X46.241 Y31.372 Z0 F800
G1 X46.229 Y31.816 Z0 F800
G1 X46.213 Y32.26 Z0 F800
G1 X46.106 Y32.658 Z0 F800
G1 X45.96 Y33.042 Z0 F800
G1 X45.788 Y33.414 Z0 F800
G1 X45.599 Y33.78 Z0 F800
G1 X45.211 Y34.51 Z0 F800
G1 X44.883 Y35.262 Z0 F800
G1 X44.849 Y35.738 Z0 F800
G1 X44.882 Y36.215 Z0 F800
G1 X44.922 Y36.692 Z0 F800
G1 X44.909 Y37.167 Z0 F800
G1 X44.783 Y37.435 Z0 F800
G1 X44.586 Y37.666 Z0 F800
G1 X44.466 Y37.756 Z0 F800
G1 X44.334 Y37.824 Z0 F800
G1 X44.193 Y37.864 Z0 F800
G1 X44.044 Y37.874 Z0 F800
G1 X44.003 Y37.871 Z0 F800
G1 X43.962 Y37.864 Z0 F800
G1 X43.828 Z0 F800
G1 X43.654 Y37.842 Z0 F800
G1 X43.492 Y37.786 Z0 F800
G1 X43.341 Y37.702 Z0 F800
G1 X43.201 Y37.596 Z0 F800
G1 X42.944 Y37.346 Z0 F800
G1 X42.714 Y37.085 Z0 F800
G1 X42.514 Y36.735 Z0 F800
G1 X42.318 Y36.158 Z0 F800
G1 X42.241 Y35.973 Z0 F800
G1 X42.142 Y35.8 Z0 F800
G1 X42.012 Y35.646 Z0 F800
G1 X41.852 Y35.574 Z0 F800
G1 X41.691 Y35.553 Z0 F800
G1 X41.532 Y35.574 Z0 F800
G1 X41.375 Y35.627 Z0 F800
G1 X41.078 Y35.799 Z0 F800
G1 X40.814 Y36.001 Z0 F800
G1 X40.733 Y36.07 Z0 F800
G1 X40.676 Y36.094 Z0 F800
G1 X40.637 Y36.082 Z0 F800
G1 X40.615 Y36.041 Z0 F800
G1 X40.604 Y35.903 Z0 F800
G1 X40.615 Y35.745 Z0 F800
G1 X40.926 Y35.433 Z0 F800
G1 X41.247 Y35.105 Z0 F800
G1 X41.422 Y34.967 Z0 F800
G1 X41.612 Y34.863 Z0 F800
G1 X41.822 Y34.806 Z0 F800
G1 X42.056 Z0 F800
G1 X42.187 Y34.856 Z0 F800
G1 X42.301 Y34.929 Z0 F800
G1 X42.398 Y35.022 Z0 F800
G1 X42.479 Y35.132 Z0 F800
G1 X42.585 Y35.385 Z0 F800
G1 X42.621 Y35.658 Z0 F800
G1 X42.667 Y36.118 Z0 F800
G1 X42.746 Y36.585 Z0 F800
G1 X42.819 Y36.804 Z0 F800
G1 X42.924 Y37.003 Z0 F800
G1 X43.072 Y37.175 Z0 F800
G1 X43.269 Y37.314 Z0 F800
G1 X43.438 Y37.418 Z0 F800
G1 X43.625 Y37.475 Z0 F800
G1 X43.821 Y37.488 Z0 F800
G1 X44.014 Y37.458 Z0 F800
G1 X44.194 Y37.387 Z0 F800
G1 X44.352 Y37.277 Z0 F800
G1 X44.475 Y37.129 Z0 F800
G1 X44.554 Y36.945 Z0 F800
G1 X44.584 Y36.52 Z0 F800
G1 X44.573 Y36.091 Z0 F800
G1 X44.565 Y35.664 Z0 F800
G1 X44.608 Y35.248 Z0 F800
G1 X44.812 Y34.811 Z0 F800
G1 X45.043 Y34.39 Z0 F800
G1 X45.282 Y33.972 Z0 F800
G1 X45.508 Y33.548 Z0 F800
G1 X45.669 Y33.157 Z0 F800
G1 X45.802 Y32.753 Z0 F800
G1 X45.905 Y32.339 Z0 F800
G1 X45.973 Y31.918 Z0 F800
G1 X46.004 Y31.495 Z0 F800
G1 X45.993 Y31.072 Z0 F800
G1 X45.937 Y30.652 Z0 F800
G1 X45.832 Y30.24 Z0 F800
G1 X45.658 Y29.99 Z0 F800
G1 X45.439 Y29.794 Z0 F800
G1 X45.189 Y29.635 Z0 F800
G1 X44.921 Y29.495 Z0 F800
G1 X44.648 Y29.359 Z0 F800
G1 X44.386 Y29.211 Z0 F800
G1 X44.146 Y29.034 Z0 F800
G1 X43.944 Y28.811 Z0 F800
G1 X43.729 Y28.542 Z0 F800
G1 X43.566 Y28.249 Z0 F800
G1 X43.445 Y27.936 Z0 F800
G1 X43.356 Y27.609 Z0 F800
G1 X43.237 Y26.934 Z0 F800
G1 X43.132 Y26.265 Z0 F800
G1 X43.058 Y25.957 Z0 F800
G1 X42.949 Y25.657 Z0 F800
G1 X42.807 Y25.372 Z0 F800
G1 X42.632 Y25.107 Z0 F800
G1 X42.425 Y24.869 Z0 F800
G1 X42.187 Y24.664 Z0 F800
G1 X41.918 Y24.497 Z0 F800
G1 X41.621 Y24.375 Z0 F800
G1 X41.103 Y24.205 Z0 F800
G1 X40.565 Y24.128 Z0 F800
G1 X40.023 Y24.146 Z0 F800
G1 X39.49 Y24.259 Z0 F800
G1 X38.952 Y24.342 Z0 F800
G1 X38.402 Y24.41 Z0 F800
G1 X38.129 Y24.42 Z0 F800
G1 X37.858 Y24.403 Z0 F800
G1 X37.592 Y24.353 Z0 F800
G1 X37.333 Y24.262 Z0 F800
G1 X37.151 Y24.122 Z0 F800
G1 X37.001 Y23.955 Z0 F800
G1 X36.878 Y23.765 Z0 F800
G1 X36.78 Y23.558 Z0 F800
G1 X36.64 Y23.116 Z0 F800
G1 X36.55 Y22.67 Z0 F800
G1 X36.561 Y22.408 Z0 F800
G1 X36.652 Y22.181 Z0 F800
G1 X36.808 Y21.993 Z0 F800
G1 X37.012 Y21.845 Z0 F800
G1 X37.249 Y21.741 Z0 F800
G1 X37.504 Y21.682 Z0 F800
G1 X37.76 Y21.67 Z0 F800
G1 X38.003 Y21.708 Z0 F800
G1 X38.219 Y21.827 Z0 F800
G1 X38.401 Y21.979 Z0 F800
G1 X38.556 Y22.159 Z0 F800
G1 X38.688 Y22.358 Z0 F800
G1 X38.903 Y22.794 Z0 F800
G1 X39.088 Y23.236 Z0 F800
G1 X39.234 Y23.422 Z0 F800
G1 X39.413 Y23.552 Z0 F800
G1 X39.615 Y23.636 Z0 F800
G1 X39.835 Y23.682 Z0 F800
G1 X40.301 Y23.698 Z0 F800
G1 X40.752 Y23.674 Z0 F800
G1 X41.046 Y23.678 Z0 F800
G1 X41.326 Y23.732 Z0 F800
G1 X41.596 Y23.826 Z0 F800
G1 X41.857 Y23.945 Z0 F800
G1 X42.371 Y24.218 Z0 F800
G1 X42.893 Y24.454 Z0 F800
G1 X43.258 Y24.485 Z0 F800
G1 X43.639 Y24.466 Z0 F800
G1 X43.818 Y24.421 Z0 F800
G1 X43.978 Y24.344 Z0 F800
G1 X44.113 Y24.228 Z0 F800
G1 X44.216 Y24.066 Z0 F800
G1 X44.274 Y23.842 Z0 F800
G1 X44.281 Y23.617 Z0 F800
G1 X44.24 Y23.398 Z0 F800
G1 X44.157 Y23.19 Z0 F800
G1 X44.037 Y22.998 Z0 F800
G1 X43.886 Y22.828 Z0 F800
G1 X43.708 Y22.685 Z0 F800
G1 X43.51 Y22.574 Z0 F800
G1 X42.866 Y22.305 Z0 F800
G1 X42.184 Y22.107 Z0 F800
G1 X41.853 Y21.993 Z0 F800
G1 X41.54 Y21.848 Z0 F800
G1 X41.254 Y21.654 Z0 F800
G1 X41.005 Y21.396 Z0 F800
G1 X40.89 Y21.176 Z0 F800
G1 X40.836 Y20.927 Z0 F800
G1 X40.844 Y20.805 Z0 F800
G1 X40.88 Y20.692 Z0 F800
G1 X40.949 Y20.592 Z0 F800
G1 X41.055 Y20.512 Z0 F800
G1 X41.333 Y20.288 Z0 F800
G1 X41.642 Y20.102 Z0 F800
G1 X41.975 Y19.958 Z0 F800
G1 X42.324 Y19.86 Z0 F800
G1 X42.681 Y19.813 Z0 F800
G1 X43.04 Y19.821 Z0 F800
G1 X43.391 Y19.886 Z0 F800
G1 X43.728 Y20.013 Z0 F800
G1 X44.291 Y20.4 Z0 F800
G1 X44.801 Y20.854 Z0 F800
G1 X45.256 Y21.363 Z0 F800
G1 X45.655 Y21.917 Z0 F800
G1 X45.917 Y22.131 Z0 F800
G1 X46.22 Y22.3 Z0 F800
G1 X46.548 Y22.4 Z0 F800
G1 X46.887 Y22.409 Z0 F800
G1 X47.064 Y22.346 Z0 F800
G1 X47.206 Y22.245 Z0 F800
G1 X47.316 Y22.113 Z0 F800
G1 X47.401 Y21.958 Z0 F800
G1 X47.51 Y21.609 Z0 F800
G1 X47.618 Y20.967 Z0 F800
G1 X47.689 Y20.681 Z0 F800
G1 X47.815 Y20.421 Z0 F800
G1 X48.023 Y20.208 Z0 F800
G1 X48.422 Y19.82 Z0 F800
G1 X48.874 Y19.495 Z0 F800
G1 X49.119 Y19.366 Z0 F800
G1 X49.375 Y19.265 Z0 F800
G1 X49.644 Y19.196 Z0 F800
G1 X49.924 Y19.162 Z0 F800
G1 X50.533 Y19.119 Z0 F800
G1 X51.145 Y19.11 Z0 F800
G1 X51.755 Y19.144 Z0 F800
G1 X52.359 Y19.227 Z0 F800
G1 X52.674 Y19.386 Z0 F800
G1 X52.966 Y19.584 Z0 F800
G1 X53.231 Y19.816 Z0 F800
G1 X53.466 Y20.079 Z0 F800
G1 X53.669 Y20.368 Z0 F800
G1 X53.836 Y20.678 Z0 F800
G1 X53.965 Y21.007 Z0 F800
G1 X54.054 Y21.349 Z0 F800
G1 X54.127 Y21.699 Z0 F800
G1 X54.151 Y22.05 Z0 F800
G1 X54.131 Y22.401 Z0 F800
G1 X54.075 Y22.75 Z0 F800
G1 X53.882 Y23.437 Z0 F800
G1 X53.628 Y24.096 Z0 F800
G1 X53.413 Y24.482 Z0 F800
G1 X53.149 Y24.842 Z0 F800
G1 X52.838 Y25.158 Z0 F800
G1 X52.476 Y25.409 Z0 F800
G1 X52.333 Y25.404 Z0 F800
G1 X52.211 Y25.355 Z0 F800
G1 X52.108 Y25.27 Z0 F800
G1 X52.021 Y25.159 Z0 F800
G1 X51.885 Y24.895 Z0 F800
G1 X51.78 Y24.637 Z0 F800
G1 X51.652 Y24.311 Z0 F800
G1 X51.509 Y23.968 Z0 F800
G1 X51.416 Y23.816 Z0 F800
G1 X51.3 Y23.691 Z0 F800
G1 X51.154 Y23.605 Z0 F800
G1 X50.973 Y23.566 Z0 F800
G1 X50.791 Y23.588 Z0 F800
G1 X50.638 Y23.658 Z0 F800
G1 X50.508 Y23.763 Z0 F800
G1 X50.393 Y23.892 Z0 F800
G1 X50.179 Y24.178 Z0 F800
G1 X49.937 Y24.424 Z0 F800
G1 X49.828 Y24.521 Z0 F800
G1 X49.7 Y24.584 Z0 F800
G1 X49.561 Y24.614 Z0 F800
G1 X49.419 Y24.61 Z0 F800
G1 X49.285 Y24.574 Z0 F800
G1 X49.165 Y24.504 Z0 F800
G1 X49.068 Y24.403 Z0 F800
G1 X49.003 Y24.27 Z0 F800
G1 X48.957 Y24.032 Z0 F800
G1 X48.95 Y23.79 Z0 F800
G1 X48.971 Y23.674 Z0 F800
G1 X49.012 Y23.565 Z0 F800
G1 X49.078 Y23.466 Z0 F800
G1 X49.17 Y23.378 Z0 F800
G1 X49.405 Y23.129 Z0 F800
G1 X49.617 Y22.861 Z0 F800
G1 X49.811 Y22.58 Z0 F800
G1 X49.992 Y22.29 Z0 F800
G1 X50.171 Y22.079 Z0 F800
G1 X50.361 Y21.87 Z0 F800
G1 X50.572 Y21.688 Z0 F800
G1 X50.814 Y21.563 Z0 F800
G1 X50.992 Y21.549 Z0 F800
G1 X51.174 Y21.569 Z0 F800
G1 X51.351 Y21.622 Z0 F800
G1 X51.514 Y21.706 Z0 F800
G1 X51.654 Y21.818 Z0 F800
G1 X51.76 Y21.957 Z0 F800
G1 X51.825 Y22.121 Z0 F800
G1 X51.838 Y22.309 Z0 F800
G1 X51.863 Y22.792 Z0 F800
G1 X51.866 Y23.282 Z0 F800
G1 X51.904 Y23.764 Z0 F800
G1 X52.035 Y24.228 Z0 F800
G1 X52.112 Y24.37 Z0 F800
G1 X52.22 Y24.485 Z0 F800
G1 X52.351 Y24.57 Z0 F800
G1 X52.497 Y24.623 Z0 F800
G1 X52.649 Y24.641 Z0 F800
G1 X52.802 Y24.62 Z0 F800
G1 X52.945 Y24.559 Z0 F800
G1 X53.071 Y24.453 Z0 F800
G1 X53.26 Y24.218 Z0 F800
G1 X53.414 Y23.962 Z0 F800
G1 X53.538 Y23.69 Z0 F800
G1 X53.635 Y23.404 Z0 F800
G1 X53.764 Y22.812 Z0 F800
G1 X53.829 Y22.215 Z0 F800
G1 Y21.857 Z0 F800
G1 X53.802 Y21.493 Z0 F800
G1 X53.739 Y21.132 Z0 F800
G1 X53.638 Y20.782 Z0 F800
G1 X53.495 Y20.452 Z0 F800
G1 X53.305 Y20.149 Z0 F800
G1 X53.065 Y19.884 Z0 F800
G1 X52.769 Y19.663 Z0 F800
G1 X52.526 Y19.553 Z0 F800
G1 X52.273 Y19.479 Z0 F800
G1 X52.013 Y19.436 Z0 F800
G1 X51.748 Y19.414 Z0 F800
G1 X50.681 Y19.396 Z0 F800
G1 X50.014 Y19.419 Z0 F800
G1 X49.35 Y19.532 Z0 F800
G1 X49.035 Y19.638 Z0 F800
G1 X48.741 Y19.786 Z0 F800
G1 X48.474 Y19.98 Z0 F800
G1 X48.24 Y20.229 Z0 F800
G1 X48.071 Y20.446 Z0 F800
G1 X47.958 Y20.684 Z0 F800
G1 X47.888 Y20.938 Z0 F800
G1 X47.846 Y21.202 Z0 F800
G1 X47.794 Y21.742 Z0 F800
G1 X47.693 Y22.263 Z0 F800
G1 X47.592 Y22.412 Z0 F800
G1 X47.464 Y22.546 Z0 F800
G1 X47.316 Y22.659 Z0 F800
G1 X47.153 Y22.744 Z0 F800
G1 X46.981 Y22.794 Z0 F800
G1 X46.804 Y22.803 Z0 F800
G1 X46.629 Y22.765 Z0 F800
G1 X46.461 Y22.672 Z0 F800
G1 X46.001 Y22.357 Z0 F800
G1 X45.577 Y21.997 Z0 F800
G1 X45.199 Y21.59 Z0 F800
G1 X44.875 Y21.136 Z0 F800
G1 X44.68 Y20.906 Z0 F800
G1 X44.462 Y20.692 Z0 F800
G1 X44.222 Y20.502 Z0 F800
G1 X43.963 Y20.34 Z0 F800
G1 X43.688 Y20.215 Z0 F800
G1 X43.4 Y20.133 Z0 F800
G1 X43.101 Y20.1 Z0 F800
G1 X42.793 Y20.124 Z0 F800
G1 X42.373 Y20.167 Z0 F800
G1 X41.947 Y20.279 Z0 F800
G1 X41.757 Y20.374 Z0 F800
G1 X41.597 Y20.503 Z0 F800
G1 X41.477 Y20.67 Z0 F800
G1 X41.406 Y20.882 Z0 F800
G1 X41.387 Y21.022 Z0 F800
G1 X41.399 Y21.156 Z0 F800
G1 X41.438 Y21.282 Z0 F800
G1 X41.502 Y21.398 Z0 F800
G1 X41.689 Y21.588 Z0 F800
G1 X41.934 Y21.708 Z0 F800
G1 X42.318 Y21.85 Z0 F800
G1 X42.708 Y21.976 Z0 F800
G1 X43.088 Y22.122 Z0 F800
G1 X43.446 Y22.325 Z0 F800
G1 X43.808 Y22.572 Z0 F800
G1 X44.148 Y22.857 Z0 F800
G1 X44.44 Y23.186 Z0 F800
G1 X44.656 Y23.564 Z0 F800
G1 X44.702 Y23.898 Z0 F800
G1 X44.689 Y24.241 Z0 F800
G1 X44.649 Y24.403 Z0 F800
G1 X44.581 Y24.552 Z0 F800
G1 X44.481 Y24.684 Z0 F800
G1 X44.343 Y24.793 Z0 F800
G0 Z3.5 F500
G0 X38.037 Y35.656 Z3.5 
G1 Z0 F500
G1 X38.14 Y35.674 Z0 F800
G1 X38.177 Y35.692 Z0 F800
G1 X38.225 Y35.733 Z0 F800
G1 X38.272 Y35.798 Z0 F800
G1 X38.311 Y35.885 Z0 F800
G1 X38.329 Y35.975 Z0 F800
G1 Y36.058 Z0 F800
G1 X38.301 Y36.17 Z0 F800
G1 X38.284 Y36.21 Z0 F800
G1 X38.267 Y36.236 Z0 F800
G1 X38.242 Y36.263 Z0 F800
G1 X38.205 Y36.292 Z0 F800
G1 X38.156 Y36.317 Z0 F800
G1 X38.109 Y36.333 Z0 F800
G1 X38.052 Y36.344 Z0 F800
G1 X37.974 Z0 F800
G1 X37.873 Y36.339 Z0 F800
G1 X37.829 Y36.326 Z0 F800
G1 X37.779 Y36.299 Z0 F800
G1 X37.732 Y36.26 Z0 F800
G1 X37.689 Y36.207 Z0 F800
G1 X37.662 Y36.157 Z0 F800
G1 X37.647 Y36.106 Z0 F800
G1 X37.641 Y36.014 Z0 F800
G1 X37.645 Y35.906 Z0 F800
G1 X37.661 Y35.851 Z0 F800
G1 X37.693 Y35.793 Z0 F800
G1 X37.744 Y35.737 Z0 F800
G1 X37.806 Y35.692 Z0 F800
G1 X37.873 Y35.663 Z0 F800
G1 X37.93 Y35.651 Z0 F800
G1 X38.037 Y35.656 Z0 F800
G0 Z3.5 F500
G0 X38.621 Y35.598 Z3.5 
G1 Z0 F500
G1 X38.692 Y35.76 Z0 F800
G1 X38.729 Y35.937 Z0 F800
G1 Y36.11 Z0 F800
G1 X38.683 Y36.292 Z0 F800
G1 X38.639 Y36.397 Z0 F800
G1 X38.582 Y36.486 Z0 F800
G1 X38.509 Y36.563 Z0 F800
G1 X38.419 Y36.63 Z0 F800
G1 X38.321 Y36.683 Z0 F800
G1 X38.208 Y36.722 Z0 F800
G1 X38.093 Y36.743 Z0 F800
G1 X37.961 Y36.746 Z0 F800
G1 X37.802 Y36.735 Z0 F800
G1 X37.675 Y36.698 Z0 F800
G1 X37.553 Y36.632 Z0 F800
G1 X37.446 Y36.542 Z0 F800
G1 X37.355 Y36.431 Z0 F800
G1 X37.29 Y36.308 Z0 F800
G1 X37.251 Y36.179 Z0 F800
G1 X37.24 Y36.023 Z0 F800
G1 X37.247 Y35.839 Z0 F800
G1 X37.29 Y35.694 Z0 F800
G1 X37.367 Y35.558 Z0 F800
G1 X37.474 Y35.439 Z0 F800
G1 X37.604 Y35.344 Z0 F800
G1 X37.75 Y35.279 Z0 F800
G1 X37.902 Y35.25 Z0 F800
G1 X38.078 Y35.257 Z0 F800
G1 X38.264 Y35.29 Z0 F800
G1 X38.4 Y35.356 Z0 F800
G1 X38.521 Y35.46 Z0 F800
G1 X38.621 Y35.598 Z0 F800
G0 Z3.5 F500
G0 X39.127 Y36.16 Z3.5 
G1 Z0 F500
G1 X39.064 Y36.417 Z0 F800
G1 X38.995 Y36.585 Z0 F800
G1 X38.897 Y36.734 Z0 F800
G1 X38.777 Y36.862 Z0 F800
G1 X38.636 Y36.968 Z0 F800
G1 X38.479 Y37.051 Z0 F800
G1 X38.311 Y37.11 Z0 F800
G1 X38.135 Y37.142 Z0 F800
G1 X37.955 Y37.146 Z0 F800
G1 X37.731 Y37.131 Z0 F800
G1 X37.52 Y37.069 Z0 F800
G1 X37.328 Y36.964 Z0 F800
G1 X37.16 Y36.824 Z0 F800
G1 X37.021 Y36.655 Z0 F800
G1 X36.918 Y36.461 Z0 F800
G1 X36.855 Y36.25 Z0 F800
G1 X36.839 Y36.027 Z0 F800
G1 X36.849 Y35.774 Z0 F800
G1 X36.919 Y35.537 Z0 F800
G1 X37.04 Y35.323 Z0 F800
G1 X37.205 Y35.141 Z0 F800
G1 X37.403 Y34.996 Z0 F800
G1 X37.628 Y34.896 Z0 F800
G1 X37.871 Y34.848 Z0 F800
G1 X38.123 Y34.859 Z0 F800
G1 X38.389 Y34.905 Z0 F800
G1 X38.622 Y35.019 Z0 F800
G1 X38.817 Y35.187 Z0 F800
G1 X38.97 Y35.397 Z0 F800
G1 X39.076 Y35.638 Z0 F800
G1 X39.13 Y35.896 Z0 F800
G1 X39.127 Y36.16 Z0 F800
G0 Z3.5 F500
G0 X25.629 Y35.728 Z3.5 
G1 Z0 F500
G1 X25.625 Y36.019 Z0 F800
G1 X25.565 Y36.253 Z0 F800
G1 X25.544 Y36.294 Z0 F800
G1 X25.516 Y36.329 Z0 F800
G1 X25.493 Y36.349 Z0 F800
G1 X25.404 Y36.392 Z0 F800
G1 X25.157 Y36.498 Z0 F800
G1 X24.93 Y36.574 Z0 F800
G1 X24.709 Y36.625 Z0 F800
G1 X24.594 Y36.636 Z0 F800
G1 X24.582 Y36.624 Z0 F800
G1 X24.55 Y36.578 Z0 F800
G1 X24.519 Y36.504 Z0 F800
G1 X24.497 Y36.415 Z0 F800
G1 X24.49 Y36.331 Z0 F800
G1 X24.499 Y36.246 Z0 F800
G1 X24.502 Y36.234 Z0 F800
G1 Y36.229 Z0 F800
G1 X24.523 Y36.203 Z0 F800
G1 X24.561 Y36.163 Z0 F800
G1 X24.749 Y36.009 Z0 F800
G1 X24.897 Y35.905 Z0 F800
G1 X25.159 Y35.803 Z0 F800
G1 X25.549 Y35.625 Z0 F800
G1 X25.617 Y35.583 Z0 F800
G1 X25.629 Y35.728 Z0 F800
G0 Z3.5 F500
G0 X25.711 Y36.687 Z3.5 
G1 Z0 F500
G1 X25.566 Y36.758 Z0 F800
G1 X25.306 Y36.87 Z0 F800
G1 X25.033 Y36.961 Z0 F800
G1 X24.777 Y37.02 Z0 F800
G1 X24.554 Y37.042 Z0 F800
G1 X24.457 Y37.02 Z0 F800
G1 X24.361 Y36.966 Z0 F800
G1 X24.275 Y36.885 Z0 F800
G1 X24.196 Y36.768 Z0 F800
G1 X24.138 Y36.633 Z0 F800
G1 X24.1 Y36.479 Z0 F800
G1 X24.089 Y36.324 Z0 F800
G1 X24.104 Y36.176 Z0 F800
G1 X24.125 Y36.093 Z0 F800
G1 X24.159 Y36.025 Z0 F800
G1 X24.217 Y35.944 Z0 F800
G1 X24.29 Y35.867 Z0 F800
G1 X24.502 Y35.693 Z0 F800
G1 X24.708 Y35.549 Z0 F800
G1 X25.003 Y35.435 Z0 F800
G1 X25.36 Y35.271 Z0 F800
G1 X25.553 Y35.153 Z0 F800
G1 X25.734 Y35.008 Z0 F800
G1 X25.898 Y34.826 Z0 F800
G1 X25.909 Y34.808 Z0 F800
G1 X25.983 Y35.185 Z0 F800
G1 X26.029 Y35.714 Z0 F800
G1 X26.024 Y36.071 Z0 F800
G1 X25.94 Y36.398 Z0 F800
G1 X25.882 Y36.51 Z0 F800
G1 X25.805 Y36.609 Z0 F800
G1 X25.711 Y36.687 Z0 F800
G0 Z3.5 F500
G0 X24.826 Y23.376 Z3.5 
G1 Z0 F500
G1 X24.685 Y23.254 Z0 F800
G1 X24.496 Y23.083 Z0 F800
G1 X24.395 Y22.98 Z0 F800
G1 X24.4 Y22.95 Z0 F800
G1 X24.714 Y22.921 Z0 F800
G1 X24.777 Z0 F800
G1 X24.769 Y22.981 Z0 F800
G1 X24.807 Y23.321 Z0 F800
G1 X24.826 Y23.376 Z0 F800
G0 Z3.5 F500
G0 X24.917 Y23.909 Z3.5 
G1 Z0 F500
G1 X24.597 Y23.708 Z0 F800
G1 X24.413 Y23.547 Z0 F800
G1 X24.227 Y23.38 Z0 F800
G1 X24.056 Y23.206 Z0 F800
G1 X23.993 Y23.122 Z0 F800
G1 X23.99 Y22.968 Z0 F800
G1 X24.035 Y22.728 Z0 F800
G1 X24.064 Y22.664 Z0 F800
G1 X24.099 Y22.618 Z0 F800
G1 X24.137 Y22.588 Z0 F800
G1 X24.189 Y22.567 Z0 F800
G1 X24.696 Y22.521 Z0 F800
G1 X25.277 Y22.525 Z0 F800
G1 X25.299 Z0 F800
G1 X25.208 Y22.733 Z0 F800
G1 X25.172 Y22.988 Z0 F800
G1 X25.199 Y23.232 Z0 F800
G1 X25.276 Y23.457 Z0 F800
G1 X25.393 Y23.655 Z0 F800
G1 X25.54 Y23.827 Z0 F800
G1 X25.713 Y23.972 Z0 F800
G1 X25.864 Y24.058 Z0 F800
G1 X25.983 Y24.139 Z0 F800
G1 X26.075 Y24.229 Z0 F800
G1 X26.153 Y24.339 Z0 F800
G1 X26.199 Y24.439 Z0 F800
G1 X26.213 Y24.517 Z0 F800
G1 X26.209 Y24.551 Z0 F800
G1 X26.196 Y24.573 Z0 F800
G1 X26.165 Y24.598 Z0 F800
G1 X26.09 Y24.611 Z0 F800
G1 X25.932 Y24.631 Z0 F800
G1 X25.808 Y24.634 Z0 F800
G1 X25.797 Z0 F800
G1 X25.59 Y24.429 Z0 F800
G1 X25.26 Y24.156 Z0 F800
G1 X24.917 Y23.909 Z0 F800
G0 Z3.5 F500
G0 X37.218 Y31.992 Z3.5 
G1 Z0 F500
G1 X37.215 Y31.999 Z0 F800
G1 X37.218 Y31.992 Z0 F800
G0 Z3.5 F500
G0 X27.218 Y30.813 Z3.5 
G1 Z0 F500
G1 X27.016 Y30.934 Z0 F800
G1 X26.881 Y31.033 Z0 F800
G1 X26.902 Y30.955 Z0 F800
G1 X26.927 Y30.593 Z0 F800
G1 X26.924 Y30.575 Z0 F800
G1 X27.078 Y30.721 Z0 F800
G1 X27.218 Y30.813 Z0 F800
G0 Z3.5 F500
G0 X27.516 Y31.102 Z3.5 
G1 Z0 F500
G1 X27.237 Y31.268 Z0 F800
G1 X26.981 Y31.456 Z0 F800
G1 X26.768 Y31.682 Z0 F800
G1 X26.592 Y31.937 Z0 F800
G1 X26.449 Y32.216 Z0 F800
G1 X26.242 Y32.815 Z0 F800
G1 X26.108 Y33.425 Z0 F800
G1 X26.156 Y33.997 Z0 F800
G1 X26.38 Y35.125 Z0 F800
G1 X26.43 Y35.7 Z0 F800
G1 X26.423 Y36.125 Z0 F800
G1 X26.317 Y36.54 Z0 F800
G1 X26.221 Y36.727 Z0 F800
G1 X26.093 Y36.89 Z0 F800
G1 X25.931 Y37.024 Z0 F800
G1 X25.732 Y37.122 Z0 F800
G1 X25.444 Y37.245 Z0 F800
G1 X25.146 Y37.345 Z0 F800
G1 X24.84 Y37.416 Z0 F800
G1 X24.529 Y37.447 Z0 F800
G1 X24.311 Y37.396 Z0 F800
G1 X24.123 Y37.292 Z0 F800
G1 X23.967 Y37.144 Z0 F800
G1 X23.845 Y36.963 Z0 F800
G1 X23.757 Y36.759 Z0 F800
G1 X23.704 Y36.541 Z0 F800
G1 X23.688 Y36.32 Z0 F800
G1 X23.708 Y36.105 Z0 F800
G1 X23.748 Y35.953 Z0 F800
G1 X23.816 Y35.815 Z0 F800
G1 X23.907 Y35.69 Z0 F800
G1 X24.015 Y35.575 Z0 F800
G1 X24.263 Y35.373 Z0 F800
G1 X24.517 Y35.194 Z0 F800
G1 X24.847 Y35.066 Z0 F800
G1 X25.172 Y34.917 Z0 F800
G1 X25.323 Y34.825 Z0 F800
G1 X25.458 Y34.716 Z0 F800
G1 X25.576 Y34.586 Z0 F800
G1 X25.671 Y34.431 Z0 F800
G1 X25.693 Y33.931 Z0 F800
G1 Y33.427 Z0 F800
G1 X25.714 Y32.927 Z0 F800
G1 X25.802 Y32.437 Z0 F800
G1 X26.054 Y31.93 Z0 F800
G1 X26.326 Y31.42 Z0 F800
G1 X26.435 Y31.158 Z0 F800
G1 X26.505 Y30.89 Z0 F800
G1 X26.524 Y30.612 Z0 F800
G1 X26.478 Y30.324 Z0 F800
G1 X26.437 Y30.155 Z0 F800
G1 X26.357 Y30.01 Z0 F800
G1 X26.246 Y29.891 Z0 F800
G1 X26.111 Y29.798 Z0 F800
G1 X25.958 Y29.735 Z0 F800
G1 X25.794 Y29.702 Z0 F800
G1 X25.626 Z0 F800
G1 X25.46 Y29.731 Z0 F800
G1 X25.194 Y29.834 Z0 F800
G1 X24.968 Y29.99 Z0 F800
G1 X24.778 Y30.188 Z0 F800
G1 X24.618 Y30.418 Z0 F800
G1 X24.376 Y30.936 Z0 F800
G1 X24.208 Y31.466 Z0 F800
G1 X24.097 Y31.89 Z0 F800
G1 X23.933 Y32.302 Z0 F800
G1 X23.826 Y32.496 Z0 F800
G1 X23.698 Y32.677 Z0 F800
G1 X23.549 Y32.842 Z0 F800
G1 X23.375 Y32.988 Z0 F800
G1 X23.144 Y33.112 Z0 F800
G1 X22.884 Y33.14 Z0 F800
G1 X22.758 Y33.116 Z0 F800
G1 X22.642 Y33.063 Z0 F800
G1 X22.542 Y32.982 Z0 F800
G1 X22.196 Y32.498 Z0 F800
G1 X21.997 Y32.088 Z0 F800
G1 X21.928 Y31.871 Z0 F800
G1 X21.884 Y31.649 Z0 F800
G1 X21.865 Y31.421 Z0 F800
G1 X21.876 Y31.19 Z0 F800
G1 X21.872 Y30.669 Z0 F800
G1 X21.915 Y30.422 Z0 F800
G1 X22.05 Y30.201 Z0 F800
G1 X22.429 Y29.674 Z0 F800
G1 X22.858 Y29.186 Z0 F800
G1 X23.337 Y28.749 Z0 F800
G1 X23.867 Y28.372 Z0 F800
G1 X24.101 Y28.125 Z0 F800
G1 X24.279 Y27.831 Z0 F800
G1 X24.396 Y27.508 Z0 F800
G1 X24.447 Y27.173 Z0 F800
G1 X24.411 Y27.011 Z0 F800
G1 X24.34 Y26.872 Z0 F800
G1 X24.241 Y26.755 Z0 F800
G1 X24.118 Y26.66 Z0 F800
G1 X23.827 Y26.528 Z0 F800
G1 X23.516 Y26.466 Z0 F800
G1 X23.127 Y26.4 Z0 F800
G1 X22.744 Y26.303 Z0 F800
G1 X22.563 Y26.23 Z0 F800
G1 X22.393 Y26.137 Z0 F800
G1 X22.238 Y26.019 Z0 F800
G1 X22.101 Y25.871 Z0 F800
G1 X21.904 Y25.671 Z0 F800
G1 X21.726 Y25.457 Z0 F800
G1 X21.567 Y25.227 Z0 F800
G1 X21.432 Y24.984 Z0 F800
G1 X21.322 Y24.73 Z0 F800
G1 X21.239 Y24.465 Z0 F800
G1 X21.186 Y24.192 Z0 F800
G1 X21.164 Y23.911 Z0 F800
G1 X21.136 Y22.824 Z0 F800
G1 X21.179 Y21.743 Z0 F800
G1 X21.327 Y21.431 Z0 F800
G1 X21.509 Y21.136 Z0 F800
G1 X21.722 Y20.862 Z0 F800
G1 X21.964 Y20.615 Z0 F800
G1 X22.232 Y20.398 Z0 F800
G1 X22.525 Y20.218 Z0 F800
G1 X22.84 Y20.077 Z0 F800
G1 X23.521 Y19.882 Z0 F800
G1 X23.87 Y19.836 Z0 F800
G1 X24.222 Z0 F800
G1 X24.574 Y19.875 Z0 F800
G1 X25.268 Y20.042 Z0 F800
G1 X25.934 Y20.284 Z0 F800
G1 X26.372 Y20.517 Z0 F800
G1 X26.794 Y20.792 Z0 F800
G1 X26.986 Y20.952 Z0 F800
G1 X27.158 Y21.13 Z0 F800
G1 X27.304 Y21.329 Z0 F800
G1 X27.419 Y21.549 Z0 F800
G1 Y21.653 Z0 F800
G1 X27.387 Y21.746 Z0 F800
G1 X27.328 Y21.827 Z0 F800
G1 X27.249 Y21.897 Z0 F800
G1 X27.061 Y22.016 Z0 F800
G1 X26.881 Y22.111 Z0 F800
G1 X26.569 Y22.247 Z0 F800
G1 X26.243 Y22.359 Z0 F800
G1 X25.93 Y22.493 Z0 F800
G1 X25.661 Y22.695 Z0 F800
G1 X25.597 Y22.843 Z0 F800
G1 X25.575 Y22.994 Z0 F800
G1 X25.592 Y23.144 Z0 F800
G1 X25.642 Y23.288 Z0 F800
G1 X25.72 Y23.422 Z0 F800
G1 X25.822 Y23.542 Z0 F800
G1 X25.943 Y23.642 Z0 F800
G1 X26.078 Y23.72 Z0 F800
G1 X26.238 Y23.828 Z0 F800
G1 X26.382 Y23.971 Z0 F800
G1 X26.501 Y24.138 Z0 F800
G1 X26.583 Y24.319 Z0 F800
G1 X26.618 Y24.503 Z0 F800
G1 X26.595 Y24.681 Z0 F800
G1 X26.503 Y24.841 Z0 F800
G1 X26.332 Y24.974 Z0 F800
G1 X26.151 Y25.007 Z0 F800
G1 X25.962 Y25.031 Z0 F800
G1 X25.777 Y25.034 Z0 F800
G1 X25.607 Y25.005 Z0 F800
G1 X25.322 Y24.727 Z0 F800
G1 X25.016 Y24.473 Z0 F800
G1 X24.693 Y24.241 Z0 F800
G1 X24.357 Y24.029 Z0 F800
G1 X24.15 Y23.849 Z0 F800
G1 X23.944 Y23.664 Z0 F800
G1 X23.753 Y23.468 Z0 F800
G1 X23.595 Y23.26 Z0 F800
G1 X23.589 Y22.935 Z0 F800
G1 X23.651 Y22.607 Z0 F800
G1 X23.717 Y22.46 Z0 F800
G1 X23.811 Y22.334 Z0 F800
G1 X23.936 Y22.237 Z0 F800
G1 X24.098 Y22.174 Z0 F800
G1 X24.677 Y22.121 Z0 F800
G1 X25.271 Y22.125 Z0 F800
G1 X25.564 Y22.114 Z0 F800
G1 X25.851 Y22.074 Z0 F800
G1 X26.125 Y21.991 Z0 F800
G1 X26.386 Y21.851 Z0 F800
G1 X26.489 Y21.765 Z0 F800
G1 X26.564 Y21.66 Z0 F800
G1 X26.612 Y21.543 Z0 F800
G1 X26.634 Y21.418 Z0 F800
G1 X26.627 Y21.292 Z0 F800
G1 X26.593 Y21.169 Z0 F800
G1 X26.531 Y21.056 Z0 F800
G1 X26.441 Y20.957 Z0 F800
G1 X26.261 Y20.773 Z0 F800
G1 X26.059 Y20.625 Z0 F800
G1 X25.837 Y20.507 Z0 F800
G1 X25.602 Y20.414 Z0 F800
G1 X25.107 Y20.282 Z0 F800
G1 X24.61 Y20.185 Z0 F800
G1 X24.234 Y20.162 Z0 F800
G1 X23.848 Z0 F800
G1 X23.459 Y20.193 Z0 F800
G1 X23.078 Y20.261 Z0 F800
G1 X22.712 Y20.372 Z0 F800
G1 X22.372 Y20.535 Z0 F800
G1 X22.064 Y20.754 Z0 F800
G1 X21.799 Y21.038 Z0 F800
G1 X21.635 Y21.319 Z0 F800
G1 X21.52 Y21.617 Z0 F800
G1 X21.445 Y21.928 Z0 F800
G1 X21.403 Y22.248 Z0 F800
G1 X21.384 Y22.9 Z0 F800
G1 X21.396 Y23.544 Z0 F800
G1 X21.449 Y24.187 Z0 F800
G1 X21.595 Y24.822 Z0 F800
G1 X21.716 Y25.119 Z0 F800
G1 X21.878 Y25.393 Z0 F800
G1 X22.084 Y25.637 Z0 F800
G1 X22.342 Y25.843 Z0 F800
G1 X22.565 Y25.978 Z0 F800
G1 X22.803 Y26.066 Z0 F800
G1 X23.051 Y26.119 Z0 F800
G1 X23.306 Y26.151 Z0 F800
G1 X23.821 Y26.198 Z0 F800
G1 X24.316 Y26.308 Z0 F800
G1 X24.456 Y26.419 Z0 F800
G1 X24.58 Y26.552 Z0 F800
G1 X24.685 Y26.702 Z0 F800
G1 X24.762 Y26.864 Z0 F800
G1 X24.806 Y27.034 Z0 F800
G1 X24.811 Y27.207 Z0 F800
G1 X24.77 Y27.378 Z0 F800
G1 X24.676 Y27.544 Z0 F800
G1 X24.351 Y28.012 Z0 F800
G1 X23.973 Y28.437 Z0 F800
G1 X23.552 Y28.82 Z0 F800
G1 X23.096 Y29.161 Z0 F800
G1 X22.702 Y29.541 Z0 F800
G1 X22.38 Y29.987 Z0 F800
G1 X22.261 Y30.231 Z0 F800
G1 X22.178 Y30.489 Z0 F800
G1 X22.136 Y30.757 Z0 F800
G1 X22.142 Y31.037 Z0 F800
G1 X22.163 Y31.472 Z0 F800
G1 X22.242 Y31.916 Z0 F800
G1 X22.319 Y32.12 Z0 F800
G1 X22.429 Y32.302 Z0 F800
G1 X22.58 Y32.452 Z0 F800
G1 X22.776 Y32.563 Z0 F800
G1 X22.935 Y32.597 Z0 F800
G1 X23.09 Y32.592 Z0 F800
G1 X23.238 Y32.554 Z0 F800
G1 X23.375 Y32.486 Z0 F800
G1 X23.498 Y32.392 Z0 F800
G1 X23.602 Y32.276 Z0 F800
G1 X23.686 Y32.143 Z0 F800
G1 X23.744 Y31.996 Z0 F800
G1 X23.882 Y31.585 Z0 F800
G1 X24.023 Y31.174 Z0 F800
G1 X24.194 Y30.776 Z0 F800
G1 X24.424 Y30.407 Z0 F800
G1 X24.673 Y30.086 Z0 F800
G1 X24.943 Y29.776 Z0 F800
G1 X25.25 Y29.51 Z0 F800
G1 X25.605 Y29.319 Z0 F800
G1 X25.954 Y29.283 Z0 F800
G1 X26.309 Y29.309 Z0 F800
G1 X26.474 Y29.358 Z0 F800
G1 X26.623 Y29.438 Z0 F800
G1 X26.749 Y29.555 Z0 F800
G1 X26.847 Y29.711 Z0 F800
G1 X27.004 Y30.013 Z0 F800
G1 X27.206 Y30.291 Z0 F800
G1 X27.327 Y30.406 Z0 F800
G1 X27.465 Y30.497 Z0 F800
G1 X27.621 Y30.557 Z0 F800
G1 X27.796 Y30.579 Z0 F800
G1 X28.367 Y30.554 Z0 F800
G1 X28.936 Y30.485 Z0 F800
G1 X29.499 Y30.379 Z0 F800
G1 X30.055 Y30.247 Z0 F800
G1 X30.262 Y30.179 Z0 F800
G1 X30.452 Y30.083 Z0 F800
G1 X30.625 Y29.962 Z0 F800
G1 X30.784 Y29.821 Z0 F800
G1 X31.053 Y29.491 Z0 F800
G1 X31.263 Y29.118 Z0 F800
G1 X31.545 Y28.686 Z0 F800
G1 X31.874 Y28.277 Z0 F800
G1 X32.063 Y28.099 Z0 F800
G1 X32.269 Y27.949 Z0 F800
G1 X32.497 Y27.834 Z0 F800
G1 X32.748 Y27.761 Z0 F800
G1 X33.346 Y27.752 Z0 F800
G1 X33.945 Y27.76 Z0 F800
G1 X34.241 Y27.787 Z0 F800
G1 X34.533 Y27.838 Z0 F800
G1 X34.818 Y27.921 Z0 F800
G1 X35.097 Y28.042 Z0 F800
G1 X35.664 Y28.301 Z0 F800
G1 X36.208 Y28.609 Z0 F800
G1 X36.758 Y28.903 Z0 F800
G1 X37.345 Y29.117 Z0 F800
G1 X37.595 Y29.159 Z0 F800
G1 X37.847 Z0 F800
G1 X38.099 Y29.138 Z0 F800
G1 X38.351 Y29.103 Z0 F800
G1 X38.603 Y29.07 Z0 F800
G1 X38.854 Y29.054 Z0 F800
G1 X39.102 Y29.068 Z0 F800
G1 X39.348 Y29.126 Z0 F800
G1 X39.549 Y29.297 Z0 F800
G1 X39.728 Y29.494 Z0 F800
G1 X39.796 Y29.604 Z0 F800
G1 X39.842 Y29.723 Z0 F800
G1 X39.862 Y29.851 Z0 F800
G1 X39.85 Y29.988 Z0 F800
G1 X39.844 Y30.288 Z0 F800
G1 X39.753 Y30.564 Z0 F800
G1 X39.591 Y30.811 Z0 F800
G1 X39.376 Y31.018 Z0 F800
G1 X39.075 Y31.286 Z0 F800
G1 X38.725 Y31.473 Z0 F800
G1 X38.349 Y31.615 Z0 F800
G1 X37.971 Y31.749 Z0 F800
G1 X37.816 Y31.823 Z0 F800
G1 X37.696 Y31.934 Z0 F800
G1 X37.612 Y32.072 Z0 F800
G1 X37.564 Y32.228 Z0 F800
G1 X37.554 Y32.392 Z0 F800
G1 X37.582 Y32.554 Z0 F800
G1 X37.65 Y32.705 Z0 F800
G1 X37.759 Y32.834 Z0 F800
G1 X37.955 Y33.094 Z0 F800
G1 X38.119 Y33.375 Z0 F800
G1 X37.958 Y33.379 Z0 F800
G1 X37.802 Y33.366 Z0 F800
G1 X37.666 Y33.31 Z0 F800
G1 X37.561 Y33.186 Z0 F800
G1 X37.289 Y32.911 Z0 F800
G1 X37.016 Y32.614 Z0 F800
G1 X36.907 Y32.453 Z0 F800
G1 X36.832 Y32.28 Z0 F800
G1 X36.801 Y32.094 Z0 F800
G1 X36.826 Y31.893 Z0 F800
G1 X36.88 Y31.762 Z0 F800
G1 X36.957 Y31.649 Z0 F800
G1 X37.053 Y31.556 Z0 F800
G1 X37.165 Y31.482 Z0 F800
G1 X37.42 Y31.387 Z0 F800
G1 X38.103 Y31.332 Z0 F800
G1 X38.515 Y31.274 Z0 F800
G1 X38.711 Y31.218 Z0 F800
G1 X38.895 Y31.136 Z0 F800
G1 X39.061 Y31.02 Z0 F800
G1 X39.206 Y30.863 Z0 F800
G1 X39.341 Y30.711 Z0 F800
G1 X39.436 Y30.531 Z0 F800
G1 X39.487 Y30.334 Z0 F800
G1 X39.496 Y30.132 Z0 F800
G1 X39.46 Y29.935 Z0 F800
G1 X39.382 Y29.752 Z0 F800
G1 X39.259 Y29.596 Z0 F800
G1 X39.09 Y29.477 Z0 F800
G1 X38.568 Y29.406 Z0 F800
G1 X38.033 Y29.431 Z0 F800
G1 X37.767 Y29.439 Z0 F800
G1 X37.504 Y29.423 Z0 F800
G1 X37.248 Y29.369 Z0 F800
G1 X37 Y29.259 Z0 F800
G1 X36.52 Y29.021 Z0 F800
G1 X36.059 Y28.75 Z0 F800
G1 X35.592 Y28.489 Z0 F800
G1 X35.096 Y28.285 Z0 F800
G1 X34.503 Y28.107 Z0 F800
G1 X33.89 Y28.027 Z0 F800
G1 X33.268 Y28.016 Z0 F800
G1 X32.65 Y28.046 Z0 F800
G1 X32.394 Y28.104 Z0 F800
G1 X32.171 Y28.215 Z0 F800
G1 X31.979 Y28.37 Z0 F800
G1 X31.812 Y28.558 Z0 F800
G1 X31.537 Y28.995 Z0 F800
G1 X31.31 Y29.447 Z0 F800
G1 X31 Y29.853 Z0 F800
G1 X30.62 Y30.197 Z0 F800
G1 X30.407 Y30.338 Z0 F800
G1 X30.18 Y30.455 Z0 F800
G1 X29.941 Y30.544 Z0 F800
G1 X29.69 Y30.604 Z0 F800
G1 X29.064 Y30.732 Z0 F800
G1 X28.428 Y30.831 Z0 F800
G1 X28.115 Y30.894 Z0 F800
G1 X27.81 Y30.981 Z0 F800
G1 X27.516 Y31.102 Z0 F800
G0 Z3.5 F500
G0 X29.098 Y44.574 Z3.5 
G1 Z0 F500
G1 X29.237 Y44.717 Z0 F800
G1 X29.348 Y44.861 Z0 F800
G1 X29.386 Y44.929 Z0 F800
G1 X29.391 Y44.958 Z0 F800
G1 X29.387 Y45.077 Z0 F800
G1 X29.364 Y45.204 Z0 F800
G1 X29.322 Y45.335 Z0 F800
G1 X29.151 Y45.674 Z0 F800
G1 X28.975 Y45.918 Z0 F800
G1 X28.934 Y45.913 Z0 F800
G1 X28.847 Y45.886 Z0 F800
G1 X28.761 Y45.842 Z0 F800
G1 X28.695 Y45.792 Z0 F800
G1 X28.644 Y45.735 Z0 F800
G1 X28.618 Y45.691 Z0 F800
G1 X28.605 Y45.651 Z0 F800
G1 X28.6 Y45.567 Z0 F800
G1 X28.609 Y45.438 Z0 F800
G1 X28.645 Y45.3 Z0 F800
G1 X28.717 Y45.106 Z0 F800
G1 X28.82 Y44.844 Z0 F800
G1 X28.927 Y44.532 Z0 F800
G1 X28.945 Y44.441 Z0 F800
G1 X29.098 Y44.574 Z0 F800
G0 Z3.5 F500
G0 X29.787 Y45.117 Z3.5 
G1 Z0 F500
G1 X29.753 Y45.303 Z0 F800
G1 X29.693 Y45.488 Z0 F800
G1 X29.496 Y45.88 Z0 F800
G1 X29.249 Y46.222 Z0 F800
G1 X29.197 Y46.268 Z0 F800
G1 X29.137 Y46.303 Z0 F800
G1 X29.08 Y46.32 Z0 F800
G1 X29.007 Y46.325 Z0 F800
G1 X28.851 Y46.306 Z0 F800
G1 X28.695 Y46.258 Z0 F800
G1 X28.55 Y46.184 Z0 F800
G1 X28.421 Y46.086 Z0 F800
G1 X28.32 Y45.974 Z0 F800
G1 X28.249 Y45.854 Z0 F800
G1 X28.209 Y45.725 Z0 F800
G1 X28.199 Y45.56 Z0 F800
G1 X28.213 Y45.372 Z0 F800
G1 X28.263 Y45.179 Z0 F800
G1 X28.345 Y44.959 Z0 F800
G1 X28.445 Y44.706 Z0 F800
G1 X28.54 Y44.428 Z0 F800
G1 X28.603 Y44.114 Z0 F800
G1 X28.596 Y43.766 Z0 F800
G1 X28.566 Y43.672 Z0 F800
G1 X28.746 Y43.797 Z0 F800
G1 X29.185 Y44.12 Z0 F800
G1 X29.372 Y44.281 Z0 F800
G1 X29.542 Y44.457 Z0 F800
G1 X29.679 Y44.635 Z0 F800
G1 X29.771 Y44.796 Z0 F800
G1 X29.792 Y44.935 Z0 F800
G1 X29.787 Y45.117 Z0 F800
G0 Z3.5 F500
G0 X19.731 Y36.37 Z3.5 
G1 Z0 F500
G1 X19.536 Y36.387 Z0 F800
G1 X19.294 Y36.396 Z0 F800
G1 X19.147 Z0 F800
G1 Y36.393 Z0 F800
G1 X19.405 Y36.101 Z0 F800
G1 X19.504 Y36.211 Z0 F800
G1 X19.731 Y36.37 Z0 F800
G0 Z3.5 F500
G0 X20.272 Y36.679 Z3.5 
G1 Z0 F500
G1 X19.916 Y36.755 Z0 F800
G1 X19.567 Y36.786 Z0 F800
G1 X19.294 Y36.795 Z0 F800
G1 X19.046 Z0 F800
G1 X18.978 Y36.784 Z0 F800
G1 X18.932 Y36.768 Z0 F800
G1 X18.905 Y36.75 Z0 F800
G1 X18.866 Y36.704 Z0 F800
G1 X18.767 Y36.54 Z0 F800
G1 X18.719 Y36.366 Z0 F800
G1 Y36.323 Z0 F800
G1 X18.727 Y36.278 Z0 F800
G1 X18.742 Y36.248 Z0 F800
G1 X18.798 Y36.183 Z0 F800
G1 X19.17 Y35.763 Z0 F800
G1 X19.467 Y35.464 Z0 F800
G1 X19.605 Y35.727 Z0 F800
G1 X19.771 Y35.909 Z0 F800
G1 X19.964 Y36.044 Z0 F800
G1 X20.19 Y36.142 Z0 F800
G1 X20.612 Y36.206 Z0 F800
G1 X20.957 Y36.146 Z0 F800
G1 X21.221 Y36.127 Z0 F800
G1 X21.473 Y36.163 Z0 F800
G1 X21.533 Y36.188 Z0 F800
G1 X21.564 Y36.211 Z0 F800
G1 X21.573 Y36.225 Z0 F800
G1 X21.581 Y36.258 Z0 F800
G1 X21.576 Y36.31 Z0 F800
G1 X21.552 Y36.381 Z0 F800
G1 X21.51 Y36.453 Z0 F800
G1 X21.454 Y36.515 Z0 F800
G1 X21.39 Y36.563 Z0 F800
G1 X21.324 Y36.592 Z0 F800
G1 X21.264 Y36.603 Z0 F800
G1 X21.128 Y36.592 Z0 F800
G1 X20.688 Y36.601 Z0 F800
G1 X20.272 Y36.679 Z0 F800
G0 Z3.5 F500
G0 X26.345 Y40.007 Z3.5 
G1 Z0 F500
G1 X26.43 Y40.016 Z0 F800
G1 X26.676 Y39.984 Z0 F800
G1 X26.698 Y39.977 Z0 F800
G1 X26.632 Y40.363 Z0 F800
G1 X26.49 Y40.156 Z0 F800
G1 X26.345 Y40.007 Z0 F800
G0 Z3.5 F500
G0 X25.791 Y39.456 Z3.5 
G1 Z0 F500
G1 X26.1 Y39.577 Z0 F800
G1 X26.426 Y39.613 Z0 F800
G1 X26.585 Y39.592 Z0 F800
G1 X26.738 Y39.542 Z0 F800
G1 X26.878 Y39.458 Z0 F800
G1 X27.002 Y39.338 Z0 F800
G1 X27.403 Y38.868 Z0 F800
G1 X27.785 Y38.378 Z0 F800
G1 X28.129 Y37.864 Z0 F800
G1 X28.423 Y37.32 Z0 F800
G1 X28.5 Y37.102 Z0 F800
G1 X28.535 Y36.881 Z0 F800
G1 Y36.66 Z0 F800
G1 X28.508 Y36.437 Z0 F800
G1 X28.403 Y35.995 Z0 F800
G1 X28.28 Y35.562 Z0 F800
G1 X28.253 Y35.164 Z0 F800
G1 X28.238 Y34.76 Z0 F800
G1 X28.274 Y34.363 Z0 F800
G1 X28.399 Y33.986 Z0 F800
G1 X28.695 Y33.627 Z0 F800
G1 X29.017 Y33.287 Z0 F800
G1 X29.365 Y32.976 Z0 F800
G1 X29.741 Y32.702 Z0 F800
G1 X30.312 Y32.43 Z0 F800
G1 X30.905 Y32.215 Z0 F800
G1 X31.512 Y32.036 Z0 F800
G1 X32.121 Y31.871 Z0 F800
G1 X32.362 Y31.775 Z0 F800
G1 X32.584 Y31.65 Z0 F800
G1 X32.789 Y31.502 Z0 F800
G1 X32.979 Y31.333 Z0 F800
G1 X33.321 Y30.952 Z0 F800
G1 X33.622 Y30.54 Z0 F800
G1 X33.786 Y30.356 Z0 F800
G1 X33.99 Y30.233 Z0 F800
G1 X34.22 Y30.177 Z0 F800
G1 X34.465 Y30.191 Z0 F800
G1 X34.693 Z0 F800
G1 X34.904 Y30.252 Z0 F800
G1 X35.088 Y30.371 Z0 F800
G1 X35.229 Y30.55 Z0 F800
G1 X35.37 Y30.825 Z0 F800
G1 X35.45 Y31.114 Z0 F800
G1 X35.477 Y31.413 Z0 F800
G1 X35.457 Y31.714 Z0 F800
G1 X35.397 Y32.015 Z0 F800
G1 X35.306 Y32.31 Z0 F800
G1 X35.189 Y32.593 Z0 F800
G1 X35.055 Y32.861 Z0 F800
G1 X34.955 Y33.12 Z0 F800
G1 X34.94 Y33.398 Z0 F800
G1 X34.973 Y33.529 Z0 F800
G1 X35.034 Y33.646 Z0 F800
G1 X35.128 Y33.743 Z0 F800
G1 X35.257 Y33.814 Z0 F800
G1 X35.487 Y33.896 Z0 F800
G1 X35.737 Y33.945 Z0 F800
G1 X35.98 Y33.991 Z0 F800
G1 X36.187 Y34.062 Z0 F800
G1 X36.073 Y34.198 Z0 F800
G1 X35.936 Y34.287 Z0 F800
G1 X35.777 Y34.326 Z0 F800
G1 X35.596 Y34.314 Z0 F800
G1 X35.223 Z0 F800
G1 X34.834 Y34.279 Z0 F800
G1 X34.653 Y34.231 Z0 F800
G1 X34.49 Y34.153 Z0 F800
G1 X34.353 Y34.036 Z0 F800
G1 X34.248 Y33.873 Z0 F800
G1 X34.191 Y33.693 Z0 F800
G1 Y33.523 Z0 F800
G1 X34.234 Y33.36 Z0 F800
G1 X34.313 Y33.205 Z0 F800
G1 X34.531 Y32.914 Z0 F800
G1 X34.902 Y32.476 Z0 F800
G1 X35.027 Y32.287 Z0 F800
G1 X35.129 Y32.083 Z0 F800
G1 X35.203 Y31.871 Z0 F800
G1 X35.241 Y31.652 Z0 F800
G1 Y31.433 Z0 F800
G1 X35.193 Y31.216 Z0 F800
G1 X35.094 Y31.007 Z0 F800
G1 X34.982 Y30.856 Z0 F800
G1 X34.836 Y30.734 Z0 F800
G1 X34.666 Y30.646 Z0 F800
G1 X34.482 Y30.596 Z0 F800
G1 X34.295 Y30.588 Z0 F800
G1 X34.116 Y30.625 Z0 F800
G1 X33.954 Y30.714 Z0 F800
G1 X33.819 Y30.857 Z0 F800
G1 X33.523 Y31.188 Z0 F800
G1 X33.219 Y31.514 Z0 F800
G1 X33.054 Y31.661 Z0 F800
G1 X32.876 Y31.789 Z0 F800
G1 X32.682 Y31.892 Z0 F800
G1 X32.467 Y31.964 Z0 F800
G1 X31.666 Y32.196 Z0 F800
G1 X30.869 Y32.455 Z0 F800
G1 X30.482 Y32.612 Z0 F800
G1 X30.111 Y32.797 Z0 F800
G1 X29.758 Y33.018 Z0 F800
G1 X29.428 Y33.279 Z0 F800
G1 X29.03 Y33.644 Z0 F800
G1 X28.654 Y34.054 Z0 F800
G1 X28.503 Y34.28 Z0 F800
G1 X28.393 Y34.522 Z0 F800
G1 X28.333 Y34.781 Z0 F800
G1 Y35.06 Z0 F800
G1 X28.449 Y35.491 Z0 F800
G1 X28.594 Y35.916 Z0 F800
G1 X28.656 Y36.13 Z0 F800
G1 X28.701 Y36.347 Z0 F800
G1 X28.719 Y36.568 Z0 F800
G1 X28.702 Y36.795 Z0 F800
G1 X28.706 Y37.067 Z0 F800
G1 X28.664 Y37.328 Z0 F800
G1 X28.578 Y37.578 Z0 F800
G1 X28.447 Y37.816 Z0 F800
G1 X28.063 Y38.451 Z0 F800
G1 X27.609 Y39.065 Z0 F800
G1 X27.398 Y39.381 Z0 F800
G1 X27.219 Y39.712 Z0 F800
G1 X27.089 Y40.064 Z0 F800
G1 X27.024 Y40.444 Z0 F800
G1 X27.027 Y40.85 Z0 F800
G1 X27.093 Y41.249 Z0 F800
G1 X27.216 Y41.632 Z0 F800
G1 X27.392 Y41.997 Z0 F800
G1 X27.615 Y42.337 Z0 F800
G1 X27.88 Y42.646 Z0 F800
G1 X28.181 Y42.918 Z0 F800
G1 X28.974 Y43.469 Z0 F800
G1 X29.434 Y43.807 Z0 F800
G1 X29.648 Y43.992 Z0 F800
G1 X29.844 Y44.194 Z0 F800
G1 X30.015 Y44.416 Z0 F800
G1 X30.155 Y44.663 Z0 F800
G1 X30.192 Y44.911 Z0 F800
G1 X30.186 Y45.158 Z0 F800
G1 X30.142 Y45.401 Z0 F800
G1 X30.065 Y45.639 Z0 F800
G1 X29.838 Y46.089 Z0 F800
G1 X29.547 Y46.492 Z0 F800
G1 X29.432 Y46.594 Z0 F800
G1 X29.298 Y46.671 Z0 F800
G1 X29.152 Y46.717 Z0 F800
G1 X28.998 Y46.727 Z0 F800
G1 X28.767 Y46.699 Z0 F800
G1 X28.543 Y46.629 Z0 F800
G1 X28.335 Y46.523 Z0 F800
G1 X28.15 Y46.383 Z0 F800
G1 X27.996 Y46.212 Z0 F800
G1 X27.881 Y46.016 Z0 F800
G1 X27.813 Y45.797 Z0 F800
G1 X27.798 Y45.56 Z0 F800
G1 X27.817 Y45.307 Z0 F800
G1 X27.881 Y45.058 Z0 F800
G1 X27.973 Y44.813 Z0 F800
G1 X28.069 Y44.568 Z0 F800
G1 X28.153 Y44.324 Z0 F800
G1 X28.202 Y44.079 Z0 F800
G1 X28.197 Y43.831 Z0 F800
G1 X28.117 Y43.58 Z0 F800
G1 X27.725 Y43.11 Z0 F800
G1 X27.295 Y42.665 Z0 F800
G1 X27.095 Y42.434 Z0 F800
G1 X26.92 Y42.186 Z0 F800
G1 X26.784 Y41.916 Z0 F800
G1 X26.55 Y41.115 Z0 F800
G1 X26.328 Y40.627 Z0 F800
G1 X26.18 Y40.411 Z0 F800
G1 X26 Y40.226 Z0 F800
G1 X25.788 Y40.083 Z0 F800
G1 X25.537 Y39.99 Z0 F800
G1 X25.309 Y39.987 Z0 F800
G1 X25.102 Y40.048 Z0 F800
G1 X24.92 Y40.162 Z0 F800
G1 X24.768 Y40.319 Z0 F800
G1 X24.65 Y40.507 Z0 F800
G1 X24.571 Y40.717 Z0 F800
G1 X24.536 Y40.937 Z0 F800
G1 X24.55 Y41.156 Z0 F800
G1 X24.6 Y41.466 Z0 F800
G1 X24.688 Y41.764 Z0 F800
G1 X24.805 Y42.051 Z0 F800
G1 X24.941 Y42.331 Z0 F800
G1 X25.236 Y42.883 Z0 F800
G1 X25.496 Y43.447 Z0 F800
G1 X25.516 Y43.705 Z0 F800
G1 X25.533 Y43.969 Z0 F800
G1 X25.52 Y44.229 Z0 F800
G1 X25.449 Y44.473 Z0 F800
G1 X25.375 Y44.577 Z0 F800
G1 X25.288 Y44.657 Z0 F800
G1 X25.188 Y44.713 Z0 F800
G1 X25.08 Y44.749 Z0 F800
G1 X24.847 Y44.77 Z0 F800
G1 X24.61 Y44.741 Z0 F800
G1 X24.32 Y44.688 Z0 F800
G1 X24.039 Y44.598 Z0 F800
G1 X23.77 Y44.474 Z0 F800
G1 X23.516 Y44.319 Z0 F800
G1 X23.281 Y44.137 Z0 F800
G1 X23.067 Y43.93 Z0 F800
G1 X22.879 Y43.702 Z0 F800
G1 X22.72 Y43.456 Z0 F800
G1 X22.559 Y42.764 Z0 F800
G1 X22.479 Y42.057 Z0 F800
G1 X22.472 Y41.702 Z0 F800
G1 X22.49 Y41.347 Z0 F800
G1 X22.533 Y40.995 Z0 F800
G1 X22.604 Y40.646 Z0 F800
G1 X22.595 Y40.24 Z0 F800
G1 X22.495 Y39.835 Z0 F800
G1 X22.407 Y39.649 Z0 F800
G1 X22.292 Y39.482 Z0 F800
G1 X22.147 Y39.342 Z0 F800
G1 X21.972 Y39.234 Z0 F800
G1 X21.837 Y39.191 Z0 F800
G1 X21.702 Y39.177 Z0 F800
G1 X21.569 Y39.188 Z0 F800
G1 X21.438 Y39.222 Z0 F800
G1 X21.195 Y39.344 Z0 F800
G1 X20.986 Y39.522 Z0 F800
G1 X20.691 Y39.728 Z0 F800
G1 X20.385 Y39.925 Z0 F800
G1 X20.225 Y40.002 Z0 F800
G1 X20.059 Y40.057 Z0 F800
G1 X19.886 Y40.081 Z0 F800
G1 X19.704 Y40.067 Z0 F800
G1 X19.146 Y40.048 Z0 F800
G1 X18.597 Y39.945 Z0 F800
G1 X18.335 Y39.856 Z0 F800
G1 X18.084 Y39.739 Z0 F800
G1 X17.849 Y39.591 Z0 F800
G1 X17.632 Y39.41 Z0 F800
G1 X17.201 Y39.02 Z0 F800
G1 X16.771 Y38.618 Z0 F800
G1 X16.368 Y38.191 Z0 F800
G1 X16.015 Y37.723 Z0 F800
G1 X15.855 Y37.26 Z0 F800
G1 X15.791 Y36.771 Z0 F800
G1 X15.811 Y36.276 Z0 F800
G1 X15.905 Y35.795 Z0 F800
G1 X16.022 Y35.496 Z0 F800
G1 X16.163 Y35.205 Z0 F800
G1 X16.326 Y34.926 Z0 F800
G1 X16.513 Y34.664 Z0 F800
G1 X16.723 Y34.42 Z0 F800
G1 X16.957 Y34.201 Z0 F800
G1 X17.214 Y34.007 Z0 F800
G1 X17.495 Y33.844 Z0 F800
G1 X18.038 Y33.551 Z0 F800
G1 X18.614 Y33.317 Z0 F800
G1 X18.912 Y33.233 Z0 F800
G1 X19.216 Y33.176 Z0 F800
G1 X19.525 Y33.15 Z0 F800
G1 X19.838 Y33.16 Z0 F800
G1 X20.066 Z0 F800
G1 X20.279 Y33.248 Z0 F800
G1 X20.362 Y33.319 Z0 F800
G1 X20.421 Y33.409 Z0 F800
G1 X20.448 Y33.515 Z0 F800
G1 X20.437 Y33.636 Z0 F800
G1 X20.315 Y34.076 Z0 F800
G1 X20.124 Y34.494 Z0 F800
G1 X19.946 Y34.914 Z0 F800
G1 X19.863 Y35.358 Z0 F800
G1 X19.936 Y35.496 Z0 F800
G1 X20.037 Y35.607 Z0 F800
G1 X20.16 Y35.693 Z0 F800
G1 X20.301 Y35.754 Z0 F800
G1 X20.608 Y35.8 Z0 F800
G1 X20.909 Y35.749 Z0 F800
G1 X21.235 Y35.726 Z0 F800
G1 X21.579 Y35.774 Z0 F800
G1 X21.731 Y35.837 Z0 F800
G1 X21.856 Y35.931 Z0 F800
G1 X21.945 Y36.06 Z0 F800
G1 X21.986 Y36.23 Z0 F800
G1 X21.97 Y36.394 Z0 F800
G1 X21.917 Y36.549 Z0 F800
G1 X21.834 Y36.691 Z0 F800
G1 X21.724 Y36.813 Z0 F800
G1 X21.592 Y36.91 Z0 F800
G1 X21.444 Y36.976 Z0 F800
G1 X21.284 Y37.006 Z0 F800
G1 X21.116 Y36.993 Z0 F800
G1 X20.729 Y37 Z0 F800
G1 X20.351 Y37.071 Z0 F800
G1 X19.974 Y37.151 Z0 F800
G1 X19.589 Y37.186 Z0 F800
G1 X19.307 Y37.195 Z0 F800
G1 X19.016 Z0 F800
G1 X18.878 Y37.173 Z0 F800
G1 X18.75 Y37.128 Z0 F800
G1 X18.636 Y37.052 Z0 F800
G1 X18.541 Y36.938 Z0 F800
G1 X18.396 Y36.698 Z0 F800
G1 X18.32 Y36.424 Z0 F800
G1 Y36.286 Z0 F800
G1 X18.344 Y36.152 Z0 F800
G1 X18.403 Y36.028 Z0 F800
G1 X18.499 Y35.917 Z0 F800
G1 X18.878 Y35.49 Z0 F800
G1 X19.289 Y35.076 Z0 F800
G1 X19.475 Y34.857 Z0 F800
G1 X19.633 Y34.624 Z0 F800
G1 X19.75 Y34.368 Z0 F800
G1 X19.813 Y34.083 Z0 F800
G1 X19.799 Y33.926 Z0 F800
G1 X19.74 Y33.799 Z0 F800
G1 X19.645 Y33.7 Z0 F800
G1 X19.522 Y33.628 Z0 F800
G1 X19.232 Y33.554 Z0 F800
G1 X18.94 Y33.56 Z0 F800
G1 X18.683 Y33.593 Z0 F800
G1 X18.435 Y33.66 Z0 F800
G1 X18.195 Y33.755 Z0 F800
G1 X17.964 Y33.874 Z0 F800
G1 X17.526 Y34.16 Z0 F800
G1 X17.118 Y34.476 Z0 F800
G1 X16.868 Y34.719 Z0 F800
G1 X16.629 Y34.985 Z0 F800
G1 X16.412 Y35.271 Z0 F800
G1 X16.224 Y35.577 Z0 F800
G1 X16.075 Y35.898 Z0 F800
G1 X15.975 Y36.233 Z0 F800
G1 X15.933 Y36.581 Z0 F800
G1 X15.959 Y36.938 Z0 F800
G1 X16.042 Y37.202 Z0 F800
G1 X16.158 Y37.449 Z0 F800
G1 X16.3 Y37.682 Z0 F800
G1 X16.464 Y37.903 Z0 F800
G1 X16.831 Y38.321 Z0 F800
G1 X17.209 Y38.718 Z0 F800
G1 X17.612 Y39.082 Z0 F800
G1 X18.041 Y39.426 Z0 F800
G1 X18.269 Y39.575 Z0 F800
G1 X18.507 Y39.701 Z0 F800
G1 X18.759 Y39.797 Z0 F800
G1 X19.025 Y39.857 Z0 F800
G1 X19.408 Y39.885 Z0 F800
G1 X19.791 Y39.863 Z0 F800
G1 X19.976 Y39.825 Z0 F800
G1 X20.154 Y39.763 Z0 F800
G1 X20.322 Y39.674 Z0 F800
G1 X20.479 Y39.555 Z0 F800
G1 X20.792 Y39.309 Z0 F800
G1 X21.101 Y39.041 Z0 F800
G1 X21.264 Y38.927 Z0 F800
G1 X21.438 Y38.843 Z0 F800
G1 X21.628 Y38.8 Z0 F800
G1 X21.98 Y38.817 Z0 F800
G1 X22.115 Y38.853 Z0 F800
G1 X22.237 Y38.913 Z0 F800
G1 X22.346 Y38.995 Z0 F800
G1 X22.515 Y39.212 Z0 F800
G1 X22.605 Y39.479 Z0 F800
G1 X22.703 Y40.001 Z0 F800
G1 X22.745 Y40.53 Z0 F800
G1 X22.726 Y41.06 Z0 F800
G1 X22.64 Y41.584 Z0 F800
G1 X22.61 Y41.87 Z0 F800
G1 Y42.158 Z0 F800
G1 X22.636 Y42.445 Z0 F800
G1 X22.696 Y42.726 Z0 F800
G1 X22.788 Y42.996 Z0 F800
G1 X22.914 Y43.251 Z0 F800
G1 X23.076 Y43.487 Z0 F800
G1 X23.275 Y43.7 Z0 F800
G1 X23.602 Y43.995 Z0 F800
G1 X23.981 Y44.245 Z0 F800
G1 X24.185 Y44.333 Z0 F800
G1 X24.396 Y44.383 Z0 F800
G1 X24.613 Y44.389 Z0 F800
G1 X24.833 Y44.342 Z0 F800
G1 X24.98 Y44.242 Z0 F800
G1 X25.09 Y44.114 Z0 F800
G1 X25.163 Y43.964 Z0 F800
G1 X25.203 Y43.799 Z0 F800
G1 X25.209 Y43.626 Z0 F800
G1 X25.186 Y43.454 Z0 F800
G1 X25.134 Y43.288 Z0 F800
G1 X25.057 Y43.135 Z0 F800
G1 X24.742 Y42.539 Z0 F800
G1 X24.606 Y42.231 Z0 F800
G1 X24.511 Y41.905 Z0 F800
G1 X24.419 Y41.462 Z0 F800
G1 X24.366 Y41.008 Z0 F800
G1 X24.376 Y40.556 Z0 F800
G1 X24.475 Y40.116 Z0 F800
G1 X24.58 Y39.949 Z0 F800
G1 X24.709 Y39.788 Z0 F800
G1 X24.859 Y39.641 Z0 F800
G1 X25.025 Y39.519 Z0 F800
G1 X25.206 Y39.429 Z0 F800
G1 X25.396 Y39.383 Z0 F800
G1 X25.592 Y39.389 Z0 F800
G1 X25.791 Y39.456 Z0 F800
G0 Z3.5 F500
G0 X25.371 Y49.195 Z3.5 
G1 Z0 F500
G1 X25.236 Y49.355 Z0 F800
G1 X25.092 Y49.517 Z0 F800
G1 X25.008 Y49.587 Z0 F800
G1 X24.996 Y49.593 Z0 F800
G1 X24.965 Z0 F800
G1 X24.956 Z0 F800
G1 X24.944 Y49.547 Z0 F800
G1 X24.927 Y49.225 Z0 F800
G1 Y49.205 Z0 F800
G1 X24.998 Y49.216 Z0 F800
G1 X25.374 Y49.17 Z0 F800
G1 X25.39 Y49.164 Z0 F800
G1 X25.371 Y49.195 Z0 F800
G0 Z3.5 F500
G0 X24.946 Y49.996 Z3.5 
G1 Z0 F500
G1 X24.785 Y49.972 Z0 F800
G1 X24.668 Y49.92 Z0 F800
G1 X24.613 Y49.867 Z0 F800
G1 X24.547 Y49.606 Z0 F800
G1 X24.527 Y49.231 Z0 F800
G1 X24.534 Y48.802 Z0 F800
G1 X24.529 Y48.655 Z0 F800
G1 X24.705 Y48.762 Z0 F800
G1 X25.007 Y48.813 Z0 F800
G1 X25.272 Y48.78 Z0 F800
G1 X25.504 Y48.685 Z0 F800
G1 X25.704 Y48.547 Z0 F800
G1 X25.98 Y48.257 Z0 F800
G1 X26.159 Y48 Z0 F800
G1 X26.301 Y47.863 Z0 F800
G1 X26.468 Y47.764 Z0 F800
G1 X26.505 Y47.753 Z0 F800
G1 X26.523 Z0 F800
G1 X26.547 Y47.77 Z0 F800
G1 X26.616 Y47.862 Z0 F800
G1 X26.649 Y47.98 Z0 F800
G1 Y48.125 Z0 F800
G1 X26.618 Y48.226 Z0 F800
G1 X26.412 Y48.453 Z0 F800
G1 X26.146 Y48.767 Z0 F800
G1 X25.895 Y49.105 Z0 F800
G1 X25.696 Y49.43 Z0 F800
G1 X25.543 Y49.612 Z0 F800
G1 X25.371 Y49.806 Z0 F800
G1 X25.221 Y49.931 Z0 F800
G1 X25.089 Y49.99 Z0 F800
G1 X24.946 Y49.996 Z0 F800
G0 Z3.5 F500
G0 X37.583 Y48.361 Z3.5 
G1 Z0 F500
G1 X37.594 Z0 F800
G1 X37.816 Y48.347 Z0 F800
G1 X38.012 Y48.357 Z0 F800
G1 X38.182 Y48.39 Z0 F800
G1 X38.275 Y48.425 Z0 F800
G1 X38.289 Y48.437 Z0 F800
G1 X38.351 Y48.511 Z0 F800
G1 X38.416 Y48.615 Z0 F800
G1 X38.468 Y48.725 Z0 F800
G1 X38.577 Y49.067 Z0 F800
G1 X38.639 Y49.391 Z0 F800
G1 Y49.404 Z0 F800
G1 X38.634 Y49.411 Z0 F800
G1 X38.617 Y49.426 Z0 F800
G1 X38.591 Y49.44 Z0 F800
G1 X38.562 Y49.451 Z0 F800
G1 X38.464 Y49.466 Z0 F800
G1 X38.303 Y49.485 Z0 F800
G1 X38.23 Y49.481 Z0 F800
G1 X38.227 Z0 F800
G1 X38.17 Y49.437 Z0 F800
G1 X38.091 Y49.361 Z0 F800
G1 X38.03 Y49.279 Z0 F800
G1 X37.966 Y49.168 Z0 F800
G1 X37.885 Y48.996 Z0 F800
G1 X37.707 Y48.586 Z0 F800
G1 X37.583 Y48.361 Z0 F800
G0 Z3.5 F500
G0 X37.553 Y47.961 Z3.5 
G1 Z0 F500
G1 X37.814 Y47.946 Z0 F800
G1 X38.061 Y47.959 Z0 F800
G1 X38.293 Y48.004 Z0 F800
G1 X38.481 Y48.075 Z0 F800
G1 X38.572 Y48.153 Z0 F800
G1 X38.678 Y48.279 Z0 F800
G1 X38.767 Y48.421 Z0 F800
G1 X38.842 Y48.58 Z0 F800
G1 X38.965 Y48.969 Z0 F800
G1 X39.038 Y49.347 Z0 F800
G1 X39.041 Y49.454 Z0 F800
G1 X39.022 Y49.534 Z0 F800
G1 X38.984 Y49.613 Z0 F800
G1 X38.926 Y49.687 Z0 F800
G1 X38.85 Y49.753 Z0 F800
G1 X38.76 Y49.805 Z0 F800
G1 X38.659 Y49.841 Z0 F800
G1 X38.519 Y49.862 Z0 F800
G1 X38.315 Y49.887 Z0 F800
G1 X38.155 Y49.877 Z0 F800
G1 X38.038 Y49.839 Z0 F800
G1 X37.91 Y49.741 Z0 F800
G1 X37.791 Y49.627 Z0 F800
G1 X37.696 Y49.501 Z0 F800
G1 X37.608 Y49.348 Z0 F800
G1 X37.527 Y49.175 Z0 F800
G1 X37.348 Y48.763 Z0 F800
G1 X37.084 Y48.288 Z0 F800
G1 X36.802 Y48.094 Z0 F800
G1 X36.778 Y48.083 Z0 F800
G1 X36.977 Y48.048 Z0 F800
G1 X37.553 Y47.961 Z0 F800
G0 Z3.5 F500
G0 X33.03 Y47.086 Z3.5 
G1 Z0 F500
G1 X32.906 Y47.051 Z0 F800
G1 X32.566 Y47.072 Z0 F800
G1 X32.755 Y46.876 Z0 F800
G1 X32.823 Y46.757 Z0 F800
G1 X32.994 Y47.043 Z0 F800
G1 X33.03 Y47.086 Z0 F800
G0 Z3.5 F500
G0 X33.534 Y47.711 Z3.5 
G1 Z0 F500
G1 X33.206 Y47.553 Z0 F800
G1 X32.862 Y47.454 Z0 F800
G1 X32.552 Y47.474 Z0 F800
G1 X32.247 Y47.537 Z0 F800
G1 X32.105 Y47.594 Z0 F800
G1 X31.977 Y47.673 Z0 F800
G1 X31.866 Y47.778 Z0 F800
G1 X31.775 Y47.913 Z0 F800
G1 X31.708 Y48.115 Z0 F800
G1 X31.692 Y48.321 Z0 F800
G1 X31.723 Y48.525 Z0 F800
G1 X31.793 Y48.722 Z0 F800
G1 X31.899 Y48.906 Z0 F800
G1 X32.035 Y49.07 Z0 F800
G1 X32.194 Y49.21 Z0 F800
G1 X32.372 Y49.319 Z0 F800
G1 X32.826 Y49.554 Z0 F800
G1 X33.308 Y49.719 Z0 F800
G1 X33.799 Y49.862 Z0 F800
G1 X34.28 Y50.03 Z0 F800
G1 X34.608 Y50.238 Z0 F800
G1 X34.913 Y50.501 Z0 F800
G1 X35.032 Y50.654 Z0 F800
G1 X35.117 Y50.823 Z0 F800
G1 X35.157 Y51.006 Z0 F800
G1 X35.143 Y51.206 Z0 F800
G1 X35.006 Y51.387 Z0 F800
G1 X34.846 Y51.548 Z0 F800
G1 X34.667 Y51.689 Z0 F800
G1 X34.474 Y51.812 Z0 F800
G1 X34.054 Y52.002 Z0 F800
G1 X33.616 Y52.12 Z0 F800
G1 X33.328 Y52.13 Z0 F800
G1 X33.037 Y52.143 Z0 F800
G1 X32.749 Y52.135 Z0 F800
G1 X32.474 Y52.083 Z0 F800
G1 X31.852 Y51.689 Z0 F800
G1 X31.288 Y51.218 Z0 F800
G1 X30.787 Y50.68 Z0 F800
G1 X30.352 Y50.086 Z0 F800
G1 X30.058 Y49.841 Z0 F800
G1 X29.713 Y49.649 Z0 F800
G1 X29.529 Y49.588 Z0 F800
G1 X29.34 Y49.559 Z0 F800
G1 X29.15 Y49.564 Z0 F800
G1 X28.962 Y49.613 Z0 F800
G1 X28.784 Y49.736 Z0 F800
G1 X28.655 Y49.893 Z0 F800
G1 X28.567 Y50.076 Z0 F800
G1 X28.507 Y50.278 Z0 F800
G1 X28.436 Y50.706 Z0 F800
G1 X28.358 Y51.114 Z0 F800
G1 X28.3 Y51.308 Z0 F800
G1 X28.208 Y51.482 Z0 F800
G1 X28.092 Y51.642 Z0 F800
G1 X27.956 Y51.789 Z0 F800
G1 X27.653 Y52.061 Z0 F800
G1 X27.354 Y52.326 Z0 F800
G1 X27.089 Y52.511 Z0 F800
G1 X26.805 Y52.646 Z0 F800
G1 X26.504 Y52.739 Z0 F800
G1 X26.192 Y52.797 Z0 F800
G1 X25.551 Y52.843 Z0 F800
G1 X24.916 Y52.847 Z0 F800
G1 X24.512 Y52.84 Z0 F800
G1 X24.105 Z0 F800
G1 X23.906 Y52.826 Z0 F800
G1 X23.713 Y52.788 Z0 F800
G1 X23.527 Y52.72 Z0 F800
G1 X23.35 Y52.613 Z0 F800
G1 X23.104 Y52.445 Z0 F800
G1 X22.873 Y52.257 Z0 F800
G1 X22.658 Y52.049 Z0 F800
G1 X22.466 Y51.822 Z0 F800
G1 X22.298 Y51.577 Z0 F800
G1 X22.158 Y51.316 Z0 F800
G1 X22.05 Y51.039 Z0 F800
G1 X21.978 Y50.747 Z0 F800
G1 X21.889 Y50.354 Z0 F800
G1 X21.856 Y49.959 Z0 F800
G1 X21.874 Y49.566 Z0 F800
G1 X21.935 Y49.175 Z0 F800
G1 X22.158 Y48.41 Z0 F800
G1 X22.472 Y47.679 Z0 F800
G1 X22.683 Y47.357 Z0 F800
G1 X22.921 Y47.048 Z0 F800
G1 X23.196 Y46.778 Z0 F800
G1 X23.519 Y46.572 Z0 F800
G1 X23.643 Y46.563 Z0 F800
G1 X23.75 Y46.597 Z0 F800
G1 X23.842 Y46.665 Z0 F800
G1 X23.922 Y46.756 Z0 F800
G1 X24.052 Y46.979 Z0 F800
G1 X24.157 Y47.193 Z0 F800
G1 X24.29 Y47.516 Z0 F800
G1 X24.41 Y47.858 Z0 F800
G1 X24.484 Y48.02 Z0 F800
G1 X24.577 Y48.165 Z0 F800
G1 X24.695 Y48.287 Z0 F800
G1 X24.847 Y48.38 Z0 F800
G1 X25.016 Y48.408 Z0 F800
G1 X25.17 Y48.389 Z0 F800
G1 X25.313 Y48.331 Z0 F800
G1 X25.443 Y48.242 Z0 F800
G1 X25.669 Y48.003 Z0 F800
G1 X25.853 Y47.74 Z0 F800
G1 X26.055 Y47.543 Z0 F800
G1 X26.309 Y47.393 Z0 F800
G1 X26.444 Y47.354 Z0 F800
G1 X26.58 Z0 F800
G1 X26.71 Y47.392 Z0 F800
G1 X26.832 Y47.484 Z0 F800
G1 X26.981 Y47.682 Z0 F800
G1 X27.05 Y47.928 Z0 F800
G1 X27.046 Y48.188 Z0 F800
G1 X26.976 Y48.426 Z0 F800
G1 X26.713 Y48.716 Z0 F800
G1 X26.46 Y49.016 Z0 F800
G1 X26.227 Y49.33 Z0 F800
G1 X26.022 Y49.664 Z0 F800
G1 X25.842 Y49.878 Z0 F800
G1 X25.65 Y50.093 Z0 F800
G1 X25.435 Y50.274 Z0 F800
G1 X25.183 Y50.386 Z0 F800
G1 X24.924 Y50.397 Z0 F800
G1 X24.672 Y50.359 Z0 F800
G1 X24.443 Y50.257 Z0 F800
G1 X24.253 Y50.078 Z0 F800
G1 X24.149 Y49.667 Z0 F800
G1 X24.127 Y49.239 Z0 F800
G1 X24.134 Y48.805 Z0 F800
G1 X24.12 Y48.377 Z0 F800
G1 X24.072 Y48.054 Z0 F800
G1 X23.948 Y47.737 Z0 F800
G1 X23.855 Y47.599 Z0 F800
G1 X23.741 Y47.485 Z0 F800
G1 X23.604 Y47.403 Z0 F800
G1 X23.442 Y47.359 Z0 F800
G1 X23.224 Y47.413 Z0 F800
G1 X23.032 Y47.514 Z0 F800
G1 X22.866 Y47.652 Z0 F800
G1 X22.724 Y47.821 Z0 F800
G1 X22.501 Y48.214 Z0 F800
G1 X22.351 Y48.626 Z0 F800
G1 X22.25 Y48.997 Z0 F800
G1 X22.184 Y49.375 Z0 F800
G1 X22.152 Y49.759 Z0 F800
G1 X22.157 Y50.145 Z0 F800
G1 X22.197 Y50.527 Z0 F800
G1 X22.273 Y50.904 Z0 F800
G1 X22.387 Y51.271 Z0 F800
G1 X22.537 Y51.624 Z0 F800
G1 X22.681 Y51.818 Z0 F800
G1 X22.845 Y51.997 Z0 F800
G1 X23.026 Y52.157 Z0 F800
G1 X23.224 Y52.294 Z0 F800
G1 X23.436 Y52.406 Z0 F800
G1 X23.661 Y52.491 Z0 F800
G1 X23.896 Y52.544 Z0 F800
G1 X24.14 Y52.564 Z0 F800
G1 X24.937 Y52.599 Z0 F800
G1 X25.742 Y52.592 Z0 F800
G1 X26.14 Y52.551 Z0 F800
G1 X26.529 Y52.474 Z0 F800
G1 X26.906 Y52.352 Z0 F800
G1 X27.268 Y52.175 Z0 F800
G1 X27.469 Y52.037 Z0 F800
G1 X27.647 Y51.875 Z0 F800
G1 X27.802 Y51.691 Z0 F800
G1 X27.931 Y51.489 Z0 F800
G1 X28.034 Y51.272 Z0 F800
G1 X28.11 Y51.043 Z0 F800
G1 X28.158 Y50.807 Z0 F800
G1 X28.175 Y50.564 Z0 F800
G1 X28.195 Y50.233 Z0 F800
G1 X28.243 Y49.902 Z0 F800
G1 X28.291 Y49.746 Z0 F800
G1 X28.364 Y49.604 Z0 F800
G1 X28.467 Y49.478 Z0 F800
G1 X28.605 Y49.373 Z0 F800
G1 X28.761 Y49.262 Z0 F800
G1 X28.928 Y49.201 Z0 F800
G1 X29.1 Y49.184 Z0 F800
G1 X29.274 Y49.205 Z0 F800
G1 X29.611 Y49.337 Z0 F800
G1 X29.901 Y49.553 Z0 F800
G1 X30.226 Y49.808 Z0 F800
G1 X30.53 Y50.085 Z0 F800
G1 X30.803 Y50.391 Z0 F800
G1 X31.034 Y50.734 Z0 F800
G1 X31.22 Y50.968 Z0 F800
G1 X31.429 Y51.188 Z0 F800
G1 X31.659 Y51.388 Z0 F800
G1 X31.908 Y51.561 Z0 F800
G1 X32.174 Y51.699 Z0 F800
G1 X32.456 Y51.797 Z0 F800
G1 X32.75 Y51.847 Z0 F800
G1 X33.057 Y51.843 Z0 F800
G1 X33.488 Y51.819 Z0 F800
G1 X33.93 Y51.735 Z0 F800
G1 X34.133 Y51.656 Z0 F800
G1 X34.315 Y51.545 Z0 F800
G1 X34.467 Y51.397 Z0 F800
G1 X34.581 Y51.205 Z0 F800
G1 X34.615 Y51.042 Z0 F800
G1 X34.608 Y50.88 Z0 F800
G1 X34.565 Y50.727 Z0 F800
G1 X34.489 Y50.585 Z0 F800
G1 X34.386 Y50.459 Z0 F800
G1 X34.26 Y50.355 Z0 F800
G1 X34.116 Y50.277 Z0 F800
G1 X33.412 Y50.057 Z0 F800
G1 X32.88 Y49.837 Z0 F800
G1 X32.384 Y49.554 Z0 F800
G1 X31.945 Y49.193 Z0 F800
G1 X31.683 Y48.937 Z0 F800
G1 X31.457 Y48.648 Z0 F800
G1 X31.372 Y48.489 Z0 F800
G1 X31.313 Y48.321 Z0 F800
G1 X31.285 Y48.143 Z0 F800
G1 X31.296 Y47.953 Z0 F800
G1 X31.293 Y47.795 Z0 F800
G1 X31.32 Y47.645 Z0 F800
G1 X31.373 Y47.505 Z0 F800
G1 X31.449 Y47.376 Z0 F800
G1 X31.66 Y47.162 Z0 F800
G1 X32.213 Y46.862 Z0 F800
G1 X32.433 Y46.634 Z0 F800
G1 X32.511 Y46.498 Z0 F800
G1 X32.564 Y46.349 Z0 F800
G1 X32.589 Y46.192 Z0 F800
G1 X32.583 Y46.027 Z0 F800
G1 X32.526 Y45.397 Z0 F800
G1 X32.445 Y44.766 Z0 F800
G1 X32.314 Y44.146 Z0 F800
G1 X32.104 Y43.549 Z0 F800
G1 X31.96 Y43.328 Z0 F800
G1 X31.782 Y43.145 Z0 F800
G1 X31.578 Y42.99 Z0 F800
G1 X31.357 Y42.853 Z0 F800
G1 X30.901 Y42.592 Z0 F800
G1 X30.485 Y42.281 Z0 F800
G1 X30.214 Y42.034 Z0 F800
G1 X29.972 Y41.751 Z0 F800
G1 X29.878 Y41.596 Z0 F800
G1 X29.811 Y41.431 Z0 F800
G1 X29.777 Y41.255 Z0 F800
G1 X29.783 Y41.07 Z0 F800
G1 X29.777 Y40.512 Z0 F800
G1 X29.786 Y39.952 Z0 F800
G1 X29.811 Y39.676 Z0 F800
G1 X29.86 Y39.403 Z0 F800
G1 X29.938 Y39.137 Z0 F800
G1 X30.052 Y38.878 Z0 F800
G1 X30.291 Y38.352 Z0 F800
G1 X30.573 Y37.846 Z0 F800
G1 X30.854 Y37.341 Z0 F800
G1 X31.085 Y36.813 Z0 F800
G1 X31.151 Y36.566 Z0 F800
G1 X31.172 Y36.319 Z0 F800
G1 X31.161 Y36.07 Z0 F800
G1 X31.131 Y35.821 Z0 F800
G1 X31.064 Y35.323 Z0 F800
G1 X31.074 Y34.827 Z0 F800
G1 X31.144 Y34.656 Z0 F800
G1 X31.243 Y34.499 Z0 F800
G1 X31.366 Y34.36 Z0 F800
G1 X31.51 Y34.246 Z0 F800
G1 X31.67 Y34.16 Z0 F800
G1 X31.844 Y34.108 Z0 F800
G1 X32.027 Y34.094 Z0 F800
G1 X32.215 Y34.123 Z0 F800
G1 X32.485 Y34.21 Z0 F800
G1 X32.73 Y34.342 Z0 F800
G1 X32.949 Y34.514 Z0 F800
G1 X33.143 Y34.717 Z0 F800
G1 X33.31 Y34.946 Z0 F800
G1 X33.45 Y35.194 Z0 F800
G1 X33.563 Y35.454 Z0 F800
G1 X33.647 Y35.718 Z0 F800
G1 X33.755 Y36 Z0 F800
G1 X33.93 Y36.256 Z0 F800
G1 X34.042 Y36.353 Z0 F800
G1 X34.169 Y36.417 Z0 F800
G1 X34.313 Y36.439 Z0 F800
G1 X34.472 Y36.412 Z0 F800
G1 X34.709 Y36.304 Z0 F800
G1 X34.926 Y36.16 Z0 F800
G1 X35.138 Y36.006 Z0 F800
G1 X35.36 Y35.869 Z0 F800
G1 Y36.164 Z0 F800
G1 X35.324 Y36.294 Z0 F800
G1 X35.213 Y36.391 Z0 F800
G1 X34.939 Y36.68 Z0 F800
G1 X34.636 Y36.963 Z0 F800
G1 X34.469 Y37.075 Z0 F800
G1 X34.291 Y37.152 Z0 F800
G1 X34.1 Y37.185 Z0 F800
G1 X33.894 Y37.16 Z0 F800
G1 X33.765 Y37.102 Z0 F800
G1 X33.654 Y37.022 Z0 F800
G1 X33.562 Y36.924 Z0 F800
G1 X33.487 Y36.812 Z0 F800
G1 X33.392 Y36.554 Z0 F800
G1 X33.367 Y36.278 Z0 F800
G1 X33.327 Y35.815 Z0 F800
G1 X33.238 Y35.348 Z0 F800
G1 X33.158 Y35.131 Z0 F800
G1 X33.043 Y34.935 Z0 F800
G1 X32.889 Y34.767 Z0 F800
G1 X32.686 Y34.635 Z0 F800
G1 X32.482 Y34.525 Z0 F800
G1 X32.261 Y34.487 Z0 F800
G1 X32.038 Y34.511 Z0 F800
G1 X31.827 Y34.592 Z0 F800
G1 X31.642 Y34.721 Z0 F800
G1 X31.499 Y34.892 Z0 F800
G1 X31.41 Y35.096 Z0 F800
G1 X31.393 Y35.326 Z0 F800
G1 X31.431 Y35.733 Z0 F800
G1 X31.465 Y36.143 Z0 F800
G1 X31.462 Y36.345 Z0 F800
G1 X31.437 Y36.545 Z0 F800
G1 X31.381 Y36.74 Z0 F800
G1 X31.288 Y36.929 Z0 F800
G1 X30.936 Y37.62 Z0 F800
G1 X30.56 Y38.302 Z0 F800
G1 X30.389 Y38.65 Z0 F800
G1 X30.241 Y39.006 Z0 F800
G1 X30.128 Y39.375 Z0 F800
G1 X30.06 Y39.761 Z0 F800
G1 X30.031 Y40.243 Z0 F800
G1 X30.013 Y40.729 Z0 F800
G1 X30.036 Y41.211 Z0 F800
G1 X30.131 Y41.684 Z0 F800
G1 X30.31 Y41.951 Z0 F800
G1 X30.538 Y42.163 Z0 F800
G1 X30.801 Y42.335 Z0 F800
G1 X31.084 Y42.487 Z0 F800
G1 X31.371 Y42.635 Z0 F800
G1 X31.647 Y42.797 Z0 F800
G1 X31.898 Y42.989 Z0 F800
G1 X32.108 Y43.229 Z0 F800
G1 X32.258 Y43.425 Z0 F800
G1 X32.381 Y43.636 Z0 F800
G1 X32.483 Y43.858 Z0 F800
G1 X32.565 Y44.089 Z0 F800
G1 X32.686 Y44.568 Z0 F800
G1 X32.767 Y45.051 Z0 F800
G1 X32.804 Y45.418 Z0 F800
G1 X32.875 Y45.787 Z0 F800
G1 X32.983 Y46.148 Z0 F800
G1 X33.132 Y46.493 Z0 F800
G1 X33.322 Y46.812 Z0 F800
G1 X33.557 Y47.094 Z0 F800
G1 X33.84 Y47.332 Z0 F800
G1 X34.172 Y47.515 Z0 F800
G1 X34.688 Y47.712 Z0 F800
G1 X35.226 Y47.843 Z0 F800
G1 X35.499 Y47.873 Z0 F800
G1 X35.772 Z0 F800
G1 X36.045 Y47.835 Z0 F800
G1 X36.314 Y47.759 Z0 F800
G1 X36.907 Y47.654 Z0 F800
G1 X37.511 Y47.563 Z0 F800
G1 X37.813 Y47.546 Z0 F800
G1 X38.11 Y47.561 Z0 F800
G1 X38.403 Y47.618 Z0 F800
G1 X38.688 Y47.726 Z0 F800
G1 X38.858 Y47.872 Z0 F800
G1 X39.001 Y48.042 Z0 F800
G1 X39.119 Y48.23 Z0 F800
G1 X39.215 Y48.435 Z0 F800
G1 X39.353 Y48.868 Z0 F800
G1 X39.437 Y49.305 Z0 F800
G1 X39.441 Y49.492 Z0 F800
G1 X39.402 Y49.667 Z0 F800
G1 X39.326 Y49.825 Z0 F800
G1 X39.217 Y49.964 Z0 F800
G1 X39.083 Y50.081 Z0 F800
G1 X38.927 Y50.17 Z0 F800
G1 X38.756 Y50.23 Z0 F800
G1 X38.576 Y50.258 Z0 F800
G1 X38.327 Y50.289 Z0 F800
G1 X38.08 Y50.274 Z0 F800
G1 X37.85 Y50.199 Z0 F800
G1 X37.649 Y50.045 Z0 F800
G1 X37.49 Y49.893 Z0 F800
G1 X37.361 Y49.721 Z0 F800
G1 X37.254 Y49.535 Z0 F800
G1 X37.162 Y49.339 Z0 F800
G1 X36.989 Y48.94 Z0 F800
G1 X36.78 Y48.564 Z0 F800
G1 X36.61 Y48.447 Z0 F800
G1 X36.424 Y48.37 Z0 F800
G1 X36.227 Y48.325 Z0 F800
G1 X36.022 Y48.303 Z0 F800
G1 X35.603 Y48.295 Z0 F800
G1 X35.195 Y48.278 Z0 F800
G1 X34.928 Z0 F800
G1 X34.667 Y48.252 Z0 F800
G1 X34.417 Y48.182 Z0 F800
G1 X34.184 Y48.051 Z0 F800
G1 X33.856 Y47.891 Z0 F800
G1 X33.534 Y47.711 Z0 F800
G0 Z3.5 F500
G0 X38.401 Y54.279 Z3.5 
G1 Z0 F500
G1 X38.427 Y54.561 Z0 F800
G1 X38.422 Y54.816 Z0 F800
G1 Y54.822 Z0 F800
G1 X38.418 Z0 F800
G1 X38.392 Y54.838 Z0 F800
G1 X38.105 Y54.58 Z0 F800
G1 X38.24 Y54.455 Z0 F800
G1 X38.389 Y54.222 Z0 F800
G1 X38.401 Y54.279 Z0 F800
G0 Z3.5 F500
G0 X38.628 Y55.165 Z3.5 
G1 Z0 F500
G1 X38.479 Y55.245 Z0 F800
G1 X38.349 Y55.267 Z0 F800
G1 X38.314 Y55.264 Z0 F800
G1 X38.271 Y55.251 Z0 F800
G1 X38.235 Y55.232 Z0 F800
G1 X38.176 Y55.182 Z0 F800
G1 X37.75 Y54.798 Z0 F800
G1 X37.461 Y54.513 Z0 F800
G1 X37.736 Y54.376 Z0 F800
G1 X37.931 Y54.196 Z0 F800
G1 X38.065 Y53.986 Z0 F800
G1 X38.152 Y53.751 Z0 F800
G1 X38.2 Y53.331 Z0 F800
G1 X38.155 Y52.966 Z0 F800
G1 X38.13 Y52.724 Z0 F800
G1 X38.171 Y52.516 Z0 F800
G1 X38.196 Y52.464 Z0 F800
G1 X38.229 Y52.423 Z0 F800
G1 X38.259 Y52.402 Z0 F800
G1 X38.269 Y52.398 Z0 F800
G1 X38.302 Y52.403 Z0 F800
G1 X38.38 Y52.431 Z0 F800
G1 X38.452 Y52.475 Z0 F800
G1 X38.522 Y52.54 Z0 F800
G1 X38.574 Y52.61 Z0 F800
G1 X38.609 Y52.686 Z0 F800
G1 X38.627 Y52.765 Z0 F800
G1 Y53.24 Z0 F800
G1 X38.672 Y53.599 Z0 F800
G1 X38.797 Y54.222 Z0 F800
G1 X38.828 Y54.549 Z0 F800
G1 X38.821 Y54.863 Z0 F800
G1 X38.799 Y54.964 Z0 F800
G1 X38.766 Y55.041 Z0 F800
G1 X38.719 Y55.1 Z0 F800
G1 X38.628 Y55.165 Z0 F800
G0 Z3.5 F500
G0 X46.456 Y45.047 Z3.5 
G1 Z0 F500
G1 X46.611 Y44.871 Z0 F800
G1 X46.784 Y44.706 Z0 F800
G1 X46.945 Y44.6 Z0 F800
G1 X46.975 Y44.587 Z0 F800
G1 X47.008 Y44.58 Z0 F800
G1 X47.022 Z0 F800
G1 X47.058 Y44.584 Z0 F800
G1 X47.375 Y44.681 Z0 F800
G1 X47.678 Y44.824 Z0 F800
G1 X47.778 Y44.889 Z0 F800
G1 X47.876 Y44.971 Z0 F800
G1 X47.926 Y45.024 Z0 F800
G1 X47.919 Y45.078 Z0 F800
G1 X47.885 Y45.17 Z0 F800
G1 X47.828 Y45.26 Z0 F800
G1 X47.761 Y45.328 Z0 F800
G1 X47.699 Y45.367 Z0 F800
G1 X47.652 Y45.381 Z0 F800
G1 X47.581 Z0 F800
G1 X47.25 Y45.313 Z0 F800
G1 X46.827 Y45.159 Z0 F800
G1 X46.546 Y45.067 Z0 F800
G1 X46.456 Y45.047 Z0 F800
G0 Z3.5 F500
G0 X45.961 Y45.003 Z3.5 
G1 Z0 F500
G1 X46.322 Y44.593 Z0 F800
G1 X46.532 Y44.393 Z0 F800
G1 X46.76 Y44.243 Z0 F800
G1 X46.85 Y44.206 Z0 F800
G1 X46.948 Y44.182 Z0 F800
G1 X47.042 Y44.177 Z0 F800
G1 X47.148 Y44.193 Z0 F800
G1 X47.516 Y44.305 Z0 F800
G1 X47.873 Y44.474 Z0 F800
G1 X48.017 Y44.568 Z0 F800
G1 X48.153 Y44.681 Z0 F800
G1 X48.265 Y44.801 Z0 F800
G1 X48.319 Y44.879 Z0 F800
G1 X48.333 Y45 Z0 F800
G1 X48.31 Y45.175 Z0 F800
G1 X48.245 Y45.35 Z0 F800
G1 X48.143 Y45.51 Z0 F800
G1 X48.013 Y45.642 Z0 F800
G1 X47.87 Y45.732 Z0 F800
G1 X47.716 Y45.78 Z0 F800
G1 X47.544 Y45.783 Z0 F800
G1 X47.138 Y45.698 Z0 F800
G1 X46.696 Y45.538 Z0 F800
G1 X46.439 Y45.453 Z0 F800
G1 X46.155 Y45.39 Z0 F800
G1 X45.843 Y45.369 Z0 F800
G1 X45.693 Y45.391 Z0 F800
G1 X45.961 Y45.003 Z0 F800
G0 Z3.5 F500
G0 X42.392 Y47.345 Z3.5 
G1 Z0 F500
G1 X42.2 Y47.468 Z0 F800
G1 X42.01 Y47.648 Z0 F800
G1 X42.017 Y47.584 Z0 F800
G1 X42.001 Y47.353 Z0 F800
G1 X41.981 Y47.283 Z0 F800
G1 X41.994 Y47.287 Z0 F800
G1 X42.348 Y47.345 Z0 F800
G1 X42.392 Z0 F800
G0 Z3.5 F500
G0 X35.798 Y39.309 Z3.5 
G1 Z0 F500
G1 X35.786 Y39.322 Z0 F800
G1 X35.713 Y39.361 Z0 F800
G1 X35.705 Y39.365 Z0 F800
G1 X35.798 Y39.309 Z0 F800
G0 Z3.5 F500
G0 X36.307 Y38.899 Z3.5 
G1 Z0 F500
G1 X36.266 Y39.235 Z0 F800
G1 X36.217 Y39.391 Z0 F800
G1 X36.141 Y39.529 Z0 F800
G1 X36.031 Y39.643 Z0 F800
G1 X35.881 Y39.726 Z0 F800
G1 X35.724 Y39.785 Z0 F800
G1 X35.57 Y39.798 Z0 F800
G1 X35.422 Y39.773 Z0 F800
G1 X35.278 Y39.717 Z0 F800
G1 X35.012 Y39.542 Z0 F800
G1 X34.776 Y39.332 Z0 F800
G1 X34.414 Y39.04 Z0 F800
G1 X33.997 Y38.823 Z0 F800
G1 X33.776 Y38.761 Z0 F800
G1 X33.549 Y38.74 Z0 F800
G1 X33.321 Y38.767 Z0 F800
G1 X33.094 Y38.848 Z0 F800
G1 X32.903 Y38.963 Z0 F800
G1 X32.76 Y39.124 Z0 F800
G1 X32.665 Y39.317 Z0 F800
G1 X32.62 Y39.529 Z0 F800
G1 X32.626 Y39.745 Z0 F800
G1 X32.684 Y39.953 Z0 F800
G1 X32.795 Y40.138 Z0 F800
G1 X32.96 Y40.287 Z0 F800
G1 X33.476 Y40.688 Z0 F800
G1 X33.697 Y40.92 Z0 F800
G1 X33.84 Y41.215 Z0 F800
G1 X34.134 Y42.066 Z0 F800
G1 X34.399 Y42.935 Z0 F800
G1 X34.554 Y43.358 Z0 F800
G1 X34.738 Y43.767 Z0 F800
G1 X34.967 Y44.153 Z0 F800
G1 X35.251 Y44.51 Z0 F800
G1 X35.602 Y44.889 Z0 F800
G1 X35.98 Y45.259 Z0 F800
G1 X36.187 Y45.417 Z0 F800
G1 X36.408 Y45.544 Z0 F800
G1 X36.648 Y45.629 Z0 F800
G1 X36.909 Y45.664 Z0 F800
G1 X37.406 Y45.568 Z0 F800
G1 X37.892 Y45.41 Z0 F800
G1 X38.135 Y45.337 Z0 F800
G1 X38.381 Y45.284 Z0 F800
G1 X38.632 Y45.262 Z0 F800
G1 X38.89 Y45.283 Z0 F800
G1 X39.125 Y45.293 Z0 F800
G1 X39.352 Y45.337 Z0 F800
G1 X39.572 Y45.409 Z0 F800
G1 X39.785 Y45.503 Z0 F800
G1 X40.193 Y45.739 Z0 F800
G1 X40.579 Y46.002 Z0 F800
G1 X41.046 Y46.36 Z0 F800
G1 X41.548 Y46.681 Z0 F800
G1 X41.813 Y46.806 Z0 F800
G1 X42.09 Y46.897 Z0 F800
G1 X42.378 Y46.945 Z0 F800
G1 X42.678 Y46.941 Z0 F800
G1 X42.944 Z0 F800
G1 X43.205 Y46.91 Z0 F800
G1 X43.46 Y46.845 Z0 F800
G1 X43.708 Y46.753 Z0 F800
G1 X44.176 Y46.5 Z0 F800
G1 X44.599 Y46.184 Z0 F800
G1 X44.979 Y45.729 Z0 F800
G1 X45.312 Y45.24 Z0 F800
G1 X45.646 Y44.756 Z0 F800
G1 X46.034 Y44.316 Z0 F800
G1 X46.283 Y44.078 Z0 F800
G1 X46.571 Y43.889 Z0 F800
G1 X46.727 Y43.824 Z0 F800
G1 X46.891 Y43.785 Z0 F800
G1 X47.061 Y43.776 Z0 F800
G1 X47.237 Y43.802 Z0 F800
G1 X47.661 Y43.931 Z0 F800
G1 X48.068 Y44.124 Z0 F800
G1 X48.256 Y44.246 Z0 F800
G1 X48.427 Y44.388 Z0 F800
G1 X48.579 Y44.55 Z0 F800
G1 X48.705 Y44.734 Z0 F800
G1 X48.736 Y45.003 Z0 F800
G1 X48.7 Y45.272 Z0 F800
G1 X48.605 Y45.529 Z0 F800
G1 X48.458 Y45.761 Z0 F800
G1 X48.266 Y45.955 Z0 F800
G1 X48.039 Y46.099 Z0 F800
G1 X47.782 Y46.179 Z0 F800
G1 X47.505 Y46.184 Z0 F800
G1 X47.03 Y46.084 Z0 F800
G1 X46.565 Y45.916 Z0 F800
G1 X46.333 Y45.839 Z0 F800
G1 X46.098 Y45.787 Z0 F800
G1 X45.859 Y45.771 Z0 F800
G1 X45.613 Y45.806 Z0 F800
G1 X45.252 Y46.143 Z0 F800
G1 X44.9 Y46.496 Z0 F800
G1 X44.534 Y46.83 Z0 F800
G1 X44.13 Y47.111 Z0 F800
G1 X43.555 Y47.297 Z0 F800
G1 X42.971 Y47.495 Z0 F800
G1 X42.698 Y47.623 Z0 F800
G1 X42.448 Y47.784 Z0 F800
G1 X42.231 Y47.989 Z0 F800
G1 X42.056 Y48.247 Z0 F800
G1 X41.987 Y48.474 Z0 F800
G1 X41.997 Y48.695 Z0 F800
G1 X42.072 Y48.902 Z0 F800
G1 X42.202 Y49.087 Z0 F800
G1 X42.374 Y49.242 Z0 F800
G1 X42.576 Y49.358 Z0 F800
G1 X42.796 Y49.427 Z0 F800
G1 X43.022 Y49.441 Z0 F800
G1 X43.325 Y49.422 Z0 F800
G1 X43.615 Y49.359 Z0 F800
G1 X43.895 Y49.263 Z0 F800
G1 X44.167 Y49.141 Z0 F800
G1 X44.696 Y48.856 Z0 F800
G1 X45.223 Y48.577 Z0 F800
G1 X45.546 Y48.486 Z0 F800
G1 X45.886 Y48.44 Z0 F800
G1 X46.223 Y48.459 Z0 F800
G1 X46.539 Y48.565 Z0 F800
G1 X46.664 Y48.683 Z0 F800
G1 X46.741 Y48.824 Z0 F800
G1 X46.778 Y48.98 Z0 F800
G1 X46.784 Y49.148 Z0 F800
G1 X46.73 Y49.494 Z0 F800
G1 X46.642 Y49.815 Z0 F800
G1 X46.448 Y50.243 Z0 F800
G1 X46.184 Y50.636 Z0 F800
G1 X45.858 Y50.979 Z0 F800
G1 X45.48 Y51.255 Z0 F800
G1 X44.888 Y51.403 Z0 F800
G1 X44.284 Y51.49 Z0 F800
G1 X43.675 Y51.51 Z0 F800
G1 X43.068 Y51.456 Z0 F800
G1 X42.82 Y51.398 Z0 F800
G1 X42.559 Y51.373 Z0 F800
G1 X42.294 Y51.381 Z0 F800
G1 X42.035 Y51.426 Z0 F800
G1 X41.789 Y51.51 Z0 F800
G1 X41.567 Y51.636 Z0 F800
G1 X41.376 Y51.805 Z0 F800
G1 X41.228 Y52.022 Z0 F800
G1 X41.178 Y52.222 Z0 F800
G1 X41.189 Y52.409 Z0 F800
G1 X41.247 Y52.586 Z0 F800
G1 X41.34 Y52.755 Z0 F800
G1 X41.581 Y53.077 Z0 F800
G1 X41.81 Y53.389 Z0 F800
G1 X41.949 Y53.642 Z0 F800
G1 X42.04 Y53.909 Z0 F800
G1 X42.086 Y54.188 Z0 F800
G1 X42.096 Y54.472 Z0 F800
G1 X42.029 Y55.045 Z0 F800
G1 X41.89 Y55.596 Z0 F800
G1 X41.737 Y55.898 Z0 F800
G1 X41.557 Y56.182 Z0 F800
G1 X41.353 Y56.449 Z0 F800
G1 X41.13 Y56.704 Z0 F800
G1 X40.652 Y57.186 Z0 F800
G1 X40.165 Y57.651 Z0 F800
G1 X39.886 Y57.88 Z0 F800
G1 X39.575 Y58.049 Z0 F800
G1 X39.239 Y58.154 Z0 F800
G1 X38.885 Y58.193 Z0 F800
G1 X38.781 Z0 F800
G1 X38.677 Y58.186 Z0 F800
G1 X38.325 Y58.175 Z0 F800
G1 X37.979 Y58.12 Z0 F800
G1 X37.642 Y58.024 Z0 F800
G1 X37.318 Y57.89 Z0 F800
G1 X37.009 Y57.722 Z0 F800
G1 X36.72 Y57.521 Z0 F800
G1 X36.454 Y57.292 Z0 F800
G1 X36.214 Y57.038 Z0 F800
G1 X35.806 Y56.407 Z0 F800
G1 X35.464 Y55.733 Z0 F800
G1 X35.331 Y55.381 Z0 F800
G1 X35.23 Y55.021 Z0 F800
G1 X35.168 Y54.654 Z0 F800
G1 X35.15 Y54.279 Z0 F800
G1 X35.147 Y54.029 Z0 F800
G1 X35.213 Y53.771 Z0 F800
G1 X35.276 Y53.665 Z0 F800
G1 X35.363 Y53.586 Z0 F800
G1 X35.474 Y53.548 Z0 F800
G1 X35.612 Y53.558 Z0 F800
G1 X36.057 Y53.675 Z0 F800
G1 X36.482 Y53.859 Z0 F800
G1 X36.91 Y54.032 Z0 F800
G1 X37.356 Y54.118 Z0 F800
G1 X37.506 Y54.043 Z0 F800
G1 X37.622 Y53.937 Z0 F800
G1 X37.705 Y53.807 Z0 F800
G1 X37.76 Y53.658 Z0 F800
G1 X37.797 Y53.333 Z0 F800
G1 X37.758 Y53.015 Z0 F800
G1 X37.726 Y52.706 Z0 F800
G1 X37.788 Y52.389 Z0 F800
G1 X37.857 Y52.248 Z0 F800
G1 X37.953 Y52.129 Z0 F800
G1 X38.077 Y52.041 Z0 F800
G1 X38.229 Y51.991 Z0 F800
G1 X38.396 Y52.011 Z0 F800
G1 X38.553 Y52.068 Z0 F800
G1 X38.696 Y52.156 Z0 F800
G1 X38.819 Y52.27 Z0 F800
G1 X38.919 Y52.405 Z0 F800
G1 X38.99 Y52.557 Z0 F800
G1 X39.027 Y52.72 Z0 F800
G1 Y53.215 Z0 F800
G1 X39.067 Y53.534 Z0 F800
G1 X39.194 Y54.167 Z0 F800
G1 X39.228 Y54.533 Z0 F800
G1 X39.22 Y54.91 Z0 F800
G1 X39.182 Y55.087 Z0 F800
G1 X39.111 Y55.25 Z0 F800
G1 X38.999 Y55.391 Z0 F800
G1 X38.839 Y55.506 Z0 F800
G1 X38.611 Y55.627 Z0 F800
G1 X38.363 Y55.67 Z0 F800
G1 X38.24 Y55.659 Z0 F800
G1 X38.12 Y55.624 Z0 F800
G1 X38.009 Y55.564 Z0 F800
G1 X37.908 Y55.479 Z0 F800
G1 X37.473 Y55.087 Z0 F800
G1 X37.048 Y54.667 Z0 F800
G1 X36.823 Y54.48 Z0 F800
G1 X36.581 Y54.326 Z0 F800
G1 X36.314 Y54.218 Z0 F800
G1 X36.017 Y54.169 Z0 F800
G1 X35.849 Y54.216 Z0 F800
G1 X35.713 Y54.309 Z0 F800
G1 X35.61 Y54.436 Z0 F800
G1 X35.539 Y54.588 Z0 F800
G1 X35.499 Y54.756 Z0 F800
G1 X35.489 Y54.931 Z0 F800
G1 X35.509 Y55.103 Z0 F800
G1 X35.559 Y55.261 Z0 F800
G1 X35.72 Y55.677 Z0 F800
G1 X35.919 Y56.078 Z0 F800
G1 X36.156 Y56.458 Z0 F800
G1 X36.428 Y56.812 Z0 F800
G1 X36.735 Y57.135 Z0 F800
G1 X37.075 Y57.422 Z0 F800
G1 X37.446 Y57.669 Z0 F800
G1 X37.848 Y57.872 Z0 F800
G1 X38.253 Y58.006 Z0 F800
G1 X38.681 Y58.056 Z0 F800
G1 X38.895 Y58.042 Z0 F800
G1 X39.103 Y57.998 Z0 F800
G1 X39.301 Y57.921 Z0 F800
G1 X39.487 Y57.809 Z0 F800
G1 X40.039 Y57.399 Z0 F800
G1 X40.55 Y56.938 Z0 F800
G1 X41.022 Y56.437 Z0 F800
G1 X41.459 Y55.906 Z0 F800
G1 X41.596 Y55.693 Z0 F800
G1 X41.711 Y55.465 Z0 F800
G1 X41.803 Y55.225 Z0 F800
G1 X41.869 Y54.977 Z0 F800
G1 X41.908 Y54.724 Z0 F800
G1 X41.916 Y54.469 Z0 F800
G1 X41.892 Y54.217 Z0 F800
G1 X41.834 Y53.97 Z0 F800
G1 X41.626 Y53.592 Z0 F800
G1 X41.359 Y53.254 Z0 F800
G1 X41.082 Y52.923 Z0 F800
G1 X40.844 Y52.567 Z0 F800
G1 X40.822 Y52.207 Z0 F800
G1 X40.89 Y51.839 Z0 F800
G1 X40.967 Y51.678 Z0 F800
G1 X41.077 Y51.543 Z0 F800
G1 X41.225 Y51.446 Z0 F800
G1 X41.412 Y51.396 Z0 F800
G1 X41.973 Y51.285 Z0 F800
G1 X42.542 Y51.248 Z0 F800
G1 X43.112 Y51.276 Z0 F800
G1 X43.678 Y51.359 Z0 F800
G1 X44.046 Y51.379 Z0 F800
G1 X44.415 Y51.348 Z0 F800
G1 X44.775 Y51.267 Z0 F800
G1 X45.119 Y51.136 Z0 F800
G1 X45.439 Y50.957 Z0 F800
G1 X45.727 Y50.732 Z0 F800
G1 X45.975 Y50.461 Z0 F800
G1 X46.176 Y50.146 Z0 F800
G1 X46.323 Y49.862 Z0 F800
G1 X46.413 Y49.55 Z0 F800
G1 X46.421 Y49.394 Z0 F800
G1 X46.395 Y49.243 Z0 F800
G1 X46.329 Y49.102 Z0 F800
G1 X46.216 Y48.975 Z0 F800
G1 X46.049 Y48.851 Z0 F800
G1 X45.869 Y48.789 Z0 F800
G1 X45.679 Y48.777 Z0 F800
G1 X45.484 Y48.806 Z0 F800
G1 X45.1 Y48.948 Z0 F800
G1 X44.754 Y49.135 Z0 F800
G1 X44.459 Y49.28 Z0 F800
G1 X44.152 Y49.402 Z0 F800
G1 X43.834 Y49.5 Z0 F800
G1 X43.51 Y49.571 Z0 F800
G1 X43.182 Y49.612 Z0 F800
G1 X42.852 Y49.622 Z0 F800
G1 X42.523 Y49.597 Z0 F800
G1 X42.199 Y49.535 Z0 F800
G1 X41.879 Y49.335 Z0 F800
G1 X41.602 Y49.067 Z0 F800
G1 X41.498 Y48.91 Z0 F800
G1 X41.429 Y48.74 Z0 F800
G1 X41.401 Y48.557 Z0 F800
G1 X41.423 Y48.361 Z0 F800
G1 X41.519 Y48.055 Z0 F800
G1 X41.599 Y47.736 Z0 F800
G1 X41.615 Y47.577 Z0 F800
G1 X41.605 Y47.421 Z0 F800
G1 X41.562 Y47.269 Z0 F800
G1 X41.479 Y47.124 Z0 F800
G1 X41.015 Y46.696 Z0 F800
G1 X40.523 Y46.298 Z0 F800
G1 X40.005 Y45.937 Z0 F800
G1 X39.46 Y45.621 Z0 F800
G1 X39.229 Y45.525 Z0 F800
G1 X38.994 Y45.475 Z0 F800
G1 X38.754 Y45.462 Z0 F800
G1 X38.513 Y45.479 Z0 F800
G1 X38.032 Y45.575 Z0 F800
G1 X37.564 Y45.705 Z0 F800
G1 X37.181 Y45.737 Z0 F800
G1 X36.792 Y45.751 Z0 F800
G1 X36.408 Y45.721 Z0 F800
G1 X36.04 Y45.62 Z0 F800
G1 X35.733 Y45.386 Z0 F800
G1 X35.445 Y45.129 Z0 F800
G1 X35.177 Y44.851 Z0 F800
G1 X34.933 Y44.552 Z0 F800
G1 X34.715 Y44.234 Z0 F800
G1 X34.527 Y43.898 Z0 F800
G1 X34.371 Y43.545 Z0 F800
G1 X34.25 Y43.177 Z0 F800
G1 X34.061 Y42.509 Z0 F800
G1 X33.848 Y41.838 Z0 F800
G1 X33.708 Y41.521 Z0 F800
G1 X33.534 Y41.225 Z0 F800
G1 X33.315 Y40.96 Z0 F800
G1 X33.042 Y40.732 Z0 F800
G1 X32.73 Y40.508 Z0 F800
G1 X32.426 Y40.254 Z0 F800
G1 X32.303 Y40.108 Z0 F800
G1 X32.212 Y39.945 Z0 F800
G1 X32.164 Y39.764 Z0 F800
G1 X32.168 Y39.559 Z0 F800
G1 X32.186 Y39.307 Z0 F800
G1 X32.272 Y39.084 Z0 F800
G1 X32.416 Y38.894 Z0 F800
G1 X32.603 Y38.739 Z0 F800
G1 X32.822 Y38.621 Z0 F800
G1 X33.061 Y38.543 Z0 F800
G1 X33.307 Y38.507 Z0 F800
G1 X33.548 Y38.517 Z0 F800
G1 X33.946 Y38.571 Z0 F800
G1 X34.33 Y38.683 Z0 F800
G1 X34.698 Y38.842 Z0 F800
G1 X35.047 Y39.033 Z0 F800
G1 X35.209 Y39.068 Z0 F800
G1 X35.368 Y39.059 Z0 F800
G1 X35.516 Y39.012 Z0 F800
G1 X35.65 Y38.931 Z0 F800
G1 X35.764 Y38.823 Z0 F800
G1 X35.854 Y38.691 Z0 F800
G1 X35.913 Y38.542 Z0 F800
G1 X35.982 Y38.087 Z0 F800
G1 X36.054 Y37.827 Z0 F800
G1 X36.158 Y37.886 Z0 F800
G1 X36.233 Y37.959 Z0 F800
G1 X36.283 Y38.045 Z0 F800
G1 X36.313 Y38.141 Z0 F800
G1 X36.33 Y38.352 Z0 F800
G1 X36.315 Y38.573 Z0 F800
G1 X36.307 Y38.899 Z0 F800
G0 Z3.5 F500
G0 X51.279 Y48.694 Z3.5 
G1 Z0 F500
G1 X51.549 Y48.941 Z0 F800
G1 X51.621 Y49.011 Z0 F800
G1 X51.617 Y49.055 Z0 F800
G1 X51.609 Y49.061 Z0 F800
G1 X51.603 Z0 F800
G1 X51.499 Z0 F800
G1 X51.222 Y49.065 Z0 F800
G1 X51.237 Y48.863 Z0 F800
G1 X51.182 Y48.626 Z0 F800
G1 X51.279 Y48.694 Z0 F800
G0 Z3.5 F500
G0 X51.985 Y49.225 Z3.5 
G1 Z0 F500
G1 X51.94 Y49.296 Z0 F800
G1 X51.877 Y49.362 Z0 F800
G1 X51.805 Y49.412 Z0 F800
G1 X51.719 Y49.448 Z0 F800
G1 X51.637 Y49.465 Z0 F800
G1 X51.497 Y49.461 Z0 F800
G1 X51.029 Y49.469 Z0 F800
G1 X50.67 Y49.458 Z0 F800
G1 X50.732 Y49.368 Z0 F800
G1 X50.815 Y49.146 Z0 F800
G1 X50.833 Y48.894 Z0 F800
G1 X50.776 Y48.647 Z0 F800
G1 X50.654 Y48.4 Z0 F800
G1 X50.492 Y48.202 Z0 F800
G1 X50.322 Y48.05 Z0 F800
G1 X50.03 Y47.833 Z0 F800
G1 X49.914 Y47.735 Z0 F800
G1 X49.844 Y47.657 Z0 F800
G1 X49.791 Y47.563 Z0 F800
G1 X49.772 Y47.512 Z0 F800
G1 Y47.485 Z0 F800
G1 X49.78 Y47.452 Z0 F800
G1 X49.801 Y47.412 Z0 F800
G1 X49.833 Y47.377 Z0 F800
G1 X49.865 Y47.357 Z0 F800
G1 X49.895 Y47.348 Z0 F800
G1 X50 Z0 F800
G1 X50.159 Y47.335 Z0 F800
G1 X50.211 Y47.354 Z0 F800
G1 X50.308 Y47.428 Z0 F800
G1 X50.456 Y47.584 Z0 F800
G1 X50.822 Y47.895 Z0 F800
G1 X51.195 Y48.147 Z0 F800
G1 X51.532 Y48.383 Z0 F800
G1 X51.826 Y48.653 Z0 F800
G1 X51.944 Y48.766 Z0 F800
G1 X52.004 Y48.852 Z0 F800
G1 X52.025 Y48.914 Z0 F800
G1 X52.021 Y49.037 Z0 F800
G1 X52.01 Y49.153 Z0 F800
G1 X51.985 Y49.225 Z0 F800
G0 Z3.5 F500
G0 X50.382 Y36.396 Z3.5 
G1 Z0 F500
G1 X50.379 Y36.364 Z0 F800
G1 X50.383 Y35.994 Z0 F800
G1 X50.437 Y35.74 Z0 F800
G1 X50.457 Y35.712 Z0 F800
G1 X50.542 Y35.628 Z0 F800
G1 X50.658 Y35.547 Z0 F800
G1 X50.803 Y35.475 Z0 F800
G1 X50.965 Y35.419 Z0 F800
G1 X51.143 Y35.38 Z0 F800
G1 X51.333 Y35.359 Z0 F800
G1 X51.414 Z0 F800
G1 X51.466 Y35.45 Z0 F800
G1 X51.495 Y35.562 Z0 F800
G1 X51.5 Y35.666 Z0 F800
G1 X51.492 Y35.741 Z0 F800
G1 X51.451 Y35.787 Z0 F800
G1 X51.278 Y35.956 Z0 F800
G1 X51.098 Y36.067 Z0 F800
G1 X50.822 Y36.193 Z0 F800
G1 X50.434 Y36.359 Z0 F800
G1 X50.382 Y36.396 Z0 F800
G0 Z3.5 F500
G0 X50.032 Y36.853 Z3.5 
G1 Z0 F500
G1 X49.979 Y36.386 Z0 F800
G1 X49.983 Y35.948 Z0 F800
G1 X50.062 Y35.577 Z0 F800
G1 X50.148 Y35.454 Z0 F800
G1 X50.287 Y35.318 Z0 F800
G1 X50.456 Y35.201 Z0 F800
G1 X50.644 Y35.107 Z0 F800
G1 X50.859 Y35.033 Z0 F800
G1 X51.081 Y34.984 Z0 F800
G1 X51.305 Y34.96 Z0 F800
G1 X51.502 Z0 F800
G1 X51.558 Y34.972 Z0 F800
G1 X51.617 Y35.001 Z0 F800
G1 X51.678 Y35.049 Z0 F800
G1 X51.731 Y35.108 Z0 F800
G1 X51.84 Y35.299 Z0 F800
G1 X51.894 Y35.502 Z0 F800
G1 X51.9 Y35.675 Z0 F800
G1 X51.884 Y35.841 Z0 F800
G1 X51.845 Y35.946 Z0 F800
G1 X51.736 Y36.068 Z0 F800
G1 X51.526 Y36.273 Z0 F800
G1 X51.286 Y36.421 Z0 F800
G1 X50.986 Y36.558 Z0 F800
G1 X50.63 Y36.71 Z0 F800
G1 X50.31 Y36.938 Z0 F800
G1 X50.093 Y37.214 Z0 F800
G1 X50.032 Y36.853 Z0 F800
G0 Z3.5 F500
G0 X49.143 Y50.293 Z3.5 
G1 Z0 F500
G1 X49.12 Y50.374 Z0 F800
G1 Y50.549 Z0 F800
G1 X49.021 Y50.431 Z0 F800
G1 X49.007 Y50.397 Z0 F800
G1 X49.041 Y50.363 Z0 F800
G1 X49.143 Y50.293 Z0 F800
G0 Z3.5 F500
G0 X49.102 Y41.445 Z3.5 
G1 Z0 F500
G1 X48.993 Y41.319 Z0 F800
G1 X48.797 Y41.176 Z0 F800
G1 X48.77 Y41.163 Z0 F800
G1 X48.955 Y41.07 Z0 F800
G1 X49.136 Y40.929 Z0 F800
G1 X49.102 Y41.163 Z0 F800
G1 Y41.445 Z0 F800
G0 Z3.5 F500
G0 X49.081 Y42.153 Z3.5 
G1 Z0 F500
G1 X48.933 Y41.861 Z0 F800
G1 X48.72 Y41.615 Z0 F800
G1 X48.591 Y41.521 Z0 F800
G1 X48.448 Y41.452 Z0 F800
G1 X48.291 Y41.414 Z0 F800
G1 X48.121 Z0 F800
G1 X47.484 Y41.451 Z0 F800
G1 X46.848 Y41.529 Z0 F800
G1 X46.222 Y41.66 Z0 F800
G1 X45.617 Y41.861 Z0 F800
G1 X45.372 Y42.006 Z0 F800
G1 X45.171 Y42.192 Z0 F800
G1 X45.003 Y42.408 Z0 F800
G1 X44.855 Y42.645 Z0 F800
G1 X44.572 Y43.132 Z0 F800
G1 X44.228 Y43.568 Z0 F800
G1 X43.949 Y43.849 Z0 F800
G1 X43.625 Y44.074 Z0 F800
G1 X43.449 Y44.157 Z0 F800
G1 X43.263 Y44.212 Z0 F800
G1 X43.069 Y44.238 Z0 F800
G1 X42.867 Y44.229 Z0 F800
G1 X42.369 Y44.236 Z0 F800
G1 X41.871 Y44.209 Z0 F800
G1 X41.384 Y44.121 Z0 F800
G1 X40.918 Y43.942 Z0 F800
G1 X40.313 Y43.662 Z0 F800
G1 X39.729 Y43.334 Z0 F800
G1 X39.436 Y43.175 Z0 F800
G1 X39.136 Y43.032 Z0 F800
G1 X38.827 Y42.914 Z0 F800
G1 X38.503 Y42.83 Z0 F800
G1 X37.993 Y42.821 Z0 F800
G1 X37.477 Y42.907 Z0 F800
G1 X37.222 Y42.937 Z0 F800
G1 X36.973 Y42.932 Z0 F800
G1 X36.731 Y42.873 Z0 F800
G1 X36.501 Y42.74 Z0 F800
G1 X36.325 Y42.571 Z0 F800
G1 X36.189 Y42.374 Z0 F800
G1 X36.114 Y42.152 Z0 F800
G1 X36.12 Y41.907 Z0 F800
G1 X36.133 Y41.698 Z0 F800
G1 X36.191 Y41.506 Z0 F800
G1 X36.287 Y41.329 Z0 F800
G1 X36.412 Y41.166 Z0 F800
G1 X36.715 Y40.874 Z0 F800
G1 X37.031 Y40.616 Z0 F800
G1 X37.354 Y40.467 Z0 F800
G1 X37.698 Y40.358 Z0 F800
G1 X38.03 Y40.231 Z0 F800
G1 X38.319 Y40.027 Z0 F800
G1 X38.422 Y39.808 Z0 F800
G1 X38.437 Y39.574 Z0 F800
G1 X38.371 Y39.347 Z0 F800
G1 X38.234 Y39.147 Z0 F800
G1 X38.057 Y38.893 Z0 F800
G1 X37.896 Y38.63 Z0 F800
G1 X38.13 Y38.619 Z0 F800
G1 X38.327 Y38.698 Z0 F800
G1 X38.496 Y38.839 Z0 F800
G1 X38.651 Y39.013 Z0 F800
G1 X38.87 Y39.242 Z0 F800
G1 X39.067 Y39.498 Z0 F800
G1 X39.139 Y39.637 Z0 F800
G1 X39.181 Y39.784 Z0 F800
G1 X39.187 Y39.938 Z0 F800
G1 X39.149 Y40.101 Z0 F800
G1 X39.09 Y40.247 Z0 F800
G1 X39.002 Y40.364 Z0 F800
G1 X38.891 Y40.456 Z0 F800
G1 X38.761 Y40.526 Z0 F800
G1 X38.47 Y40.608 Z0 F800
G1 X38.17 Y40.632 Z0 F800
G1 X37.754 Y40.663 Z0 F800
G1 X37.344 Y40.752 Z0 F800
G1 X37.153 Y40.829 Z0 F800
G1 X36.977 Y40.933 Z0 F800
G1 X36.821 Y41.068 Z0 F800
G1 X36.69 Y41.239 Z0 F800
G1 X36.562 Y41.422 Z0 F800
G1 X36.499 Y41.631 Z0 F800
G1 X36.495 Y41.85 Z0 F800
G1 X36.545 Y42.063 Z0 F800
G1 X36.645 Y42.258 Z0 F800
G1 X36.79 Y42.42 Z0 F800
G1 X36.974 Y42.533 Z0 F800
G1 X37.192 Y42.583 Z0 F800
G1 X37.606 Y42.575 Z0 F800
G1 X38.023 Y42.529 Z0 F800
G1 X38.229 Y42.519 Z0 F800
G1 X38.434 Y42.53 Z0 F800
G1 X38.634 Y42.573 Z0 F800
G1 X38.831 Y42.658 Z0 F800
G1 X39.416 Y42.934 Z0 F800
G1 X39.981 Y43.247 Z0 F800
G1 X40.554 Y43.547 Z0 F800
G1 X41.155 Y43.787 Z0 F800
G1 X41.701 Y43.918 Z0 F800
G1 X42.26 Y43.966 Z0 F800
G1 X42.825 Y43.96 Z0 F800
G1 X43.386 Y43.935 Z0 F800
G1 X43.627 Y43.872 Z0 F800
G1 X43.839 Y43.763 Z0 F800
G1 X44.023 Y43.616 Z0 F800
G1 X44.184 Y43.439 Z0 F800
G1 X44.447 Y43.028 Z0 F800
G1 X44.654 Y42.595 Z0 F800
G1 X44.792 Y42.37 Z0 F800
G1 X44.955 Y42.161 Z0 F800
G1 X45.138 Y41.971 Z0 F800
G1 X45.341 Y41.801 Z0 F800
G1 X45.561 Y41.653 Z0 F800
G1 X45.795 Y41.531 Z0 F800
G1 X46.042 Y41.436 Z0 F800
G1 X46.299 Y41.37 Z0 F800
G1 X46.812 Y41.256 Z0 F800
G1 X47.334 Y41.187 Z0 F800
G1 X47.852 Y41.099 Z0 F800
G1 X48.35 Y40.926 Z0 F800
G1 X48.74 Y40.731 Z0 F800
G1 X49.08 Y40.464 Z0 F800
G1 X49.226 Y40.306 Z0 F800
G1 X49.354 Y40.132 Z0 F800
G1 X49.46 Y39.943 Z0 F800
G1 X49.545 Y39.74 Z0 F800
G1 X49.669 Y39.465 Z0 F800
G1 X49.761 Y39.18 Z0 F800
G1 X49.821 Y38.889 Z0 F800
G1 X49.852 Y38.592 Z0 F800
G1 X49.833 Y37.995 Z0 F800
G1 X49.719 Y37.406 Z0 F800
G1 X49.636 Y36.911 Z0 F800
G1 X49.579 Y36.407 Z0 F800
G1 X49.584 Y35.905 Z0 F800
G1 X49.688 Y35.415 Z0 F800
G1 X49.842 Y35.194 Z0 F800
G1 X50.032 Y35.008 Z0 F800
G1 X50.25 Y34.856 Z0 F800
G1 X50.492 Y34.736 Z0 F800
G1 X50.749 Y34.648 Z0 F800
G1 X51.015 Y34.589 Z0 F800
G1 X51.283 Y34.56 Z0 F800
G1 X51.547 Z0 F800
G1 X51.696 Y34.593 Z0 F800
G1 X51.832 Y34.661 Z0 F800
G1 X51.953 Y34.756 Z0 F800
G1 X52.058 Y34.872 Z0 F800
G1 X52.214 Y35.147 Z0 F800
G1 X52.291 Y35.442 Z0 F800
G1 X52.301 Y35.688 Z0 F800
G1 X52.277 Y35.932 Z0 F800
G1 X52.194 Y36.156 Z0 F800
G1 X52.028 Y36.342 Z0 F800
G1 X51.773 Y36.591 Z0 F800
G1 X51.475 Y36.774 Z0 F800
G1 X51.152 Y36.922 Z0 F800
G1 X50.827 Y37.061 Z0 F800
G1 X50.589 Y37.23 Z0 F800
G1 X50.411 Y37.457 Z0 F800
G1 X50.35 Y37.587 Z0 F800
G1 X50.312 Y37.725 Z0 F800
G1 X50.297 Y37.87 Z0 F800
G1 X50.309 Y38.019 Z0 F800
G1 X50.3 Y38.375 Z0 F800
G1 X50.307 Y38.736 Z0 F800
G1 X50.3 Y39.092 Z0 F800
G1 X50.249 Y39.438 Z0 F800
G1 X50.036 Y39.866 Z0 F800
G1 X49.8 Y40.29 Z0 F800
G1 X49.693 Y40.505 Z0 F800
G1 X49.603 Y40.726 Z0 F800
G1 X49.536 Y40.954 Z0 F800
G1 X49.501 Y41.191 Z0 F800
G1 Y41.525 Z0 F800
G1 X49.583 Y41.855 Z0 F800
G1 X49.659 Y42 Z0 F800
G1 X49.764 Y42.121 Z0 F800
G1 X49.9 Y42.211 Z0 F800
G1 X50.068 Y42.262 Z0 F800
G1 X50.309 Y42.29 Z0 F800
G1 X50.536 Y42.258 Z0 F800
G1 X50.749 Y42.176 Z0 F800
G1 X50.943 Y42.05 Z0 F800
G1 X51.118 Y41.892 Z0 F800
G1 X51.271 Y41.708 Z0 F800
G1 X51.397 Y41.508 Z0 F800
G1 X51.498 Y41.3 Z0 F800
G1 X51.718 Y40.718 Z0 F800
G1 X51.895 Y40.112 Z0 F800
G1 X52 Y39.818 Z0 F800
G1 X52.132 Y39.54 Z0 F800
G1 X52.305 Y39.285 Z0 F800
G1 X52.532 Y39.06 Z0 F800
G1 X52.644 Y38.969 Z0 F800
G1 X52.772 Y38.9 Z0 F800
G1 X52.911 Y38.856 Z0 F800
G1 X53.053 Y38.84 Z0 F800
G1 X53.193 Y38.854 Z0 F800
G1 X53.323 Y38.902 Z0 F800
G1 X53.437 Y38.985 Z0 F800
G1 X53.527 Y39.107 Z0 F800
G1 X53.729 Y39.37 Z0 F800
G1 X53.895 Y39.658 Z0 F800
G1 X54.023 Y39.966 Z0 F800
G1 X54.113 Y40.287 Z0 F800
G1 X54.162 Y40.617 Z0 F800
G1 X54.168 Y40.949 Z0 F800
G1 X54.131 Y41.277 Z0 F800
G1 X54.047 Y41.598 Z0 F800
G1 X53.654 Y42.195 Z0 F800
G1 X53.191 Y42.731 Z0 F800
G1 X52.668 Y43.211 Z0 F800
G1 X52.096 Y43.642 Z0 F800
G1 X51.858 Y43.927 Z0 F800
G1 X51.671 Y44.26 Z0 F800
G1 X51.608 Y44.438 Z0 F800
G1 X51.573 Y44.621 Z0 F800
G1 X51.569 Y44.806 Z0 F800
G1 X51.602 Y44.99 Z0 F800
G1 X51.689 Y45.162 Z0 F800
G1 X51.813 Y45.289 Z0 F800
G1 X51.964 Y45.379 Z0 F800
G1 X52.135 Y45.442 Z0 F800
G1 X52.507 Y45.519 Z0 F800
G1 X52.864 Y45.585 Z0 F800
G1 X53.193 Y45.644 Z0 F800
G1 X53.496 Y45.771 Z0 F800
G1 X53.763 Y45.962 Z0 F800
G1 X53.988 Y46.209 Z0 F800
G1 X54.32 Y46.6 Z0 F800
G1 X54.583 Y47.037 Z0 F800
G1 X54.684 Y47.27 Z0 F800
G1 X54.761 Y47.512 Z0 F800
G1 X54.812 Y47.763 Z0 F800
G1 X54.834 Y48.02 Z0 F800
G1 X54.869 Y48.62 Z0 F800
G1 X54.885 Y49.226 Z0 F800
G1 X54.849 Y49.827 Z0 F800
G1 X54.728 Y50.416 Z0 F800
G1 X54.581 Y50.708 Z0 F800
G1 X54.399 Y50.977 Z0 F800
G1 X54.186 Y51.222 Z0 F800
G1 X53.946 Y51.44 Z0 F800
G1 X53.682 Y51.63 Z0 F800
G1 X53.398 Y51.791 Z0 F800
G1 X53.098 Y51.918 Z0 F800
G1 X52.786 Y52.012 Z0 F800
G1 X52.34 Y52.1 Z0 F800
G1 X51.885 Y52.125 Z0 F800
G1 X51.22 Y52.053 Z0 F800
G1 X50.563 Y51.889 Z0 F800
G1 X49.932 Y51.638 Z0 F800
G1 X49.348 Y51.301 Z0 F800
G1 X49.11 Y51.095 Z0 F800
G1 X48.873 Y50.88 Z0 F800
G1 X48.675 Y50.64 Z0 F800
G1 X48.553 Y50.352 Z0 F800
G1 X48.652 Y50.187 Z0 F800
G1 X48.783 Y50.055 Z0 F800
G1 X48.938 Y49.948 Z0 F800
G1 X49.11 Y49.862 Z0 F800
G1 X49.479 Y49.72 Z0 F800
G1 X49.83 Y49.578 Z0 F800
G1 X50.084 Y49.471 Z0 F800
G1 X50.299 Y49.293 Z0 F800
G1 X50.375 Y49.182 Z0 F800
G1 X50.42 Y49.059 Z0 F800
G1 X50.43 Y48.925 Z0 F800
G1 X50.397 Y48.782 Z0 F800
G1 X50.316 Y48.618 Z0 F800
G1 X50.203 Y48.48 Z0 F800
G1 X50.069 Y48.361 Z0 F800
G1 X49.776 Y48.142 Z0 F800
G1 X49.637 Y48.025 Z0 F800
G1 X49.517 Y47.891 Z0 F800
G1 X49.425 Y47.73 Z0 F800
G1 X49.375 Y47.588 Z0 F800
G1 X49.37 Y47.443 Z0 F800
G1 X49.404 Y47.304 Z0 F800
G1 X49.474 Y47.177 Z0 F800
G1 X49.572 Y47.07 Z0 F800
G1 X49.693 Y46.991 Z0 F800
G1 X49.833 Y46.948 Z0 F800
G1 X49.983 Z0 F800
G1 X50.212 Y46.929 Z0 F800
G1 X50.406 Y46.999 Z0 F800
G1 X50.576 Y47.129 Z0 F800
G1 X50.731 Y47.294 Z0 F800
G1 X51.064 Y47.576 Z0 F800
G1 X51.424 Y47.82 Z0 F800
G1 X51.781 Y48.069 Z0 F800
G1 X52.103 Y48.364 Z0 F800
G1 X52.25 Y48.505 Z0 F800
G1 X52.365 Y48.669 Z0 F800
G1 X52.428 Y48.855 Z0 F800
G1 X52.42 Y49.062 Z0 F800
G1 X52.404 Y49.237 Z0 F800
G1 X52.348 Y49.399 Z0 F800
G1 X52.257 Y49.544 Z0 F800
G1 X52.139 Y49.667 Z0 F800
G1 X51.997 Y49.765 Z0 F800
G1 X51.839 Y49.832 Z0 F800
G1 X51.669 Y49.866 Z0 F800
G1 X51.495 Y49.861 Z0 F800
G1 X51.023 Y49.869 Z0 F800
G1 X50.538 Y49.854 Z0 F800
G1 X50.301 Y49.868 Z0 F800
G1 X50.072 Y49.911 Z0 F800
G1 X49.857 Y49.996 Z0 F800
G1 X49.659 Y50.134 Z0 F800
G1 X49.564 Y50.277 Z0 F800
G1 X49.52 Y50.432 Z0 F800
G1 Y50.593 Z0 F800
G1 X49.554 Y50.756 Z0 F800
G1 X49.703 Y51.066 Z0 F800
G1 X49.911 Y51.323 Z0 F800
G1 X50.288 Y51.519 Z0 F800
G1 X50.693 Y51.656 Z0 F800
G1 X51.113 Y51.751 Z0 F800
G1 X51.534 Y51.823 Z0 F800
G1 X51.861 Y51.838 Z0 F800
G1 X52.193 Y51.831 Z0 F800
G1 X52.525 Y51.799 Z0 F800
G1 X52.853 Y51.739 Z0 F800
G1 X53.171 Y51.646 Z0 F800
G1 X53.474 Y51.519 Z0 F800
G1 X53.757 Y51.352 Z0 F800
G1 X54.016 Y51.144 Z0 F800
G1 X54.167 Y50.976 Z0 F800
G1 X54.294 Y50.792 Z0 F800
G1 X54.397 Y50.596 Z0 F800
G1 X54.478 Y50.389 Z0 F800
G1 X54.572 Y49.953 Z0 F800
G1 X54.583 Y49.505 Z0 F800
G1 X54.595 Y48.698 Z0 F800
G1 X54.555 Y47.881 Z0 F800
G1 X54.488 Y47.483 Z0 F800
G1 X54.375 Y47.1 Z0 F800
G1 X54.207 Y46.736 Z0 F800
G1 X53.971 Y46.399 Z0 F800
G1 X53.746 Y46.188 Z0 F800
G1 X53.493 Y46.039 Z0 F800
G1 X53.218 Y45.936 Z0 F800
G1 X52.928 Y45.869 Z0 F800
G1 X52.325 Y45.788 Z0 F800
G1 X51.736 Y45.696 Z0 F800
G1 X51.496 Y45.504 Z0 F800
G1 X51.298 Y45.26 Z0 F800
G1 X51.23 Y45.122 Z0 F800
G1 X51.19 Y44.976 Z0 F800
G1 X51.186 Y44.823 Z0 F800
G1 X51.223 Y44.665 Z0 F800
G1 X51.422 Y44.269 Z0 F800
G1 X51.688 Y43.91 Z0 F800
G1 X51.992 Y43.579 Z0 F800
G1 X52.309 Y43.266 Z0 F800
G1 X52.81 Y42.891 Z0 F800
G1 X53.264 Y42.457 Z0 F800
G1 X53.462 Y42.215 Z0 F800
G1 X53.636 Y41.958 Z0 F800
G1 X53.781 Y41.682 Z0 F800
G1 X53.892 Y41.387 Z0 F800
G1 X53.866 Y40.889 Z0 F800
G1 X53.824 Y40.375 Z0 F800
G1 X53.772 Y40.127 Z0 F800
G1 X53.689 Y39.895 Z0 F800
G1 X53.563 Y39.683 Z0 F800
G1 X53.387 Y39.498 Z0 F800
G1 X53.234 Y39.412 Z0 F800
G1 X53.073 Y39.374 Z0 F800
G1 X52.91 Y39.379 Z0 F800
G1 X52.751 Y39.422 Z0 F800
G1 X52.604 Y39.5 Z0 F800
G1 X52.473 Y39.607 Z0 F800
G1 X52.367 Y39.739 Z0 F800
G1 X52.291 Y39.892 Z0 F800
G1 X52.112 Y40.382 Z0 F800
G1 X51.937 Y40.877 Z0 F800
G1 X51.723 Y41.352 Z0 F800
G1 X51.425 Y41.783 Z0 F800
G1 X51.136 Y42.104 Z0 F800
G1 X50.817 Y42.41 Z0 F800
G1 X50.642 Y42.535 Z0 F800
G1 X50.453 Y42.628 Z0 F800
G1 X50.248 Y42.682 Z0 F800
G1 X50.024 Y42.687 Z0 F800
G1 X49.73 Y42.678 Z0 F800
G1 X49.458 Y42.583 Z0 F800
G1 X49.338 Y42.504 Z0 F800
G1 X49.233 Y42.406 Z0 F800
G1 X49.146 Y42.289 Z0 F800
G1 X49.081 Y42.153 Z0 F800
G0 Z3.5 F500
G0 X56.833 Y35.558 Z3.5 
G1 Z0 F500
G1 X56.842 Y35.567 Z0 F800
G1 X56.846 Y35.575 Z0 F800
G1 X56.613 Y35.86 Z0 F800
G1 X56.588 Y35.884 Z0 F800
G1 X56.573 Y35.864 Z0 F800
G1 X56.333 Y35.655 Z0 F800
G1 X56.231 Y35.599 Z0 F800
G1 X56.4 Y35.566 Z0 F800
G1 X56.779 Y35.557 Z0 F800
G1 X56.833 Z0 F800
G0 Z3.5 F500
G0 X57.259 Z3.5 
G1 Z0 F500
G1 Y35.657 Z0 F800
G1 X57.233 Y35.734 Z0 F800
G1 X56.911 Y36.126 Z0 F800
G1 X56.501 Y36.541 Z0 F800
G1 X56.416 Y36.329 Z0 F800
G1 X56.276 Y36.135 Z0 F800
G1 X56.102 Y35.984 Z0 F800
G1 X55.892 Y35.869 Z0 F800
G1 X55.489 Y35.775 Z0 F800
G1 X54.815 Y35.849 Z0 F800
G1 X54.536 Y35.826 Z0 F800
G1 X54.467 Y35.803 Z0 F800
G1 X54.425 Y35.775 Z0 F800
G1 X54.406 Y35.75 Z0 F800
G1 X54.398 Y35.723 Z0 F800
G1 X54.404 Y35.684 Z0 F800
G1 X54.438 Y35.602 Z0 F800
G1 X54.49 Y35.523 Z0 F800
G1 X54.556 Y35.456 Z0 F800
G1 X54.631 Y35.406 Z0 F800
G1 X54.713 Y35.372 Z0 F800
G1 X54.8 Y35.355 Z0 F800
G1 X54.95 Y35.361 Z0 F800
G1 X55.456 Y35.341 Z0 F800
G1 X56.355 Y35.167 Z0 F800
G1 X56.777 Y35.156 Z0 F800
G1 X56.922 Y35.159 Z0 F800
G1 X57.008 Y35.189 Z0 F800
G1 X57.097 Y35.251 Z0 F800
G1 X57.175 Y35.341 Z0 F800
G1 X57.232 Y35.45 Z0 F800
G1 X57.259 Y35.558 Z0 F800
G0 Z3.5 F500
G0 X47.037 Y27.511 Z3.5 
G1 Z0 F500
G1 X46.918 Y27.416 Z0 F800
G1 X46.791 Y27.293 Z0 F800
G1 X46.69 Y27.174 Z0 F800
G1 X46.616 Y27.059 Z0 F800
G1 X46.595 Y27.009 Z0 F800
