;LightBurn 1.6.04
;Custom GCode device profile, absolute coords
;Bounds: X11.92 Y13.49 to X82.09 Y58.51
G00 G17 G40 G21 G54
G90
M3
G1 Z10 F500
;Scan @ 444 mm/min, 80% power

M8
G0 Z3.5 F500
G0 X36.438 Y30.357 Z3.5 
G1 Z0 F500
;Layer C3 Pass 1 of 2
G91
G1 X0.305 Z0 S800 F800
G1 X4.167 Y0.64 Z0 S0 F800
G1 X-0.902 Z0 S800 F800
G1 X-2.832 Z0 S0 F800
G1 X-0.967 Z0 S800 F800
G1 X0.406 Y0.64 Z0 S0 F800
G1 X0.179 Z0 S800 F800
G1 X3.042 Z0 S0 F800
G1 X0.276 Z0 S800 F800
G1 X-0.178 Y0.64 Z0 S0 F800
G1 X-0.269 Z0 S800 F800
G1 X-2.802 Z0 S0 F800
G1 X-0.037 Z0 S800 F800
G1 X0.06 Y0.64 Z0 S0 F800
G1 X0.046 Z0 S800 F800
G1 X2.551 Z0 S0 F800
G1 X0.273 Z0 S800 F800
G1 X-0.178 Y0.64 Z0 S0 F800
G1 X-0.301 Z0 S800 F800
G1 X-2.275 Z0 S0 F800
G1 X-0.228 Z0 S800 F800
G1 X-2.862 Y0.64 Z0 S0 F800
G1 X0.562 Z0 S800 F800
G1 X2.267 Z0 S0 F800
G1 X0.507 Z0 S800 F800
G1 X1.97 Z0 S0 F800
G1 X0.313 Z0 S800 F800
G1 X2.367 Z0 S0 F800
G1 X0.427 Z0 S800 F800
G1 X2.179 Z0 S0 F800
G1 X0.402 Z0 S800 F800
G1 X2.252 Z0 S0 F800
G1 X0.366 Z0 S800 F800
G1 X-0.045 Y0.64 Z0 S0 F800
G1 X-0.511 Z0 S800 F800
G1 X-2.08 Z0 S0 F800
G1 X-0.265 Z0 S800 F800
G1 X-2.419 Z0 S0 F800
G1 X-0.327 Z0 S800 F800
G1 X-2.316 Z0 S0 F800
G1 X-0.348 Z0 S800 F800
G1 X-1.892 Z0 S0 F800
G1 X-0.561 Z0 S800 F800
G1 X-2.268 Z0 S0 F800
G1 X-0.58 Z0 S800 F800
G1 Y0.64 Z0 S0 F800
G1 X0.598 Z0 S800 F800
G1 X2.227 Z0 S0 F800
G1 X0.558 Z0 S800 F800
G1 X1.914 Z0 S0 F800
G1 X0.382 Z0 S800 F800
G1 X2.264 Z0 S0 F800
G1 X0.403 Z0 S800 F800
G1 X2.372 Z0 S0 F800
G1 X0.24 Z0 S800 F800
G1 X2.071 Z0 S0 F800
G1 X0.494 Z0 S800 F800
G1 X-0.027 Y0.64 Z0 S0 F800
G1 X-0.481 Z0 S800 F800
G1 X-2.074 Z0 S0 F800
G1 X-0.264 Z0 S800 F800
G1 X-2.278 Z0 S0 F800
G1 X-0.477 Z0 S800 F800
G1 X-2.212 Z0 S0 F800
G1 X-0.417 Z0 S800 F800
G1 X-1.935 Z0 S0 F800
G1 X-0.555 Z0 S800 F800
G1 X-2.188 Z0 S0 F800
G1 X-0.615 Z0 S800 F800
G1 Y0.64 Z0 S0 F800
G1 X0.633 Z0 S800 F800
G1 X2.147 Z0 S0 F800
G1 X0.552 Z0 S800 F800
G1 X1.957 Z0 S0 F800
G1 X0.451 Z0 S800 F800
G1 X2.16 Z0 S0 F800
G1 X0.552 Z0 S800 F800
G1 X2.184 Z0 S0 F800
G1 X0.313 Z0 S800 F800
G1 X2.074 Z0 S0 F800
G1 X0.449 Z0 S800 F800
G1 X0.059 Y0.64 Z0 S0 F800
G1 X-0.5 Z0 S800 F800
G1 X-2.074 Z0 S0 F800
G1 X-0.361 Z0 S800 F800
G1 X-2.142 Z0 S0 F800
G1 X-0.575 Z0 S800 F800
G1 X-2.109 Z0 S0 F800
G1 X-0.486 Z0 S800 F800
G1 X-1.977 Z0 S0 F800
G1 X-0.55 Z0 S800 F800
G1 X-2.106 Z0 S0 F800
G1 X-0.651 Z0 S800 F800
G1 Y0.64 Z0 S0 F800
G1 X0.668 Z0 S800 F800
G1 X2.066 Z0 S0 F800
G1 X0.547 Z0 S800 F800
G1 X1.999 Z0 S0 F800
G1 X0.521 Z0 S800 F800
G1 X2.056 Z0 S0 F800
G1 X0.538 Z0 S800 F800
G1 X2.16 Z0 S0 F800
G1 X0.41 Z0 S800 F800
G1 X2.074 Z0 S0 F800
G1 X0.584 Z0 S800 F800
G1 X0.084 Y0.64 Z0 S0 F800
G1 X-0.34 Z0 S800 F800
G1 X-2.394 Z0 S0 F800
G1 X-0.03 Z0 S800 F800
G1 X-2.947 Z0 S0 F800
G1 X-0.16 Z0 S800 F800
G1 X-2.028 Z0 S0 F800
G1 X-0.497 Z0 S800 F800
G1 X-4.802 Z0 S0 F800
G1 X-0.25 Z0 S800 F800
G1 Y0.64 Z0 S0 F800
G1 X0.181 Z0 S800 F800
G1 X5.11 Z0 S0 F800
G1 X0.125 Z0 S800 F800
G1 X-0.133 Y0.64 Z0 S0 F800
G1 X-0.046 Z0 S800 F800
G1 X-5.072 Z0 S0 F800
G1 X-0.16 Z0 S800 F800
G1 Y0.64 Z0 S0 F800
G1 X0.145 Z0 S800 F800
G1 X4.997 Y0.64 Z0 S0 F800
G1 X-2.303 Z0 S800 F800
G1 X-2.709 Z0 S0 F800
G1 X-0.126 Z0 S800 F800
G1 X0.003 Y0.64 Z0 S0 F800
G1 X0.107 Z0 S800 F800
G1 X2.681 Z0 S0 F800
G1 X0.042 Z0 S800 F800
G1 X0.025 Y0.64 Z0 S0 F800
G1 X-0.112 Z0 S800 F800
G1 X-2.651 Z0 S0 F800
G1 X-0.09 Z0 S800 F800
G1 Y0.64 Z0 S0 F800
G1 X0.075 Z0 S800 F800
G1 X2.622 Z0 S0 F800
G1 X0.182 Z0 S800 F800
G1 X12.937 Y0.64 Z0 S0 F800
G1 X-0.457 Z0 S800 F800
G1 X-2.17 Z0 S0 F800
G1 X-0.386 Z0 S800 F800
G1 X-2.2 Z0 S0 F800
G1 X-0.455 Z0 S800 F800
G1 X-4.753 Z0 S0 F800
G1 X-0.424 Z0 S800 F800
G1 X-2.074 Z0 S0 F800
G1 X-0.516 Z0 S800 F800
G1 X-2.167 Z0 S0 F800
G1 X-0.155 Z0 S800 F800
G1 X-0.054 Z0 S0 F800
G1 X-0.215 Z0 S800 F800
G1 X-0.004 Y0.64 Z0 S0 F800
G1 X0.221 Z0 S800 F800
G1 X0.037 Z0 S0 F800
G1 X0.175 Z0 S800 F800
G1 X2.162 Z0 S0 F800
G1 X0.502 Z0 S800 F800
G1 X2.088 Z0 S0 F800
G1 X0.463 Z0 S800 F800
G1 X2.24 Z0 S0 F800
G1 X0.414 Z0 S800 F800
G1 X2.052 Z0 S0 F800
G1 X0.469 Z0 S800 F800
G1 X2.185 Z0 S0 F800
G1 X0.377 Z0 S800 F800
G1 X2.179 Z0 S0 F800
G1 X0.489 Z0 S800 F800
G1 X0.023 Y0.64 Z0 S0 F800
G1 X-0.521 Z0 S800 F800
G1 X-2.187 Z0 S0 F800
G1 X-0.369 Z0 S800 F800
G1 X-2.171 Z0 S0 F800
G1 X-0.483 Z0 S800 F800
G1 X-2.099 Z0 S0 F800
G1 X-0.375 Z0 S800 F800
G1 X-2.185 Z0 S0 F800
G1 X-0.501 Z0 S800 F800
G1 X-2.101 Z0 S0 F800
G1 X-0.489 Z0 S800 F800
G1 X-2.158 Z0 S0 F800
G1 X-0.194 Z0 S800 F800
G1 X-0.02 Z0 S0 F800
G1 X-0.227 Z0 S800 F800
G1 X-0.005 Y0.64 Z0 S0 F800
G1 X0.234 Z0 S800 F800
G1 X0.216 Z0 F800
G1 X2.154 Z0 S0 F800
G1 X0.476 Z0 S800 F800
G1 X2.114 Z0 S0 F800
G1 X0.511 Z0 S800 F800
G1 X2.159 Z0 S0 F800
G1 X0.336 Z0 S800 F800
G1 X2.146 Z0 S0 F800
G1 X0.497 Z0 S800 F800
G1 X2.156 Z0 S0 F800
G1 X0.36 Z0 S800 F800
G1 X2.196 Z0 S0 F800
G1 X0.532 Z0 S800 F800
G1 X-0.059 Y0.64 Z0 S0 F800
G1 X-0.481 Z0 S800 F800
G1 X-2.206 Z0 S0 F800
G1 X-0.351 Z0 S800 F800
G1 X-2.142 Z0 S0 F800
G1 X-0.511 Z0 S800 F800
G1 X-2.192 Z0 S0 F800
G1 X-0.298 Z0 S800 F800
G1 X-2.155 Z0 S0 F800
G1 X-0.498 Z0 S800 F800
G1 X-2.128 Z0 S0 F800
G1 X-0.462 Z0 S800 F800
G1 X-2.15 Z0 S0 F800
G1 X-0.217 Z0 S800 F800
G1 X-0.016 Z0 S0 F800
G1 X-0.225 Z0 S800 F800
G1 X-0.004 Y0.64 Z0 S0 F800
G1 X0.214 Z0 S800 F800
G1 X0.033 Z0 S0 F800
G1 X0.219 Z0 S800 F800
G1 X2.146 Z0 S0 F800
G1 X0.449 Z0 S800 F800
G1 X2.141 Z0 S0 F800
G1 X0.485 Z0 S800 F800
G1 X2.151 Z0 S0 F800
G1 X0.259 Z0 S800 F800
G1 X2.24 Z0 S0 F800
G1 X0.524 Z0 S800 F800
G1 X2.128 Z0 S0 F800
G1 X0.343 Z0 S800 F800
G1 X2.214 Z0 S0 F800
G1 X0.432 Z0 S800 F800
G1 X0.035 Y0.64 Z0 S0 F800
G1 X-0.476 Z0 S800 F800
G1 X-2.223 Z0 S0 F800
G1 X-0.334 Z0 S800 F800
G1 X-2.112 Z0 S0 F800
G1 X-0.54 Z0 S800 F800
G1 X-2.201 Z0 S0 F800
G1 X-0.306 Z0 S800 F800
G1 X-2.146 Z0 S0 F800
G1 X-0.473 Z0 S800 F800
G1 X-2.154 Z0 S0 F800
G1 X-0.436 Z0 S800 F800
G1 X-2.142 Z0 S0 F800
G1 X-0.221 Z0 S800 F800
G1 X-0.051 Z0 S0 F800
G1 X-0.202 Z0 S800 F800
G1 X-0.005 Y0.64 Z0 S0 F800
G1 X0.117 Z0 S800 F800
G1 X0.304 Z0 S0 F800
G1 X0.062 Z0 S800 F800
G1 X2.138 Z0 S0 F800
G1 X0.422 Z0 S800 F800
G1 X2.168 Z0 S0 F800
G1 X0.46 Z0 S800 F800
G1 X2.143 Z0 S0 F800
G1 X0.383 Z0 S800 F800
G1 X2.131 Z0 S0 F800
G1 X0.571 Z0 S800 F800
G1 X2.082 Z0 S0 F800
G1 X0.324 Z0 S800 F800
G1 X2.232 Z0 S0 F800
G1 X0.06 Z0 S800 F800
G1 X-7.329 Y0.64 Z0 S0 F800
G1 X-0.167 Z0 S800 F800
G1 X-2.564 Z0 S0 F800
G1 X-0.04 Z0 S800 F800
G1 X-0.072 Y0.64 Z0 S0 F800
G1 X0.045 Z0 S800 F800
G1 X3.018 Z0 S0 F800
G1 X0.031 Z0 S800 F800
G1 X0.81 Y0.64 Z0 S0 F800
G1 X-0.454 Z0 S800 F800
G1 X-3.405 Z0 S0 F800
G1 X-0.117 Z0 S800 F800
G1 X-0.128 Y0.64 Z0 S0 F800
G1 X0.245 Z0 S800 F800
G1 X3.844 Z0 S0 F800
G1 X0.89 Z0 S800 F800
G1 X0.172 Y0.64 Z0 S0 F800
G1 X-0.598 Z0 S800 F800
G1 X-4.58 Z0 S0 F800
G1 X-0.194 Z0 S800 F800
G90
;Layer C3 Pass 2 of 2
G91
G1 X-2.511 Y-21.12 Z0 S0 F800
G1 X0.305 Z0 S800 F800
G1 X4.167 Y0.64 Z0 S0 F800
G1 X-0.902 Z0 S800 F800
G1 X-2.832 Z0 S0 F800
G1 X-0.967 Z0 S800 F800
G1 X0.406 Y0.64 Z0 S0 F800
G1 X0.179 Z0 S800 F800
G1 X3.042 Z0 S0 F800
G1 X0.276 Z0 S800 F800
G1 X-0.178 Y0.64 Z0 S0 F800
G1 X-0.269 Z0 S800 F800
G1 X-2.802 Z0 S0 F800
G1 X-0.037 Z0 S800 F800
G1 X0.06 Y0.64 Z0 S0 F800
G1 X0.046 Z0 S800 F800
G1 X2.551 Z0 S0 F800
G1 X0.273 Z0 S800 F800
G1 X-0.178 Y0.64 Z0 S0 F800
G1 X-0.301 Z0 S800 F800
G1 X-2.275 Z0 S0 F800
G1 X-0.228 Z0 S800 F800
G1 X-2.862 Y0.64 Z0 S0 F800
G1 X0.562 Z0 S800 F800
G1 X2.267 Z0 S0 F800
G1 X0.507 Z0 S800 F800
G1 X1.97 Z0 S0 F800
G1 X0.313 Z0 S800 F800
G1 X2.367 Z0 S0 F800
G1 X0.427 Z0 S800 F800
G1 X2.179 Z0 S0 F800
G1 X0.402 Z0 S800 F800
G1 X2.252 Z0 S0 F800
G1 X0.366 Z0 S800 F800
G1 X-0.045 Y0.64 Z0 S0 F800
G1 X-0.511 Z0 S800 F800
G1 X-2.08 Z0 S0 F800
G1 X-0.265 Z0 S800 F800
G1 X-2.419 Z0 S0 F800
G1 X-0.327 Z0 S800 F800
G1 X-2.316 Z0 S0 F800
G1 X-0.348 Z0 S800 F800
G1 X-1.892 Z0 S0 F800
G1 X-0.561 Z0 S800 F800
G1 X-2.268 Z0 S0 F800
G1 X-0.58 Z0 S800 F800
G1 Y0.64 Z0 S0 F800
G1 X0.598 Z0 S800 F800
G1 X2.227 Z0 S0 F800
G1 X0.558 Z0 S800 F800
G1 X1.914 Z0 S0 F800
G1 X0.382 Z0 S800 F800
G1 X2.264 Z0 S0 F800
G1 X0.403 Z0 S800 F800
G1 X2.372 Z0 S0 F800
G1 X0.24 Z0 S800 F800
G1 X2.071 Z0 S0 F800
G1 X0.494 Z0 S800 F800
G1 X-0.027 Y0.64 Z0 S0 F800
G1 X-0.481 Z0 S800 F800
G1 X-2.074 Z0 S0 F800
G1 X-0.264 Z0 S800 F800
G1 X-2.278 Z0 S0 F800
G1 X-0.477 Z0 S800 F800
G1 X-2.212 Z0 S0 F800
G1 X-0.417 Z0 S800 F800
G1 X-1.935 Z0 S0 F800
G1 X-0.555 Z0 S800 F800
G1 X-2.188 Z0 S0 F800
G1 X-0.615 Z0 S800 F800
G1 Y0.64 Z0 S0 F800
G1 X0.633 Z0 S800 F800
G1 X2.147 Z0 S0 F800
G1 X0.552 Z0 S800 F800
G1 X1.957 Z0 S0 F800
G1 X0.451 Z0 S800 F800
G1 X2.16 Z0 S0 F800
G1 X0.552 Z0 S800 F800
G1 X2.184 Z0 S0 F800
G1 X0.313 Z0 S800 F800
G1 X2.074 Z0 S0 F800
G1 X0.449 Z0 S800 F800
G1 X0.059 Y0.64 Z0 S0 F800
G1 X-0.5 Z0 S800 F800
G1 X-2.074 Z0 S0 F800
G1 X-0.361 Z0 S800 F800
G1 X-2.142 Z0 S0 F800
G1 X-0.575 Z0 S800 F800
G1 X-2.109 Z0 S0 F800
G1 X-0.486 Z0 S800 F800
G1 X-1.977 Z0 S0 F800
G1 X-0.55 Z0 S800 F800
G1 X-2.106 Z0 S0 F800
G1 X-0.651 Z0 S800 F800
G1 Y0.64 Z0 S0 F800
G1 X0.668 Z0 S800 F800
G1 X2.066 Z0 S0 F800
G1 X0.547 Z0 S800 F800
G1 X1.999 Z0 S0 F800
G1 X0.521 Z0 S800 F800
G1 X2.056 Z0 S0 F800
G1 X0.538 Z0 S800 F800
G1 X2.16 Z0 S0 F800
G1 X0.41 Z0 S800 F800
G1 X2.074 Z0 S0 F800
G1 X0.584 Z0 S800 F800
G1 X0.084 Y0.64 Z0 S0 F800
G1 X-0.34 Z0 S800 F800
G1 X-2.394 Z0 S0 F800
G1 X-0.03 Z0 S800 F800
G1 X-2.947 Z0 S0 F800
G1 X-0.16 Z0 S800 F800
G1 X-2.028 Z0 S0 F800
G1 X-0.497 Z0 S800 F800
G1 X-4.802 Z0 S0 F800
G1 X-0.25 Z0 S800 F800
G1 Y0.64 Z0 S0 F800
G1 X0.181 Z0 S800 F800
G1 X5.11 Z0 S0 F800
G1 X0.125 Z0 S800 F800
G1 X-0.133 Y0.64 Z0 S0 F800
G1 X-0.046 Z0 S800 F800
G1 X-5.072 Z0 S0 F800
G1 X-0.16 Z0 S800 F800
G1 Y0.64 Z0 S0 F800
G1 X0.145 Z0 S800 F800
G1 X4.997 Y0.64 Z0 S0 F800
G1 X-2.303 Z0 S800 F800
G1 X-2.709 Z0 S0 F800
G1 X-0.126 Z0 S800 F800
G1 X0.003 Y0.64 Z0 S0 F800
G1 X0.107 Z0 S800 F800
G1 X2.681 Z0 S0 F800
G1 X0.042 Z0 S800 F800
G1 X0.025 Y0.64 Z0 S0 F800
G1 X-0.112 Z0 S800 F800
G1 X-2.651 Z0 S0 F800
G1 X-0.09 Z0 S800 F800
G1 Y0.64 Z0 S0 F800
G1 X0.075 Z0 S800 F800
G1 X2.622 Z0 S0 F800
G1 X0.182 Z0 S800 F800
G1 X12.937 Y0.64 Z0 S0 F800
G1 X-0.457 Z0 S800 F800
G1 X-2.17 Z0 S0 F800
G1 X-0.386 Z0 S800 F800
G1 X-2.2 Z0 S0 F800
G1 X-0.455 Z0 S800 F800
G1 X-4.753 Z0 S0 F800
G1 X-0.424 Z0 S800 F800
G1 X-2.074 Z0 S0 F800
G1 X-0.516 Z0 S800 F800
G1 X-2.167 Z0 S0 F800
G1 X-0.155 Z0 S800 F800
G1 X-0.054 Z0 S0 F800
G1 X-0.215 Z0 S800 F800
G1 X-0.004 Y0.64 Z0 S0 F800
G1 X0.221 Z0 S800 F800
G1 X0.037 Z0 S0 F800
G1 X0.175 Z0 S800 F800
G1 X2.162 Z0 S0 F800
G1 X0.502 Z0 S800 F800
G1 X2.088 Z0 S0 F800
G1 X0.463 Z0 S800 F800
G1 X2.24 Z0 S0 F800
G1 X0.414 Z0 S800 F800
G1 X2.052 Z0 S0 F800
G1 X0.469 Z0 S800 F800
G1 X2.185 Z0 S0 F800
G1 X0.377 Z0 S800 F800
G1 X2.179 Z0 S0 F800
G1 X0.489 Z0 S800 F800
G1 X0.023 Y0.64 Z0 S0 F800
G1 X-0.521 Z0 S800 F800
G1 X-2.187 Z0 S0 F800
G1 X-0.369 Z0 S800 F800
G1 X-2.171 Z0 S0 F800
G1 X-0.483 Z0 S800 F800
G1 X-2.099 Z0 S0 F800
G1 X-0.375 Z0 S800 F800
G1 X-2.185 Z0 S0 F800
G1 X-0.501 Z0 S800 F800
G1 X-2.101 Z0 S0 F800
G1 X-0.489 Z0 S800 F800
G1 X-2.158 Z0 S0 F800
G1 X-0.194 Z0 S800 F800
G1 X-0.02 Z0 S0 F800
G1 X-0.227 Z0 S800 F800
G1 X-0.005 Y0.64 Z0 S0 F800
G1 X0.234 Z0 S800 F800
G1 X0.216 Z0 F800
G1 X2.154 Z0 S0 F800
G1 X0.476 Z0 S800 F800
G1 X2.114 Z0 S0 F800
G1 X0.511 Z0 S800 F800
G1 X2.159 Z0 S0 F800
G1 X0.336 Z0 S800 F800
G1 X2.146 Z0 S0 F800
G1 X0.497 Z0 S800 F800
G1 X2.156 Z0 S0 F800
G1 X0.36 Z0 S800 F800
G1 X2.196 Z0 S0 F800
G1 X0.532 Z0 S800 F800
G1 X-0.059 Y0.64 Z0 S0 F800
G1 X-0.481 Z0 S800 F800
G1 X-2.206 Z0 S0 F800
G1 X-0.351 Z0 S800 F800
G1 X-2.142 Z0 S0 F800
G1 X-0.511 Z0 S800 F800
G1 X-2.192 Z0 S0 F800
G1 X-0.298 Z0 S800 F800
G1 X-2.155 Z0 S0 F800
G1 X-0.498 Z0 S800 F800
G1 X-2.128 Z0 S0 F800
G1 X-0.462 Z0 S800 F800
G1 X-2.15 Z0 S0 F800
G1 X-0.217 Z0 S800 F800
G1 X-0.016 Z0 S0 F800
G1 X-0.225 Z0 S800 F800
G1 X-0.004 Y0.64 Z0 S0 F800
G1 X0.214 Z0 S800 F800
G1 X0.033 Z0 S0 F800
G1 X0.219 Z0 S800 F800
G1 X2.146 Z0 S0 F800
G1 X0.449 Z0 S800 F800
G1 X2.141 Z0 S0 F800
G1 X0.485 Z0 S800 F800
G1 X2.151 Z0 S0 F800
G1 X0.259 Z0 S800 F800
G1 X2.24 Z0 S0 F800
G1 X0.524 Z0 S800 F800
G1 X2.128 Z0 S0 F800
G1 X0.343 Z0 S800 F800
G1 X2.214 Z0 S0 F800
G1 X0.432 Z0 S800 F800
G1 X0.035 Y0.64 Z0 S0 F800
G1 X-0.476 Z0 S800 F800
G1 X-2.223 Z0 S0 F800
G1 X-0.334 Z0 S800 F800
G1 X-2.112 Z0 S0 F800
G1 X-0.54 Z0 S800 F800
G1 X-2.201 Z0 S0 F800
G1 X-0.306 Z0 S800 F800
G1 X-2.146 Z0 S0 F800
G1 X-0.473 Z0 S800 F800
G1 X-2.154 Z0 S0 F800
G1 X-0.436 Z0 S800 F800
G1 X-2.142 Z0 S0 F800
G1 X-0.221 Z0 S800 F800
G1 X-0.051 Z0 S0 F800
G1 X-0.202 Z0 S800 F800
G1 X-0.005 Y0.64 Z0 S0 F800
G1 X0.117 Z0 S800 F800
G1 X0.304 Z0 S0 F800
G1 X0.062 Z0 S800 F800
G1 X2.138 Z0 S0 F800
G1 X0.422 Z0 S800 F800
G1 X2.168 Z0 S0 F800
G1 X0.46 Z0 S800 F800
G1 X2.143 Z0 S0 F800
G1 X0.383 Z0 S800 F800
G1 X2.131 Z0 S0 F800
G1 X0.571 Z0 S800 F800
G1 X2.082 Z0 S0 F800
G1 X0.324 Z0 S800 F800
G1 X2.232 Z0 S0 F800
G1 X0.06 Z0 S800 F800
G1 X-7.329 Y0.64 Z0 S0 F800
G1 X-0.167 Z0 S800 F800
G1 X-2.564 Z0 S0 F800
G1 X-0.04 Z0 S800 F800
G1 X-0.072 Y0.64 Z0 S0 F800
G1 X0.045 Z0 S800 F800
G1 X3.018 Z0 S0 F800
G1 X0.031 Z0 S800 F800
G1 X0.81 Y0.64 Z0 S0 F800
G1 X-0.454 Z0 S800 F800
G1 X-3.405 Z0 S0 F800
G1 X-0.117 Z0 S800 F800
G1 X-0.128 Y0.64 Z0 S0 F800
G1 X0.245 Z0 S800 F800
G1 X3.844 Z0 S0 F800
G1 X0.89 Z0 S800 F800
G1 X0.172 Y0.64 Z0 S0 F800
G1 X-0.598 Z0 S800 F800
G1 X-4.58 Z0 S0 F800
G1 X-0.194 Z0 S800 F800
G90
;Offset @ 555 mm/min, 90% power

M8
G0 Z3.5 F500
G0 X38.876 Y51.285 Z3.5 F444
G1 Z0 F500
;Layer C1
G1 X39.03 Y51.328 Z0 S900 F800
G1 X38.804 Z0 F800
G1 X35.712 Y51.314 Z0 F800
G1 X35.706 Y51.274 Z0 F800
G1 X36.628 Y51.278 Z0 F800
G1 X37.78 Y51.265 Z0 F800
G1 X38.804 Y51.198 Z0 F800
G1 X38.876 Y51.285 Z0 F800
G0 Z3.5 F500
G0 X39.841 Y51.83 Z3.5 F555
G1 Z0 F500
G1 X38.802 Y51.827 Z0 F800
G1 X35.289 Y51.813 Z0 F800
G1 X35.275 Y51.721 Z0 F800
G1 X35.184 Y51.187 Z0 F800
G1 X35.087 Y50.781 Z0 F800
G1 X35.519 Y50.773 Z0 F800
G1 X36.627 Y50.778 Z0 F800
G1 X37.76 Y50.765 Z0 F800
G1 X39.011 Y50.683 Z0 F800
G1 X39.022 Y50.676 Z0 F800
G1 X39.162 Y50.846 Z0 F800
G1 X39.501 Y50.94 Z0 F800
G1 X39.762 Y50.917 Z0 F800
G1 X40.075 Y50.831 Z0 F800
G1 X40.109 Y50.953 Z0 F800
G1 X40.172 Y51.146 Z0 F800
G1 X40.31 Y51.744 Z0 F800
G1 X40.321 Y51.823 Z0 F800
G1 X39.841 Y51.83 Z0 F800
G0 Z3.5 F500
G0 X34.781 Y51.798 Z3.5 
G1 Z0 F500
G1 X34.693 Y51.287 Z0 F800
G1 X34.574 Y50.784 Z0 F800
G1 X34.406 Y50.293 Z0 F800
G1 X35.511 Y50.273 Z0 F800
G1 X36.625 Y50.278 Z0 F800
G1 X37.741 Y50.265 Z0 F800
G1 X38.852 Y50.192 Z0 F800
G1 X39.083 Y50.046 Z0 F800
G1 X39.245 Y49.949 Z0 F800
G1 X39.3 Y49.94 Z0 F800
G1 X39.337 Y49.969 Z0 F800
G1 X39.355 Y50.045 Z0 F800
G1 Y50.177 Z0 F800
G1 X39.381 Y50.326 Z0 F800
G1 X39.448 Y50.406 Z0 F800
G1 X39.547 Y50.434 Z0 F800
G1 X39.672 Y50.423 Z0 F800
G1 X39.967 Y50.342 Z0 F800
G1 X40.268 Y50.277 Z0 F800
G1 X40.357 Y50.315 Z0 F800
G1 X40.426 Y50.383 Z0 F800
G1 X40.48 Y50.473 Z0 F800
G1 X40.522 Y50.578 Z0 F800
G1 X40.588 Y50.807 Z0 F800
G1 X40.655 Y51.016 Z0 F800
G1 X40.803 Y51.656 Z0 F800
G1 X40.893 Y52.315 Z0 F800
G1 X39.847 Y52.33 Z0 F800
G1 X38.8 Y52.327 Z0 F800
G1 X34.854 Y52.311 Z0 F800
G1 X34.781 Y51.798 Z0 F800
G0 Z3.5 F500
G0 X28.398 Y45.96 Z3.5 
G1 Z0 F500
G1 X28.419 Y45.986 Z0 F800
G1 X28.444 Y46.05 Z0 F800
G1 X28.465 Y46.157 Z0 F800
G1 X28.477 Y46.3 Z0 F800
G1 X28.474 Y46.497 Z0 F800
G1 X28.549 Y47.213 Z0 F800
G1 X28.617 Y47.884 Z0 F800
G1 X28.608 Y48.199 Z0 F800
G1 X28.55 Y48.5 Z0 F800
G1 X28.425 Y48.785 Z0 F800
G1 X28.218 Y49.053 Z0 F800
G1 X28.127 Y49.219 Z0 F800
G1 X28.039 Y49.388 Z0 F800
G1 X27.628 Y49.849 Z0 F800
G1 X27.128 Y50.333 Z0 F800
G1 X27.119 Y50.364 Z0 F800
G1 X27.134 Y50.417 Z0 F800
G1 X27.171 Y50.491 Z0 F800
G1 X27.228 Y50.581 Z0 F800
G1 X27.382 Y50.802 Z0 F800
G1 X27.774 Y51.338 Z0 F800
G1 X27.96 Y51.612 Z0 F800
G1 X28.105 Y51.863 Z0 F800
G1 X28.184 Y52.07 Z0 F800
G1 X28.174 Y52.134 Z0 F800
G1 X28.111 Y52.114 Z0 F800
G1 X28.009 Y52.034 Z0 F800
G1 X27.883 Y51.914 Z0 F800
G1 X27.751 Y51.775 Z0 F800
G1 X27.628 Y51.64 Z0 F800
G1 X27.472 Y51.464 Z0 F800
G1 X26.695 Y50.639 Z0 F800
G1 X26.564 Y50.471 Z0 F800
G1 X26.474 Y50.304 Z0 F800
G1 X26.391 Y50.132 Z0 F800
G1 X26.28 Y49.947 Z0 F800
G1 X26.362 Y49.977 Z0 F800
G1 X26.459 Y49.971 Z0 F800
G1 X26.564 Y49.955 Z0 F800
G1 X26.669 Z0 F800
G1 X26.818 Y49.939 Z0 F800
G1 X26.982 Y49.869 Z0 F800
G1 X27.144 Y49.769 Z0 F800
G1 X27.286 Y49.664 Z0 F800
G1 X27.515 Y49.472 Z0 F800
G1 X27.723 Y49.259 Z0 F800
G1 X27.905 Y49.027 Z0 F800
G1 X28.057 Y48.775 Z0 F800
G1 X28.174 Y48.504 Z0 F800
G1 X28.253 Y48.214 Z0 F800
G1 X28.289 Y47.906 Z0 F800
G1 X28.277 Y47.578 Z0 F800
G1 X28.23 Y47.23 Z0 F800
G1 X28.275 Y46.588 Z0 F800
G1 X28.299 Y45.955 Z0 F800
G1 X28.363 Y45.948 Z0 F800
G1 X28.398 Y45.96 Z0 F800
G0 Z3.5 F500
G0 X24.419 Y37.633 Z3.5 
G1 Z0 F500
G1 X24.287 Y37.429 Z0 F800
G1 X24.2 Y37.333 Z0 F800
G1 X24.346 Y36.863 Z0 F800
G1 X24.387 Y36.659 Z0 F800
G1 X24.419 Y37.633 Z0 F800
G0 Z3.5 F500
G0 X24.315 Y34.486 Z3.5 
G1 Z0 F500
G1 X24.239 Y34.189 Z0 F800
G1 X24.06 Y33.628 Z0 F800
G1 X23.901 Y33.262 Z0 F800
G1 X24.169 Y32.779 Z0 F800
G1 X24.251 Y32.647 Z0 F800
G1 X24.311 Y34.346 Z0 F800
G1 X24.315 Y34.486 Z0 F800
G0 Z3.5 F500
G0 X23.994 Y35.8 Z3.5 
G1 Z0 F500
G1 X23.973 Y35.303 Z0 F800
G1 X23.887 Y34.828 Z0 F800
G1 X23.759 Y34.328 Z0 F800
G1 X23.591 Y33.805 Z0 F800
G1 X23.352 Y33.253 Z0 F800
G1 X23.347 Y33.245 Z0 F800
G1 X23.41 Y33.115 Z0 F800
G1 X23.738 Y32.525 Z0 F800
G1 X24.1 Y31.942 Z0 F800
G1 X24.489 Y31.363 Z0 F800
G1 X24.696 Y31.078 Z0 F800
G1 X24.811 Y34.329 Z0 F800
G1 X24.974 Y39.301 Z0 F800
G1 X24.544 Y39.298 Z0 F800
G1 X24.442 Y39.301 Z0 F800
G1 X24.395 Y38.79 Z0 F800
G1 X24.205 Y38.221 Z0 F800
G1 X23.889 Y37.734 Z0 F800
G1 X23.619 Y37.437 Z0 F800
G1 X23.726 Y37.172 Z0 F800
G1 X23.861 Y36.739 Z0 F800
G1 X23.954 Y36.28 Z0 F800
G1 X23.994 Y35.8 Z0 F800
G0 Z3.5 F500
G0 X24.077 Y31.079 Z3.5 
G1 Z0 F500
G1 X24.942 Y29.891 Z0 F800
G1 X25.146 Y29.625 Z0 F800
G1 X25.311 Y34.313 Z0 F800
G1 X25.491 Y39.815 Z0 F800
G1 X25.297 Y39.803 Z0 F800
G1 X24.55 Y39.798 Z0 F800
G1 X23.886 Y39.818 Z0 F800
G1 X23.894 Y39.795 Z0 F800
G1 X23.944 Y39.351 Z0 F800
G1 X23.902 Y38.893 Z0 F800
G1 X23.75 Y38.439 Z0 F800
G1 X23.491 Y38.041 Z0 F800
G1 X23.275 Y37.802 Z0 F800
G1 X23.028 Y37.603 Z0 F800
G1 X22.998 Y37.585 Z0 F800
G1 X23.104 Y37.373 Z0 F800
G1 X23.255 Y37.002 Z0 F800
G1 X23.375 Y36.615 Z0 F800
G1 X23.458 Y36.209 Z0 F800
G1 X23.493 Y35.79 Z0 F800
G1 X23.475 Y35.358 Z0 F800
G1 X23.398 Y34.935 Z0 F800
G1 X23.278 Y34.466 Z0 F800
G1 X23.123 Y33.98 Z0 F800
G1 X22.907 Y33.484 Z0 F800
G1 X22.777 Y33.273 Z0 F800
G1 X22.967 Y32.883 Z0 F800
G1 X23.308 Y32.271 Z0 F800
G1 X23.686 Y31.661 Z0 F800
G1 X24.077 Y31.079 Z0 F800
G0 Z3.5 F500
G0 X25.434 Y28.422 Z3.5 
G1 Z0 F500
G1 X25.597 Y28.242 Z0 F800
G1 X25.81 Y34.296 Z0 F800
G1 X26.009 Y40.347 Z0 F800
G1 X25.281 Y40.303 Z0 F800
G1 X24.556 Y40.298 Z0 F800
G1 X23.836 Y40.32 Z0 F800
G1 X23.124 Y40.361 Z0 F800
G1 X23.292 Y40.039 Z0 F800
G1 X23.402 Y39.69 Z0 F800
G1 X23.441 Y39.346 Z0 F800
G1 X23.409 Y38.997 Z0 F800
G1 X23.296 Y38.658 Z0 F800
G1 X23.094 Y38.346 Z0 F800
G1 X22.931 Y38.167 Z0 F800
G1 X22.743 Y38.015 Z0 F800
G1 X22.533 Y37.891 Z0 F800
G1 X22.309 Y37.791 Z0 F800
G1 X22.488 Y37.485 Z0 F800
G1 X22.648 Y37.166 Z0 F800
G1 X22.784 Y36.833 Z0 F800
G1 X22.891 Y36.491 Z0 F800
G1 X22.962 Y36.139 Z0 F800
G1 X22.992 Y35.779 Z0 F800
G1 X22.977 Y35.413 Z0 F800
G1 X22.91 Y35.042 Z0 F800
G1 X22.797 Y34.605 Z0 F800
G1 X22.654 Y34.157 Z0 F800
G1 X22.463 Y33.716 Z0 F800
G1 X22.208 Y33.302 Z0 F800
G1 X22.524 Y32.652 Z0 F800
G1 X22.877 Y32.018 Z0 F800
G1 X23.261 Y31.397 Z0 F800
G1 X23.669 Y30.789 Z0 F800
G1 X24.538 Y29.597 Z0 F800
G1 X25.434 Y28.422 Z0 F800
G0 Z3.5 F500
G0 X18.921 Y26.38 Z3.5 
G1 Z0 F500
G1 X18.941 Y26.324 Z0 F800
G1 X18.977 Y26.297 Z0 F800
G1 X18.984 Y26.289 Z0 F800
G1 X18.921 Y26.38 Z0 F800
G0 Z3.5 F500
G0 X17.757 Y28.116 Z3.5 
G1 Z0 F500
G1 X17.484 Y28.255 Z0 F800
G1 X17.12 Y28.375 Z0 F800
G1 X16.715 Y28.463 Z0 F800
G1 X16.305 Y28.513 Z0 F800
G1 X16.149 Y28.517 Z0 F800
G1 X16.157 Y28.492 Z0 F800
G1 X16.171 Y28.117 Z0 F800
G1 X16.128 Y27.867 Z0 F800
G1 X16.319 Y27.89 Z0 F800
G1 X16.531 Y27.883 Z0 F800
G1 X17.044 Y27.769 Z0 F800
G1 X17.519 Y27.52 Z0 F800
G1 X17.895 Y27.193 Z0 F800
G1 X18.172 Y26.83 Z0 F800
G1 X18.345 Y26.5 Z0 F800
G1 X18.463 Y26.178 Z0 F800
G1 X18.497 Y26.035 Z0 F800
G1 X18.641 Y25.925 Z0 F800
G1 X19.083 Y25.453 Z0 F800
G1 X19.44 Y24.921 Z0 F800
G1 X19.447 Y24.907 Z0 F800
G1 X19.77 Y24.794 Z0 F800
G1 X20.123 Y24.589 Z0 F800
G1 X20.494 Y24.238 Z0 F800
G1 X20.512 Y24.209 Z0 F800
G1 X20.49 Y24.29 Z0 F800
G1 X20.222 Y25.036 Z0 F800
G1 X19.9 Y25.737 Z0 F800
G1 X19.512 Y26.406 Z0 F800
G1 X19.311 Y26.696 Z0 F800
G1 X19.082 Y26.988 Z0 F800
G1 X18.84 Y27.26 Z0 F800
G1 X18.594 Y27.501 Z0 F800
G1 X18.325 Y27.731 Z0 F800
G1 X18.047 Y27.935 Z0 F800
G1 X17.757 Y28.116 Z0 F800
G0 Z3.5 F500
G0 X16.341 Y29.011 Z3.5 
G1 Z0 F500
G1 X15.866 Y29.024 Z0 F800
G1 X15.578 Y28.997 Z0 F800
G1 X15.407 Y28.943 Z0 F800
G1 X15.463 Y28.88 Z0 F800
G1 X15.585 Y28.666 Z0 F800
G1 X15.659 Y28.412 Z0 F800
G1 X15.669 Y28.15 Z0 F800
G1 X15.626 Y27.899 Z0 F800
G1 X15.536 Y27.664 Z0 F800
G1 X15.442 Y27.517 Z0 F800
G1 X15.327 Y27.402 Z0 F800
G1 X14.806 Y27.023 Z0 F800
G1 X15.272 Y27.189 Z0 F800
G1 X15.788 Y27.321 Z0 F800
G1 X16.341 Y27.389 Z0 F800
G1 X16.468 Y27.385 Z0 F800
G1 X16.871 Y27.295 Z0 F800
G1 X17.235 Y27.104 Z0 F800
G1 X17.528 Y26.85 Z0 F800
G1 X17.749 Y26.56 Z0 F800
G1 X17.887 Y26.297 Z0 F800
G1 X17.983 Y26.035 Z0 F800
G1 X18.044 Y25.775 Z0 F800
G1 X18.047 Y25.749 Z0 F800
G1 X18.304 Y25.553 Z0 F800
G1 X18.69 Y25.14 Z0 F800
G1 X19.003 Y24.674 Z0 F800
G1 X19.101 Y24.465 Z0 F800
G1 X19.292 Y24.431 Z0 F800
G1 X19.56 Y24.338 Z0 F800
G1 X19.821 Y24.186 Z0 F800
G1 X20.104 Y23.919 Z0 F800
G1 X20.317 Y23.575 Z0 F800
G1 X20.438 Y23.172 Z0 F800
G1 Y22.766 Z0 F800
G1 X20.403 Y22.532 Z0 F800
G1 X20.434 Y22.626 Z0 F800
G1 X20.454 Y22.621 Z0 F800
G1 X20.551 Y22.793 Z0 F800
G1 X20.824 Y23.068 Z0 F800
G1 X21.14 Y23.253 Z0 F800
G1 X21.265 Y23.289 Z0 F800
G1 X21.256 Y23.317 Z0 F800
G1 X21.189 Y23.623 Z0 F800
G1 X20.966 Y24.441 Z0 F800
G1 X20.687 Y25.22 Z0 F800
G1 X20.344 Y25.968 Z0 F800
G1 X19.932 Y26.677 Z0 F800
G1 X19.711 Y26.996 Z0 F800
G1 X19.462 Y27.313 Z0 F800
G1 X19.208 Y27.599 Z0 F800
G1 X18.928 Y27.875 Z0 F800
G1 X18.643 Y28.119 Z0 F800
G1 X18.326 Y28.351 Z0 F800
G1 X18.004 Y28.55 Z0 F800
G1 X17.676 Y28.718 Z0 F800
G1 X17.25 Y28.858 Z0 F800
G1 X16.804 Y28.956 Z0 F800
G1 X16.341 Y29.011 Z0 F800
G0 Z3.5 F500
G0 X16.254 Y23.497 Z3.5 
G1 Z0 F500
G1 X16.198 Y23.422 Z0 F800
G1 X16.165 Y23.322 Z0 F800
G1 X16.162 Y23.216 Z0 F800
G1 X16.189 Y23.118 Z0 F800
G1 Y23.115 Z0 F800
G1 X16.2 Y23.106 Z0 F800
G1 X16.21 Y23.1 Z0 F800
G1 X16.263 Y23.081 Z0 F800
G1 X16.379 Y23.05 Z0 F800
G1 X16.449 Z0 F800
G1 X16.524 Y23.076 Z0 F800
G1 X16.596 Y23.12 Z0 F800
G1 X16.65 Y23.176 Z0 F800
G1 X16.679 Y23.229 Z0 F800
G1 X16.688 Y23.274 Z0 F800
G1 X16.683 Y23.317 Z0 F800
G1 X16.636 Y23.403 Z0 F800
G1 X16.549 Y23.491 Z0 F800
G1 X16.534 Y23.5 Z0 F800
G1 X16.515 Y23.507 Z0 F800
G1 X16.503 Z0 F800
G1 X16.397 Y23.499 Z0 F800
G1 X16.277 Y23.503 Z0 F800
G1 X16.261 Y23.5 Z0 F800
G1 X16.254 Y23.497 Z0 F800
G0 Z3.5 F500
G0 X15.66 Y23.154 Z3.5 
G1 Z0 F500
G1 X15.728 Y22.913 Z0 F800
G1 X15.792 Y22.809 Z0 F800
G1 X15.878 Y22.719 Z0 F800
G1 X15.985 Y22.649 Z0 F800
G1 X16.114 Y22.603 Z0 F800
G1 X16.323 Y22.547 Z0 F800
G1 X16.534 Y22.555 Z0 F800
G1 X16.734 Y22.618 Z0 F800
G1 X16.912 Y22.728 Z0 F800
G1 X17.056 Y22.876 Z0 F800
G1 X17.154 Y23.055 Z0 F800
G1 X17.195 Y23.256 Z0 F800
G1 X17.167 Y23.472 Z0 F800
G1 X17.042 Y23.704 Z0 F800
G1 X16.861 Y23.887 Z0 F800
G1 X16.753 Y23.953 Z0 F800
G1 X16.636 Y23.995 Z0 F800
G1 X16.512 Y24.012 Z0 F800
G1 X16.382 Y24 Z0 F800
G1 X16.239 Y24.005 Z0 F800
G1 X16.111 Y23.98 Z0 F800
G1 X15.997 Y23.929 Z0 F800
G1 X15.898 Y23.856 Z0 F800
G1 X15.749 Y23.656 Z0 F800
G1 X15.668 Y23.412 Z0 F800
G1 X15.66 Y23.154 Z0 F800
G0 Z3.5 F500
G0 X15.674 Y19.747 Z3.5 
G1 Z0 F500
G1 X15.326 Y19.838 Z0 F800
G1 X14.99 Y19.964 Z0 F800
G1 X14.669 Y20.124 Z0 F800
G1 X14.367 Y20.314 Z0 F800
G1 X14.083 Y20.532 Z0 F800
G1 X13.822 Y20.776 Z0 F800
G1 X13.585 Y21.044 Z0 F800
G1 X13.376 Y21.333 Z0 F800
G1 X13.196 Y21.642 Z0 F800
G1 X13.048 Y21.967 Z0 F800
G1 X12.934 Y22.307 Z0 F800
G1 X12.857 Y22.659 Z0 F800
G1 X12.819 Y23.021 Z0 F800
G1 X12.822 Y23.391 Z0 F800
G1 X12.878 Y23.824 Z0 F800
G1 X12.98 Y24.252 Z0 F800
G1 X13.127 Y24.67 Z0 F800
G1 X13.319 Y25.07 Z0 F800
G1 X13.555 Y25.446 Z0 F800
G1 X13.835 Y25.79 Z0 F800
G1 X14.159 Y26.095 Z0 F800
G1 X14.525 Y26.354 Z0 F800
G1 X14.556 Y26.371 Z0 F800
G1 X14.976 Y26.553 Z0 F800
G1 X15.418 Y26.711 Z0 F800
G1 X15.881 Y26.829 Z0 F800
G1 X16.363 Y26.888 Z0 F800
G1 X16.404 Z0 F800
G1 X16.698 Y26.822 Z0 F800
G1 X16.951 Y26.689 Z0 F800
G1 X17.161 Y26.506 Z0 F800
G1 X17.326 Y26.29 Z0 F800
G1 X17.429 Y26.094 Z0 F800
G1 X17.503 Y25.891 Z0 F800
G1 X17.552 Y25.684 Z0 F800
G1 X17.58 Y25.477 Z0 F800
G1 X17.967 Y25.181 Z0 F800
G1 X18.298 Y24.828 Z0 F800
G1 X18.567 Y24.428 Z0 F800
G1 X18.771 Y23.989 Z0 F800
G1 X18.971 Y23.98 Z0 F800
G1 X19.166 Y23.946 Z0 F800
G1 X19.35 Y23.881 Z0 F800
G1 X19.52 Y23.783 Z0 F800
G1 X19.713 Y23.6 Z0 F800
G1 X19.857 Y23.368 Z0 F800
G1 X19.938 Y23.099 Z0 F800
G1 Y22.802 Z0 F800
G1 X19.89 Y22.477 Z0 F800
G1 X19.81 Y22.162 Z0 F800
G1 X19.7 Y21.857 Z0 F800
G1 X19.562 Y21.566 Z0 F800
G1 X19.398 Y21.289 Z0 F800
G1 X19.21 Y21.028 Z0 F800
G1 X19 Y20.786 Z0 F800
G1 X18.769 Y20.563 Z0 F800
G1 X18.519 Y20.36 Z0 F800
G1 X18.252 Y20.181 Z0 F800
G1 X17.97 Y20.027 Z0 F800
G1 X17.675 Y19.898 Z0 F800
G1 X17.369 Y19.797 Z0 F800
G1 X17.053 Y19.726 Z0 F800
G1 X16.729 Y19.686 Z0 F800
G1 X16.399 Y19.678 Z0 F800
G1 X16.033 Y19.692 Z0 F800
G1 X15.674 Y19.747 Z0 F800
G0 Z3.5 F500
G0 X13.306 Y20.007 Z3.5 
G1 Z0 F500
G1 X13.826 Y19.577 Z0 F800
G1 X14.107 Y19.392 Z0 F800
G1 X14.4 Y19.228 Z0 F800
G1 X14.703 Y19.087 Z0 F800
G1 X15.016 Y18.971 Z0 F800
G1 X15.337 Y18.881 Z0 F800
G1 X15.665 Y18.818 Z0 F800
G1 X15.998 Y18.784 Z0 F800
G1 X16.346 Y18.781 Z0 F800
G1 X16.724 Y18.785 Z0 F800
G1 X17.089 Y18.822 Z0 F800
G1 X17.449 Y18.892 Z0 F800
G1 X17.802 Y18.992 Z0 F800
G1 X18.147 Y19.122 Z0 F800
G1 X18.481 Y19.278 Z0 F800
G1 X18.802 Y19.461 Z0 F800
G1 X19.108 Y19.669 Z0 F800
G1 X19.397 Y19.899 Z0 F800
G1 X19.667 Y20.151 Z0 F800
G1 X19.916 Y20.424 Z0 F800
G1 X20.141 Y20.714 Z0 F800
G1 X20.341 Y21.022 Z0 F800
G1 X20.514 Y21.345 Z0 F800
G1 X20.657 Y21.683 Z0 F800
G1 X20.769 Y22.032 Z0 F800
G1 X20.759 Y21.971 Z0 F800
G1 X20.821 Y22.253 Z0 F800
G1 X20.953 Y22.488 Z0 F800
G1 X21.133 Y22.669 Z0 F800
G1 X21.338 Y22.79 Z0 F800
G1 X21.604 Y22.866 Z0 F800
G1 X21.856 Y22.9 Z0 F800
G1 Y22.991 Z0 F800
G1 X21.832 Y23.126 Z0 F800
G1 X21.741 Y23.44 Z0 F800
G1 X21.664 Y23.794 Z0 F800
G1 X21.669 Y23.764 Z0 F800
G1 X21.443 Y24.593 Z0 F800
G1 X21.15 Y25.41 Z0 F800
G1 X20.789 Y26.198 Z0 F800
G1 X20.356 Y26.943 Z0 F800
G1 X20.112 Y27.295 Z0 F800
G1 X19.85 Y27.629 Z0 F800
G1 X19.568 Y27.946 Z0 F800
G1 X19.268 Y28.241 Z0 F800
G1 X18.948 Y28.515 Z0 F800
G1 X18.609 Y28.764 Z0 F800
G1 X18.25 Y28.987 Z0 F800
G1 X17.87 Y29.181 Z0 F800
G1 X17.382 Y29.341 Z0 F800
G1 X16.884 Y29.45 Z0 F800
G1 X16.378 Y29.511 Z0 F800
G1 X15.853 Y29.525 Z0 F800
G1 X15.478 Y29.489 Z0 F800
G1 X15.109 Y29.374 Z0 F800
G1 X14.779 Y29.188 Z0 F800
G1 X14.518 Y28.942 Z0 F800
G1 X14.646 Y28.888 Z0 F800
G1 X14.79 Y28.813 Z0 F800
G1 X14.882 Y28.754 Z0 F800
G1 X14.972 Y28.68 Z0 F800
G1 X15.055 Y28.586 Z0 F800
G1 X15.122 Y28.469 Z0 F800
G1 X15.162 Y28.331 Z0 F800
G1 X15.168 Y28.183 Z0 F800
G1 X15.142 Y28.033 Z0 F800
G1 X15.087 Y27.89 Z0 F800
G1 X15.05 Y27.832 Z0 F800
G1 X15.001 Y27.783 Z0 F800
G1 X14.447 Y27.38 Z0 F800
G1 X13.901 Y27.015 Z0 F800
G1 X13.399 Y26.64 Z0 F800
G1 X12.974 Y26.205 Z0 F800
G1 X12.613 Y25.717 Z0 F800
G1 X12.329 Y25.189 Z0 F800
G1 X12.117 Y24.625 Z0 F800
G1 X11.979 Y24.038 Z0 F800
G1 X11.915 Y23.438 Z0 F800
G1 X11.926 Y22.834 Z0 F800
G1 X12.012 Y22.24 Z0 F800
G1 X12.175 Y21.666 Z0 F800
G1 X12.47 Y21.063 Z0 F800
G1 X12.85 Y20.506 Z0 F800
G1 X13.306 Y20.007 Z0 F800
G0 Z3.5 F500
G0 X17.794 Y31.933 Z3.5 
G1 Z0 F500
G1 X17.762 Y31.919 Z0 F800
G1 X17.584 Y31.816 Z0 F800
G1 X17.962 Y31.707 Z0 F800
G1 X17.794 Y31.933 Z0 F800
G0 Z3.5 F500
G0 X20.797 Y30.8 Z3.5 
G1 Z0 F500
G1 X20.755 Y30.702 Z0 F800
G1 X20.619 Y30.502 Z0 F800
G1 X20.487 Y30.38 Z0 F800
G1 X20.849 Y30.093 Z0 F800
G1 X21.415 Y29.539 Z0 F800
G1 X21.908 Y28.941 Z0 F800
G1 X22.143 Y28.645 Z0 F800
G1 X22.375 Y28.327 Z0 F800
G1 X22.599 Y27.983 Z0 F800
G1 X22.664 Y27.864 Z0 F800
G1 X23.091 Y27.825 Z0 F800
G1 X22.822 Y28.133 Z0 F800
G1 X21.78 Y29.433 Z0 F800
G1 X21.28 Y30.107 Z0 F800
G1 X20.8 Y30.795 Z0 F800
G1 X20.797 Y30.8 Z0 F800
G0 Z3.5 F500
G0 X20.275 Y31.582 Z3.5 
G1 Z0 F500
G1 X20.381 Y31.199 Z0 F800
G1 X20.384 Y31.137 Z0 F800
G1 X20.373 Y31.076 Z0 F800
G1 X20.315 Y30.945 Z0 F800
G1 X20.237 Y30.831 Z0 F800
G1 X20.14 Y30.74 Z0 F800
G1 X20.025 Y30.678 Z0 F800
G1 X19.903 Y30.648 Z0 F800
G1 X19.785 Z0 F800
G1 X19.672 Y30.667 Z0 F800
G1 X19.568 Y30.703 Z0 F800
G1 X19.381 Y30.801 Z0 F800
G1 X19.219 Y30.926 Z0 F800
G1 X19.083 Y31.067 Z0 F800
G1 X18.975 Y31.218 Z0 F800
G1 X18.449 Y31.889 Z0 F800
G1 X17.962 Y32.548 Z0 F800
G1 X17.537 Y32.367 Z0 F800
G1 X17.146 Y32.139 Z0 F800
G1 X16.808 Y31.859 Z0 F800
G1 X16.541 Y31.524 Z0 F800
G1 X17.269 Y31.387 Z0 F800
G1 X17.979 Y31.182 Z0 F800
G1 X18.665 Y30.91 Z0 F800
G1 X19.321 Y30.574 Z0 F800
G1 X19.941 Y30.176 Z0 F800
G1 X20.518 Y29.717 Z0 F800
G1 X21.046 Y29.2 Z0 F800
G1 X21.519 Y28.627 Z0 F800
G1 X21.745 Y28.342 Z0 F800
G1 X21.964 Y28.043 Z0 F800
G1 X22.169 Y27.727 Z0 F800
G1 X22.352 Y27.391 Z0 F800
G1 X23.325 Y27.301 Z0 F800
G1 X24.287 Y27.216 Z0 F800
G1 X23.206 Y28.454 Z0 F800
G1 X22.176 Y29.738 Z0 F800
G1 X21.686 Y30.399 Z0 F800
G1 X21.215 Y31.075 Z0 F800
G1 X20.766 Y31.766 Z0 F800
G1 X20.34 Y32.473 Z0 F800
G1 X20.246 Y32.477 Z0 F800
G1 X20.151 Y32.485 Z0 F800
G1 X19.802 Y32.556 Z0 F800
G1 X20.127 Y31.929 Z0 F800
G1 X20.275 Y31.582 Z0 F800
G0 Z3.5 F500
G0 X18.658 Y34.155 Z3.5 
G1 Z0 F500
G1 X18.625 Y34.285 Z0 F800
G1 Y34.424 Z0 F800
G1 X18.641 Y34.561 Z0 F800
G1 X18.748 Y35.264 Z0 F800
G1 X18.831 Y35.965 Z0 F800
G1 X18.885 Y37.105 Z0 F800
G1 X18.909 Y37.203 Z0 F800
G1 X18.959 Y37.291 Z0 F800
G1 X18.7 Y37.323 Z0 F800
G1 X18.438 Y37.351 Z0 F800
G1 X18.551 Y37.201 Z0 F800
G1 X18.636 Y37.033 Z0 F800
G1 X18.698 Y36.854 Z0 F800
G1 X18.746 Y36.672 Z0 F800
G1 X18.77 Y36.406 Z0 F800
G1 X18.757 Y36.139 Z0 F800
G1 X18.691 Y35.608 Z0 F800
G1 X18.654 Y35.352 Z0 F800
G1 X18.604 Y35.097 Z0 F800
G1 X18.524 Y34.852 Z0 F800
G1 X18.401 Y34.625 Z0 F800
G1 X18.308 Y34.489 Z0 F800
G1 X18.204 Y34.36 Z0 F800
G1 X18.083 Y34.25 Z0 F800
G1 X17.937 Y34.175 Z0 F800
G1 X18.338 Y34.106 Z0 F800
G1 X18.741 Y34.045 Z0 F800
G1 X18.658 Y34.155 Z0 F800
G0 Z3.5 F500
G0 X20.517 Y34.428 Z3.5 
G1 Z0 F500
G1 X20.667 Y34.455 Z0 F800
G1 X20.708 Y34.469 Z0 F800
G1 X20.788 Y34.569 Z0 F800
G1 X20.896 Y34.771 Z0 F800
G1 X20.978 Y35 Z0 F800
G1 X21.03 Y35.248 Z0 F800
G1 X21.055 Y35.519 Z0 F800
G1 Y35.792 Z0 F800
G1 X21.032 Y36.074 Z0 F800
G1 X21.002 Y36.269 Z0 F800
G1 X20.948 Y36.369 Z0 F800
G1 X20.869 Y36.442 Z0 F800
G1 X20.745 Y36.505 Z0 F800
G1 X20.571 Y36.554 Z0 F800
G1 X20.164 Y36.603 Z0 F800
G1 X20.183 Y36.36 Z0 F800
G1 Y35.914 Z0 F800
G1 X20.143 Y35.47 Z0 F800
G1 X20.066 Y35.031 Z0 F800
G1 X19.953 Y34.601 Z0 F800
G1 X19.898 Y34.447 Z0 F800
G1 X20.145 Y34.425 Z0 F800
G1 X20.332 Y34.418 Z0 F800
G1 X20.517 Y34.428 Z0 F800
G0 Z3.5 F500
G0 X21.355 Y34.568 Z3.5 
G1 Z0 F500
G1 X21.46 Y34.864 Z0 F800
G1 X21.525 Y35.175 Z0 F800
G1 X21.555 Y35.494 Z0 F800
G1 Y35.813 Z0 F800
G1 X21.53 Y36.128 Z0 F800
G1 X21.483 Y36.431 Z0 F800
G1 X21.347 Y36.68 Z0 F800
G1 X21.158 Y36.856 Z0 F800
G1 X20.927 Y36.973 Z0 F800
G1 X20.668 Y37.046 Z0 F800
G1 X20.109 Y37.114 Z0 F800
G1 X19.577 Y37.173 Z0 F800
G1 X19.65 Y36.744 Z0 F800
G1 X19.683 Y36.34 Z0 F800
G1 Y35.937 Z0 F800
G1 X19.646 Y35.535 Z0 F800
G1 X19.577 Y35.138 Z0 F800
G1 X19.475 Y34.748 Z0 F800
G1 X19.339 Y34.367 Z0 F800
G1 X19.171 Y33.998 Z0 F800
G1 X19.637 Y33.969 Z0 F800
G1 X20.108 Y33.926 Z0 F800
G1 X20.342 Y33.918 Z0 F800
G1 X20.571 Y33.93 Z0 F800
G1 X20.794 Y33.97 Z0 F800
G1 X21.009 Y34.045 Z0 F800
G1 X21.207 Y34.292 Z0 F800
G1 X21.355 Y34.568 Z0 F800
G0 Z3.5 F500
G0 X20.243 Y38.713 Z3.5 
G1 Z0 F500
G1 X20.162 Y38.967 Z0 F800
G1 X20.12 Y39.229 Z0 F800
G1 Y39.494 Z0 F800
G1 X20.159 Y39.757 Z0 F800
G1 X20.243 Y40.011 Z0 F800
G1 X20.371 Y40.251 Z0 F800
G1 X20.544 Y40.473 Z0 F800
G1 X20.662 Y40.611 Z0 F800
G1 X20.793 Y40.729 Z0 F800
G1 X20.936 Y40.829 Z0 F800
G1 X21.085 Y40.912 Z0 F800
G1 X21.063 Y41.025 Z0 F800
G1 X21.087 Y41.184 Z0 F800
G1 X21.121 Y41.345 Z0 F800
G1 X21.127 Y41.469 Z0 F800
G1 X21.108 Y41.645 Z0 F800
G1 X21.142 Y41.758 Z0 F800
G1 X21.227 Y41.862 Z0 F800
G1 X21.357 Y42.011 Z0 F800
G1 X27.1 Y50.32 Z0 F800
G1 X27.088 Y50.337 Z0 F800
G1 X27.021 Y50.327 Z0 F800
G1 X26.918 Y50.298 Z0 F800
G1 X26.794 Y50.256 Z0 F800
G1 X26.558 Y50.168 Z0 F800
G1 X26.448 Y50.125 Z0 F800
G1 X26.347 Y50.097 Z0 F800
G1 X26.222 Y50.016 Z0 F800
G1 X26.073 Y49.885 Z0 F800
G1 X25.902 Y49.708 Z0 F800
G1 X25.712 Y49.487 Z0 F800
G1 X25.504 Y49.227 Z0 F800
G1 X25.279 Y48.93 Z0 F800
G1 X25.04 Y48.6 Z0 F800
G1 X24.524 Y47.855 Z0 F800
G1 X23.97 Y47.019 Z0 F800
G1 X23.392 Y46.118 Z0 F800
G1 X22.803 Y45.18 Z0 F800
G1 X22.217 Y44.231 Z0 F800
G1 X21.649 Y43.299 Z0 F800
G1 X20.392 Y41.219 Z0 F800
G1 X19.991 Y40.559 Z0 F800
G1 X19.668 Y40.036 Z0 F800
G1 X19.542 Y39.835 Z0 F800
G1 X19.439 Y39.679 Z0 F800
G1 X19.363 Y39.571 Z0 F800
G1 X19.238 Y39.355 Z0 F800
G1 X19.139 Y39.122 Z0 F800
G1 X19.067 Y38.886 Z0 F800
G1 X19.026 Y38.658 Z0 F800
G1 X19.699 Y38.562 Z0 F800
G1 X20.363 Y38.473 Z0 F800
G1 X20.243 Y38.713 Z0 F800
G0 Z3.5 F500
G0 X30.767 Y34.828 Z3.5 
G1 Z0 F500
G1 X31.686 Y34.845 Z0 F800
G1 X32.512 Y34.848 Z0 F800
G1 X33.079 Y34.845 Z0 F800
G1 Y34.85 Z0 F800
G1 X33.043 Y35.032 Z0 F800
G1 X33.036 Y35.058 Z0 F800
G1 X33.012 Z0 F800
G1 X32.675 Y35.053 Z0 F800
G1 X32.494 Y35.037 Z0 F800
G1 X32.471 Y35.032 Z0 F800
G1 X31.726 Y34.981 Z0 F800
G1 X31.052 Y34.944 Z0 F800
G1 X30.554 Y34.911 Z0 F800
G1 X30.529 Y34.82 Z0 F800
G1 X30.767 Y34.828 Z0 F800
G0 Z3.5 F500
G0 X33.574 Y34.92 Z3.5 
G1 Z0 F500
G1 X33.529 Y35.15 Z0 F800
G1 X33.464 Y35.378 Z0 F800
G1 X33.386 Y35.593 Z0 F800
G1 X33.375 Y35.619 Z0 F800
G1 X33.2 Y35.577 Z0 F800
G1 X32.985 Y35.555 Z0 F800
G1 X32.651 Y35.552 Z0 F800
G1 X32.427 Y35.532 Z0 F800
G1 X32.408 Y35.529 Z0 F800
G1 X31.695 Y35.48 Z0 F800
G1 X31.024 Y35.443 Z0 F800
G1 X30.382 Y35.4 Z0 F800
G1 X30.139 Y35.374 Z0 F800
G1 X30.111 Y35.193 Z0 F800
G1 X30.042 Y34.932 Z0 F800
G1 X29.907 Y34.659 Z0 F800
G1 X29.786 Y34.503 Z0 F800
G1 X29.644 Y34.372 Z0 F800
G1 X29.475 Y34.264 Z0 F800
G1 X29.464 Y34.259 Z0 F800
G1 X29.873 Y34.289 Z0 F800
G1 X30.319 Y34.312 Z0 F800
G1 X30.78 Y34.329 Z0 F800
G1 X31.691 Y34.345 Z0 F800
G1 X32.511 Y34.348 Z0 F800
G1 X33.393 Y34.343 Z0 F800
G1 X33.523 Y34.364 Z0 F800
G1 X33.54 Y34.372 Z0 F800
G1 X33.565 Y34.426 Z0 F800
G1 X33.588 Y34.541 Z0 F800
G1 X33.593 Y34.718 Z0 F800
G1 X33.574 Y34.92 Z0 F800
G0 Z3.5 F500
G0 X26.975 Y23.951 Z3.5 
G1 Z0 F500
G1 X26.944 Y23.946 Z0 F800
G1 X26.462 Y23.973 Z0 F800
G1 X26.413 Y23.979 Z0 F800
G1 X26.973 Y23.865 Z0 F800
G1 Y23.951 Z0 F800
G0 Z3.5 F500
G0 X26.916 Y24.448 Z3.5 
G1 Z0 F500
G1 X26.511 Y24.471 Z0 F800
G1 X26.239 Y24.508 Z0 F800
G1 X24.602 Y24.713 Z0 F800
G1 X23.996 Y24.788 Z0 F800
G1 X24.204 Y24.525 Z0 F800
G1 X24.497 Y24.237 Z0 F800
G1 X24.819 Y23.991 Z0 F800
G1 X25.169 Y23.794 Z0 F800
G1 X25.535 Y23.653 Z0 F800
G1 X25.971 Y23.559 Z0 F800
G1 X27 Y23.349 Z0 F800
G1 X27.458 Y23.263 Z0 F800
G1 X27.49 Y24.637 Z0 F800
G1 X27.221 Y24.499 Z0 F800
G1 X26.916 Y24.448 Z0 F800
G0 Z3.5 F500
G0 X30.388 Y40.457 Z3.5 
G1 Z0 F500
G1 X30.664 Y40.47 Z0 F800
G1 X30.959 Y40.477 Z0 F800
G1 X31.029 Y40.484 Z0 F800
G1 X31.067 Y41.277 Z0 F800
G1 X31.083 Y42.439 Z0 F800
G1 X31.062 Y43.616 Z0 F800
G1 X31.024 Y44.48 Z0 F800
G1 X30.996 Z0 F800
G1 X30.744 Z0 F800
G1 X30.409 Y44.456 Z0 F800
G1 X30.392 Y44.183 Z0 F800
G1 X30.396 Y43.591 Z0 F800
G1 Y42.948 Z0 F800
G1 X30.336 Y42.249 Z0 F800
G1 X30.284 Y42.079 Z0 F800
G1 X30.184 Y41.926 Z0 F800
G1 X30.04 Y41.792 Z0 F800
G1 X30.087 Y41.747 Z0 F800
G1 X30.212 Y41.574 Z0 F800
G1 X30.333 Y41.277 Z0 F800
G1 X30.38 Y40.991 Z0 F800
G1 X30.388 Y40.457 Z0 F800
G0 Z3.5 F500
G0 X28.699 Y34.16 Z3.5 
G1 Z0 F500
G1 X28.648 Y34.166 Z0 F800
G1 X28.375 Y34.275 Z0 F800
G1 X28.287 Y34.337 Z0 F800
G1 X28.276 Y34.04 Z0 F800
G1 X28.405 Y34.088 Z0 F800
G1 X28.699 Y34.16 Z0 F800
G0 Z3.5 F500
G0 X29.24 Y34.707 Z3.5 
G1 Z0 F500
G1 X29.13 Y34.66 Z0 F800
G1 X28.945 Y34.633 Z0 F800
G1 X28.774 Y34.654 Z0 F800
G1 X28.615 Y34.717 Z0 F800
G1 X28.478 Y34.815 Z0 F800
G1 X28.368 Y34.943 Z0 F800
G1 X28.293 Y35.095 Z0 F800
G1 X28.263 Y35.265 Z0 F800
G1 X28.283 Y35.447 Z0 F800
G1 X28.277 Y35.405 Z0 F800
G1 X28.312 Y38.046 Z0 F800
G1 X28.388 Y40.688 Z0 F800
G1 Y40.711 Z0 F800
G1 X28.396 Y40.735 Z0 F800
G1 X28.451 Y40.884 Z0 F800
G1 X28.524 Y41.032 Z0 F800
G1 X28.616 Y41.176 Z0 F800
G1 X28.726 Y41.311 Z0 F800
G1 X28.855 Y41.43 Z0 F800
G1 X29.005 Y41.527 Z0 F800
G1 X29.175 Y41.593 Z0 F800
G1 X29.361 Y41.617 Z0 F800
G1 X29.39 Z0 F800
G1 X29.417 Y41.608 Z0 F800
G1 X29.53 Y41.561 Z0 F800
G1 X29.627 Y41.496 Z0 F800
G1 X29.708 Y41.418 Z0 F800
G1 X29.771 Y41.331 Z0 F800
G1 X29.848 Y41.141 Z0 F800
G1 X29.88 Y40.946 Z0 F800
G1 X29.891 Y40.28 Z0 F800
G1 X29.949 Y40.136 Z0 F800
G1 X30.058 Y40.013 Z0 F800
G1 X30.19 Y39.946 Z0 F800
G1 X30.326 Y39.949 Z0 F800
G1 X30.359 Y39.955 Z0 F800
G1 X30.682 Y39.97 Z0 F800
G1 X30.99 Y39.978 Z0 F800
G1 X31.27 Y40.006 Z0 F800
G1 X31.511 Y40.085 Z0 F800
G1 X31.567 Y41.266 Z0 F800
G1 X31.583 Y42.448 Z0 F800
G1 X31.562 Y43.628 Z0 F800
G1 X31.51 Y44.807 Z0 F800
G1 X31.49 Y44.877 Z0 F800
G1 X31.453 Y44.917 Z0 F800
G1 X31.383 Y44.949 Z0 F800
G1 X31.278 Y44.973 Z0 F800
G1 X31.01 Y44.981 Z0 F800
G1 X30.726 Z0 F800
G1 X30.199 Y44.941 Z0 F800
G1 X30.089 Y44.918 Z0 F800
G1 X30.007 Y44.884 Z0 F800
G1 X29.96 Y44.844 Z0 F800
G1 X29.93 Y44.788 Z0 F800
G1 X29.892 Y44.198 Z0 F800
G1 X29.896 Y43.59 Z0 F800
G1 Y42.97 Z0 F800
G1 X29.842 Y42.344 Z0 F800
G1 X29.827 Y42.294 Z0 F800
G1 X29.799 Y42.251 Z0 F800
G1 X29.59 Y42.057 Z0 F800
G1 X29.326 Y41.896 Z0 F800
G1 X29.174 Y41.84 Z0 F800
G1 X29.012 Y41.809 Z0 F800
G1 X28.844 Y41.813 Z0 F800
G1 X28.676 Y41.861 Z0 F800
G1 X28.642 Y41.881 Z0 F800
G1 X28.612 Y41.909 Z0 F800
G1 X28.494 Y42.093 Z0 F800
G1 X28.431 Y42.289 Z0 F800
G1 X28.407 Y42.488 Z0 F800
G1 X28.41 Y42.684 Z0 F800
G1 X28.44 Y43.047 Z0 F800
G1 Y43.362 Z0 F800
G1 X28.448 Y43.678 Z0 F800
G1 X28.459 Y43.913 Z0 F800
G1 X28.451 Y43.959 Z0 F800
G1 X28.437 Z0 F800
G1 X28.328 Y43.937 Z0 F800
G1 X28.274 Y43.928 Z0 F800
G1 X28.22 Y43.937 Z0 F800
G1 X28.141 Y43.953 Z0 F800
G1 X28.138 Y43.943 Z0 F800
G1 X28.125 Y43.792 Z0 F800
G1 X28.114 Y43.566 Z0 F800
G1 Y43.575 Z0 F800
G1 X27.937 Y39.05 Z0 F800
G1 X27.793 Y34.518 Z0 F800
G1 X27.636 Y29.981 Z0 F800
G1 X27.418 Y25.447 Z0 F800
G1 X27.397 Y25.327 Z0 F800
G1 X27.358 Y25.225 Z0 F800
G1 X27.302 Y25.137 Z0 F800
G1 X27.23 Y25.065 Z0 F800
G1 X27.063 Y24.979 Z0 F800
G1 X26.889 Y24.951 Z0 F800
G1 X26.559 Y24.969 Z0 F800
G1 X26.301 Y25.004 Z0 F800
G1 X24.664 Y25.209 Z0 F800
G1 X23.076 Y25.403 Z0 F800
G1 X23.281 Y24.97 Z0 F800
G1 X23.534 Y24.564 Z0 F800
G1 X23.831 Y24.191 Z0 F800
G1 X24.169 Y23.858 Z0 F800
G1 X24.544 Y23.572 Z0 F800
G1 X24.953 Y23.341 Z0 F800
G1 X25.393 Y23.172 Z0 F800
G1 X25.866 Y23.07 Z0 F800
G1 X26.908 Y22.857 Z0 F800
G1 X27.945 Y22.664 Z0 F800
G1 X28.068 Y27.984 Z0 F800
G1 X28.214 Y33.303 Z0 F800
G1 X28.264 Y33.434 Z0 F800
G1 X28.352 Y33.518 Z0 F800
G1 X28.446 Y33.57 Z0 F800
G1 X28.552 Y33.609 Z0 F800
G1 X28.81 Y33.672 Z0 F800
G1 X29.126 Y33.721 Z0 F800
G1 X29.495 Y33.76 Z0 F800
G1 X29.904 Y33.79 Z0 F800
G1 X30.341 Y33.813 Z0 F800
G1 X30.793 Y33.829 Z0 F800
G1 X31.697 Y33.845 Z0 F800
G1 X32.511 Y33.848 Z0 F800
G1 X33.43 Y33.843 Z0 F800
G1 X33.676 Y33.881 Z0 F800
G1 X33.85 Y33.968 Z0 F800
G1 X33.967 Y34.099 Z0 F800
G1 X34.043 Y34.272 Z0 F800
G1 X34.087 Y34.485 Z0 F800
G1 X34.094 Y34.73 Z0 F800
G1 X34.069 Y34.995 Z0 F800
G1 X34.016 Y35.266 Z0 F800
G1 X33.94 Y35.533 Z0 F800
G1 X33.85 Y35.782 Z0 F800
G1 X33.752 Y36.001 Z0 F800
G1 X33.655 Y36.18 Z0 F800
G1 X33.612 Y36.243 Z0 F800
G1 X33.578 Y36.282 Z0 F800
G1 X33.433 Y36.178 Z0 F800
G1 X33.277 Y36.11 Z0 F800
G1 X33.116 Y36.071 Z0 F800
G1 X32.958 Y36.055 Z0 F800
G1 X32.627 Y36.052 Z0 F800
G1 X32.358 Y36.028 Z0 F800
G1 X32.345 Z0 F800
G1 X31.665 Y35.979 Z0 F800
G1 X30.998 Y35.943 Z0 F800
G1 X30.341 Y35.899 Z0 F800
G1 X29.704 Y35.83 Z0 F800
G1 X29.621 Y35.296 Z0 F800
G1 X29.571 Y35.108 Z0 F800
G1 X29.482 Y34.927 Z0 F800
G1 X29.417 Y34.843 Z0 F800
G1 X29.336 Y34.769 Z0 F800
G1 X29.24 Y34.707 Z0 F800
G0 Z3.5 F500
G0 X35.076 Y25.969 Z3.5 
G1 Z0 F500
G1 X34.396 Y26.919 Z0 F800
G1 X34.371 Y26.978 Z0 F800
G1 X34.079 Z0 F800
G1 X34.068 Y26.675 Z0 F800
G1 X34.05 Y25.882 Z0 F800
G1 X35.125 Y25.825 Z0 F800
G1 X35.275 Y25.82 Z0 F800
G1 X35.076 Y25.969 Z0 F800
G0 Z3.5 F500
G0 X33.567 Y26.673 Z3.5 
G1 Z0 F500
G1 X33.546 Y25.704 Z0 F800
G1 Y25.409 Z0 F800
G1 X35.103 Y25.325 Z0 F800
G1 X36.707 Y25.277 Z0 F800
G1 Y25.372 Z0 F800
G1 X36.702 Y25.509 Z0 F800
G1 X36.313 Y25.669 Z0 F800
G1 X35.438 Y26.323 Z0 F800
G1 X34.834 Y27.165 Z0 F800
G1 X34.702 Y27.477 Z0 F800
G1 X33.598 Z0 F800
G1 X33.567 Y26.673 Z0 F800
G0 Z3.5 F500
G0 X33.043 Y24.935 Z3.5 
G1 Z0 F500
G1 X35.083 Y24.826 Z0 F800
G1 X37.131 Y24.765 Z0 F800
G1 X37.215 Z0 F800
G1 X37.205 Y25.412 Z0 F800
G1 X37.192 Y25.849 Z0 F800
G1 X36.561 Y26.108 Z0 F800
G1 X35.799 Y26.677 Z0 F800
G1 X35.273 Y27.411 Z0 F800
G1 X35.034 Y27.976 Z0 F800
G1 X33.117 Y27.98 Z0 F800
G1 X33.067 Y26.674 Z0 F800
G1 X33.046 Y25.716 Z0 F800
G1 X33.043 Y24.935 Z0 F800
G0 Z3.5 F500
G0 X32.999 Y24.437 Z3.5 
G1 Z0 F500
G1 X35.061 Y24.326 Z0 F800
G1 X37.134 Y24.265 Z0 F800
G1 X37.723 Y24.26 Z0 F800
G1 X37.705 Y25.401 Z0 F800
G1 X37.682 Y26.201 Z0 F800
G1 X37.611 Y26.217 Z0 F800
G1 X36.81 Y26.546 Z0 F800
G1 X36.16 Y27.031 Z0 F800
G1 X35.712 Y27.657 Z0 F800
G1 X35.44 Y28.298 Z0 F800
G1 X35.394 Y28.459 Z0 F800
G1 X35.287 Y28.476 Z0 F800
G1 X32.854 Y28.481 Z0 F800
G1 X32.635 Z0 F800
G1 X32.569 Y26.73 Z0 F800
G1 X32.546 Y25.704 Z0 F800
G1 X32.543 Y24.722 Z0 F800
G1 X32.549 Y24.472 Z0 F800
G1 X32.999 Y24.437 Z0 F800
G0 Z3.5 F500
G0 X35.04 Y23.826 Z3.5 
G1 Z0 F500
G1 X37.115 Y23.765 Z0 F800
G1 X38.229 Y23.757 Z0 F800
G1 Y23.947 Z0 F800
G1 X38.205 Y25.416 Z0 F800
G1 X38.17 Y26.603 Z0 F800
G1 X37.762 Y26.695 Z0 F800
G1 X37.058 Y26.984 Z0 F800
G1 X36.521 Y27.385 Z0 F800
G1 X36.151 Y27.903 Z0 F800
G1 X35.912 Y28.466 Z0 F800
G1 X35.779 Y28.923 Z0 F800
G1 X35.457 Y28.956 Z0 F800
G1 X35.329 Y28.976 Z0 F800
G1 X32.856 Y28.981 Z0 F800
G1 X32.153 Y28.985 Z0 F800
G1 X32.147 Y28.813 Z0 F800
G1 X32.069 Y26.731 Z0 F800
G1 X32.046 Y25.716 Z0 F800
G1 X32.043 Y24.729 Z0 F800
G1 X32.061 Y24.008 Z0 F800
G1 X32.973 Y23.937 Z0 F800
G1 X35.04 Y23.826 Z0 F800
G0 Z3.5 F500
G0 X37.119 Y23.265 Z3.5 
G1 Z0 F500
G1 X38.73 Y23.253 Z0 F800
G1 Y23.933 Z0 F800
G1 X38.705 Y25.431 Z0 F800
G1 X38.66 Y26.945 Z0 F800
G1 X38.656 Y27.033 Z0 F800
G1 X38.447 Y27.053 Z0 F800
G1 X37.914 Y27.174 Z0 F800
G1 X37.307 Y27.423 Z0 F800
G1 X36.883 Y27.739 Z0 F800
G1 X36.589 Y28.149 Z0 F800
G1 X36.384 Y28.634 Z0 F800
G1 X36.266 Y29.04 Z0 F800
G1 X36.199 Y29.394 Z0 F800
G1 X35.902 Y29.414 Z0 F800
G1 X35.52 Y29.452 Z0 F800
G1 X35.365 Y29.476 Z0 F800
G1 X32.858 Y29.481 Z0 F800
G1 X31.671 Y29.487 Z0 F800
G1 X31.647 Y28.832 Z0 F800
G1 X31.568 Y26.73 Z0 F800
G1 X31.546 Y25.729 Z0 F800
G1 X31.543 Y24.717 Z0 F800
G1 X31.567 Y23.735 Z0 F800
G1 X31.578 Y23.544 Z0 F800
G1 X32.929 Y23.439 Z0 F800
G1 X35.019 Y23.327 Z0 F800
G1 X37.119 Y23.265 Z0 F800
G0 Z3.5 F500
G0 X39.232 Y22.75 Z3.5 
G1 Z0 F500
G1 X39.228 Y23.941 Z0 F800
G1 X39.204 Y25.459 Z0 F800
G1 X39.161 Y26.947 Z0 F800
G1 X39.136 Y27.506 Z0 F800
G1 X38.946 Z0 F800
G1 X38.526 Y27.548 Z0 F800
G1 X38.065 Y27.652 Z0 F800
G1 X37.555 Y27.861 Z0 F800
G1 X37.245 Y28.093 Z0 F800
G1 X37.028 Y28.396 Z0 F800
G1 X36.855 Y28.802 Z0 F800
G1 X36.752 Y29.157 Z0 F800
G1 X36.688 Y29.493 Z0 F800
G1 X36.654 Y29.816 Z0 F800
G1 Y29.868 Z0 F800
G1 X36.318 Y29.887 Z0 F800
G1 X35.944 Y29.913 Z0 F800
G1 X35.582 Y29.948 Z0 F800
G1 X35.403 Y29.976 Z0 F800
G1 X32.86 Y29.981 Z0 F800
G1 X31.189 Y29.99 Z0 F800
G1 X31.148 Y28.851 Z0 F800
G1 X31.069 Y26.749 Z0 F800
G1 X31.046 Y25.739 Z0 F800
G1 X31.043 Y24.7 Z0 F800
G1 X31.067 Y23.728 Z0 F800
G1 X31.104 Y23.08 Z0 F800
G1 X32.902 Y22.939 Z0 F800
G1 X34.999 Y22.827 Z0 F800
G1 X37.1 Y22.765 Z0 F800
G1 X39.202 Y22.75 Z0 F800
G1 X39.232 Z0 F800
G0 Z3.5 F500
G0 X39.734 Y22.415 Z3.5 
G1 Z0 F500
G1 X39.728 Y23.949 Z0 F800
G1 X39.704 Y25.46 Z0 F800
G1 X39.66 Y26.977 Z0 F800
G1 X39.614 Y28.006 Z0 F800
G1 X39.303 Z0 F800
G1 X38.973 Z0 F800
G1 X38.605 Y28.042 Z0 F800
G1 X38.216 Y28.13 Z0 F800
G1 X37.804 Y28.3 Z0 F800
G1 X37.606 Y28.448 Z0 F800
G1 X37.467 Y28.642 Z0 F800
G1 X37.328 Y28.971 Z0 F800
G1 X37.239 Y29.273 Z0 F800
G1 X37.184 Y29.566 Z0 F800
G1 X37.153 Y29.852 Z0 F800
G1 X37.137 Y30.34 Z0 F800
G1 X36.984 Y30.35 Z0 F800
G1 X36.35 Y30.386 Z0 F800
G1 X35.985 Y30.411 Z0 F800
G1 X35.645 Y30.444 Z0 F800
G1 X35.443 Y30.475 Z0 F800
G1 X32.862 Y30.481 Z0 F800
G1 X30.706 Y30.493 Z0 F800
G1 X30.648 Y28.869 Z0 F800
G1 X30.569 Y26.775 Z0 F800
G1 X30.546 Y25.731 Z0 F800
G1 X30.543 Y24.715 Z0 F800
G1 X30.568 Y23.682 Z0 F800
G1 X30.627 Y22.665 Z0 F800
G1 Y22.652 Z0 F800
G1 X30.635 Y22.609 Z0 F800
G1 X30.666 Y22.606 Z0 F800
G1 X30.688 Z0 F800
G1 X30.755 Z0 F800
G1 X32.858 Y22.441 Z0 F800
G1 X34.977 Y22.328 Z0 F800
G1 X37.1 Y22.265 Z0 F800
G1 X39.207 Y22.25 Z0 F800
G1 X39.371 Y22.253 Z0 F800
G1 X39.499 Y22.273 Z0 F800
G1 X39.618 Y22.31 Z0 F800
G1 X39.709 Y22.354 Z0 F800
G1 X39.733 Y22.372 Z0 F800
G1 Y22.408 Z0 F800
G1 Y22.415 Z0 F800
G0 Z3.5 F500
G0 X39.304 Y28.504 Z3.5 
G1 Z0 F500
G1 X38.999 Y28.507 Z0 F800
G1 X38.685 Y28.537 Z0 F800
G1 X38.367 Y28.609 Z0 F800
G1 X38.052 Y28.738 Z0 F800
G1 X37.967 Y28.802 Z0 F800
G1 X37.906 Y28.888 Z0 F800
G1 X37.799 Y29.139 Z0 F800
G1 X37.726 Y29.39 Z0 F800
G1 X37.679 Y29.64 Z0 F800
G1 X37.652 Y29.886 Z0 F800
G1 X37.637 Y30.363 Z0 F800
G1 X37.631 Y30.809 Z0 F800
G1 X37.448 Y30.822 Z0 F800
G1 X37.016 Y30.849 Z0 F800
G1 X36.381 Y30.885 Z0 F800
G1 X36.027 Y30.909 Z0 F800
G1 X35.707 Y30.94 Z0 F800
G1 X35.482 Y30.975 Z0 F800
G1 X32.864 Y30.981 Z0 F800
G1 X30.224 Y30.996 Z0 F800
G1 X30.148 Y28.887 Z0 F800
G1 X30.069 Y26.787 Z0 F800
G1 X30.046 Y25.742 Z0 F800
G1 X30.043 Y24.703 Z0 F800
G1 X30.068 Y23.669 Z0 F800
G1 X30.128 Y22.644 Z0 F800
G1 Y22.606 Z0 F800
G1 X30.164 Y22.39 Z0 F800
G1 X30.272 Y22.224 Z0 F800
G1 X30.441 Y22.125 Z0 F800
G1 X30.658 Y22.105 Z0 F800
G1 X30.691 Z0 F800
G1 X30.725 Z0 F800
G1 X32.832 Y21.942 Z0 F800
G1 X34.956 Y21.828 Z0 F800
G1 X37.084 Y21.765 Z0 F800
G1 X39.212 Y21.75 Z0 F800
G1 X39.414 Y21.753 Z0 F800
G1 X39.612 Y21.785 Z0 F800
G1 X39.802 Y21.843 Z0 F800
G1 X39.967 Y21.923 Z0 F800
G1 X40.095 Y22.017 Z0 F800
G1 X40.184 Y22.123 Z0 F800
G1 X40.23 Y22.251 Z0 F800
G1 X40.235 Y22.414 Z0 F800
G1 Y22.43 Z0 F800
G1 X40.228 Y23.957 Z0 F800
G1 X40.204 Y25.475 Z0 F800
G1 X40.16 Y26.992 Z0 F800
G1 X40.092 Y28.5 Z0 F800
G1 X39.715 Y28.507 Z0 F800
G1 X39.304 Y28.504 Z0 F800
G0 Z3.5 F500
G0 X46.182 Y28.136 Z3.5 
G1 Z0 F500
G1 X46.023 Z0 F800
G1 X45.293 Y28.132 Z0 F800
G1 X45.317 Y27.163 Z0 F800
G1 X45.32 Y26.961 Z0 F800
G1 X46.182 Y28.136 Z0 F800
G0 Z3.5 F500
G0 X47.161 Y28.638 Z3.5 
G1 Z0 F500
G1 X46.02 Z0 F800
G1 X44.78 Y28.628 Z0 F800
G1 X44.817 Y27.153 Z0 F800
G1 X44.838 Y25.521 Z0 F800
G1 Y25.475 Z0 F800
G1 X45.095 Y25.808 Z0 F800
G1 X46.724 Y28.03 Z0 F800
G1 X47.161 Y28.638 Z0 F800
G0 Z3.5 F500
G0 X48.138 Y29.139 Z3.5 
G1 Z0 F500
G1 X46.017 Y29.136 Z0 F800
G1 X44.258 Y29.125 Z0 F800
G1 X44.264 Y29.004 Z0 F800
G1 X44.272 Y28.957 Z0 F800
G1 X44.317 Y27.144 Z0 F800
G1 X44.338 Y25.509 Z0 F800
G1 X44.373 Y24.044 Z0 F800
G1 X45.477 Y25.484 Z0 F800
G1 X47.141 Y27.753 Z0 F800
G1 X48.138 Y29.139 Z0 F800
G0 Z3.5 F500
G0 X49.114 Y29.64 Z3.5 
G1 Z0 F500
G1 X46.013 Y29.636 Z0 F800
G1 X43.767 Y29.622 Z0 F800
G1 Y29.565 Z0 F800
G1 X43.756 Y29.151 Z0 F800
G1 X43.767 Y28.948 Z0 F800
G1 X43.773 Y28.911 Z0 F800
G1 X43.818 Y27.134 Z0 F800
G1 X43.839 Y25.482 Z0 F800
G1 X43.876 Y23.885 Z0 F800
G1 X43.924 Y23.026 Z0 F800
G1 X43.966 Z0 F800
G1 X44.2 Y23.03 Z0 F800
G1 X44.227 Z0 F800
G1 X45.889 Y25.201 Z0 F800
G1 X47.536 Y27.446 Z0 F800
G1 X49.114 Y29.64 Z0 F800
G0 Z3.5 F500
G0 X50.093 Y30.142 Z3.5 
G1 Z0 F500
G1 X46.01 Y30.136 Z0 F800
G1 X43.219 Y30.119 Z0 F800
G1 X43.257 Y29.89 Z0 F800
G1 X43.269 Y29.563 Z0 F800
G1 X43.256 Y29.146 Z0 F800
G1 X43.269 Y28.898 Z0 F800
G1 X43.274 Y28.864 Z0 F800
G1 X43.318 Y27.125 Z0 F800
G1 X43.339 Y25.476 Z0 F800
G1 X43.375 Y23.882 Z0 F800
G1 X43.449 Y22.564 Z0 F800
G1 X43.535 Y22.548 Z0 F800
G1 X43.733 Y22.531 Z0 F800
G1 X43.978 Y22.526 Z0 F800
G1 X44.217 Y22.53 Z0 F800
G1 X44.441 Y22.544 Z0 F800
G1 X44.504 Y22.561 Z0 F800
G1 X44.547 Y22.628 Z0 F800
G1 X46.295 Y24.91 Z0 F800
G1 X47.942 Y27.154 Z0 F800
G1 X49.588 Y29.443 Z0 F800
G1 X50.093 Y30.142 Z0 F800
G0 Z3.5 F500
G0 X51.073 Y30.643 Z3.5 
G1 Z0 F500
G1 X46.007 Y30.636 Z0 F800
G1 X42.493 Y30.614 Z0 F800
G1 X42.581 Y30.49 Z0 F800
G1 X42.707 Y30.155 Z0 F800
G1 X42.758 Y29.84 Z0 F800
G1 X42.769 Y29.563 Z0 F800
G1 X42.755 Y29.142 Z0 F800
G1 X42.771 Y28.841 Z0 F800
G1 X42.775 Y28.817 Z0 F800
G1 X42.818 Y27.115 Z0 F800
G1 X42.839 Y25.475 Z0 F800
G1 X42.877 Y23.838 Z0 F800
G1 X42.962 Y22.309 Z0 F800
G1 X42.993 Y22.233 Z0 F800
G1 X43.028 Y22.192 Z0 F800
G1 X43.104 Y22.145 Z0 F800
G1 X43.252 Y22.093 Z0 F800
G1 X43.462 Y22.052 Z0 F800
G1 X43.708 Y22.031 Z0 F800
G1 X43.977 Y22.025 Z0 F800
G1 X44.234 Y22.03 Z0 F800
G1 X44.52 Y22.048 Z0 F800
G1 X44.731 Y22.104 Z0 F800
G1 X44.782 Y22.129 Z0 F800
G1 X44.833 Y22.167 Z0 F800
G1 X44.873 Y22.208 Z0 F800
G1 X44.958 Y22.341 Z0 F800
G1 X46.686 Y24.597 Z0 F800
G1 X48.351 Y26.866 Z0 F800
G1 X49.994 Y29.151 Z0 F800
G1 X51.073 Y30.643 Z0 F800
G0 Z3.5 F500
G0 X52.053 Y31.144 Z3.5 
G1 Z0 F500
G1 X46.004 Y31.136 Z0 F800
G1 X39.952 Y31.098 Z0 F800
G1 X39.912 Y31.102 Z0 F800
G1 X39.757 Y31.14 Z0 F800
G1 X39.721 Z0 F800
G1 X39.717 Y31.136 Z0 F800
G1 X39.703 Y31.098 Z0 F800
G1 X39.694 Y30.924 Z0 F800
G1 X39.71 Y30.674 Z0 F800
G1 X40.23 Y30.682 Z0 F800
G1 X40.774 Y30.696 Z0 F800
G1 X41.053 Y30.688 Z0 F800
G1 X41.334 Y30.662 Z0 F800
G1 X41.616 Y30.609 Z0 F800
G1 X41.897 Y30.525 Z0 F800
G1 X41.945 Y30.5 Z0 F800
G1 X41.986 Y30.466 Z0 F800
G1 X42.135 Y30.254 Z0 F800
G1 X42.221 Y30.025 Z0 F800
G1 X42.26 Y29.791 Z0 F800
G1 X42.268 Y29.561 Z0 F800
G1 X42.255 Y29.137 Z0 F800
G1 X42.273 Y28.789 Z0 F800
G1 X42.276 Y28.771 Z0 F800
G1 X42.318 Y27.106 Z0 F800
G1 X42.339 Y25.463 Z0 F800
G1 X42.377 Y23.826 Z0 F800
G1 X42.468 Y22.198 Z0 F800
G1 X42.558 Y21.973 Z0 F800
G1 X42.699 Y21.808 Z0 F800
G1 X42.887 Y21.691 Z0 F800
G1 X43.121 Y21.609 Z0 F800
G1 X43.394 Y21.557 Z0 F800
G1 X43.683 Y21.531 Z0 F800
G1 X43.975 Y21.525 Z0 F800
G1 X44.251 Y21.53 Z0 F800
G1 X44.601 Y21.552 Z0 F800
G1 X44.908 Y21.633 Z0 F800
G1 X45.043 Y21.701 Z0 F800
G1 X45.165 Y21.79 Z0 F800
G1 X45.27 Y21.9 Z0 F800
G1 X45.368 Y22.055 Z0 F800
G1 X47.089 Y24.301 Z0 F800
G1 X48.754 Y26.57 Z0 F800
G1 X50.399 Y28.858 Z0 F800
G1 X52.053 Y31.144 Z0 F800
G0 Z3.5 F500
G0 X58.804 Y26.854 Z3.5 
G1 Z0 F500
G1 X58.773 Y26.846 Z0 F800
G1 X58.869 Y26.871 Z0 F800
G1 X58.962 Y26.891 Z0 F800
G1 X58.685 Y27.185 Z0 F800
G1 X58.407 Y27.461 Z0 F800
G1 X58.124 Y27.711 Z0 F800
G1 X57.834 Y27.927 Z0 F800
G1 X57.304 Y27.883 Z0 F800
G1 X57.342 Z0 F800
G1 X57.38 Y27.88 Z0 F800
G1 X57.7 Y27.728 Z0 F800
G1 X57.947 Y27.526 Z0 F800
G1 X58.144 Y27.31 Z0 F800
G1 X58.313 Y27.115 Z0 F800
G1 X58.463 Y26.968 Z0 F800
G1 X58.588 Y26.88 Z0 F800
G1 X58.685 Y26.844 Z0 F800
G1 X58.804 Y26.854 Z0 F800
G0 Z3.5 F500
G0 X51.802 Y24.513 Z3.5 
G1 Z0 F500
G1 X52.205 Y24.738 Z0 F800
G1 X52.094 Y24.935 Z0 F800
G1 X51.935 Y25.231 Z0 F800
G1 X51.814 Y25.65 Z0 F800
G1 Y25.683 Z0 F800
G1 X51.696 Y25.53 Z0 F800
G1 X51.365 Y25.041 Z0 F800
G1 X51.026 Y24.549 Z0 F800
G1 X50.973 Y24.469 Z0 F800
G1 X50.993 Y24.457 Z0 F800
G1 X51.342 Y24.204 Z0 F800
G1 X51.802 Y24.513 Z0 F800
G0 Z3.5 F500
G0 X52.532 Y25.175 Z3.5 
G1 Z0 F500
G1 X52.401 Y25.42 Z0 F800
G1 X52.311 Y25.732 Z0 F800
G1 X52.295 Y26.063 Z0 F800
G1 X52.365 Y26.399 Z0 F800
G1 X52.541 Y26.73 Z0 F800
G1 X52.799 Y27.002 Z0 F800
G1 X52.814 Y27.011 Z0 F800
G1 X52.128 Y26.953 Z0 F800
G1 X52.036 Y26.85 Z0 F800
G1 X51.812 Y26.54 Z0 F800
G1 X51.556 Y26.17 Z0 F800
G1 X51.289 Y25.821 Z0 F800
G1 X50.953 Y25.323 Z0 F800
G1 X50.605 Y24.819 Z0 F800
G1 X50.297 Y24.354 Z0 F800
G1 X50.264 Y24.296 Z0 F800
G1 X50.423 Y24.208 Z0 F800
G1 X50.722 Y24.037 Z0 F800
G1 X51.047 Y23.8 Z0 F800
G1 X51.304 Y23.539 Z0 F800
G1 X51.629 Y23.795 Z0 F800
G1 X52.064 Y24.086 Z0 F800
G1 X52.521 Y24.343 Z0 F800
G1 X52.991 Y24.557 Z0 F800
G1 X52.733 Y24.819 Z0 F800
G1 X52.532 Y25.175 Z0 F800
G0 Z3.5 F500
G0 X51.407 Y26.833 Z3.5 
G1 Z0 F500
G1 X51.152 Y26.465 Z0 F800
G1 X50.884 Y26.115 Z0 F800
G1 X50.54 Y25.604 Z0 F800
G1 X50.193 Y25.103 Z0 F800
G1 X49.868 Y24.61 Z0 F800
G1 X49.581 Y24.118 Z0 F800
G1 X49.857 Y23.951 Z0 F800
G1 X50.177 Y23.772 Z0 F800
G1 X50.45 Y23.616 Z0 F800
G1 X50.72 Y23.42 Z0 F800
G1 X50.965 Y23.171 Z0 F800
G1 X51.162 Y22.854 Z0 F800
G1 X51.173 Y22.828 Z0 F800
G1 X51.183 Y22.8 Z0 F800
G1 Y22.764 Z0 F800
G1 X51.542 Y23.09 Z0 F800
G1 X51.923 Y23.39 Z0 F800
G1 X52.326 Y23.66 Z0 F800
G1 X52.748 Y23.896 Z0 F800
G1 X53.189 Y24.098 Z0 F800
G1 X53.648 Y24.262 Z0 F800
G1 X54.123 Y24.385 Z0 F800
G1 X54.614 Y24.465 Z0 F800
G1 X54.894 Y24.486 Z0 F800
G1 X55.169 Z0 F800
G1 X55.035 Y24.535 Z0 F800
G1 X54.894 Y24.561 Z0 F800
G1 X54.415 Y24.576 Z0 F800
G1 X54.157 Y24.597 Z0 F800
G1 X53.885 Y24.643 Z0 F800
G1 X53.617 Y24.737 Z0 F800
G1 X53.359 Y24.896 Z0 F800
G1 X53.136 Y25.123 Z0 F800
G1 X52.971 Y25.416 Z0 F800
G1 X52.867 Y25.61 Z0 F800
G1 X52.808 Y25.815 Z0 F800
G1 X52.797 Y26.024 Z0 F800
G1 X52.84 Y26.228 Z0 F800
G1 X52.95 Y26.436 Z0 F800
G1 X53.116 Y26.61 Z0 F800
G1 X53.325 Y26.738 Z0 F800
G1 X53.568 Y26.807 Z0 F800
G1 X53.489 Y26.788 Z0 F800
G1 X54.376 Y27.088 Z0 F800
G1 X55.271 Y27.368 Z0 F800
G1 X56.171 Y27.626 Z0 F800
G1 X57.073 Y27.864 Z0 F800
G1 X54.466 Y27.654 Z0 F800
G1 X51.887 Y27.434 Z0 F800
G1 X51.646 Y27.163 Z0 F800
G1 X51.407 Y26.833 Z0 F800
G0 Z3.5 F500
G0 X49.329 Y21.01 Z3.5 
G1 Z0 F500
G1 X49.441 Y21.241 Z0 F800
G1 X49.186 Y21.34 Z0 F800
G1 X48.77 Y21.538 Z0 F800
G1 X48.493 Y21.678 Z0 F800
G1 X48.347 Y21.464 Z0 F800
G1 X48.267 Y21.325 Z0 F800
G1 X48.779 Y21.015 Z0 F800
G1 X49.221 Y20.743 Z0 F800
G1 X49.329 Y21.01 Z0 F800
G0 Z3.5 F500
G0 X49.821 Y21.63 Z3.5 
G1 Z0 F500
G1 X49.384 Y21.799 Z0 F800
G1 X48.99 Y21.986 Z0 F800
G1 X48.636 Y22.166 Z0 F800
G1 X48.319 Y22.312 Z0 F800
G1 X47.919 Y21.724 Z0 F800
G1 X47.591 Y21.15 Z0 F800
G1 X48.519 Y20.588 Z0 F800
G1 X49.485 Y19.994 Z0 F800
G1 X49.624 Y20.405 Z0 F800
G1 X49.786 Y20.806 Z0 F800
G1 X49.975 Y21.195 Z0 F800
G1 X50.191 Y21.57 Z0 F800
G1 X50.004 Y21.58 Z0 F800
G1 X49.821 Y21.63 Z0 F800
G0 Z3.5 F500
G0 X55.817 Y17.805 Z3.5 
G1 Z0 F500
G1 X55.899 Y17.858 Z0 F800
G1 X55.907 Y17.874 Z0 F800
G1 X55.913 Y17.892 Z0 F800
G1 X55.917 Y17.943 Z0 F800
G1 X55.913 Y18.121 Z0 F800
G1 X55.862 Y18.257 Z0 F800
G1 X55.855 Y18.266 Z0 F800
G1 X55.814 Y18.269 Z0 F800
G1 X55.689 Z0 F800
G1 X55.631 Y18.255 Z0 F800
G1 X55.576 Y18.224 Z0 F800
G1 X55.531 Y18.18 Z0 F800
G1 X55.499 Y18.129 Z0 F800
G1 X55.484 Y18.079 Z0 F800
G1 Y18.03 Z0 F800
G1 X55.519 Y17.903 Z0 F800
G1 X55.54 Y17.833 Z0 F800
G1 X55.546 Y17.821 Z0 F800
G1 X55.554 Y17.813 Z0 F800
G1 X55.633 Y17.784 Z0 F800
G1 X55.728 Y17.781 Z0 F800
G1 X55.817 Y17.805 Z0 F800
G0 Z3.5 F500
G0 X56.418 Y17.93 Z3.5 
G1 Z0 F500
G1 X56.41 Y18.217 Z0 F800
G1 X56.306 Y18.498 Z0 F800
G1 X56.22 Y18.614 Z0 F800
G1 X56.111 Y18.704 Z0 F800
G1 X55.981 Y18.758 Z0 F800
G1 X55.831 Y18.769 Z0 F800
G1 X55.628 Y18.772 Z0 F800
G1 X55.44 Y18.722 Z0 F800
G1 X55.274 Y18.628 Z0 F800
G1 X55.139 Y18.497 Z0 F800
G1 X55.04 Y18.337 Z0 F800
G1 X54.985 Y18.157 Z0 F800
G1 X54.982 Y17.964 Z0 F800
G1 X55.038 Y17.767 Z0 F800
G1 X55.077 Y17.636 Z0 F800
G1 X55.139 Y17.526 Z0 F800
G1 X55.219 Y17.437 Z0 F800
G1 X55.315 Y17.367 Z0 F800
G1 X55.541 Y17.286 Z0 F800
G1 X55.786 Y17.279 Z0 F800
G1 X56.024 Y17.344 Z0 F800
G1 X56.228 Y17.476 Z0 F800
G1 X56.308 Y17.566 Z0 F800
G1 X56.368 Y17.672 Z0 F800
G1 X56.406 Y17.793 Z0 F800
G1 X56.418 Y17.93 Z0 F800
G0 Z3.5 F500
G0 X56.898 Y21.384 Z3.5 
G1 Z0 F500
G1 X57.223 Y21.248 Z0 F800
G1 X57.532 Y21.079 Z0 F800
G1 X57.822 Y20.88 Z0 F800
G1 X58.091 Y20.652 Z0 F800
G1 X58.338 Y20.4 Z0 F800
G1 X58.56 Y20.125 Z0 F800
G1 X58.756 Y19.83 Z0 F800
G1 X58.922 Y19.518 Z0 F800
G1 X59.058 Y19.191 Z0 F800
G1 X59.161 Y18.852 Z0 F800
G1 X59.229 Y18.504 Z0 F800
G1 X59.261 Y18.148 Z0 F800
G1 X59.254 Y17.789 Z0 F800
G1 X59.197 Y17.29 Z0 F800
G1 X59.058 Y16.817 Z0 F800
G1 X58.848 Y16.375 Z0 F800
G1 X58.576 Y15.966 Z0 F800
G1 X58.253 Y15.594 Z0 F800
G1 X57.891 Y15.264 Z0 F800
G1 X57.498 Y14.977 Z0 F800
G1 X57.085 Y14.738 Z0 F800
G1 X57.053 Y14.724 Z0 F800
G1 X56.744 Y14.63 Z0 F800
G1 X56.427 Y14.563 Z0 F800
G1 X56.107 Y14.524 Z0 F800
G1 X55.785 Y14.511 Z0 F800
G1 X55.462 Y14.525 Z0 F800
G1 X55.143 Y14.565 Z0 F800
G1 X54.828 Y14.63 Z0 F800
G1 X54.52 Y14.722 Z0 F800
G1 X54.222 Y14.839 Z0 F800
G1 X53.935 Y14.981 Z0 F800
G1 X53.662 Y15.148 Z0 F800
G1 X53.406 Y15.339 Z0 F800
G1 X53.168 Y15.555 Z0 F800
G1 X52.951 Y15.795 Z0 F800
G1 X52.756 Y16.059 Z0 F800
G1 X52.587 Y16.346 Z0 F800
G1 X52.395 Y16.763 Z0 F800
G1 X52.268 Y17.199 Z0 F800
G1 X52.203 Y17.647 Z0 F800
G1 X52.195 Y18.1 Z0 F800
G1 X52.24 Y18.552 Z0 F800
G1 X52.334 Y18.994 Z0 F800
G1 X52.473 Y19.421 Z0 F800
G1 X52.655 Y19.833 Z0 F800
G1 X52.93 Y20.236 Z0 F800
G1 X53.253 Y20.584 Z0 F800
G1 X53.62 Y20.882 Z0 F800
G1 X54.022 Y21.129 Z0 F800
G1 X54.454 Y21.322 Z0 F800
G1 X54.907 Y21.461 Z0 F800
G1 X55.372 Y21.543 Z0 F800
G1 X55.843 Y21.567 Z0 F800
G1 X56.206 Y21.546 Z0 F800
G1 X56.558 Y21.484 Z0 F800
G1 X56.898 Y21.384 Z0 F800
G0 Z3.5 F500
G0 X57.011 Y21.872 Z3.5 
G1 Z0 F500
G1 X56.84 Y21.932 Z0 F800
G1 X56.562 Y22.008 Z0 F800
G1 X56.28 Y22.062 Z0 F800
G1 X56.004 Y22.091 Z0 F800
G1 X55.702 Y22.097 Z0 F800
G1 X55.167 Y22.068 Z0 F800
G1 X54.652 Y21.965 Z0 F800
G1 X54.153 Y21.792 Z0 F800
G1 X53.678 Y21.553 Z0 F800
G1 X53.237 Y21.255 Z0 F800
G1 X52.833 Y20.901 Z0 F800
G1 X52.481 Y20.5 Z0 F800
G1 X52.172 Y20.037 Z0 F800
G1 X51.965 Y19.673 Z0 F800
G1 X51.821 Y19.313 Z0 F800
G1 X51.722 Y18.925 Z0 F800
G1 X51.666 Y18.525 Z0 F800
G1 X51.65 Y18.106 Z0 F800
G1 X51.671 Y17.681 Z0 F800
G1 X51.727 Y17.245 Z0 F800
G1 X51.806 Y16.842 Z0 F800
G1 X51.947 Y16.451 Z0 F800
G1 X52.137 Y16.071 Z0 F800
G1 X52.369 Y15.709 Z0 F800
G1 X52.641 Y15.368 Z0 F800
G1 X52.949 Y15.052 Z0 F800
G1 X53.283 Y14.769 Z0 F800
G1 X53.643 Y14.519 Z0 F800
G1 X54 Y14.32 Z0 F800
G1 X54.495 Y14.158 Z0 F800
G1 X55.031 Y14.045 Z0 F800
G1 X55.575 Y13.993 Z0 F800
G1 X56.122 Y14.003 Z0 F800
G1 X56.652 Y14.078 Z0 F800
G1 X57.163 Y14.219 Z0 F800
G1 X57.641 Y14.429 Z0 F800
G1 X58.094 Y14.719 Z0 F800
G1 X58.348 Y14.918 Z0 F800
G1 X58.577 Y15.129 Z0 F800
G1 X58.792 Y15.365 Z0 F800
G1 X58.983 Y15.609 Z0 F800
G1 X59.164 Y15.882 Z0 F800
G1 X59.316 Y16.155 Z0 F800
G1 X59.451 Y16.445 Z0 F800
G1 X59.511 Y16.605 Z0 F800
G1 X59.284 Y16.127 Z0 F800
G1 X58.974 Y15.662 Z0 F800
G1 X58.612 Y15.245 Z0 F800
G1 X58.207 Y14.875 Z0 F800
G1 X57.771 Y14.558 Z0 F800
G1 X57.31 Y14.291 Z0 F800
G1 X57.225 Y14.254 Z0 F800
G1 X56.868 Y14.146 Z0 F800
G1 X56.51 Y14.07 Z0 F800
G1 X56.147 Y14.025 Z0 F800
G1 X55.784 Y14.011 Z0 F800
G1 X55.421 Y14.026 Z0 F800
G1 X55.061 Y14.071 Z0 F800
G1 X54.705 Y14.145 Z0 F800
G1 X54.357 Y14.249 Z0 F800
G1 X54.019 Y14.381 Z0 F800
G1 X53.693 Y14.543 Z0 F800
G1 X53.381 Y14.733 Z0 F800
G1 X53.087 Y14.953 Z0 F800
G1 X52.814 Y15.201 Z0 F800
G1 X52.563 Y15.478 Z0 F800
G1 X52.338 Y15.783 Z0 F800
G1 X52.144 Y16.114 Z0 F800
G1 X51.925 Y16.587 Z0 F800
G1 X51.778 Y17.093 Z0 F800
G1 X51.703 Y17.606 Z0 F800
G1 X51.694 Y18.121 Z0 F800
G1 X51.746 Y18.629 Z0 F800
G1 X51.851 Y19.124 Z0 F800
G1 X52.005 Y19.6 Z0 F800
G1 X52.216 Y20.077 Z0 F800
G1 X52.538 Y20.548 Z0 F800
G1 X52.91 Y20.95 Z0 F800
G1 X53.33 Y21.292 Z0 F800
G1 X53.789 Y21.572 Z0 F800
G1 X54.278 Y21.791 Z0 F800
G1 X54.79 Y21.948 Z0 F800
G1 X55.315 Y22.041 Z0 F800
G1 X55.844 Y22.068 Z0 F800
G1 X56.264 Y22.044 Z0 F800
G1 X56.672 Y21.972 Z0 F800
G1 X57.011 Y21.872 Z0 F800
G0 Z3.5 F500
G0 X57.108 Y21.838 Z3.5 
G1 Z0 F500
G1 X57.44 Y21.699 Z0 F800
G1 X57.794 Y21.505 Z0 F800
G1 X58.125 Y21.278 Z0 F800
G1 X58.432 Y21.019 Z0 F800
G1 X58.712 Y20.732 Z0 F800
G1 X58.964 Y20.421 Z0 F800
G1 X59.186 Y20.086 Z0 F800
G1 X59.375 Y19.732 Z0 F800
G1 X59.529 Y19.36 Z0 F800
G1 X59.647 Y18.973 Z0 F800
G1 X59.725 Y18.575 Z0 F800
G1 X59.762 Y18.166 Z0 F800
G1 X59.753 Y17.755 Z0 F800
G1 X59.694 Y17.237 Z0 F800
G1 X59.72 Y17.359 Z0 F800
G1 X59.763 Y17.68 Z0 F800
G1 X59.78 Y17.983 Z0 F800
G1 X59.772 Y18.308 Z0 F800
G1 X59.74 Y18.614 Z0 F800
G1 X59.68 Y18.92 Z0 F800
G1 X59.59 Y19.232 Z0 F800
G1 X59.418 Y19.715 Z0 F800
G1 X59.193 Y20.147 Z0 F800
G1 X58.91 Y20.552 Z0 F800
G1 X58.572 Y20.926 Z0 F800
G1 X58.19 Y21.257 Z0 F800
G1 X57.777 Y21.535 Z0 F800
G1 X57.332 Y21.76 Z0 F800
G1 X57.108 Y21.838 Z0 F800
G0 Z3.5 F500
G0 X59.671 Y17.131 Z3.5 
G1 Z0 F500
G1 X59.539 Y16.678 Z0 F800
G1 X59.565 Y16.75 Z0 F800
G1 X59.654 Y17.052 Z0 F800
G1 X59.671 Y17.131 Z0 F800
G0 Z3.5 F500
G0 X60.167 Y19.038 Z3.5 
G1 Z0 F500
G1 X60.066 Y19.387 Z0 F800
G1 X59.878 Y19.915 Z0 F800
G1 X59.622 Y20.408 Z0 F800
G1 X59.301 Y20.866 Z0 F800
G1 X58.923 Y21.284 Z0 F800
G1 X58.497 Y21.653 Z0 F800
G1 X58.029 Y21.968 Z0 F800
G1 X57.527 Y22.222 Z0 F800
G1 X56.993 Y22.408 Z0 F800
G1 X56.674 Y22.496 Z0 F800
G1 X56.355 Y22.557 Z0 F800
G1 X56.032 Y22.591 Z0 F800
G1 X55.698 Y22.597 Z0 F800
G1 X55.103 Y22.565 Z0 F800
G1 X54.521 Y22.449 Z0 F800
G1 X53.958 Y22.253 Z0 F800
G1 X53.425 Y21.986 Z0 F800
G1 X52.93 Y21.651 Z0 F800
G1 X52.479 Y21.255 Z0 F800
G1 X52.083 Y20.805 Z0 F800
G1 X51.745 Y20.298 Z0 F800
G1 X51.513 Y19.89 Z0 F800
G1 X51.345 Y19.467 Z0 F800
G1 X51.231 Y19.025 Z0 F800
G1 X51.167 Y18.57 Z0 F800
G1 X51.149 Y18.106 Z0 F800
G1 X51.172 Y17.637 Z0 F800
G1 X51.232 Y17.169 Z0 F800
G1 X51.324 Y16.706 Z0 F800
G1 X51.486 Y16.255 Z0 F800
G1 X51.701 Y15.825 Z0 F800
G1 X51.962 Y15.417 Z0 F800
G1 X52.266 Y15.037 Z0 F800
G1 X52.606 Y14.687 Z0 F800
G1 X52.979 Y14.372 Z0 F800
G1 X53.377 Y14.095 Z0 F800
G1 X53.798 Y13.86 Z0 F800
G1 X54.366 Y13.674 Z0 F800
G1 X54.956 Y13.551 Z0 F800
G1 X55.557 Y13.493 Z0 F800
G1 X56.161 Y13.503 Z0 F800
G1 X56.756 Y13.587 Z0 F800
G1 X57.332 Y13.747 Z0 F800
G1 X57.877 Y13.987 Z0 F800
G1 X58.383 Y14.311 Z0 F800
G1 X58.67 Y14.535 Z0 F800
G1 X58.932 Y14.777 Z0 F800
G1 X59.173 Y15.04 Z0 F800
G1 X59.392 Y15.321 Z0 F800
G1 X59.589 Y15.618 Z0 F800
G1 X59.763 Y15.929 Z0 F800
G1 X59.913 Y16.253 Z0 F800
G1 X60.039 Y16.587 Z0 F800
G1 X60.139 Y16.929 Z0 F800
G1 X60.213 Y17.277 Z0 F800
G1 X60.261 Y17.629 Z0 F800
G1 X60.281 Y17.983 Z0 F800
G1 X60.272 Y18.337 Z0 F800
G1 X60.234 Y18.689 Z0 F800
G1 X60.167 Y19.038 Z0 F800
G0 Z3.5 F500
G0 X64.216 Y32.773 Z3.5 
G1 Z0 F500
G1 X65.068 Y33.007 Z0 F800
G1 X62.148 Y32.804 Z0 F800
G1 X61.602 Y32.77 Z0 F800
G1 X61.611 Y32.763 Z0 F800
G1 X62.074 Y32.338 Z0 F800
G1 X62.206 Y32.199 Z0 F800
G1 X64.216 Y32.773 Z0 F800
G0 Z3.5 F500
G0 X65.686 Y33.552 Z3.5 
G1 Z0 F500
G1 X62.115 Y33.303 Z0 F800
G1 X60.062 Y33.175 Z0 F800
G1 X60.738 Y32.792 Z0 F800
G1 X61.292 Y32.377 Z0 F800
G1 X61.723 Y31.981 Z0 F800
G1 X62.051 Y31.635 Z0 F800
G1 X64.351 Y32.292 Z0 F800
G1 X65.873 Y32.71 Z0 F800
G1 X65.686 Y33.552 Z0 F800
G0 Z3.5 F500
G0 X66.074 Y34.08 Z3.5 
G1 Z0 F500
G1 X62.083 Y33.802 Z0 F800
G1 X58.879 Y33.602 Z0 F800
G1 X58.917 Y33.011 Z0 F800
G1 X59.027 Y33.006 Z0 F800
G1 X59.769 Y32.766 Z0 F800
G1 X60.464 Y32.373 Z0 F800
G1 X60.972 Y31.992 Z0 F800
G1 X61.372 Y31.625 Z0 F800
G1 X61.683 Y31.296 Z0 F800
G1 X61.883 Y31.066 Z0 F800
G1 X64.486 Y31.811 Z0 F800
G1 X66.464 Y32.354 Z0 F800
G1 X66.148 Y33.772 Z0 F800
G1 X66.112 Y33.866 Z0 F800
G1 X66.074 Y34.08 Z0 F800
G0 Z3.5 F500
G0 X66.475 Y34.609 Z3.5 
G1 Z0 F500
G1 X62.049 Y34.301 Z0 F800
G1 X58.259 Y34.064 Z0 F800
G1 X58.37 Y33.72 Z0 F800
G1 X58.415 Y33.019 Z0 F800
G1 X58.345 Y32.531 Z0 F800
G1 X58.368 Z0 F800
G1 X58.938 Y32.509 Z0 F800
G1 X59.567 Y32.306 Z0 F800
G1 X60.189 Y31.954 Z0 F800
G1 X60.652 Y31.607 Z0 F800
G1 X61.021 Y31.269 Z0 F800
G1 X61.313 Y30.96 Z0 F800
G1 X61.651 Y30.571 Z0 F800
G1 X61.721 Y30.5 Z0 F800
G1 X64.621 Y31.329 Z0 F800
G1 X67.056 Y31.998 Z0 F800
G1 X66.628 Y33.918 Z0 F800
G1 X66.596 Y34.001 Z0 F800
G1 X66.541 Y34.311 Z0 F800
G1 X66.475 Y34.609 Z0 F800
G0 Z3.5 F500
G0 X66.869 Y35.138 Z3.5 
G1 Z0 F500
G1 X62.017 Y34.8 Z0 F800
G1 X58.208 Y34.562 Z0 F800
G1 X57.498 Y34.521 Z0 F800
G1 X57.678 Y34.235 Z0 F800
G1 X57.875 Y33.626 Z0 F800
G1 X57.913 Y33.039 Z0 F800
G1 X57.841 Y32.544 Z0 F800
G1 X57.715 Y32.153 Z0 F800
G1 X57.629 Y31.967 Z0 F800
G1 X58.379 Y32.033 Z0 F800
G1 X58.849 Y32.013 Z0 F800
G1 X59.365 Y31.846 Z0 F800
G1 X59.916 Y31.535 Z0 F800
G1 X60.333 Y31.222 Z0 F800
G1 X60.67 Y30.912 Z0 F800
G1 X60.942 Y30.625 Z0 F800
G1 X61.29 Y30.225 Z0 F800
G1 X61.563 Y29.949 Z0 F800
G1 X61.574 Y29.938 Z0 F800
G1 X64.756 Y30.848 Z0 F800
G1 X68.394 Y31.846 Z0 F800
G1 X68.44 Y31.916 Z0 F800
G1 X68.768 Y32.24 Z0 F800
G1 X68.383 Y32.431 Z0 F800
G1 X68.138 Y32.608 Z0 F800
G1 X67.462 Y32.475 Z0 F800
G1 X67.108 Y34.063 Z0 F800
G1 X67.08 Y34.137 Z0 F800
G1 X67.031 Y34.409 Z0 F800
G1 X66.869 Y35.138 Z0 F800
G0 Z3.5 F500
G0 X67.237 Y35.832 Z3.5 
G1 Z0 F500
G1 X67.245 Y35.665 Z0 F800
G1 X61.983 Y35.299 Z0 F800
G1 X58.178 Y35.061 Z0 F800
G1 X56.352 Y34.955 Z0 F800
G1 X56.627 Y34.772 Z0 F800
G1 X56.956 Y34.442 Z0 F800
G1 X57.222 Y34.021 Z0 F800
G1 X57.38 Y33.532 Z0 F800
G1 X57.41 Y33.059 Z0 F800
G1 X57.353 Y32.657 Z0 F800
G1 X57.249 Y32.335 Z0 F800
G1 X57.127 Y32.071 Z0 F800
G1 X56.93 Y31.746 Z0 F800
G1 X56.736 Y31.487 Z0 F800
G1 X56.653 Y31.388 Z0 F800
G1 X57.083 Y31.417 Z0 F800
G1 X58.39 Y31.532 Z0 F800
G1 X58.76 Y31.516 Z0 F800
G1 X59.163 Y31.385 Z0 F800
G1 X59.641 Y31.115 Z0 F800
G1 X60.013 Y30.837 Z0 F800
G1 X60.319 Y30.556 Z0 F800
G1 X60.572 Y30.288 Z0 F800
G1 X60.918 Y29.891 Z0 F800
G1 X61.222 Y29.583 Z0 F800
G1 X61.441 Y29.38 Z0 F800
G1 X64.891 Y30.366 Z0 F800
G1 X68.706 Y31.414 Z0 F800
G1 X68.828 Y31.596 Z0 F800
G1 X69.238 Y32.001 Z0 F800
G1 X69.749 Y32.277 Z0 F800
G1 X70.498 Y32.524 Z0 F800
G1 X70.322 Y32.489 Z0 F800
G1 X69.717 Y32.502 Z0 F800
G1 X69.342 Y32.572 Z0 F800
G1 X68.994 Y32.686 Z0 F800
G1 X68.642 Y32.861 Z0 F800
G1 X68.297 Y33.11 Z0 F800
G1 X68.266 Y33.143 Z0 F800
G1 X67.844 Y33.06 Z0 F800
G1 X67.588 Y34.208 Z0 F800
G1 X67.563 Y34.272 Z0 F800
G1 X67.521 Y34.509 Z0 F800
G1 X67.299 Y35.507 Z0 F800
G1 X67.237 Y35.832 Z0 F800
G0 Z3.5 F500
G0 X30.929 Y55.449 Z3.5 
G1 Z0 F500
G1 X30.398 Y55.431 Z0 F800
G1 X30.432 Y54.396 Z0 F800
G1 Y54.374 Z0 F800
G1 X30.489 Y54.615 Z0 F800
G1 X30.667 Y55.042 Z0 F800
G1 X30.929 Y55.449 Z0 F800
G0 Z3.5 F500
G0 X31.719 Y55.592 Z3.5 
G1 Z0 F500
G1 X32.101 Y55.878 Z0 F800
G1 X32.332 Y55.999 Z0 F800
G1 X29.893 Y55.914 Z0 F800
G1 Y55.547 Z0 F800
G1 X29.932 Y54.386 Z0 F800
G1 X29.943 Y53.401 Z0 F800
G1 X30.083 Y53.292 Z0 F800
G1 X30.467 Y52.841 Z0 F800
G1 X30.642 Y52.508 Z0 F800
G1 X30.651 Z0 F800
G1 X30.764 Y53.237 Z0 F800
G1 X30.898 Y54.172 Z0 F800
G1 X30.966 Y54.46 Z0 F800
G1 X31.112 Y54.809 Z0 F800
G1 X31.381 Y55.229 Z0 F800
G1 X31.719 Y55.592 Z0 F800
G0 Z3.5 F500
G0 X32.739 Y55.646 Z3.5 
G1 Z0 F500
G1 X33.269 Y55.786 Z0 F800
G1 X33.701 Y55.815 Z0 F800
G1 X33.995 Y55.81 Z0 F800
G1 X34.189 Y55.802 Z0 F800
G1 X34.251 Z0 F800
G1 X34.288 Y55.807 Z0 F800
G1 X34.43 Y55.818 Z0 F800
G1 X45.99 Y55.963 Z0 F800
G1 X57.429 Y56.075 Z0 F800
G1 X57.631 Y56.095 Z0 F800
G1 X57.934 Y56.08 Z0 F800
G1 X58.937 Y56.09 Z0 F800
G1 X58.952 Y55.803 Z0 F800
G1 X58.959 Y55.8 Z0 F800
G1 X59.257 Y55.62 Z0 F800
G1 X59.36 Y55.534 Z0 F800
G1 X59.265 Y55.907 Z0 F800
G1 X59.052 Y56.541 Z0 F800
G1 X59.019 Y56.597 Z0 F800
G1 X59.003 Y56.612 Z0 F800
G1 X58.942 Y56.651 Z0 F800
G1 X58.796 Y56.711 Z0 F800
G1 X58.565 Y56.771 Z0 F800
G1 X58.279 Y56.813 Z0 F800
G1 X57.932 Y56.839 Z0 F800
G1 X57.56 Y56.847 Z0 F800
G1 X55.882 Y56.871 Z0 F800
G1 X54.228 Z0 F800
G1 X47.888 Y56.821 Z0 F800
G1 X41.54 Y56.738 Z0 F800
G1 X35.221 Y56.599 Z0 F800
G1 X29.391 Y56.396 Z0 F800
G1 X29.394 Y55.529 Z0 F800
G1 X29.432 Y54.375 Z0 F800
G1 X29.445 Y53.205 Z0 F800
G1 X29.448 Y53.153 Z0 F800
G1 X29.736 Y52.929 Z0 F800
G1 X30.05 Y52.559 Z0 F800
G1 X30.322 Y52.044 Z0 F800
G1 X30.33 Y52.024 Z0 F800
G1 X30.916 Y51.994 Z0 F800
G1 X31.063 Y51.991 Z0 F800
G1 X31.135 Y52.37 Z0 F800
G1 X31.259 Y53.166 Z0 F800
G1 X31.39 Y54.079 Z0 F800
G1 X31.443 Y54.305 Z0 F800
G1 X31.557 Y54.576 Z0 F800
G1 X31.778 Y54.921 Z0 F800
G1 X32.055 Y55.218 Z0 F800
G1 X32.367 Y55.454 Z0 F800
G1 X32.739 Y55.646 Z0 F800
G0 Z3.5 F500
G0 X35.197 Y57.098 Z3.5 
G1 Z0 F500
G1 X28.97 Y56.882 Z0 F800
G1 X28.909 Y56.87 Z0 F800
G1 X28.89 Y56.62 Z0 F800
G1 X28.894 Y55.528 Z0 F800
G1 X28.932 Y54.364 Z0 F800
G1 X28.945 Y53.187 Z0 F800
G1 X28.961 Y52.861 Z0 F800
G1 X29.083 Y52.803 Z0 F800
G1 X29.388 Y52.566 Z0 F800
G1 X29.634 Y52.277 Z0 F800
G1 X29.863 Y51.842 Z0 F800
G1 X29.963 Y51.559 Z0 F800
G1 X30.247 Y51.527 Z0 F800
G1 X30.881 Y51.495 Z0 F800
G1 X31.475 Y51.484 Z0 F800
G1 X31.481 Y51.507 Z0 F800
G1 X31.625 Y52.27 Z0 F800
G1 X31.755 Y53.106 Z0 F800
G1 X31.881 Y53.985 Z0 F800
G1 X31.92 Y54.149 Z0 F800
G1 X32.001 Y54.343 Z0 F800
G1 X32.174 Y54.613 Z0 F800
G1 X32.391 Y54.845 Z0 F800
G1 X32.634 Y55.029 Z0 F800
G1 X32.92 Y55.177 Z0 F800
G1 X33.35 Y55.29 Z0 F800
G1 X33.713 Y55.314 Z0 F800
G1 X33.98 Y55.31 Z0 F800
G1 X34.166 Y55.302 Z0 F800
G1 X34.277 Z0 F800
G1 X34.311 Z0 F800
G1 X34.349 Y55.31 Z0 F800
G1 X34.452 Y55.318 Z0 F800
G1 X45.995 Y55.463 Z0 F800
G1 X57.457 Y55.575 Z0 F800
G1 X57.644 Y55.594 Z0 F800
G1 X57.924 Y55.58 Z0 F800
G1 X58.462 Y55.585 Z0 F800
G1 X58.469 Y55.459 Z0 F800
G1 X58.735 Y55.352 Z0 F800
G1 X58.965 Y55.212 Z0 F800
G1 X59.184 Y55.029 Z0 F800
G1 X59.389 Y54.781 Z0 F800
G1 X59.553 Y54.46 Z0 F800
G1 X59.626 Y54.144 Z0 F800
G1 X60.138 Y54.152 Z0 F800
G1 X60.16 Y54.146 Z0 F800
G1 X60.119 Y54.392 Z0 F800
G1 X59.949 Y55.248 Z0 F800
G1 X59.747 Y56.043 Z0 F800
G1 X59.508 Y56.751 Z0 F800
G1 X59.42 Y56.902 Z0 F800
G1 X59.321 Y57.002 Z0 F800
G1 X59.171 Y57.098 Z0 F800
G1 X58.956 Y57.187 Z0 F800
G1 X58.668 Y57.26 Z0 F800
G1 X58.324 Y57.312 Z0 F800
G1 X57.97 Y57.338 Z0 F800
G1 X57.56 Y57.347 Z0 F800
G1 X55.89 Y57.371 Z0 F800
G1 X54.224 Z0 F800
G1 X47.882 Y57.321 Z0 F800
G1 X41.542 Y57.238 Z0 F800
G1 X35.197 Y57.098 Z0 F800
G0 Z3.5 F500
G0 X28.909 Y57.38 Z3.5 
G1 Z0 F500
G1 X28.776 Y57.353 Z0 F800
G1 X28.541 Y57.341 Z0 F800
G1 X28.444 Y57.344 Z0 F800
G1 X28.39 Y56.639 Z0 F800
G1 X28.394 Y55.51 Z0 F800
G1 X28.432 Y54.353 Z0 F800
G1 X28.445 Y53.182 Z0 F800
G1 X28.466 Y52.754 Z0 F800
G1 X28.458 Y52.523 Z0 F800
G1 X28.55 Y52.504 Z0 F800
G1 X28.819 Y52.375 Z0 F800
G1 X29.041 Y52.203 Z0 F800
G1 X29.217 Y51.995 Z0 F800
G1 X29.404 Y51.641 Z0 F800
G1 X29.509 Y51.344 Z0 F800
G1 X29.585 Y51.138 Z0 F800
G1 X29.606 Y51.096 Z0 F800
G1 X30.206 Y51.029 Z0 F800
G1 X30.875 Y50.995 Z0 F800
G1 X31.562 Y50.982 Z0 F800
G1 X31.865 Y50.979 Z0 F800
G1 X31.969 Y51.396 Z0 F800
G1 X32.12 Y52.193 Z0 F800
G1 X32.249 Y53.024 Z0 F800
G1 X32.373 Y53.892 Z0 F800
G1 X32.397 Y53.994 Z0 F800
G1 X32.446 Y54.11 Z0 F800
G1 X32.571 Y54.306 Z0 F800
G1 X32.726 Y54.472 Z0 F800
G1 X32.901 Y54.604 Z0 F800
G1 X33.101 Y54.707 Z0 F800
G1 X33.431 Y54.794 Z0 F800
G1 X33.725 Y54.814 Z0 F800
G1 X33.966 Y54.81 Z0 F800
G1 X34.157 Y54.802 Z0 F800
G1 X34.296 Z0 F800
G1 X34.375 Y54.808 Z0 F800
G1 X34.409 Y54.813 Z0 F800
G1 X34.474 Y54.818 Z0 F800
G1 X46.001 Y54.963 Z0 F800
G1 X57.484 Y55.076 Z0 F800
G1 X57.656 Y55.093 Z0 F800
G1 X57.915 Y55.08 Z0 F800
G1 X57.988 Z0 F800
G1 Y55.068 Z0 F800
G1 X58.229 Y55.017 Z0 F800
G1 X58.51 Y54.903 Z0 F800
G1 X58.673 Y54.804 Z0 F800
G1 X58.828 Y54.675 Z0 F800
G1 X58.969 Y54.504 Z0 F800
G1 X59.08 Y54.287 Z0 F800
G1 X59.137 Y54.04 Z0 F800
G1 Y53.791 Z0 F800
G1 X59.081 Y53.555 Z0 F800
G1 X58.987 Y53.342 Z0 F800
G1 X58.731 Y52.901 Z0 F800
G1 X58.401 Y52.412 Z0 F800
G1 X58.127 Y52.142 Z0 F800
G1 X57.792 Y51.935 Z0 F800
G1 X57.571 Y51.854 Z0 F800
G1 X57.516 Y51.842 Z0 F800
G1 Y51.832 Z0 F800
G1 X57.454 Y51.829 Z0 F800
G1 X57.349 Y51.807 Z0 F800
G1 X57.111 Y51.795 Z0 F800
G1 X56.987 Y51.809 Z0 F800
G1 X55.464 Y51.743 Z0 F800
G1 X53.884 Y51.719 Z0 F800
G1 X51.142 Y51.716 Z0 F800
G1 X51.042 Y51.315 Z0 F800
G1 X51.007 Y51.169 Z0 F800
G1 X52.292 Y51.186 Z0 F800
G1 X54.223 Y51.229 Z0 F800
G1 X56.127 Y51.305 Z0 F800
G1 X57.931 Y51.42 Z0 F800
G1 X58.032 Y51.475 Z0 F800
G1 X58.176 Y51.589 Z0 F800
G1 X58.315 Y51.74 Z0 F800
G1 X58.438 Y51.914 Z0 F800
G1 X58.678 Y52.375 Z0 F800
G1 X59.043 Y53.35 Z0 F800
G1 X59.137 Y53.319 Z0 F800
G1 X59.345 Y53.503 Z0 F800
G1 X59.713 Y53.645 Z0 F800
G1 X60.078 Y53.651 Z0 F800
G1 X60.282 Y53.598 Z0 F800
G1 X60.455 Y53.521 Z0 F800
G1 X60.617 Y53.411 Z0 F800
G1 X60.765 Y53.266 Z0 F800
G1 X60.829 Y53.168 Z0 F800
G1 X60.757 Y53.613 Z0 F800
G1 X60.606 Y54.504 Z0 F800
G1 X60.438 Y55.349 Z0 F800
G1 X60.225 Y56.191 Z0 F800
G1 X59.967 Y56.957 Z0 F800
G1 X59.819 Y57.209 Z0 F800
G1 X59.637 Y57.394 Z0 F800
G1 X59.405 Y57.543 Z0 F800
G1 X59.112 Y57.663 Z0 F800
G1 X58.768 Y57.751 Z0 F800
G1 X58.382 Y57.809 Z0 F800
G1 X57.989 Y57.837 Z0 F800
G1 X57.571 Y57.847 Z0 F800
G1 X55.896 Y57.871 Z0 F800
G1 X54.22 Z0 F800
G1 X47.875 Y57.821 Z0 F800
G1 X41.532 Y57.738 Z0 F800
G1 X35.187 Y57.598 Z0 F800
G1 X28.909 Y57.38 Z0 F800
G0 Z3.5 F500
G0 X57.474 Y41.602 Z3.5 
G1 Z0 F500
G1 X57.674 Y39.719 Z0 F800
G1 X58.008 Y39.726 Z0 F800
G1 X58.487 Y39.744 Z0 F800
G1 X58.112 Y40.379 Z0 F800
G1 X57.593 Y41.349 Z0 F800
G1 X57.474 Y41.602 Z0 F800
G0 Z3.5 F500
G0 X56.773 Y43.451 Z3.5 
G1 Z0 F500
G1 X57.225 Y39.211 Z0 F800
G1 X58.046 Y39.227 Z0 F800
G1 X58.942 Y39.261 Z0 F800
G1 X59.375 Y39.267 Z0 F800
G1 X59.094 Y39.701 Z0 F800
G1 X58.548 Y40.624 Z0 F800
G1 X58.04 Y41.574 Z0 F800
G1 X57.576 Y42.552 Z0 F800
G1 X57.162 Y43.555 Z0 F800
G1 X56.801 Y44.583 Z0 F800
G1 X56.57 Y45.394 Z0 F800
G1 X56.774 Y43.451 Z0 F800
G0 Z3.5 F500
G0 X56.276 Y43.399 Z3.5 
G1 Z0 F500
G1 X56.773 Y38.729 Z0 F800
G1 X57.188 Y38.71 Z0 F800
G1 X58.056 Y38.727 Z0 F800
G1 X58.956 Y38.762 Z0 F800
G1 X59.869 Y38.774 Z0 F800
G1 X60.283 Y38.785 Z0 F800
G1 X59.519 Y39.964 Z0 F800
G1 X58.983 Y40.869 Z0 F800
G1 X58.486 Y41.799 Z0 F800
G1 X58.034 Y42.755 Z0 F800
G1 X57.629 Y43.733 Z0 F800
G1 X57.278 Y44.734 Z0 F800
G1 X56.986 Y45.757 Z0 F800
G1 X56.752 Y46.832 Z0 F800
G1 X56.742 Y47.044 Z0 F800
G1 X56.766 Y47.251 Z0 F800
G1 X56.83 Y47.459 Z0 F800
G1 X56.941 Y47.666 Z0 F800
G1 X57.109 Y47.852 Z0 F800
G1 X57.318 Y47.995 Z0 F800
G1 X57.559 Y48.087 Z0 F800
G1 X57.839 Y48.123 Z0 F800
G1 X58.028 Y48.085 Z0 F800
G1 X58.098 Y48.065 Z0 F800
G1 X58.126 Y48.167 Z0 F800
G1 X58.175 Y48.261 Z0 F800
G1 X57.841 Y48.192 Z0 F800
G1 X57.295 Y48.119 Z0 F800
G1 X56.26 Y48.035 Z0 F800
G1 X55.794 Y47.994 Z0 F800
G1 X56.276 Y43.399 Z0 F800
G0 Z3.5 F500
G0 X70.528 Y32.53 Z3.5 
G1 Z0 F500
G1 X70.858 Y32.588 Z0 F800
G1 Y32.596 Z0 F800
G1 X70.528 Y32.53 Z0 F800
G0 Z3.5 F500
G0 X69.947 Y31.815 Z3.5 
G1 Z0 F500
G1 X70.625 Y32.039 Z0 F800
G1 X71.251 Y32.149 Z0 F800
G1 X71.329 Y32.158 Z0 F800
G1 X71.336 Y32.414 Z0 F800
G1 X71.399 Y32.79 Z0 F800
G1 X71.498 Y33.146 Z0 F800
G1 X71.64 Y33.499 Z0 F800
G1 X71.664 Y33.542 Z0 F800
G1 X71.661 Y33.594 Z0 F800
G1 Y33.612 Z0 F800
G1 X71.335 Y33.337 Z0 F800
G1 X70.815 Y33.097 Z0 F800
G1 X70.278 Y32.99 Z0 F800
G1 X69.769 Y33.001 Z0 F800
G1 X69.467 Y33.058 Z0 F800
G1 X69.184 Y33.15 Z0 F800
G1 X68.901 Y33.29 Z0 F800
G1 X68.627 Y33.488 Z0 F800
G1 X68.438 Y33.686 Z0 F800
G1 X68.226 Y33.644 Z0 F800
G1 X68.068 Y34.355 Z0 F800
G1 X68.047 Y34.408 Z0 F800
G1 X68.012 Y34.605 Z0 F800
G1 X67.789 Y35.608 Z0 F800
G1 X67.604 Y36.58 Z0 F800
G1 X67.505 Y36.983 Z0 F800
G1 X67.388 Y37.337 Z0 F800
G1 X67.377 Y37.361 Z0 F800
G1 X67.309 Y37.15 Z0 F800
G1 X67.072 Y36.744 Z0 F800
G1 X66.711 Y36.391 Z0 F800
G1 X66.723 Y36.13 Z0 F800
G1 X61.951 Y35.797 Z0 F800
G1 X58.147 Y35.56 Z0 F800
G1 X54.347 Y35.339 Z0 F800
G1 X50.539 Y35.125 Z0 F800
G1 Y34.874 Z0 F800
G1 Y34.808 Z0 F800
G1 X51.004 Z0 F800
G1 X52.487 Y34.814 Z0 F800
G1 X53.994 Y34.794 Z0 F800
G1 X55.559 Y34.715 Z0 F800
G1 X55.774 Y34.676 Z0 F800
G1 X56.011 Y34.581 Z0 F800
G1 X56.309 Y34.384 Z0 F800
G1 X56.563 Y34.128 Z0 F800
G1 X56.765 Y33.808 Z0 F800
G1 X56.885 Y33.438 Z0 F800
G1 X56.908 Y33.079 Z0 F800
G1 X56.864 Y32.77 Z0 F800
G1 X56.782 Y32.518 Z0 F800
G1 X56.685 Y32.307 Z0 F800
G1 X56.515 Y32.026 Z0 F800
G1 X56.343 Y31.797 Z0 F800
G1 X56.222 Y31.651 Z0 F800
G1 X56.14 Y31.548 Z0 F800
G1 X55.658 Y30.917 Z0 F800
G1 X55.576 Y30.814 Z0 F800
G1 X55.891 Y30.833 Z0 F800
G1 X57.116 Y30.918 Z0 F800
G1 X58.401 Y31.031 Z0 F800
G1 X58.67 Y31.019 Z0 F800
G1 X58.961 Y30.925 Z0 F800
G1 X59.367 Y30.696 Z0 F800
G1 X59.693 Y30.452 Z0 F800
G1 X59.968 Y30.199 Z0 F800
G1 X60.202 Y29.952 Z0 F800
G1 X60.554 Y29.547 Z0 F800
G1 X60.87 Y29.228 Z0 F800
G1 X61.125 Y28.992 Z0 F800
G1 X61.298 Y28.819 Z0 F800
G1 X65.026 Y29.885 Z0 F800
G1 X69.02 Y30.981 Z0 F800
G1 X69.027 Y30.994 Z0 F800
G1 X69.215 Y31.276 Z0 F800
G1 X69.538 Y31.595 Z0 F800
G1 X69.947 Y31.815 Z0 F800
G0 Z3.5 F500
G0 X66.224 Y39.383 Z3.5 
G1 Z0 F500
G1 X66 Y39.776 Z0 F800
G1 X65.816 Y39.729 Z0 F800
G1 X65.812 Y39.482 Z0 F800
G1 X65.794 Y39.414 Z0 F800
G1 X66.02 Z0 F800
G1 X66.207 Y39.388 Z0 F800
G1 X66.224 Y39.383 Z0 F800
G0 Z3.5 F500
G0 X67.432 Y38.273 Z3.5 
G1 Z0 F500
G1 X66.201 Y40.432 Z0 F800
G1 X66.09 Y40.352 Z0 F800
G1 X65.905 Y40.268 Z0 F800
G1 X65.708 Y40.218 Z0 F800
G1 X65.372 Y40.211 Z0 F800
G1 X65.154 Y40.272 Z0 F800
G1 X65.178 Y40.236 Z0 F800
G1 X65.269 Y40.026 Z0 F800
G1 X65.317 Y39.794 Z0 F800
G1 X65.313 Y39.551 Z0 F800
G1 X65.249 Y39.312 Z0 F800
G1 X65.132 Y39.103 Z0 F800
G1 X64.982 Y38.939 Z0 F800
G1 X64.958 Y38.921 Z0 F800
G1 X65.986 Y38.912 Z0 F800
G1 X66.102 Y38.897 Z0 F800
G1 X66.226 Y38.859 Z0 F800
G1 X66.435 Y38.752 Z0 F800
G1 X66.623 Y38.602 Z0 F800
G1 X66.775 Y38.416 Z0 F800
G1 X66.885 Y38.199 Z0 F800
G1 X66.938 Y37.973 Z0 F800
G1 X66.946 Y37.756 Z0 F800
G1 X66.915 Y37.554 Z0 F800
G1 X66.85 Y37.356 Z0 F800
G1 X66.674 Y37.054 Z0 F800
G1 X66.407 Y36.792 Z0 F800
G1 X66.197 Y36.685 Z0 F800
G1 X66.201 Y36.595 Z0 F800
G1 X61.917 Y36.296 Z0 F800
G1 X58.118 Y36.059 Z0 F800
G1 X54.318 Y35.838 Z0 F800
G1 X50.485 Y35.623 Z0 F800
G1 X50.31 Y35.637 Z0 F800
G1 X50.123 Y35.708 Z0 F800
G1 X50.037 Y35.766 Z0 F800
G1 Y34.873 Z0 F800
G1 Y34.309 Z0 F800
G1 X51.005 Z0 F800
G1 X52.485 Y34.314 Z0 F800
G1 X53.978 Y34.295 Z0 F800
G1 X55.501 Y34.217 Z0 F800
G1 X55.635 Y34.193 Z0 F800
G1 X55.777 Y34.136 Z0 F800
G1 X55.99 Y33.995 Z0 F800
G1 X56.169 Y33.814 Z0 F800
G1 X56.309 Y33.594 Z0 F800
G1 X56.39 Y33.343 Z0 F800
G1 X56.406 Y33.098 Z0 F800
G1 X56.375 Y32.883 Z0 F800
G1 X56.316 Y32.7 Z0 F800
G1 X56.243 Y32.542 Z0 F800
G1 X56.1 Y32.306 Z0 F800
G1 X55.951 Y32.107 Z0 F800
G1 X55.825 Y31.956 Z0 F800
G1 X55.75 Y31.862 Z0 F800
G1 X55.264 Y31.226 Z0 F800
G1 X54.772 Y30.613 Z0 F800
G1 X54.489 Y30.251 Z0 F800
G1 X54.682 Y30.262 Z0 F800
G1 X55.914 Y30.333 Z0 F800
G1 X57.152 Y30.42 Z0 F800
G1 X58.412 Y30.53 Z0 F800
G1 X58.582 Y30.522 Z0 F800
G1 X58.759 Y30.465 Z0 F800
G1 X59.093 Y30.276 Z0 F800
G1 X59.373 Y30.066 Z0 F800
G1 X59.617 Y29.843 Z0 F800
G1 X59.831 Y29.616 Z0 F800
G1 X60.186 Y29.209 Z0 F800
G1 X60.528 Y28.862 Z0 F800
G1 X60.779 Y28.631 Z0 F800
G1 X61.005 Y28.406 Z0 F800
G1 X61.163 Y28.261 Z0 F800
G1 X65.161 Y29.403 Z0 F800
G1 X69.356 Y30.555 Z0 F800
G1 X69.365 Y30.57 Z0 F800
G1 X69.455 Y30.735 Z0 F800
G1 X69.603 Y30.956 Z0 F800
G1 X69.839 Y31.189 Z0 F800
G1 X70.146 Y31.354 Z0 F800
G1 X70.747 Y31.553 Z0 F800
G1 X71.321 Y31.654 Z0 F800
G1 X71.826 Y31.708 Z0 F800
G1 X71.818 Y31.769 Z0 F800
G1 X71.834 Y32.364 Z0 F800
G1 X71.888 Y32.681 Z0 F800
G1 X71.972 Y32.985 Z0 F800
G1 X72.093 Y33.285 Z0 F800
G1 X72.17 Y33.425 Z0 F800
G1 X72.159 Y33.644 Z0 F800
G1 X72.111 Y34.003 Z0 F800
G1 X72.045 Y34.36 Z0 F800
G1 X71.794 Y34.331 Z0 F800
G1 X71.668 Y34.298 Z0 F800
G1 X71.587 Y34.263 Z0 F800
G1 X71.538 Y34.226 Z0 F800
G1 X71.457 Y34.123 Z0 F800
G1 X71.404 Y34.051 Z0 F800
G1 X71.064 Y33.762 Z0 F800
G1 X70.66 Y33.575 Z0 F800
G1 X70.235 Y33.491 Z0 F800
G1 X69.82 Y33.5 Z0 F800
G1 X69.591 Y33.543 Z0 F800
G1 X69.374 Y33.614 Z0 F800
G1 X69.16 Y33.72 Z0 F800
G1 X68.957 Y33.867 Z0 F800
G1 X68.775 Y34.057 Z0 F800
G1 X68.66 Y34.239 Z0 F800
G1 X68.608 Y34.229 Z0 F800
G1 X68.548 Y34.498 Z0 F800
G1 X68.531 Y34.543 Z0 F800
G1 X68.501 Y34.709 Z0 F800
G1 X68.278 Y35.709 Z0 F800
G1 X68.094 Y36.68 Z0 F800
G1 X67.986 Y37.119 Z0 F800
G1 X67.854 Y37.522 Z0 F800
G1 X67.686 Y37.886 Z0 F800
G1 X67.432 Y38.273 Z0 F800
G0 Z3.5 F500
G0 X62.495 Y47.656 Z3.5 
G1 Z0 F500
G1 X62.165 Y48.396 Z0 F800
G1 X61.531 Y49.937 Z0 F800
G1 X61.267 Y50.878 Z0 F800
G1 X61.066 Y51.8 Z0 F800
G1 X61.018 Y52.071 Z0 F800
G1 X61.011 Y51.618 Z0 F800
G1 X60.967 Y51.108 Z0 F800
G1 X60.869 Y50.585 Z0 F800
G1 X60.695 Y50.062 Z0 F800
G1 X60.431 Y49.569 Z0 F800
G1 X60.406 Y49.536 Z0 F800
G1 X60.457 Y49.553 Z0 F800
G1 X60.72 Y49.573 Z0 F800
G1 X60.882 Y49.537 Z0 F800
G1 X61.059 Y49.487 Z0 F800
G1 X61.396 Y49.241 Z0 F800
G1 X61.638 Y48.991 Z0 F800
G1 X61.83 Y48.734 Z0 F800
G1 X61.984 Y48.486 Z0 F800
G1 X62.223 Y48.064 Z0 F800
G1 X62.455 Y47.716 Z0 F800
G1 X62.466 Y47.7 Z0 F800
G1 X62.495 Y47.656 Z0 F800
G0 Z3.5 F500
G0 X59.623 Y48.669 Z3.5 
G1 Z0 F500
G1 X59.654 Y48.805 Z0 F800
G1 X59.528 Y48.723 Z0 F800
G1 X59.623 Y48.669 Z0 F800
G0 Z3.5 F500
G0 X63.385 Y39.048 Z3.5 
G1 Z0 F500
G1 X62.544 Y39.879 Z0 F800
G1 X61.764 Y40.762 Z0 F800
G1 X61.593 Y40.982 Z0 F800
G1 X62.002 Y40.088 Z0 F800
G1 X62.036 Y40.018 Z0 F800
G1 X62.039 Y40.006 Z0 F800
G1 X62.177 Y39.704 Z0 F800
G1 X62.097 Y39.664 Z0 F800
G1 X62.101 Y39.554 Z0 F800
G1 X62.055 Y39.325 Z0 F800
G1 X61.964 Y39.122 Z0 F800
G1 X61.842 Y38.952 Z0 F800
G1 X61.713 Y38.829 Z0 F800
G1 X62.886 Y38.88 Z0 F800
G1 X63.514 Y38.899 Z0 F800
G1 X63.385 Y39.048 Z0 F800
G0 Z3.5 F500
G0 X61.651 Y45.428 Z3.5 
G1 Z0 F500
G1 X61.107 Y46.392 Z0 F800
G1 X60.602 Y47.375 Z0 F800
G1 X60.134 Y48.374 Z0 F800
G1 X60.122 Y48.408 Z0 F800
G1 X60.114 Y48.444 Z0 F800
G1 Y48.569 Z0 F800
G1 X60.14 Y48.686 Z0 F800
G1 X60.189 Y48.791 Z0 F800
G1 X60.257 Y48.882 Z0 F800
G1 X60.342 Y48.959 Z0 F800
G1 X60.442 Y49.021 Z0 F800
G1 X60.557 Y49.059 Z0 F800
G1 X60.684 Y49.069 Z0 F800
G1 X60.759 Y49.052 Z0 F800
G1 X60.836 Y49.03 Z0 F800
G1 X61.066 Y48.863 Z0 F800
G1 X61.256 Y48.666 Z0 F800
G1 X61.416 Y48.452 Z0 F800
G1 X61.554 Y48.23 Z0 F800
G1 X61.799 Y47.799 Z0 F800
G1 X62.042 Y47.434 Z0 F800
G1 X62.052 Y47.419 Z0 F800
G1 X63.015 Y45.903 Z0 F800
G1 X64.005 Y44.427 Z0 F800
G1 X65.016 Y42.961 Z0 F800
G1 X66.028 Y41.487 Z0 F800
G1 X66.048 Y41.452 Z0 F800
G1 X66.062 Y41.415 Z0 F800
G1 X66.085 Y41.289 Z0 F800
G1 Y41.163 Z0 F800
G1 X66.056 Y41.044 Z0 F800
G1 X66.002 Y40.938 Z0 F800
G1 X65.926 Y40.851 Z0 F800
G1 X65.837 Y40.786 Z0 F800
G1 X65.74 Y40.742 Z0 F800
G1 X65.64 Y40.717 Z0 F800
G1 X65.436 Y40.712 Z0 F800
G1 X65.236 Y40.769 Z0 F800
G1 X65.061 Y40.886 Z0 F800
G1 X64.926 Y41.068 Z0 F800
G1 X64.97 Y41.006 Z0 F800
G1 X64.225 Y41.827 Z0 F800
G1 X63.521 Y42.683 Z0 F800
G1 X62.858 Y43.57 Z0 F800
G1 X62.235 Y44.486 Z0 F800
G1 X61.651 Y45.428 Z0 F800
G0 Z3.5 F500
G0 X59.883 Y47.624 Z3.5 
G1 Z0 F500
G1 X60.061 Y47.24 Z0 F800
G1 X60.229 Y46.938 Z0 F800
G1 X60.242 Y46.92 Z0 F800
G1 X60.729 Y45.994 Z0 F800
G1 X61.236 Y45.106 Z0 F800
G1 X61.772 Y44.233 Z0 F800
G1 X62.331 Y43.374 Z0 F800
G1 X63.503 Y41.686 Z0 F800
G1 X64.718 Y40.024 Z0 F800
G1 X64.736 Y39.997 Z0 F800
G1 X64.79 Y39.875 Z0 F800
G1 X64.816 Y39.747 Z0 F800
G1 Y39.621 Z0 F800
G1 X64.782 Y39.501 Z0 F800
G1 X64.724 Y39.398 Z0 F800
G1 X64.647 Y39.314 Z0 F800
G1 X64.558 Y39.25 Z0 F800
G1 X64.461 Y39.204 Z0 F800
G1 X64.25 Y39.163 Z0 F800
G1 X64.033 Y39.191 Z0 F800
G1 X63.833 Y39.295 Z0 F800
G1 X63.675 Y39.478 Z0 F800
G1 X63.724 Y39.417 Z0 F800
G1 X62.908 Y40.223 Z0 F800
G1 X62.149 Y41.082 Z0 F800
G1 X61.447 Y41.986 Z0 F800
G1 X60.799 Y42.931 Z0 F800
G1 X60.206 Y43.911 Z0 F800
G1 X59.665 Y44.92 Z0 F800
G1 X59.175 Y45.953 Z0 F800
G1 X58.736 Y47.004 Z0 F800
G1 X58.64 Y47.293 Z0 F800
G1 X58.591 Y47.47 Z0 F800
G1 X58.56 Y47.663 Z0 F800
G1 X58.555 Y47.766 Z0 F800
G1 X58.564 Y47.874 Z0 F800
G1 X58.594 Y47.984 Z0 F800
G1 X58.65 Y48.092 Z0 F800
G1 X58.735 Y48.187 Z0 F800
G1 X58.844 Y48.26 Z0 F800
G1 X58.97 Y48.31 Z0 F800
G1 X59.107 Y48.336 Z0 F800
G1 X59.168 Z0 F800
G1 X59.227 Y48.319 Z0 F800
G1 X59.454 Y48.19 Z0 F800
G1 X59.633 Y48.02 Z0 F800
G1 X59.773 Y47.826 Z0 F800
G1 X59.883 Y47.624 Z0 F800
G0 Z3.5 F500
G0 X61.522 Y39.934 Z3.5 
G1 Z0 F500
G1 X61.505 Y39.964 Z0 F800
G1 X61.564 Y39.845 Z0 F800
G1 X61.595 Y39.72 Z0 F800
G1 X61.599 Y39.596 Z0 F800
G1 X61.576 Y39.478 Z0 F800
G1 X61.528 Y39.372 Z0 F800
G1 X61.463 Y39.281 Z0 F800
G1 X61.385 Y39.207 Z0 F800
G1 X61.295 Y39.147 Z0 F800
G1 X61.197 Y39.104 Z0 F800
G1 X61.092 Y39.077 Z0 F800
G1 X60.982 Y39.07 Z0 F800
G1 X60.868 Y39.085 Z0 F800
G1 X60.756 Y39.126 Z0 F800
G1 X60.651 Y39.192 Z0 F800
G1 X60.56 Y39.282 Z0 F800
G1 X60.487 Y39.392 Z0 F800
G1 X60.502 Y39.366 Z0 F800
G1 X59.944 Y40.228 Z0 F800
G1 X59.419 Y41.114 Z0 F800
G1 X58.933 Y42.024 Z0 F800
G1 X58.491 Y42.958 Z0 F800
G1 X58.096 Y43.912 Z0 F800
G1 X57.755 Y44.886 Z0 F800
G1 X57.472 Y45.879 Z0 F800
G1 X57.25 Y46.897 Z0 F800
G1 X57.243 Y47.027 Z0 F800
G1 X57.257 Y47.148 Z0 F800
G1 X57.293 Y47.265 Z0 F800
G1 X57.353 Y47.375 Z0 F800
G1 X57.44 Y47.473 Z0 F800
G1 X57.552 Y47.549 Z0 F800
G1 X57.681 Y47.599 Z0 F800
G1 X57.821 Y47.616 Z0 F800
G1 X57.913 Y47.598 Z0 F800
G1 X58.013 Y47.57 Z0 F800
G1 X58.212 Y47.398 Z0 F800
G1 X58.36 Y47.198 Z0 F800
G1 X58.471 Y46.982 Z0 F800
G1 X58.555 Y46.765 Z0 F800
G1 X58.692 Y46.354 Z0 F800
G1 X58.836 Y46.019 Z0 F800
G1 X58.846 Y46.002 Z0 F800
G1 X59.486 Y44.464 Z0 F800
G1 X60.151 Y42.95 Z0 F800
G1 X60.834 Y41.44 Z0 F800
G1 X61.522 Y39.934 Z0 F800
G0 Z3.5 F500
G0 X62.905 Y38.38 Z3.5 
G1 Z0 F500
G1 X64.426 Y38.427 Z0 F800
G1 X65.953 Y38.412 Z0 F800
G1 X65.996 Y38.407 Z0 F800
G1 X66.037 Y38.394 Z0 F800
G1 X66.163 Y38.33 Z0 F800
G1 X66.27 Y38.244 Z0 F800
G1 X66.354 Y38.142 Z0 F800
G1 X66.412 Y38.027 Z0 F800
G1 X66.44 Y37.906 Z0 F800
G1 X66.444 Y37.786 Z0 F800
G1 X66.427 Y37.67 Z0 F800
G1 X66.391 Y37.562 Z0 F800
G1 X66.276 Y37.364 Z0 F800
G1 X66.111 Y37.203 Z0 F800
G1 X65.902 Y37.096 Z0 F800
G1 X65.657 Y37.059 Z0 F800
G1 X65.68 Z0 F800
G1 X61.885 Y36.795 Z0 F800
G1 X58.087 Y36.558 Z0 F800
G1 X54.29 Y36.337 Z0 F800
G1 X50.492 Y36.124 Z0 F800
G1 X50.421 Y36.129 Z0 F800
G1 X50.354 Y36.155 Z0 F800
G1 X50.224 Y36.243 Z0 F800
G1 X50.115 Y36.348 Z0 F800
G1 X50.03 Y36.465 Z0 F800
G1 X49.968 Y36.59 Z0 F800
G1 X49.904 Y36.845 Z0 F800
G1 X49.893 Y37.093 Z0 F800
G1 X49.905 Y37.331 Z0 F800
G1 X49.921 Y37.551 Z0 F800
G1 X49.93 Y37.745 Z0 F800
G1 X49.918 Y37.9 Z0 F800
G1 Y37.897 Z0 F800
G1 X49.901 Y38.19 Z0 F800
G1 X49.913 Y38.396 Z0 F800
G1 X49.876 Y38.392 Z0 F800
G1 X49.84 Z0 F800
G1 X49.682 Y38.407 Z0 F800
G1 X49.553 Z0 F800
G1 X49.463 Y38.397 Z0 F800
G1 X49.423 Y38.387 Z0 F800
G1 Y38.391 Z0 F800
G1 X49.426 Y38.3 Z0 F800
G1 X49.477 Y38.112 Z0 F800
G1 X49.481 Y38.076 Z0 F800
G1 X49.521 Y37.006 Z0 F800
G1 X49.536 Y35.938 Z0 F800
G1 X49.539 Y34.873 Z0 F800
G1 Y33.809 Z0 F800
G1 X51.007 Z0 F800
G1 X52.482 Y33.814 Z0 F800
G1 X53.962 Y33.795 Z0 F800
G1 X55.444 Y33.72 Z0 F800
G1 X55.495 Y33.71 Z0 F800
G1 X55.543 Y33.691 Z0 F800
G1 X55.672 Y33.606 Z0 F800
G1 X55.776 Y33.501 Z0 F800
G1 X55.853 Y33.38 Z0 F800
G1 X55.895 Y33.249 Z0 F800
G1 X55.903 Y33.118 Z0 F800
G1 X55.886 Y32.996 Z0 F800
G1 X55.849 Y32.882 Z0 F800
G1 X55.801 Y32.777 Z0 F800
G1 X55.685 Y32.586 Z0 F800
G1 X55.558 Y32.417 Z0 F800
G1 X55.44 Y32.275 Z0 F800
G1 X55.353 Y32.166 Z0 F800
G1 X54.87 Y31.534 Z0 F800
G1 X54.379 Y30.922 Z0 F800
G1 X53.903 Y30.315 Z0 F800
G1 X53.466 Y29.696 Z0 F800
G1 X54.708 Y29.762 Z0 F800
G1 X55.949 Y29.834 Z0 F800
G1 X57.187 Y29.921 Z0 F800
G1 X58.423 Y30.029 Z0 F800
G1 X58.492 Y30.026 Z0 F800
G1 X58.557 Y30.005 Z0 F800
G1 X58.819 Y29.857 Z0 F800
G1 X59.053 Y29.681 Z0 F800
G1 X59.266 Y29.486 Z0 F800
G1 X59.461 Y29.28 Z0 F800
G1 X59.821 Y28.866 Z0 F800
G1 X60.176 Y28.507 Z0 F800
G1 X60.433 Y28.271 Z0 F800
G1 X60.662 Y28.042 Z0 F800
G1 X60.874 Y27.848 Z0 F800
G1 X61.078 Y27.716 Z0 F800
G1 X65.295 Y28.922 Z0 F800
G1 X69.524 Y30.083 Z0 F800
G1 X69.566 Y30.09 Z0 F800
G1 X69.634 Y30.106 Z0 F800
G1 X69.682 Y30.144 Z0 F800
G1 X69.739 Y30.218 Z0 F800
G1 X69.805 Y30.332 Z0 F800
G1 X69.883 Y30.476 Z0 F800
G1 X69.99 Y30.636 Z0 F800
G1 X70.139 Y30.783 Z0 F800
G1 X70.344 Y30.894 Z0 F800
G1 X70.869 Y31.067 Z0 F800
G1 X71.391 Y31.159 Z0 F800
G1 X71.9 Y31.213 Z0 F800
G1 X72.386 Y31.273 Z0 F800
G1 X72.319 Y31.794 Z0 F800
G1 X72.333 Y32.315 Z0 F800
G1 X72.377 Y32.572 Z0 F800
G1 X72.447 Y32.825 Z0 F800
G1 X72.546 Y33.071 Z0 F800
G1 X72.676 Y33.31 Z0 F800
G1 X72.657 Y33.688 Z0 F800
G1 X72.605 Y34.079 Z0 F800
G1 X72.531 Y34.48 Z0 F800
G1 X72.448 Y34.887 Z0 F800
G1 X72.06 Y34.865 Z0 F800
G1 X71.704 Y34.823 Z0 F800
G1 X71.504 Y34.772 Z0 F800
G1 X71.333 Y34.697 Z0 F800
G1 X71.185 Y34.585 Z0 F800
G1 X71.06 Y34.428 Z0 F800
G1 X71.036 Y34.395 Z0 F800
G1 X70.792 Y34.188 Z0 F800
G1 X70.504 Y34.054 Z0 F800
G1 X70.191 Y33.992 Z0 F800
G1 X69.872 Y33.999 Z0 F800
G1 X69.715 Y34.028 Z0 F800
G1 X69.563 Y34.078 Z0 F800
G1 X69.419 Y34.149 Z0 F800
G1 X69.287 Y34.245 Z0 F800
G1 X69.171 Y34.366 Z0 F800
G1 X69.079 Y34.512 Z0 F800
G1 X69.015 Y34.679 Z0 F800
G1 X68.982 Y34.862 Z0 F800
G1 X68.99 Y34.813 Z0 F800
G1 X68.768 Y35.811 Z0 F800
G1 X68.582 Y36.789 Z0 F800
G1 X68.467 Y37.257 Z0 F800
G1 X68.32 Y37.706 Z0 F800
G1 X68.125 Y38.128 Z0 F800
G1 X67.858 Y38.534 Z0 F800
G1 X66.25 Y41.357 Z0 F800
G1 X64.713 Y44.206 Z0 F800
G1 X63.982 Y45.651 Z0 F800
G1 X63.284 Y47.113 Z0 F800
G1 X62.624 Y48.592 Z0 F800
G1 X62.004 Y50.1 Z0 F800
G1 X61.752 Y50.999 Z0 F800
G1 X61.557 Y51.897 Z0 F800
G1 X61.396 Y52.797 Z0 F800
G1 X61.25 Y53.696 Z0 F800
G1 X61.1 Y54.587 Z0 F800
G1 X60.925 Y55.466 Z0 F800
G1 X60.706 Y56.328 Z0 F800
G1 X60.423 Y57.167 Z0 F800
G1 X60.22 Y57.515 Z0 F800
G1 X59.955 Y57.784 Z0 F800
G1 X59.636 Y57.988 Z0 F800
G1 X59.27 Y58.139 Z0 F800
G1 X58.866 Y58.242 Z0 F800
G1 X58.44 Y58.306 Z0 F800
G1 X58.008 Y58.337 Z0 F800
G1 X57.582 Y58.347 Z0 F800
G1 X55.904 Y58.371 Z0 F800
G1 X54.216 Z0 F800
G1 X47.869 Y58.321 Z0 F800
G1 X41.521 Y58.238 Z0 F800
G1 X35.175 Y58.098 Z0 F800
G1 X28.85 Y57.879 Z0 F800
G1 X28.712 Y57.851 Z0 F800
G1 X28.536 Y57.842 Z0 F800
G1 X28.229 Y57.851 Z0 F800
G1 X28.108 Y57.842 Z0 F800
G1 X28.025 Y57.822 Z0 F800
G1 X27.996 Y57.804 Z0 F800
G1 X27.977 Y57.783 Z0 F800
G1 X27.89 Y56.658 Z0 F800
G1 X27.894 Y55.508 Z0 F800
G1 X27.932 Y54.342 Z0 F800
G1 X27.945 Y53.164 Z0 F800
G1 X27.966 Y52.75 Z0 F800
G1 X27.951 Y52.304 Z0 F800
G1 X27.929 Y52.235 Z0 F800
G1 X27.882 Y52.139 Z0 F800
G1 X27.817 Y52.023 Z0 F800
G1 X27.742 Y51.898 Z0 F800
G1 X27.594 Y51.659 Z0 F800
G1 X27.502 Y51.494 Z0 F800
G1 X27.782 Y51.776 Z0 F800
G1 X28.073 Y52.047 Z0 F800
G1 X28.134 Y52.065 Z0 F800
G1 X28.197 Y52.068 Z0 F800
G1 X28.388 Y52.027 Z0 F800
G1 X28.554 Y51.948 Z0 F800
G1 X28.693 Y51.84 Z0 F800
G1 X28.801 Y51.713 Z0 F800
G1 X28.945 Y51.44 Z0 F800
G1 X29.04 Y51.171 Z0 F800
G1 X29.127 Y50.934 Z0 F800
G1 X29.22 Y50.756 Z0 F800
G1 X29.267 Y50.696 Z0 F800
G1 X29.319 Y50.653 Z0 F800
G1 X29.384 Y50.625 Z0 F800
G1 X29.478 Y50.607 Z0 F800
G1 X30.166 Y50.53 Z0 F800
G1 X30.855 Y50.495 Z0 F800
G1 X31.552 Y50.482 Z0 F800
G1 X32.256 Y50.476 Z0 F800
G1 X32.458 Y51.29 Z0 F800
G1 X32.614 Y52.117 Z0 F800
G1 X32.744 Y52.953 Z0 F800
G1 X32.865 Y53.798 Z0 F800
G1 X32.875 Y53.839 Z0 F800
G1 X32.891 Y53.877 Z0 F800
G1 X32.968 Y53.998 Z0 F800
G1 X33.062 Y54.099 Z0 F800
G1 X33.168 Y54.179 Z0 F800
G1 X33.282 Y54.238 Z0 F800
G1 X33.513 Y54.299 Z0 F800
G1 X33.737 Y54.314 Z0 F800
G1 X33.951 Y54.31 Z0 F800
G1 X34.148 Y54.302 Z0 F800
G1 X34.316 Y54.299 Z0 F800
G1 X34.444 Y54.312 Z0 F800
G1 X34.47 Y54.316 Z0 F800
G1 X34.496 Z0 F800
G1 X46.006 Y54.463 Z0 F800
G1 X57.512 Y54.576 Z0 F800
G1 X57.669 Y54.591 Z0 F800
G1 X57.875 Y54.581 Z0 F800
G1 X58.083 Y54.537 Z0 F800
G1 X58.285 Y54.455 Z0 F800
G1 X58.381 Y54.396 Z0 F800
G1 X58.472 Y54.321 Z0 F800
G1 X58.549 Y54.228 Z0 F800
G1 X58.607 Y54.114 Z0 F800
G1 X58.637 Y53.985 Z0 F800
G1 Y53.85 Z0 F800
G1 X58.604 Y53.712 Z0 F800
G1 X58.541 Y53.569 Z0 F800
G1 X58.307 Y53.167 Z0 F800
G1 X58.014 Y52.732 Z0 F800
G1 X57.817 Y52.538 Z0 F800
G1 X57.572 Y52.387 Z0 F800
G1 X57.433 Y52.335 Z0 F800
G1 X57.284 Y52.304 Z0 F800
G1 X57.126 Y52.296 Z0 F800
G1 X57.005 Y52.31 Z0 F800
G1 X55.45 Y52.243 Z0 F800
G1 X53.88 Y52.219 Z0 F800
G1 X50.75 Y52.216 Z0 F800
G1 X50.556 Y51.437 Z0 F800
G1 X50.375 Y50.661 Z0 F800
G1 X52.304 Y50.686 Z0 F800
G1 X54.234 Y50.729 Z0 F800
G1 X56.159 Y50.806 Z0 F800
G1 X58.073 Y50.928 Z0 F800
G1 X58.309 Y51.056 Z0 F800
G1 X58.519 Y51.223 Z0 F800
G1 X58.704 Y51.424 Z0 F800
G1 X58.867 Y51.653 Z0 F800
G1 X59.135 Y52.171 Z0 F800
G1 X59.344 Y52.728 Z0 F800
G1 X59.339 Y52.709 Z0 F800
G1 X59.441 Y52.922 Z0 F800
G1 X59.608 Y53.069 Z0 F800
G1 X59.81 Y53.146 Z0 F800
G1 X60.018 Y53.15 Z0 F800
G1 X60.117 Y53.124 Z0 F800
G1 X60.211 Y53.082 Z0 F800
G1 X60.299 Y53.023 Z0 F800
G1 X60.376 Y52.946 Z0 F800
G1 X60.439 Y52.852 Z0 F800
G1 X60.483 Y52.744 Z0 F800
G1 X60.505 Y52.625 Z0 F800
G1 Y52.502 Z0 F800
G1 Y52.542 Z0 F800
G1 X60.519 Y52.104 Z0 F800
G1 X60.511 Y51.644 Z0 F800
G1 X60.471 Y51.176 Z0 F800
G1 X60.383 Y50.71 Z0 F800
G1 X60.234 Y50.26 Z0 F800
G1 X60.008 Y49.838 Z0 F800
G1 X59.863 Y49.645 Z0 F800
G1 X59.695 Y49.465 Z0 F800
G1 X59.502 Y49.303 Z0 F800
G1 X59.277 Y49.157 Z0 F800
G1 X58.776 Y48.943 Z0 F800
G1 X58.27 Y48.791 Z0 F800
G1 X57.757 Y48.686 Z0 F800
G1 X57.241 Y48.616 Z0 F800
G1 X56.22 Y48.533 Z0 F800
G1 X55.244 Y48.448 Z0 F800
G1 X55.779 Y43.347 Z0 F800
G1 X56.322 Y38.25 Z0 F800
G1 X57.182 Y38.209 Z0 F800
G1 X58.066 Y38.227 Z0 F800
G1 X58.968 Y38.262 Z0 F800
G1 X59.883 Y38.274 Z0 F800
G1 X61.39 Y38.315 Z0 F800
G1 X62.905 Y38.38 Z0 F800
G0 Z3.5 F500
G0 X53.312 Y38.683 Z3.5 
G1 Z0 F500
G1 X53.568 Y38.705 Z0 F800
G1 X53.069 Y43.287 Z0 F800
G1 X52.586 Y47.321 Z0 F800
G1 X52.782 Y42.841 Z0 F800
G1 X52.973 Y38.665 Z0 F800
G1 X53.312 Y38.683 Z0 F800
G0 Z3.5 F500
G0 X54.121 Y38.251 Z3.5 
G1 Z0 F500
G1 X53.566 Y43.346 Z0 F800
G1 X52.956 Y48.435 Z0 F800
G1 X52.835 Y48.425 Z0 F800
G1 X52.713 Y48.422 Z0 F800
G1 X52.478 Y48.447 Z0 F800
G1 X52.265 Y48.464 Z0 F800
G1 X52.106 Y48.456 Z0 F800
G1 X52.032 Y48.436 Z0 F800
G1 Y48.427 Z0 F800
G1 X52.028 Y48.387 Z0 F800
G1 X52.046 Y48.27 Z0 F800
G1 X52.078 Y47.497 Z0 F800
G1 X52.282 Y42.818 Z0 F800
G1 X52.497 Y38.14 Z0 F800
G1 X53.337 Y38.183 Z0 F800
G1 X54.121 Y38.251 Z0 F800
G0 Z3.5 F500
G0 X45.796 Y51.347 Z3.5 
G1 Z0 F500
G1 X47.207 Y51.374 Z0 F800
G1 X43.806 Z0 F800
G1 X43.789 Y51.314 Z0 F800
G1 X45.796 Y51.347 Z0 F800
G0 Z3.5 F500
G0 X47.884 Y51.51 Z3.5 
G1 Z0 F500
G1 X47.978 Y51.874 Z0 F800
G1 X43.406 Z0 F800
G1 X43.346 Y51.583 Z0 F800
G1 X43.19 Y51.035 Z0 F800
G1 X43.026 Y50.587 Z0 F800
G1 X43.423 Y50.809 Z0 F800
G1 X45.806 Y50.847 Z0 F800
G1 X47.698 Y50.883 Z0 F800
G1 X47.884 Y51.51 Z0 F800
G0 Z3.5 F500
G0 X48.623 Y52.374 Z3.5 
G1 Z0 F500
G1 X42.993 Z0 F800
G1 X42.967 Y52.223 Z0 F800
G1 X42.86 Y51.702 Z0 F800
G1 X42.714 Y51.189 Z0 F800
G1 X42.531 Y50.69 Z0 F800
G1 X42.316 Y50.208 Z0 F800
G1 X42.418 Y50.117 Z0 F800
G1 X42.477 Y50.011 Z0 F800
G1 X42.498 Y49.894 Z0 F800
G1 X42.488 Y49.771 Z0 F800
G1 X42.399 Y49.525 Z0 F800
G1 X42.261 Y49.315 Z0 F800
G1 X42.575 Y49.58 Z0 F800
G1 X42.882 Y49.858 Z0 F800
G1 X43.203 Y50.113 Z0 F800
G1 X43.557 Y50.311 Z0 F800
G1 X45.815 Y50.347 Z0 F800
G1 X48.072 Y50.39 Z0 F800
G1 X48.369 Y51.385 Z0 F800
G1 X48.623 Y52.374 Z0 F800
;Cut @ 444 mm/min, 90% power

M8
G0 Z3.5 F500
G0 X65.574 Y56.189 Z3.5 
G1 Z0 F500
;Layer C2 Pass 1 of 3
G1 X65.245 Y56.48 Z0 F800
G1 X64.916 Y56.515 Z0 F800
G1 X64.741 Y56.35 Z0 F800
G1 X64.532 Y55.933 Z0 F800
G1 X64.552 Y55.571 Z0 F800
G1 X64.701 Y55.081 Z0 F800
G1 X65.006 Y54.408 Z0 F800
G1 X65.489 Y53.857 Z0 F800
G1 X66.069 Y53.396 Z0 F800
G1 X66.607 Y53.325 Z0 F800
G1 X67.032 Y53.696 Z0 F800
G1 X67.097 Y54.123 Z0 F800
G1 X67.113 Y54.891 Z0 F800
G1 X67.011 Y55.058 Z0 F800
G1 X66.891 Y55.279 Z0 F800
G1 X66.815 Y55.58 Z0 F800
G1 X66.758 Y55.827 Z0 F800
G1 X66.883 Y56.195 Z0 F800
G1 X67.181 Y56.378 Z0 F800
G1 X67.597 Y56.229 Z0 F800
G1 X68.011 Y55.61 Z0 F800
G1 X68.495 Y55.255 Z0 F800
G1 X68.95 Y55.725 Z0 F800
G1 X69.475 Y55.947 Z0 F800
G1 X70.245 Z0 F800
G1 X70.711 Y55.655 Z0 F800
G1 X71.111 Y55.192 Z0 F800
G1 X71.121 Y54.549 Z0 F800
G1 X70.785 Y53.884 Z0 F800
G1 X70.496 Y53.512 Z0 F800
G1 X70.144 Y53.242 Z0 F800
G1 X69.971 Y53.29 Z0 F800
;Layer C2 Pass 2 of 3
G1 X70.144 Y53.242 Z0 F800
G1 X70.496 Y53.512 Z0 F800
G1 X70.785 Y53.884 Z0 F800
G1 X71.121 Y54.549 Z0 F800
G1 X71.111 Y55.192 Z0 F800
G1 X70.711 Y55.655 Z0 F800
G1 X70.245 Y55.947 Z0 F800
G1 X69.475 Z0 F800
G1 X68.95 Y55.725 Z0 F800
G1 X68.495 Y55.255 Z0 F800
G1 X68.011 Y55.61 Z0 F800
G1 X67.597 Y56.229 Z0 F800
G1 X67.181 Y56.378 Z0 F800
G1 X66.883 Y56.195 Z0 F800
G1 X66.758 Y55.827 Z0 F800
G1 X66.815 Y55.58 Z0 F800
G1 X66.891 Y55.279 Z0 F800
G1 X67.011 Y55.058 Z0 F800
G1 X67.113 Y54.891 Z0 F800
G1 X67.097 Y54.123 Z0 F800
G1 X67.032 Y53.696 Z0 F800
G1 X66.607 Y53.325 Z0 F800
G1 X66.069 Y53.396 Z0 F800
G1 X65.489 Y53.857 Z0 F800
G1 X65.006 Y54.408 Z0 F800
G1 X64.701 Y55.081 Z0 F800
G1 X64.552 Y55.571 Z0 F800
G1 X64.532 Y55.933 Z0 F800
G1 X64.741 Y56.35 Z0 F800
G1 X64.916 Y56.515 Z0 F800
G1 X65.245 Y56.48 Z0 F800
G1 X65.574 Y56.189 Z0 F800
;Layer C2 Pass 3 of 3
G1 X65.245 Y56.48 Z0 F800
G1 X64.916 Y56.515 Z0 F800
G1 X64.741 Y56.35 Z0 F800
G1 X64.532 Y55.933 Z0 F800
G1 X64.552 Y55.571 Z0 F800
G1 X64.701 Y55.081 Z0 F800
G1 X65.006 Y54.408 Z0 F800
G1 X65.489 Y53.857 Z0 F800
G1 X66.069 Y53.396 Z0 F800
G1 X66.607 Y53.325 Z0 F800
G1 X67.032 Y53.696 Z0 F800
G1 X67.097 Y54.123 Z0 F800
G1 X67.113 Y54.891 Z0 F800
G1 X67.011 Y55.058 Z0 F800
G1 X66.891 Y55.279 Z0 F800
G1 X66.815 Y55.58 Z0 F800
G1 X66.758 Y55.827 Z0 F800
G1 X66.883 Y56.195 Z0 F800
G1 X67.181 Y56.378 Z0 F800
G1 X67.597 Y56.229 Z0 F800
G1 X68.011 Y55.61 Z0 F800
G1 X68.495 Y55.255 Z0 F800
G1 X68.95 Y55.725 Z0 F800
G1 X69.475 Y55.947 Z0 F800
G1 X70.245 Z0 F800
G1 X70.711 Y55.655 Z0 F800
G1 X71.111 Y55.192 Z0 F800
G1 X71.121 Y54.549 Z0 F800
G1 X70.785 Y53.884 Z0 F800
G1 X70.496 Y53.512 Z0 F800
G1 X70.144 Y53.242 Z0 F800
G1 X69.971 Y53.29 Z0 F800
G0 Z3.5 F500
G0 X69.613 Y52.654 Z3.5 F444
G1 Z0 F500
;Layer C2 Pass 1 of 3
G1 X66.714 Y51.156 Z0 F800
;Layer C2 Pass 2 of 3
G1 X69.613 Y52.654 Z0 F800
;Layer C2 Pass 3 of 3
G1 X66.714 Y51.156 Z0 F800
G0 Z3.5 F500
G0 X69.495 Y50.404 Z3.5 
G1 Z0 F500
;Layer C2 Pass 1 of 3
G1 X69.676 Y50.799 Z0 F800
G1 X70.05 Y50.981 Z0 F800
G1 X70.602 Y50.95 Z0 F800
G1 X71.159 Y50.441 Z0 F800
G1 X71.442 Y49.933 Z0 F800
G1 X71.577 Y49.462 Z0 F800
G1 X71.498 Y48.934 Z0 F800
G1 X71.079 Y48.477 Z0 F800
G1 X70.708 Y48.449 Z0 F800
G1 X70.242 Y48.681 Z0 F800
G1 X69.832 Y49 Z0 F800
G1 X69.725 Y49.296 Z0 F800
G1 X69.981 Y48.647 Z0 F800
G1 X69.984 Y48.211 Z0 F800
G1 X69.555 Y47.686 Z0 F800
G1 X69.387 Y47.551 Z0 F800
G1 X69.241 Y47.445 Z0 F800
G1 X69.021 Y47.405 Z0 F800
G1 X68.722 Y47.394 Z0 F800
G1 X68.391 Y47.498 Z0 F800
G1 X68.077 Y47.625 Z0 F800
G1 X67.752 Y47.817 Z0 F800
G1 X67.452 Y48.007 Z0 F800
G1 X67.187 Y48.312 Z0 F800
G1 X66.961 Y48.567 Z0 F800
G1 X66.893 Y48.952 Z0 F800
G1 X66.985 Y49.522 Z0 F800
G1 X67.346 Y49.859 Z0 F800
G1 X67.532 Y49.865 Z0 F800
G1 X67.797 Y49.842 Z0 F800
G1 X68.178 Y49.598 Z0 F800
G1 X68.48 Y49.384 Z0 F800
G1 X68.662 Y48.949 Z0 F800
G1 X69.017 Y48.21 Z0 F800
G1 X69.354 Y47.712 Z0 F800
G1 X69.55 Y47.062 Z0 F800
G1 X69.715 Y46.63 Z0 F800
G1 X69.146 Y46.21 Z0 F800
G1 X72.412 Y47.822 Z0 F800
G1 X72.173 Y48.665 Z0 F800
G1 X74.983 Y43.147 Z0 F800
G1 X73.309 Y46.198 Z0 F800
G1 X69.953 Y44.487 Z0 F800
;Layer C2 Pass 2 of 3
G1 X73.309 Y46.198 Z0 F800
G1 X74.983 Y43.147 Z0 F800
G1 X72.173 Y48.665 Z0 F800
G1 X72.412 Y47.822 Z0 F800
G1 X69.146 Y46.21 Z0 F800
G1 X69.715 Y46.63 Z0 F800
G1 X69.55 Y47.062 Z0 F800
G1 X69.354 Y47.712 Z0 F800
G1 X69.017 Y48.21 Z0 F800
G1 X68.662 Y48.949 Z0 F800
G1 X68.48 Y49.384 Z0 F800
G1 X68.178 Y49.598 Z0 F800
G1 X67.797 Y49.842 Z0 F800
G1 X67.532 Y49.865 Z0 F800
G1 X67.346 Y49.859 Z0 F800
G1 X66.985 Y49.522 Z0 F800
G1 X66.893 Y48.952 Z0 F800
G1 X66.961 Y48.567 Z0 F800
G1 X67.187 Y48.312 Z0 F800
G1 X67.452 Y48.007 Z0 F800
G1 X67.752 Y47.817 Z0 F800
G1 X68.077 Y47.625 Z0 F800
G1 X68.391 Y47.498 Z0 F800
G1 X68.722 Y47.394 Z0 F800
G1 X69.021 Y47.405 Z0 F800
G1 X69.241 Y47.445 Z0 F800
G1 X69.387 Y47.551 Z0 F800
G1 X69.555 Y47.686 Z0 F800
G1 X69.984 Y48.211 Z0 F800
G1 X69.981 Y48.647 Z0 F800
G1 X69.725 Y49.296 Z0 F800
G1 X69.832 Y49 Z0 F800
G1 X70.242 Y48.681 Z0 F800
