;LightBurn 1.6.04
;Custom GCode device profile, absolute coords
;Bounds: X27.06 Y14.08 to X96.94 Y75.92
G00 G17 G40 G21 G54
G90
M3
G1 Z1F500
;Cut @ 15 mm/sec, 90% power

M8
G0 Z0.5F500
G0 X66.227Y45.777Z0.5F1000
G1 Z0F500
;Layer C00
G1 X65.645Y46.21Z0S900F800
G1 X65.347Y46.643Z0F800
G1 X65.262Y46.839Z0F800
G1 X81.923Y63.141Z0F800
G1 Y63.131Z0F800
G1 X83.768Y61.648Z0F800
G1 X68.719Y45.679Z0F800
G1 X68.221Y45.629Z0F800
G1 X67.721Y45.594Z0F800
G1 X67.161Y45.579Z0F800
G1 X66.227Y45.777Z0F800
G0 Z0.5F500
G0 X65.125Y42.474Z0.5F1000
G1 Z0F500
G1 X65.929Y42.388Z0F800
G1 X69.552Y42.24Z0F800
G1 X72.425Y42.61Z0F800
G1 X74.364Y43.451Z0F800
G1 X75.182Y44.718Z0F800
G1 X75.172Y45.234Z0F800
G1 X75.011Y45.773Z0F800
G1 X74.702Y46.326Z0F800
G1 X74.249Y46.885Z0F800
G1 X74.116Y47.033Z0F800
G1 X74.009Y47.162Z0F800
G1 X73.939Y47.257Z0F800
G1 X73.915Y47.306Z0F800
G1 X74.182Y47.66Z0F800
G1 X74.765Y48.396Z0F800
G1 X75.358Y49.133Z0F800
G1 X75.656Y49.487Z0F800
G1 X75.809Y49.384Z0F800
G1 X76.133Y49.087Z0F800
G1 X76.525Y48.697Z0F800
G1 X76.883Y48.311Z0F800
G1 X78.27Y46.319Z0F800
G1 X79.177Y44.076Z0F800
G1 X79.602Y41.592Z0F800
G1 X79.543Y38.876Z0F800
G1 X79.368Y37.718Z0F800
G1 X79.086Y36.356Z0F800
G1 X78.749Y35.008Z0F800
G1 X78.405Y33.894Z0F800
G1 X76.879Y30.505Z0F800
G1 X74.895Y27.505Z0F800
G1 X72.508Y24.945Z0F800
G1 X69.846Y22.584Z0F800
G1 X70.905Y20.121Z0F800
G1 X72.038Y17.365Z0F800
G1 X72.124Y17.242Z0F800
G1 X72.245Y17.169Z0F800
G1 X72.387Y17.147Z0F800
G1 X72.533Y17.19Z0F800
G1 X75.53Y18.771Z0F800
G1 X75.685Y18.828Z0F800
G1 X75.861Y18.842Z0F800
G1 X76.034Y18.814Z0F800
G1 X76.184Y18.742Z0F800
G1 X82.989Y14.149Z0F800
G1 X83.136Y14.085Z0F800
G1 X83.299Y14.077Z0F800
G1 X83.456Y14.12Z0F800
G1 X83.588Y14.207Z0F800
G1 X89.833Y20.349Z0F800
G1 X89.922Y20.477Z0F800
G1 X89.963Y20.631Z0F800
G1 X89.954Y20.79Z0F800
G1 X89.89Y20.933Z0F800
G1 X85.135Y27.746Z0F800
G1 X85.063Y27.892Z0F800
G1 X85.029Y28.064Z0F800
G1 X85.036Y28.239Z0F800
G1 X85.084Y28.396Z0F800
G1 X87.694Y34.82Z0F800
G1 X87.769Y34.966Z0F800
G1 X87.887Y35.096Z0F800
G1 X88.032Y35.195Z0F800
G1 X88.189Y35.253Z0F800
G1 X96.559Y36.779Z0F800
G1 X96.706Y36.837Z0F800
G1 X96.826Y36.942Z0F800
G1 X96.906Y37.079Z0F800
G1 X96.936Y37.233Z0F800
G1 X96.941Y45.914Z0F800
G1 X96.912Y46.068Z0F800
G1 X96.83Y46.205Z0F800
G1 X96.708Y46.31Z0F800
G1 X96.561Y46.367Z0F800
G1 X87.979Y47.936Z0F800
G1 X87.819Y47.993Z0F800
G1 X87.669Y48.091Z0F800
G1 X87.545Y48.22Z0F800
G1 X87.466Y48.365Z0F800
G1 X84.842Y54.4Z0F800
G1 X84.79Y54.557Z0F800
G1 X84.778Y54.733Z0F800
G1 X84.807Y54.905Z0F800
G1 X84.878Y55.054Z0F800
G1 X89.885Y62.217Z0F800
G1 X89.948Y62.36Z0F800
G1 X89.958Y62.518Z0F800
G1 X89.917Y62.673Z0F800
G1 X89.827Y62.801Z0F800
G1 X83.582Y68.939Z0F800
G1 X83.45Y69.026Z0F800
G1 X83.296Y69.062Z0F800
G1 X83.137Y69.047Z0F800
G1 X82.994Y68.983Z0F800
G1 X75.578Y63.984Z0F800
G1 X75.428Y63.912Z0F800
G1 X75.251Y63.877Z0F800
G1 X75.071Y63.883Z0F800
G1 X74.911Y63.933Z0F800
G1 X68.96Y66.328Z0F800
G1 X68.812Y66.403Z0F800
G1 X68.68Y66.521Z0F800
G1 X68.578Y66.666Z0F800
G1 X68.522Y66.821Z0F800
G1 X66.871Y75.546Z0F800
G1 X66.813Y75.693Z0F800
G1 X66.708Y75.813Z0F800
G1 X66.569Y75.895Z0F800
G1 X66.412Y75.923Z0F800
G1 X57.577Z0F800
G1 X57.585Y75.916Z0F800
G1 X57.431Y75.888Z0F800
G1 X57.296Y75.806Z0F800
G1 X57.193Y75.686Z0F800
G1 X57.137Y75.539Z0F800
G1 X55.475Y66.814Z0F800
G1 X55.419Y66.659Z0F800
G1 X55.319Y66.514Z0F800
G1 X55.188Y66.396Z0F800
G1 X55.041Y66.322Z0F800
G1 X49.097Y63.927Z0F800
G1 X48.937Y63.877Z0F800
G1 X48.758Y63.87Z0F800
G1 X48.582Y63.906Z0F800
G1 X48.43Y63.977Z0F800
G1 X41.015Y68.977Z0F800
G1 X40.868Y69.041Z0F800
G1 X40.708Y69.055Z0F800
G1 X40.551Y69.02Z0F800
G1 X40.419Y68.932Z0F800
G1 X34.173Y62.794Z0F800
G1 X34.085Y62.666Z0F800
G1 X34.046Y62.511Z0F800
G1 X34.057Y62.352Z0F800
G1 X34.122Y62.21Z0F800
G1 X39.122Y55.046Z0F800
G1 X39.191Y54.898Z0F800
G1 X39.222Y54.725Z0F800
G1 X39.213Y54.549Z0F800
G1 X39.161Y54.393Z0F800
G1 X36.53Y48.358Z0F800
G1 X36.451Y48.212Z0F800
G1 X36.329Y48.083Z0F800
G1 X36.18Y47.985Z0F800
G1 X36.021Y47.928Z0F800
G1 X27.436Y46.359Z0F800
G1 X27.289Y46.301Z0F800
G1 X27.169Y46.196Z0F800
G1 X27.088Y46.059Z0F800
G1 X27.059Y45.905Z0F800
G1 Y37.224Z0F800
G1 X27.09Y37.07Z0F800
G1 X27.173Y36.932Z0F800
G1 X27.295Y36.827Z0F800
G1 X27.443Y36.77Z0F800
G1 X35.813Y35.243Z0F800
G1 X35.97Y35.186Z0F800
G1 X36.116Y35.086Z0F800
G1 X36.234Y34.957Z0F800
G1 X36.308Y34.811Z0F800
G1 X38.921Y28.387Z0F800
G1 X38.969Y28.23Z0F800
G1 X38.974Y28.056Z0F800
G1 X38.938Y27.884Z0F800
G1 X38.866Y27.737Z0F800
G1 X34.114Y20.924Z0F800
G1 X34.049Y20.78Z0F800
G1 X34.038Y20.622Z0F800
G1 X34.078Y20.468Z0F800
G1 X34.167Y20.34Z0F800
G1 X40.415Y14.198Z0F800
G1 X40.548Y14.112Z0F800
G1 X40.704Y14.077Z0F800
G1 X40.865Y14.091Z0F800
G1 X41.011Y14.155Z0F800
G1 X47.816Y18.748Z0F800
G1 X47.965Y18.82Z0F800
G1 X48.138Y18.849Z0F800
G1 X48.314Y18.834Z0F800
G1 X48.469Y18.777Z0F800
G1 X51.466Y17.197Z0F800
G1 X51.612Y17.154Z0F800
G1 X51.754Y17.175Z0F800
G1 X51.875Y17.249Z0F800
G1 X51.961Y17.371Z0F800
G1 X53.968Y22.26Z0F800
G1 X52.828Y22.974Z0F800
G1 X51.742Y23.778Z0F800
G1 X50.729Y24.664Z0F800
G1 X49.811Y25.625Z0F800
G1 X49.354Y26.199Z0F800
G1 X48.821Y26.932Z0F800
G1 X48.307Y27.693Z0F800
G1 X47.902Y28.35Z0F800
G1 X46.393Y31.677Z0F800
G1 X45.516Y35.232Z0F800
G1 X45.271Y39.007Z0F800
G1 X45.659Y42.997Z0F800
G1 X45.942Y44.26Z0F800
G1 X46.361Y45.638Z0F800
G1 X46.866Y46.987Z0F800
G1 X47.41Y48.165Z0F800
G1 X49.094Y50.65Z0F800
G1 X51.234Y52.545Z0F800
G1 X53.829Y53.849Z0F800
G1 X56.878Y54.561Z0F800
G1 X57.423Y54.625Z0F800
G1 X57.959Y54.668Z0F800
G1 X58.496Y54.697Z0F800
G1 X59.046Y54.711Z0F800
G1 X59.622Y54.706Z0F800
G1 X60.234Y54.685Z0F800
G1 X60.896Y54.649Z0F800
G1 X61.62Y54.599Z0F800
G1 X63.195Y54.384Z0F800
G1 X65.258Y54.007Z0F800
G1 X67.044Y53.621Z0F800
G1 X67.789Y53.378Z0F800
G1 X67.706Y53.252Z0F800
G1 X67.499Y52.978Z0F800
G1 X67.198Y52.597Z0F800
G1 X66.835Y52.149Z0F800
G1 X65.906Y51.009Z0F800
G1 X64.524Y51.295Z0F800
G1 X61.761Y51.716Z0F800
G1 X59.157Y51.844Z0F800
G1 X56.835Y51.679Z0F800
G1 X54.919Y51.223Z0F800
G1 X54.73Y51.141Z0F800
G1 X54.486Y51.016Z0F800
G1 X54.219Y50.865Z0F800
G1 X53.961Y50.706Z0F800
G1 X53.656Y50.5Z0F800
G1 X53.444Y50.326Z0F800
G1 X53.29Y50.153Z0F800
G1 X53.16Y49.946Z0F800
G1 X52.93Y49.268Z0F800
G1 X52.987Y48.571Z0F800
G1 X53.336Y47.841Z0F800
G1 X53.978Y47.066Z0F800
G1 X54.561Y46.536Z0F800
G1 X55.257Y46.016Z0F800
G1 X56.092Y45.489Z0F800
G1 X57.094Y44.936Z0F800
G1 X57.584Y44.706Z0F800
G1 X58.275Y44.405Z0F800
G1 X58.926Y44.135Z0F800
G1 X59.298Y44Z0F800
G1 X59.238Y43.641Z0F800
G1 X59.036Y42.666Z0F800
G1 X58.722Y41.226Z0F800
G1 X57.936Y37.721Z0F800
G1 X57.627Y36.303Z0F800
G1 X57.433Y35.361Z0F800
G1 X57.385Y35.041Z0F800
G1 X57.599Y35.391Z0F800
G1 X58.124Y36.275Z0F800
G1 X58.879Y37.559Z0F800
G1 X59.786Y39.111Z0F800
G1 X62.104Y43.088Z0F800
G1 X62.574Y42.974Z0F800
G1 X61.872Y39.831Z0F800
G1 X61.754Y39.243Z0F800
G1 X61.745Y39.04Z0F800
G1 X61.823Y39.076Z0F800
G1 X62.204Y39.454Z0F800
G1 X62.933Y40.196Z0F800
G1 X63.791Y41.078Z0F800
G1 X64.558Y41.877Z0F800
G1 X65.125Y42.474Z0F800
M5
G1 Z1F500
M9
G90
M2
