;LightBurn 1.6.04
;Custom GCode device profile, absolute coords
;Bounds: X6.73 Y9.91 to X117.27 Y88.09
G00 G17 G40 G21 G54
G90
M3
G1 Z10 F500
;Cut @ 1200 mm/min, 90% power

M8
G0 Z2.8F500
G0 X23.309Y41.777Z2.8F1500
G1 Z0F500
;Layer Blue
G1 X42.691Y54.819Z0S900F1200
G1 X23.933Y72.223Z0F1200
G1 X23.309Y41.777Z0F1200
G0 Z2.8F500
G0 X46.181Y55.486Z2.8F1500
G1 Z0F500
G1 X46.168Y55.227Z0F1200
G1 X46.129Y54.975Z0F1200
G1 X46.067Y54.731Z0F1200
G1 X45.981Y54.498Z0F1200
G1 X45.747Y54.067Z0F1200
G1 X45.437Y53.691Z0F1200
G1 X45.062Y53.381Z0F1200
G1 X44.63Y53.147Z0F1200
G1 X44.397Y53.062Z0F1200
G1 X44.154Y52.999Z0F1200
G1 X43.902Y52.961Z0F1200
G1 X43.642Y52.948Z0F1200
G1 X43.383Y52.961Z0F1200
G1 X43.131Y52.999Z0F1200
G1 X42.887Y53.062Z0F1200
G1 X42.654Y53.147Z0F1200
G1 X42.223Y53.381Z0F1200
G1 X41.847Y53.691Z0F1200
G1 X41.537Y54.067Z0F1200
G1 X41.303Y54.498Z0F1200
G1 X41.218Y54.731Z0F1200
G1 X41.155Y54.975Z0F1200
G1 X41.117Y55.227Z0F1200
G1 X41.104Y55.486Z0F1200
G1 X41.117Y55.746Z0F1200
G1 X41.155Y55.998Z0F1200
G1 X41.218Y56.241Z0F1200
G1 X41.303Y56.474Z0F1200
G1 X41.537Y56.906Z0F1200
G1 X41.847Y57.281Z0F1200
G1 X42.223Y57.591Z0F1200
G1 X42.654Y57.825Z0F1200
G1 X42.887Y57.911Z0F1200
G1 X43.131Y57.973Z0F1200
G1 X43.383Y58.012Z0F1200
G1 X43.642Y58.025Z0F1200
G1 X43.902Y58.012Z0F1200
G1 X44.154Y57.973Z0F1200
G1 X44.397Y57.911Z0F1200
G1 X44.63Y57.825Z0F1200
G1 X45.062Y57.591Z0F1200
G1 X45.437Y57.281Z0F1200
G1 X45.747Y56.906Z0F1200
G1 X45.981Y56.474Z0F1200
G1 X46.067Y56.241Z0F1200
G1 X46.129Y55.998Z0F1200
G1 X46.168Y55.746Z0F1200
G1 X46.181Y55.486Z0F1200
G0 Z2.8F500
G0 X46.39Z2.8F1500
G1 Z0F500
G1 X54.444Z0F1200
G0 Z2.8F500
G0 Y63.137Z2.8F1500
G1 Z0F500
G1 Y47.836Z0F1200
G0 Z2.8F500
G0 X58.14Y47.675Z2.8F1500
G1 Z0F500
G1 Y63.298Z0F1200
G0 Z2.8F500
G0 X58.725Y55.486Z2.8F1500
G1 Z0F500
G1 X81.876Z0F1200
G0 Z2.8F500
G0 X81.408Y64.451Z2.8F1500
G1 Z0F500
G1 Y42.112Z0F1200
G1 X98.592Y55.859Z0F1200
G1 X81.408Y67.888Z0F1200
G1 Y64.451Z0F1200
G0 Z2.8F500
G0 X101.88Y55.486Z2.8F1500
G1 Z0F500
G1 X101.832Y55.006Z0F1200
G1 X101.693Y54.559Z0F1200
G1 X101.474Y54.155Z0F1200
G1 X101.183Y53.803Z0F1200
G1 X100.831Y53.512Z0F1200
G1 X100.426Y53.292Z0F1200
G1 X99.979Y53.154Z0F1200
G1 X99.499Y53.105Z0F1200
G1 X99.019Y53.154Z0F1200
G1 X98.572Y53.292Z0F1200
G1 X98.168Y53.512Z0F1200
G1 X97.816Y53.803Z0F1200
G1 X97.525Y54.155Z0F1200
G1 X97.305Y54.559Z0F1200
G1 X97.167Y55.006Z0F1200
G1 X97.118Y55.486Z0F1200
G1 X97.167Y55.966Z0F1200
G1 X97.305Y56.413Z0F1200
G1 X97.525Y56.818Z0F1200
G1 X97.816Y57.17Z0F1200
G1 X98.168Y57.461Z0F1200
G1 X98.572Y57.68Z0F1200
G1 X99.019Y57.819Z0F1200
G1 X99.499Y57.867Z0F1200
G1 X99.979Y57.819Z0F1200
G1 X100.426Y57.68Z0F1200
G1 X100.831Y57.461Z0F1200
G1 X101.183Y57.17Z0F1200
G1 X101.474Y56.818Z0F1200
G1 X101.693Y56.413Z0F1200
G1 X101.832Y55.966Z0F1200
G1 X101.88Y55.486Z0F1200
G0 Z2.8F500
G0 X67.901Y23.833Z2.8F1500
G1 Z0F500
G1 X67.867Y23.869Z0F1200
G1 X67.838Y23.975Z0F1200
G1 X67.814Y24.145Z0F1200
G1 X67.794Y24.374Z0F1200
G1 X67.778Y24.66Z0F1200
G1 X67.766Y24.995Z0F1200
G1 X67.758Y25.377Z0F1200
G1 X67.753Y25.801Z0F1200
G1 Y26.261Z0F1200
G1 Y26.753Z0F1200
G1 X67.756Y27.273Z0F1200
G1 X67.762Y27.816Z0F1200
G1 X67.781Y28.953Z0F1200
G1 X67.805Y30.127Z0F1200
G1 X67.835Y31.301Z0F1200
G1 X67.867Y32.437Z0F1200
G1 X67.899Y33.5Z0F1200
G1 X67.93Y34.453Z0F1200
G1 X68Y36.419Z0F1200
G1 X65.677Z0F1200
G1 Y45.712Z0F1200
G1 X70.323Z0F1200
G1 Y36.419Z0F1200
G1 X68Z0F1200
G0 Z2.8F500
G0 X67.646Y45.712Z2.8F1500
G1 Z0F500
G1 X68.03Y56.167Z0F1200
G0 Z2.8F500
G0 X59.995Y38.664Z2.8F1500
G1 Z0F500
G1 X76.005Y43.467Z0F1200
G0 Z2.8F500
G0 X72.199Y46.597Z2.8F1500
G1 Z0F500
G1 X76.945Y44.224Z0F1200
G1 X74.572Y39.477Z0F1200
G0 Z2.8F500
G0 X49.364Y55.413Z2.8F1500
G1 Z0F500
G1 X48.636Y76.587Z0F1200
G0 Z2.8F500
G0 X23.621Y57Z2.8F1500
G1 Z0F500
G1 X10.33Z0F1200
G1 X10Y24Z0F1200
G1 X117Z0F1200
G1 Y55Z0F1200
G1 X101.88Y55.486Z0F1200
G0 Z2.8F500
G0 X44.636Y77.745Z2.8F1500
G1 Z0F500
G1 X45.636Y74.745Z0F1200
G1 X47.655Y74.429Z0F1200
G1 X50.636Y74.745Z0F1200
G1 X51.636Y75.745Z0F1200
G1 X52.636Y78.745Z0F1200
;Cut @ 1200 mm/min, 80% power

M8
G0 Z2.8F500
G0 X15.5Y65.611Z2.8F1500
G1 Z0F500
;Layer Red
G1 X20.5Y72.557Z0S800F1200
G1 Y61.443Z0F1200
G0 Z2.8F500
G0 X42Y47Z2.8F1500
G1 Z0F500
G1 X42.198Y47.21Z0F1200
G1 X42.416Y47.459Z0F1200
G1 X42.648Y47.74Z0F1200
G1 X42.891Y48.047Z0F1200
G1 X43.389Y48.705Z0F1200
G1 X43.875Y49.375Z0F1200
G1 X44.103Y49.696Z0F1200
G1 X44.314Y49.998Z0F1200
G1 X44.672Y50.516Z0F1200
G1 X45Y51Z0F1200
G1 X49Z0F1200
G1 X50Y49Z0F1200
G1 X43Y41Z0F1200
G1 X49Y42Z0F1200
G0 Z2.8F500
G0 X73Y66Z2.8F1500
G1 Z0F500
G1 X77Y67Z0F1200
G1 X78Y65Z0F1200
G1 X77Y61Z0F1200
G1 X73Y62Z0F1200
G1 X77Y60Z0F1200
G1 Y58Z0F1200
G1 X72Y57Z0F1200
G1 X70Y59Z0F1200
G0 Z2.8F500
G0 X102.5Y67.257Z2.8F1500
G1 Z0F500
G1 Y60.257Z0F1200
G1 X109.5Z0F1200
G1 X106.5Y62.257Z0F1200
G1 Y69.257Z0F1200
G1 X106.747Y56.743Z0F1200
;Offset @ 1500 mm/min, 90% power

M8
G0 Z2.8F500
G0 X44.506Y71.126Z2.8F1500
G1 Z0F500
;Layer Green
G1 X44.428Y71.155Z0S900F1200
G1 X44.34Y71.209Z0F1200
G1 X44.233Y71.291Z0F1200
G1 X44.095Y71.399Z0F1200
G1 X43.934Y71.542Z0F1200
G1 X43.764Y71.725Z0F1200
G1 X43.59Y71.943Z0F1200
G1 X43.417Y72.193Z0F1200
G1 X43.088Y72.771Z0F1200
G1 X42.812Y73.429Z0F1200
G1 X42.748Y73.63Z0F1200
G1 X42.674Y73.882Z0F1200
G1 X42.594Y74.179Z0F1200
G1 X42.51Y74.513Z0F1200
G1 X42.335Y75.257Z0F1200
G1 X42.166Y76.053Z0F1200
G1 X42.017Y76.837Z0F1200
G1 X41.904Y77.545Z0F1200
G1 X41.867Y77.852Z0F1200
G1 X41.844Y78.117Z0F1200
G1 X41.839Y78.331Z0F1200
G1 X41.852Y78.487Z0F1200
G1 X41.899Y78.704Z0F1200
G1 X41.95Y78.883Z0F1200
G1 X42.006Y79.029Z0F1200
G1 X42.071Y79.146Z0F1200
G1 X42.23Y79.315Z0F1200
G1 X42.443Y79.428Z0F1200
G1 X44.109Y79.81Z0F1200
G1 X45.707Y80.128Z0F1200
G1 X46.479Y80.244Z0F1200
G1 X47.234Y80.32Z0F1200
G1 X47.971Y80.348Z0F1200
G1 X48.694Y80.32Z0F1200
G1 X48.982Y80.295Z0F1200
G1 X49.235Y80.264Z0F1200
G1 X49.458Y80.229Z0F1200
G1 X49.654Y80.19Z0F1200
G1 X49.969Y80.104Z0F1200
G1 X50.197Y80.012Z0F1200
G1 X50.353Y79.919Z0F1200
G1 X50.451Y79.829Z0F1200
G1 X50.508Y79.749Z0F1200
G1 X50.539Y79.683Z0F1200
G1 X50.581Y79.614Z0F1200
G1 X51.003Y79Z0F1200
G1 X51.212Y78.69Z0F1200
G1 X51.441Y78.344Z0F1200
G1 X51.682Y77.969Z0F1200
G1 X51.923Y77.577Z0F1200
G1 X52.159Y77.175Z0F1200
G1 X52.378Y76.773Z0F1200
G1 X52.573Y76.381Z0F1200
G1 X52.735Y76.008Z0F1200
G1 X52.854Y75.663Z0F1200
G1 X52.923Y75.355Z0F1200
G1 X52.931Y75.094Z0F1200
G1 X52.871Y74.889Z0F1200
G1 X52.657Y74.536Z0F1200
G1 X52.41Y74.177Z0F1200
G1 X52.132Y73.815Z0F1200
G1 X51.829Y73.457Z0F1200
G1 X51.158Y72.768Z0F1200
G1 X50.429Y72.146Z0F1200
G1 X50.217Y72.013Z0F1200
G1 X49.961Y71.898Z0F1200
G1 X49.667Y71.802Z0F1200
G1 X49.342Y71.722Z0F1200
G1 X48.627Y71.604Z0F1200
G1 X47.875Y71.532Z0F1200
G1 X47.141Y71.494Z0F1200
G1 X46.481Y71.477Z0F1200
G1 X45.753Y71.464Z0F1200
G1 X45.609Y71.457Z0F1200
G1 X45.25Y71.391Z0F1200
G1 X44.911Y71.256Z0F1200
G1 X44.776Y71.188Z0F1200
G1 X44.67Y71.144Z0F1200
G1 X44.583Y71.123Z0F1200
G1 X44.506Y71.126Z0F1200
G0 Z2.8F500
G0 X42.707Y71.287Z2.8F1500
G1 Z0F500
G1 X42.485Y71.607Z0F1200
G1 X42.1Y72.285Z0F1200
G1 X41.779Y73.047Z0F1200
G1 X41.695Y73.309Z0F1200
G1 X41.615Y73.586Z0F1200
G1 X41.53Y73.902Z0F1200
G1 X41.441Y74.252Z0F1200
G1 X41.262Y75.017Z0F1200
G1 X41.087Y75.835Z0F1200
G1 X40.933Y76.648Z0F1200
G1 X40.815Y77.392Z0F1200
G1 X40.772Y77.739Z0F1200
G1 X40.746Y78.056Z0F1200
G1 X40.738Y78.363Z0F1200
G1 X40.762Y78.65Z0F1200
G1 X40.831Y78.97Z0F1200
G1 X40.905Y79.232Z0F1200
G1 X41.007Y79.494Z0F1200
G1 X41.174Y79.799Z0F1200
G1 X41.556Y80.203Z0F1200
G1 X42.057Y80.468Z0F1200
G1 X43.879Y80.885Z0F1200
G1 X45.518Y81.212Z0F1200
G1 X46.343Y81.335Z0F1200
G1 X47.158Y81.417Z0F1200
G1 X47.971Y81.449Z0F1200
G1 X48.764Y81.418Z0F1200
G1 X49.098Y81.389Z0F1200
G1 X49.387Y81.353Z0F1200
G1 X49.651Y81.313Z0F1200
G1 X49.906Y81.261Z0F1200
G1 X50.321Y81.149Z0F1200
G1 X50.689Y81Z0F1200
G1 X51.012Y80.806Z0F1200
G1 X51.28Y80.563Z0F1200
G1 X51.463Y80.304Z0F1200
G1 X51.508Y80.208Z0F1200
G1 X51.912Y79.62Z0F1200
G1 X52.127Y79.302Z0F1200
G1 X52.363Y78.944Z0F1200
G1 X52.613Y78.555Z0F1200
G1 X52.866Y78.143Z0F1200
G1 X53.116Y77.717Z0F1200
G1 X53.354Y77.282Z0F1200
G1 X53.571Y76.845Z0F1200
G1 X53.761Y76.408Z0F1200
G1 X53.915Y75.963Z0F1200
G1 X54.019Y75.494Z0F1200
G1 X54.036Y74.954Z0F1200
G1 X53.886Y74.442Z0F1200
G1 X53.582Y73.939Z0F1200
G1 X53.3Y73.529Z0F1200
G1 X52.988Y73.124Z0F1200
G1 X52.644Y72.717Z0F1200
G1 X51.911Y71.964Z0F1200
G1 X51.083Y71.257Z0F1200
G1 X50.737Y71.04Z0F1200
G1 X50.357Y70.871Z0F1200
G1 X49.97Y70.744Z0F1200
G1 X49.563Y70.644Z0F1200
G1 X48.77Y70.512Z0F1200
G1 X47.956Y70.435Z0F1200
G1 X47.184Y70.395Z0F1200
G1 X46.505Y70.377Z0F1200
G1 X45.799Y70.365Z0F1200
G1 X45.734Y70.361Z0F1200
G1 X45.555Y70.329Z0F1200
G1 X45.364Y70.252Z0F1200
G1 X45.238Y70.189Z0F1200
G1 X45.016Y70.096Z0F1200
G1 X44.69Y70.017Z0F1200
G1 X44.285Y70.035Z0F1200
G1 X43.941Y70.162Z0F1200
G1 X43.717Y70.302Z0F1200
G1 X43.562Y70.418Z0F1200
G1 X43.39Y70.554Z0F1200
G1 X43.164Y70.754Z0F1200
G1 X42.929Y71.007Z0F1200
G1 X42.707Y71.287Z0F1200
G0 Z2.8F500
G0 X40.373Y73.993Z2.8F1500
G1 Z0F500
G1 X40.188Y74.776Z0F1200
G1 X40.009Y75.618Z0F1200
G1 X39.849Y76.459Z0F1200
G1 X39.726Y77.239Z0F1200
G1 X39.678Y77.625Z0F1200
G1 X39.646Y77.996Z0F1200
G1 X39.637Y78.396Z0F1200
G1 X39.672Y78.813Z0F1200
G1 X39.763Y79.236Z0F1200
G1 X39.861Y79.582Z0F1200
G1 X40.007Y79.959Z0F1200
G1 X40.277Y80.452Z0F1200
G1 X40.881Y81.09Z0F1200
G1 X41.67Y81.508Z0F1200
G1 X43.648Y81.961Z0F1200
G1 X45.329Y82.296Z0F1200
G1 X46.206Y82.427Z0F1200
G1 X47.082Y82.516Z0F1200
G1 X47.971Y82.55Z0F1200
G1 X48.833Y82.517Z0F1200
G1 X49.214Y82.483Z0F1200
G1 X49.539Y82.443Z0F1200
G1 X49.843Y82.396Z0F1200
G1 X50.158Y82.333Z0F1200
G1 X50.673Y82.193Z0F1200
G1 X51.181Y81.987Z0F1200
G1 X51.671Y81.693Z0F1200
G1 X52.108Y81.295Z0F1200
G1 X52.418Y80.859Z0F1200
G1 X52.467Y80.754Z0F1200
G1 X52.82Y80.24Z0F1200
G1 X53.042Y79.913Z0F1200
G1 X53.285Y79.544Z0F1200
G1 X53.544Y79.14Z0F1200
G1 X53.809Y78.71Z0F1200
G1 X54.073Y78.26Z0F1200
G1 X54.33Y77.791Z0F1200
G1 X54.569Y77.309Z0F1200
G1 X54.787Y76.807Z0F1200
G1 X54.975Y76.264Z0F1200
G1 X55.115Y75.631Z0F1200
G1 X55.141Y74.813Z0F1200
G1 X54.902Y73.995Z0F1200
G1 X54.506Y73.342Z0F1200
G1 X54.19Y72.882Z0F1200
G1 X53.845Y72.433Z0F1200
G1 X53.458Y71.978Z0F1200
G1 X52.664Y71.16Z0F1200
G1 X51.735Y70.369Z0F1200
G1 X51.256Y70.067Z0F1200
G1 X50.754Y69.843Z0F1200
G1 X50.274Y69.686Z0F1200
G1 X49.785Y69.565Z0F1200
G1 X48.912Y69.42Z0F1200
G1 X48.037Y69.337Z0F1200
G1 X47.227Y69.295Z0F1200
G1 X46.529Y69.277Z0F1200
G1 X45.858Y69.265Z0F1200
G1 X45.812Y69.247Z0F1200
G1 X45.7Y69.19Z0F1200
G1 X45.362Y69.047Z0F1200
G1 X44.797Y68.911Z0F1200
G1 X44.064Y68.943Z0F1200
G1 X43.455Y69.169Z0F1200
G1 X43.094Y69.394Z0F1200
G1 X42.891Y69.547Z0F1200
G1 X42.684Y69.709Z0F1200
G1 X42.395Y69.966Z0F1200
G1 X42.094Y70.289Z0F1200
G1 X41.823Y70.63Z0F1200
G1 X41.553Y71.021Z0F1200
G1 X41.111Y71.799Z0F1200
G1 X40.747Y72.665Z0F1200
G1 X40.644Y72.987Z0F1200
G1 X40.556Y73.289Z0F1200
G1 X40.465Y73.624Z0F1200
G1 X40.373Y73.993Z0F1200
G0 Z2.8F500
G0 X38.695Y79.503Z2.8F1500
G1 Z0F500
G1 X38.817Y79.932Z0F1200
G1 X39.008Y80.424Z0F1200
G1 X39.38Y81.104Z0F1200
G1 X40.207Y81.978Z0F1200
G1 X41.284Y82.547Z0F1200
G1 X43.418Y83.037Z0F1200
G1 X45.139Y83.38Z0F1200
G1 X46.069Y83.519Z0F1200
G1 X47.005Y83.613Z0F1200
G1 X47.971Y83.65Z0F1200
G1 X48.903Y83.615Z0F1200
G1 X49.33Y83.577Z0F1200
G1 X49.691Y83.532Z0F1200
G1 X50.036Y83.479Z0F1200
G1 X50.41Y83.404Z0F1200
G1 X51.024Y83.237Z0F1200
G1 X51.673Y82.975Z0F1200
G1 X52.331Y82.581Z0F1200
G1 X52.937Y82.029Z0F1200
G1 X53.373Y81.414Z0F1200
G1 X53.424Y81.303Z0F1200
G1 X53.729Y80.859Z0F1200
G1 X53.956Y80.524Z0F1200
G1 X54.207Y80.144Z0F1200
G1 X54.476Y79.725Z0F1200
G1 X54.752Y79.276Z0F1200
G1 X55.03Y78.802Z0F1200
G1 X55.305Y78.3Z0F1200
G1 X55.567Y77.772Z0F1200
G1 X55.813Y77.206Z0F1200
G1 X56.035Y76.564Z0F1200
G1 X56.211Y75.77Z0F1200
G1 X56.246Y74.672Z0F1200
G1 X55.917Y73.548Z0F1200
G1 X55.431Y72.745Z0F1200
G1 X55.08Y72.235Z0F1200
G1 X54.701Y71.742Z0F1200
G1 X54.273Y71.237Z0F1200
G1 X53.417Y70.356Z0F1200
G1 X52.389Y69.48Z0F1200
G1 X51.775Y69.094Z0F1200
G1 X51.15Y68.816Z0F1200
G1 X50.578Y68.627Z0F1200
G1 X50.007Y68.487Z0F1200
G1 X49.054Y68.329Z0F1200
G1 X48.117Y68.24Z0F1200
G1 X47.27Y68.196Z0F1200
G1 X46.552Y68.177Z0F1200
G1 X46.11Y68.169Z0F1200
G1 X45.708Y68Z0F1200
G1 X44.904Y67.805Z0F1200
G1 X43.843Y67.852Z0F1200
G1 X42.968Y68.177Z0F1200
G1 X42.471Y68.486Z0F1200
G1 X42.221Y68.675Z0F1200
G1 X41.979Y68.865Z0F1200
G1 X41.625Y69.179Z0F1200
G1 X41.26Y69.571Z0F1200
G1 X40.939Y69.975Z0F1200
G1 X40.621Y70.435Z0F1200
G1 X40.122Y71.313Z0F1200
G1 X39.714Y72.283Z0F1200
G1 X39.591Y72.666Z0F1200
G1 X39.496Y72.993Z0F1200
G1 X39.401Y73.347Z0F1200
G1 X39.304Y73.732Z0F1200
G1 X39.115Y74.536Z0F1200
G1 X38.931Y75.4Z0F1200
G1 X38.765Y76.271Z0F1200
G1 X38.636Y77.086Z0F1200
G1 X38.583Y77.512Z0F1200
G1 X38.548Y77.936Z0F1200
G1 X38.535Y78.428Z0F1200
G1 X38.582Y78.976Z0F1200
G1 X38.695Y79.503Z0F1200
G0 Z2.8F500
G0 X50.756Y65.134Z2.8F1500
G1 Z0F500
G1 X51.031Y65.195Z0F1200
G1 X51.271Y65.242Z0F1200
G1 X51.471Y65.272Z0F1200
G1 X51.625Y65.282Z0F1200
G1 X52.913Y65.332Z0F1200
G1 X54.202Y65.324Z0F1200
G1 X54.815Y65.297Z0F1200
G1 X55.392Y65.254Z0F1200
G1 X55.919Y65.194Z0F1200
G1 X56.385Y65.118Z0F1200
G1 X56.496Y65.071Z0F1200
G1 X56.613Y64.979Z0F1200
G1 X56.733Y64.849Z0F1200
G1 X56.856Y64.687Z0F1200
G1 X57.102Y64.292Z0F1200
G1 X57.333Y63.851Z0F1200
G1 X57.539Y63.415Z0F1200
G1 X57.702Y63.038Z0F1200
G1 X57.81Y62.774Z0F1200
G1 X57.847Y62.677Z0F1200
G1 Y62.621Z0F1200
G1 Y62.545Z0F1200
G1 X57.842Y62.437Z0F1200
G1 X57.826Y62.294Z0F1200
G1 X57.797Y62.118Z0F1200
G1 X57.75Y61.905Z0F1200
G1 X57.684Y61.657Z0F1200
G1 X56.619Y60.591Z0F1200
G1 X55.499Y59.554Z0F1200
G1 X54.923Y59.063Z0F1200
G1 X54.339Y58.603Z0F1200
G1 X53.748Y58.178Z0F1200
G1 X53.152Y57.798Z0F1200
G1 X52.539Y57.457Z0F1200
G1 X51.937Y57.175Z0F1200
G1 X51.343Y56.958Z0F1200
G1 X50.755Y56.807Z0F1200
G1 X50.168Y56.727Z0F1200
G1 X49.581Y56.72Z0F1200
G1 X48.987Y56.79Z0F1200
G1 X48.386Y56.94Z0F1200
G1 X48.092Y57.125Z0F1200
G1 X47.838Y57.309Z0F1200
G1 X47.622Y57.491Z0F1200
G1 X47.441Y57.67Z0F1200
G1 X47.292Y57.846Z0F1200
G1 X47.171Y58.018Z0F1200
G1 X47.077Y58.185Z0F1200
G1 X47.007Y58.347Z0F1200
G1 X46.913Y58.526Z0F1200
G1 X46.767Y58.722Z0F1200
G1 X46.582Y58.931Z0F1200
G1 X46.375Y59.148Z0F1200
G1 X45.951Y59.586Z0F1200
G1 X45.612Y59.999Z0F1200
G1 X45.397Y60.359Z0F1200
G1 X45.231Y60.717Z0F1200
G1 X45.111Y61.068Z0F1200
G1 X45.036Y61.411Z0F1200
G1 X45.002Y61.745Z0F1200
G1 X45.009Y62.065Z0F1200
G1 X45.053Y62.373Z0F1200
G1 X45.132Y62.663Z0F1200
G1 X45.245Y62.935Z0F1200
G1 X45.388Y63.187Z0F1200
G1 X45.561Y63.416Z0F1200
G1 X45.759Y63.621Z0F1200
G1 X45.982Y63.798Z0F1200
G1 X46.227Y63.947Z0F1200
G1 X46.492Y64.065Z0F1200
G1 X46.775Y64.15Z0F1200
G1 X47.034Y64.195Z0F1200
G1 X47.324Y64.255Z0F1200
G1 X47.641Y64.328Z0F1200
G1 X47.978Y64.41Z0F1200
G1 X48.692Y64.595Z0F1200
G1 X50.125Y64.977Z0F1200
G1 X50.756Y65.134Z0F1200
G0 Z2.8F500
G0 X54.88Y66.395Z2.8F1500
G1 Z0F500
G1 X55.495Y66.349Z0F1200
G1 X56.071Y66.284Z0F1200
G1 X56.69Y66.182Z0F1200
G1 X57.058Y66.029Z0F1200
G1 X57.361Y65.791Z0F1200
G1 X57.578Y65.556Z0F1200
G1 X57.764Y65.31Z0F1200
G1 X58.057Y64.839Z0F1200
G1 X58.318Y64.341Z0F1200
G1 X58.542Y63.868Z0F1200
G1 X58.715Y63.465Z0F1200
G1 X58.832Y63.18Z0F1200
G1 X58.94Y62.9Z0F1200
G1 X58.949Y62.637Z0F1200
G1 Y62.51Z0F1200
G1 X58.938Y62.343Z0F1200
G1 X58.916Y62.143Z0F1200
G1 X58.877Y61.91Z0F1200
G1 X58.819Y61.645Z0F1200
G1 X58.669Y61.087Z0F1200
G1 X57.382Y59.799Z0F1200
G1 X56.229Y58.731Z0F1200
G1 X55.62Y58.212Z0F1200
G1 X55Y57.724Z0F1200
G1 X54.365Y57.267Z0F1200
G1 X53.716Y56.853Z0F1200
G1 X53.039Y56.477Z0F1200
G1 X52.359Y56.159Z0F1200
G1 X51.67Y55.906Z0F1200
G1 X50.967Y55.726Z0F1200
G1 X50.25Y55.627Z0F1200
G1 X49.522Y55.619Z0F1200
G1 X48.789Y55.705Z0F1200
G1 X47.948Y55.916Z0F1200
G1 X47.475Y56.214Z0F1200
G1 X47.161Y56.442Z0F1200
G1 X46.88Y56.678Z0F1200
G1 X46.634Y56.921Z0F1200
G1 X46.42Y57.172Z0F1200
G1 X46.239Y57.431Z0F1200
G1 X46.09Y57.695Z0F1200
G1 X46.013Y57.874Z0F1200
G1 X45.979Y57.939Z0F1200
G1 X45.915Y58.024Z0F1200
G1 X45.77Y58.189Z0F1200
G1 X45.585Y58.382Z0F1200
G1 X45.129Y58.853Z0F1200
G1 X44.709Y59.364Z0F1200
G1 X44.423Y59.845Z0F1200
G1 X44.208Y60.307Z0F1200
G1 X44.05Y60.771Z0F1200
G1 X43.947Y61.238Z0F1200
G1 X43.901Y61.701Z0F1200
G1 X43.91Y62.155Z0F1200
G1 X43.974Y62.597Z0F1200
G1 X44.089Y63.02Z0F1200
G1 X44.254Y63.419Z0F1200
G1 X44.467Y63.792Z0F1200
G1 X44.723Y64.132Z0F1200
G1 X45.018Y64.437Z0F1200
G1 X45.351Y64.702Z0F1200
G1 X45.716Y64.924Z0F1200
G1 X46.108Y65.098Z0F1200
G1 X46.521Y65.223Z0F1200
G1 X46.831Y65.277Z0F1200
G1 X47.084Y65.329Z0F1200
G1 X47.394Y65.4Z0F1200
G1 X47.702Y65.475Z0F1200
G1 X48.409Y65.658Z0F1200
G1 X49.851Y66.042Z0F1200
G1 X50.503Y66.205Z0F1200
G1 X50.805Y66.272Z0F1200
G1 X51.084Y66.327Z0F1200
G1 X51.355Y66.367Z0F1200
G1 X51.569Y66.38Z0F1200
G1 X52.895Y66.432Z0F1200
G1 X54.229Y66.424Z0F1200
G1 X54.88Y66.395Z0F1200
G0 Z2.8F500
G0 X58.422Y66.263Z2.8F1500
G1 Z0F500
G1 X58.671Y65.934Z0F1200
G1 X59.012Y65.387Z0F1200
G1 X59.304Y64.832Z0F1200
G1 X59.544Y64.32Z0F1200
G1 X59.729Y63.892Z0F1200
G1 X59.854Y63.586Z0F1200
G1 X60.033Y63.123Z0F1200
G1 X60.049Y62.652Z0F1200
G1 Y62.474Z0F1200
G1 X60.035Y62.249Z0F1200
G1 X60.006Y61.991Z0F1200
G1 X59.958Y61.703Z0F1200
G1 X59.889Y61.384Z0F1200
G1 X59.655Y60.517Z0F1200
G1 X58.145Y59.006Z0F1200
G1 X56.96Y57.908Z0F1200
G1 X56.318Y57.362Z0F1200
G1 X55.663Y56.844Z0F1200
G1 X54.982Y56.356Z0F1200
G1 X54.28Y55.908Z0F1200
G1 X53.54Y55.496Z0F1200
G1 X52.782Y55.142Z0F1200
G1 X51.997Y54.854Z0F1200
G1 X51.179Y54.645Z0F1200
G1 X50.332Y54.528Z0F1200
G1 X49.464Y54.518Z0F1200
G1 X48.59Y54.621Z0F1200
G1 X47.51Y54.891Z0F1200
G1 X46.858Y55.303Z0F1200
G1 X46.483Y55.575Z0F1200
G1 X46.139Y55.864Z0F1200
G1 X45.827Y56.171Z0F1200
G1 X45.549Y56.499Z0F1200
G1 X45.307Y56.844Z0F1200
G1 X45.104Y57.206Z0F1200
G1 X45.039Y57.355Z0F1200
G1 X44.958Y57.446Z0F1200
G1 X44.795Y57.617Z0F1200
G1 X44.308Y58.12Z0F1200
G1 X43.806Y58.73Z0F1200
G1 X43.449Y59.331Z0F1200
G1 X43.187Y59.896Z0F1200
G1 X42.989Y60.475Z0F1200
G1 X42.859Y61.064Z0F1200
G1 X42.8Y61.657Z0F1200
G1 X42.812Y62.244Z0F1200
G1 X42.895Y62.821Z0F1200
G1 X43.047Y63.376Z0F1200
G1 X43.264Y63.903Z0F1200
G1 X43.546Y64.398Z0F1200
G1 X43.885Y64.849Z0F1200
G1 X44.277Y65.253Z0F1200
G1 X44.72Y65.606Z0F1200
G1 X45.206Y65.901Z0F1200
G1 X45.725Y66.131Z0F1200
G1 X46.267Y66.295Z0F1200
G1 X46.619Y66.356Z0F1200
G1 X46.86Y66.406Z0F1200
G1 X47.125Y66.466Z0F1200
G1 X47.456Y66.547Z0F1200
G1 X48.125Y66.721Z0F1200
G1 X49.577Y67.107Z0F1200
G1 X50.25Y67.275Z0F1200
G1 X50.58Y67.349Z0F1200
G1 X50.897Y67.411Z0F1200
G1 X51.239Y67.462Z0F1200
G1 X51.513Y67.479Z0F1200
G1 X52.877Y67.532Z0F1200
G1 X54.256Y67.523Z0F1200
G1 X54.945Y67.493Z0F1200
G1 X55.597Y67.445Z0F1200
G1 X56.222Y67.374Z0F1200
G1 X56.995Y67.247Z0F1200
G1 X57.62Y66.986Z0F1200
G1 X58.11Y66.601Z0F1200
G1 X58.422Y66.263Z0F1200
G0 Z2.8F500
G0 X60.877Y63.992Z2.8F1500
G1 Z0F500
G1 X61.125Y63.346Z0F1200
G1 X61.149Y62.668Z0F1200
G1 Y62.438Z0F1200
G1 X61.131Y62.155Z0F1200
G1 X61.096Y61.839Z0F1200
G1 X61.039Y61.496Z0F1200
G1 X60.958Y61.124Z0F1200
G1 X60.641Y59.948Z0F1200
G1 X58.908Y58.214Z0F1200
G1 X57.691Y57.086Z0F1200
G1 X57.015Y56.511Z0F1200
G1 X56.324Y55.965Z0F1200
G1 X55.6Y55.445Z0F1200
G1 X54.844Y54.963Z0F1200
G1 X54.041Y54.516Z0F1200
G1 X53.205Y54.125Z0F1200
G1 X52.323Y53.802Z0F1200
G1 X51.392Y53.563Z0F1200
G1 X50.413Y53.429Z0F1200
G1 X49.406Y53.417Z0F1200
G1 X48.392Y53.537Z0F1200
G1 X47.072Y53.867Z0F1200
G1 X46.241Y54.391Z0F1200
G1 X45.805Y54.707Z0F1200
G1 X45.397Y55.051Z0F1200
G1 X45.021Y55.422Z0F1200
G1 X44.678Y55.825Z0F1200
G1 X44.375Y56.258Z0F1200
G1 X44.117Y56.716Z0F1200
G1 X44.103Y56.749Z0F1200
G1 X43.988Y56.869Z0F1200
G1 X43.486Y57.387Z0F1200
G1 X42.904Y58.096Z0F1200
G1 X42.475Y58.816Z0F1200
G1 X42.164Y59.486Z0F1200
G1 X41.928Y60.178Z0F1200
G1 X41.771Y60.891Z0F1200
G1 X41.699Y61.613Z0F1200
G1 X41.713Y62.333Z0F1200
G1 X41.815Y63.045Z0F1200
G1 X42.004Y63.733Z0F1200
G1 X42.274Y64.387Z0F1200
G1 X42.625Y65.003Z0F1200
G1 X43.047Y65.565Z0F1200
G1 X43.537Y66.069Z0F1200
G1 X44.09Y66.51Z0F1200
G1 X44.695Y66.877Z0F1200
G1 X45.341Y67.165Z0F1200
G1 X46.013Y67.367Z0F1200
G1 X46.415Y67.438Z0F1200
G1 X46.625Y67.48Z0F1200
G1 X46.885Y67.54Z0F1200
G1 X47.183Y67.613Z0F1200
G1 X47.843Y67.784Z0F1200
G1 X49.303Y68.173Z0F1200
G1 X49.997Y68.346Z0F1200
G1 X50.354Y68.425Z0F1200
G1 X50.711Y68.495Z0F1200
G1 X51.123Y68.557Z0F1200
G1 X51.457Y68.578Z0F1200
G1 X52.859Y68.632Z0F1200
G1 X54.284Y68.624Z0F1200
G1 X55.01Y68.591Z0F1200
G1 X55.7Y68.54Z0F1200
G1 X56.373Y68.464Z0F1200
G1 X57.3Y68.312Z0F1200
G1 X58.182Y67.944Z0F1200
G1 X58.858Y67.412Z0F1200
G1 X59.267Y66.97Z0F1200
G1 X59.579Y66.558Z0F1200
G1 X59.967Y65.934Z0F1200
G1 X60.289Y65.321Z0F1200
G1 X60.547Y64.773Z0F1200
G1 X60.743Y64.318Z0F1200
G1 X60.877Y63.992Z0F1200
G0 Z2.8F500
G0 X40.631Y65.947Z2.8F1500
G1 Z0F500
G1 X40.783Y66.214Z0F1200
G1 X41.162Y66.718Z0F1200
G1 X40.879Y66.931Z0F1200
G1 X40.568Y67.175Z0F1200
G1 X40.184Y67.516Z0F1200
G1 X40.631Y65.947Z0F1200
G0 Z2.8F500
G0 X40.961Y64.089Z2.8F1500
G1 Z0F500
G1 X41.284Y64.872Z0F1200
G1 X41.704Y65.609Z0F1200
G1 X42.21Y66.281Z0F1200
G1 X42.796Y66.886Z0F1200
G1 X42.951Y67.01Z0F1200
G1 X42.481Y67.184Z0F1200
G1 X41.848Y67.578Z0F1200
G1 X41.55Y67.803Z0F1200
G1 X41.273Y68.02Z0F1200
G1 X40.855Y68.391Z0F1200
G1 X40.425Y68.854Z0F1200
G1 X40.056Y69.318Z0F1200
G1 X39.688Y69.848Z0F1200
G1 X39.133Y70.826Z0F1200
G1 X38.681Y71.901Z0F1200
G1 X38.539Y72.344Z0F1200
G1 X38.437Y72.696Z0F1200
G1 X38.336Y73.069Z0F1200
G1 X38.235Y73.473Z0F1200
G1 X38.042Y74.295Z0F1200
G1 X37.852Y75.183Z0F1200
G1 X37.681Y76.082Z0F1200
G1 X37.546Y76.933Z0F1200
G1 X37.489Y77.398Z0F1200
G1 X37.449Y77.875Z0F1200
G1 X37.434Y78.46Z0F1200
G1 X37.492Y79.14Z0F1200
G1 X37.628Y79.77Z0F1200
G1 X37.773Y80.281Z0F1200
G1 X38.009Y80.889Z0F1200
G1 X38.208Y81.253Z0F1200
G1 X37.85Y81.053Z0F1200
G1 X37.387Y80.766Z0F1200
G1 X36.931Y80.456Z0F1200
G1 X36.493Y80.128Z0F1200
G1 X36.067Y79.781Z0F1200
G1 X35.813Y79.554Z0F1200
G1 X36.208Y77.962Z0F1200
G1 X37.002Y74.908Z0F1200
G1 X37.813Y71.903Z0F1200
G1 X38.638Y68.929Z0F1200
G1 X40.36Y62.882Z0F1200
G1 X40.607Y62.025Z0F1200
G1 X40.615Y62.422Z0F1200
G1 X40.736Y63.269Z0F1200
G1 X40.961Y64.089Z0F1200
G0 Z2.8F500
G0 X43.712Y53.623Z2.8F1500
G1 Z0F500
G1 X43.718Y53.603Z0F1200
G1 X43.818Y53.332Z0F1200
G1 X43.926Y53.079Z0F1200
G1 X44.049Y52.825Z0F1200
G1 X44.169Y52.607Z0F1200
G1 X44.305Y52.391Z0F1200
G1 X44.447Y52.187Z0F1200
G1 X44.591Y52.003Z0F1200
G1 X44.742Y51.833Z0F1200
G1 X44.879Y51.693Z0F1200
G1 X45.017Y51.572Z0F1200
G1 X45.144Y51.476Z0F1200
G1 X45.275Y51.391Z0F1200
G1 X45.418Y51.314Z0F1200
G1 X45.57Y51.246Z0F1200
G1 X45.732Y51.188Z0F1200
G1 X45.894Y51.144Z0F1200
G1 X46.067Y51.11Z0F1200
G1 X46.252Y51.089Z0F1200
G1 X46.438Y51.082Z0F1200
G1 X46.634Y51.09Z0F1200
G1 X46.841Y51.116Z0F1200
G1 X47.066Y51.161Z0F1200
G1 X47.293Y51.225Z0F1200
G1 X47.554Y51.322Z0F1200
G1 X47.775Y51.423Z0F1200
G1 X46.196Y51.818Z0F1200
G1 X45.007Y52.568Z0F1200
G1 X44.449Y52.973Z0F1200
G1 X43.914Y53.423Z0F1200
G1 X43.712Y53.623Z0F1200
G0 Z2.8F500
G0 X42.306Y54.973Z2.8F1500
G1 Z0F500
G1 X42.35Y54.613Z0F1200
G1 X42.414Y54.237Z0F1200
G1 X42.483Y53.915Z0F1200
G1 X42.575Y53.571Z0F1200
G1 X42.68Y53.237Z0F1200
G1 X42.795Y52.926Z0F1200
G1 X42.926Y52.619Z0F1200
G1 X43.068Y52.327Z0F1200
G1 X43.22Y52.051Z0F1200
G1 X43.385Y51.786Z0F1200
G1 X43.562Y51.534Z0F1200
G1 X43.743Y51.303Z0F1200
G1 X43.94Y51.079Z0F1200
G1 X44.131Y50.886Z0F1200
G1 X44.317Y50.722Z0F1200
G1 X44.51Y50.576Z0F1200
G1 X44.713Y50.445Z0F1200
G1 X44.934Y50.326Z0F1200
G1 X45.164Y50.223Z0F1200
G1 X45.395Y50.14Z0F1200
G1 X45.645Y50.071Z0F1200
G1 X45.905Y50.021Z0F1200
G1 X46.168Y49.991Z0F1200
G1 X46.438Y49.981Z0F1200
G1 X46.725Y49.993Z0F1200
G1 X47.018Y50.029Z0F1200
G1 X47.32Y50.089Z0F1200
G1 X47.641Y50.181Z0F1200
G1 X47.965Y50.3Z0F1200
G1 X48.419Y50.509Z0F1200
G1 X49.319Y50.944Z0F1200
G1 X50.325Y51.396Z0F1200
G1 X51.318Y51.819Z0F1200
G1 X54.203Y53.015Z0F1200
G1 X56.021Y53.828Z0F1200
G1 X56.865Y54.246Z0F1200
G1 X57.667Y54.679Z0F1200
G1 X58.439Y55.143Z0F1200
G1 X59.166Y55.629Z0F1200
G1 X59.843Y56.142Z0F1200
G1 X59.597Y56.355Z0F1200
G1 X60.878Y58.629Z0F1200
G1 X59.671Y57.421Z0F1200
G1 X58.421Y56.263Z0F1200
G1 X57.712Y55.66Z0F1200
G1 X56.986Y55.086Z0F1200
G1 X56.217Y54.534Z0F1200
G1 X55.408Y54.018Z0F1200
G1 X54.542Y53.536Z0F1200
G1 X53.627Y53.109Z0F1200
G1 X52.649Y52.75Z0F1200
G1 X51.604Y52.482Z0F1200
G1 X50.495Y52.33Z0F1200
G1 X49.348Y52.317Z0F1200
G1 X48.193Y52.453Z0F1200
G1 X46.634Y52.842Z0F1200
G1 X45.624Y53.48Z0F1200
G1 X45.127Y53.84Z0F1200
G1 X44.655Y54.237Z0F1200
G1 X44.213Y54.673Z0F1200
G1 X43.807Y55.151Z0F1200
G1 X43.442Y55.671Z0F1200
G1 X43.202Y56.1Z0F1200
G1 X42.665Y56.654Z0F1200
G1 X42.001Y57.462Z0F1200
G1 X41.846Y57.723Z0F1200
G1 X42.243Y56.344Z0F1200
G1 X42.277Y55.332Z0F1200
G1 X42.306Y54.973Z0F1200
G0 Z2.8F500
G0 X57.347Y74.668Z2.8F1500
G1 Z0F500
G1 X57.968Y75.476Z0F1200
G1 X58.273Y75.911Z0F1200
G1 X58.496Y76.286Z0F1200
G1 X58.67Y76.665Z0F1200
G1 X58.674Y76.676Z0F1200
G1 X58.688Y76.736Z0F1200
G1 X58.695Y76.792Z0F1200
G1 Y76.829Z0F1200
G1 X58.54Y77.143Z0F1200
G1 X58.252Y77.817Z0F1200
G1 X58.054Y78.223Z0F1200
G1 X57.823Y78.638Z0F1200
G1 X57.587Y79.015Z0F1200
G1 X57.326Y79.389Z0F1200
G1 X57.045Y79.749Z0F1200
G1 X56.75Y80.091Z0F1200
G1 X56.437Y80.42Z0F1200
G1 X56.104Y80.737Z0F1200
G1 X55.757Y81.039Z0F1200
G1 X55.393Y81.327Z0F1200
G1 X55.014Y81.598Z0F1200
G1 X54.619Y81.856Z0F1200
G1 X54.255Y82.071Z0F1200
G1 X54.328Y81.969Z0F1200
G1 X54.384Y81.849Z0F1200
G1 X54.638Y81.479Z0F1200
G1 X54.87Y81.136Z0F1200
G1 X55.129Y80.744Z0F1200
G1 X55.407Y80.311Z0F1200
G1 X55.695Y79.843Z0F1200
G1 X55.988Y79.344Z0F1200
G1 X56.28Y78.809Z0F1200
G1 X56.565Y78.236Z0F1200
G1 X56.838Y77.605Z0F1200
G1 X57.095Y76.865Z0F1200
G1 X57.308Y75.907Z0F1200
G1 X57.347Y74.668Z0F1200
G0 Z2.8F500
G0 X57.99Y69.125Z2.8F1500
G1 Z0F500
G1 X58.037Y69.318Z0F1200
G1 X55.41Y70.348Z0F1200
G1 X58.855Y74.825Z0F1200
G1 X59.198Y75.313Z0F1200
G1 X59.472Y75.775Z0F1200
G1 X59.695Y76.26Z0F1200
G1 X59.733Y76.375Z0F1200
G1 X59.771Y76.539Z0F1200
G1 X59.793Y76.703Z0F1200
G1 X59.798Y76.864Z0F1200
G1 X59.787Y77.003Z0F1200
G1 X59.763Y77.125Z0F1200
G1 X59.731Y77.218Z0F1200
G1 X59.539Y77.604Z0F1200
G1 X59.257Y78.266Z0F1200
G1 X59.025Y78.74Z0F1200
G1 X58.777Y79.188Z0F1200
G1 X58.503Y79.624Z0F1200
G1 X58.21Y80.043Z0F1200
G1 X57.896Y80.446Z0F1200
G1 X57.564Y80.832Z0F1200
G1 X57.216Y81.198Z0F1200
G1 X56.845Y81.551Z0F1200
G1 X56.458Y81.887Z0F1200
G1 X56.057Y82.204Z0F1200
G1 X55.631Y82.509Z0F1200
G1 X55.196Y82.792Z0F1200
G1 X54.747Y83.059Z0F1200
G1 X54.276Y83.311Z0F1200
G1 X53.799Y83.541Z0F1200
G1 X53.303Y83.755Z0F1200
G1 X52.808Y83.946Z0F1200
G1 X52.288Y84.123Z0F1200
G1 X51.774Y84.276Z0F1200
G1 X51.245Y84.411Z0F1200
G1 X50.696Y84.528Z0F1200
G1 X50.175Y84.619Z0F1200
G1 X49.618Y84.694Z0F1200
G1 X49.075Y84.747Z0F1200
G1 X48.529Y84.779Z0F1200
G1 X47.979Y84.79Z0F1200
G1 X47.444Y84.78Z0F1200
G1 X46.883Y84.748Z0F1200
G1 X46.357Y84.697Z0F1200
G1 X45.817Y84.624Z0F1200
G1 X45.297Y84.532Z0F1200
G1 X44.775Y84.414Z0F1200
G1 X44.249Y84.266Z0F1200
G1 X43.703Y84.085Z0F1200
G1 X42.754Y83.73Z0F1200
G1 X41.704Y83.594Z0F1200
G1 X41.116Y83.487Z0F1200
G1 X40.546Y83.355Z0F1200
G1 X39.978Y83.194Z0F1200
G1 X39.428Y83.009Z0F1200
G1 X38.87Y82.792Z0F1200
G1 X38.332Y82.552Z0F1200
G1 X37.805Y82.288Z0F1200
G1 X37.288Y82Z0F1200
G1 X36.784Y81.687Z0F1200
G1 X36.296Y81.354Z0F1200
G1 X35.813Y80.994Z0F1200
G1 X35.347Y80.613Z0F1200
G1 X34.904Y80.219Z0F1200
G1 X34.59Y79.915Z0F1200
G1 X35.144Y77.685Z0F1200
G1 X35.938Y74.631Z0F1200
G1 X36.745Y71.639Z0F1200
G1 X37.586Y68.605Z0F1200
G1 X39.302Y62.581Z0F1200
G1 X41.148Y56.17Z0F1200
G1 X41.179Y55.266Z0F1200
G1 X41.211Y54.862Z0F1200
G1 X41.262Y54.444Z0F1200
G1 X41.328Y54.057Z0F1200
G1 X41.417Y53.645Z0F1200
G1 X41.518Y53.264Z0F1200
G1 X41.637Y52.887Z0F1200
G1 X41.772Y52.521Z0F1200
G1 X41.925Y52.163Z0F1200
G1 X42.094Y51.815Z0F1200
G1 X42.272Y51.493Z0F1200
G1 X42.469Y51.177Z0F1200
G1 X42.679Y50.876Z0F1200
G1 X42.894Y50.602Z0F1200
G1 X43.134Y50.33Z0F1200
G1 X43.375Y50.086Z0F1200
G1 X43.622Y49.868Z0F1200
G1 X43.88Y49.673Z0F1200
G1 X44.153Y49.497Z0F1200
G1 X44.445Y49.339Z0F1200
G1 X44.75Y49.203Z0F1200
G1 X45.068Y49.089Z0F1200
G1 X45.392Y49Z0F1200
G1 X45.737Y48.933Z0F1200
G1 X46.083Y48.894Z0F1200
G1 X46.445Y48.88Z0F1200
G1 X46.809Y48.896Z0F1200
G1 X47.194Y48.942Z0F1200
G1 X47.58Y49.02Z0F1200
G1 X47.98Y49.134Z0F1200
G1 X48.392Y49.286Z0F1200
G1 X48.884Y49.512Z0F1200
G1 X49.784Y49.948Z0F1200
G1 X50.766Y50.388Z0F1200
G1 X51.744Y50.805Z0F1200
G1 X54.617Y51.995Z0F1200
G1 X56.501Y52.838Z0F1200
G1 X57.364Y53.265Z0F1200
G1 X58.211Y53.724Z0F1200
G1 X59.028Y54.213Z0F1200
G1 X59.808Y54.735Z0F1200
G1 X60.548Y55.296Z0F1200
G1 X61.237Y55.892Z0F1200
G1 X61.505Y56.158Z0F1200
G1 X60.997Y56.598Z0F1200
G1 X62.404Y59.095Z0F1200
G1 X62.563Y59.353Z0F1200
G1 X62.776Y59.658Z0F1200
G1 X63.231Y60.264Z0F1200
G1 X63.426Y60.543Z0F1200
G1 X63.601Y60.824Z0F1200
G1 X63.745Y61.099Z0F1200
G1 X63.863Y61.382Z0F1200
G1 X63.953Y61.677Z0F1200
G1 X64.048Y62.195Z0F1200
G1 X64.208Y62.166Z0F1200
G1 X64.058Y62.216Z0F1200
G1 X64.193Y62.618Z0F1200
G1 X64.256Y62.877Z0F1200
G1 X64.295Y63.131Z0F1200
G1 X64.313Y63.384Z0F1200
G1 X64.309Y63.643Z0F1200
G1 X64.285Y63.904Z0F1200
G1 X64.242Y64.16Z0F1200
G1 X64.174Y64.434Z0F1200
G1 X64.086Y64.708Z0F1200
G1 X63.98Y64.975Z0F1200
G1 X63.849Y65.254Z0F1200
G1 X63.702Y65.523Z0F1200
G1 X63.536Y65.787Z0F1200
G1 X63.353Y66.045Z0F1200
G1 X63.157Y66.29Z0F1200
G1 X62.954Y66.518Z0F1200
G1 X62.592Y66.88Z0F1200
G1 X62.211Y67.215Z0F1200
G1 X61.81Y67.528Z0F1200
G1 X61.391Y67.816Z0F1200
G1 X60.951Y68.083Z0F1200
G1 X60.508Y68.318Z0F1200
G1 X60.049Y68.529Z0F1200
G1 X58.256Y69.232Z0F1200
G1 X58.213Y69.069Z0F1200
G1 X58.14Y69.089Z0F1200
G1 X57.99Y69.125Z0F1200
G0 Z2.8F500
G0 X63.348Y62.454Z2.8F1500
G1 Z0F500
G1 Y62.367Z0F1200
G1 X63.345Y62.324Z0F1200
G1 X64.209Y62.165Z0F1200
G1 X63.348Y62.454Z0F1200
G0 Z2.8F500
G0 X63.015Y62.566Z2.8F1500
G1 Z0F500
G1 X63.136Y62.925Z0F1200
G1 X63.176Y63.089Z0F1200
G1 X63.201Y63.251Z0F1200
G1 X63.212Y63.422Z0F1200
G1 Y63.583Z0F1200
G1 X63.194Y63.757Z0F1200
G1 X63.164Y63.936Z0F1200
G1 X63.115Y64.135Z0F1200
G1 X63.051Y64.335Z0F1200
G1 X62.969Y64.541Z0F1200
G1 X62.869Y64.754Z0F1200
G1 X62.756Y64.96Z0F1200
G1 X62.619Y65.179Z0F1200
G1 X62.474Y65.382Z0F1200
G1 X62.312Y65.585Z0F1200
G1 X62.157Y65.76Z0F1200
G1 X61.837Y66.079Z0F1200
G1 X61.507Y66.37Z0F1200
G1 X61.164Y66.638Z0F1200
G1 X60.791Y66.894Z0F1200
G1 X60.589Y67.017Z0F1200
G1 X60.922Y66.481Z0F1200
G1 X61.274Y65.812Z0F1200
G1 X61.549Y65.226Z0F1200
G1 X61.757Y64.745Z0F1200
G1 X61.899Y64.398Z0F1200
G1 X62.219Y63.569Z0F1200
G1 X62.25Y62.684Z0F1200
G1 Y62.402Z0F1200
G1 X62.228Y62.061Z0F1200
G1 X62.186Y61.687Z0F1200
G1 X62.12Y61.288Z0F1200
G1 X62.027Y60.863Z0F1200
G1 X61.87Y60.282Z0F1200
G1 X61.885Y60.303Z0F1200
G1 X62.342Y60.912Z0F1200
G1 X62.508Y61.149Z0F1200
G1 X62.644Y61.368Z0F1200
G1 X62.748Y61.566Z0F1200
G1 X62.826Y61.753Z0F1200
G1 X62.883Y61.94Z0F1200
G1 X62.966Y62.394Z0F1200
G1 X64.209Y62.165Z0F1200
G1 X63.015Y62.566Z0F1200
G0 Z2.8F500
G0 X35.685Y71.345Z2.8F1500
G1 Z0F500
G1 X36.526Y68.312Z0F1200
G1 X38.242Y62.286Z0F1200
G1 X40.054Y55.997Z0F1200
G1 X40.081Y55.21Z0F1200
G1 X40.116Y54.751Z0F1200
G1 X40.173Y54.287Z0F1200
G1 X40.248Y53.846Z0F1200
G1 X40.346Y53.395Z0F1200
G1 X40.464Y52.949Z0F1200
G1 X40.594Y52.537Z0F1200
G1 X40.753Y52.106Z0F1200
G1 X40.922Y51.71Z0F1200
G1 X41.118Y51.308Z0F1200
G1 X41.322Y50.938Z0F1200
G1 X41.549Y50.573Z0F1200
G1 X41.792Y50.225Z0F1200
G1 X42.054Y49.892Z0F1200
G1 X42.328Y49.58Z0F1200
G1 X42.616Y49.29Z0F1200
G1 X42.926Y49.015Z0F1200
G1 X43.25Y48.771Z0F1200
G1 X43.596Y48.548Z0F1200
G1 X43.956Y48.354Z0F1200
G1 X44.339Y48.182Z0F1200
G1 X44.735Y48.04Z0F1200
G1 X45.146Y47.927Z0F1200
G1 X45.569Y47.845Z0F1200
G1 X46Y47.796Z0F1200
G1 X46.446Y47.78Z0F1200
G1 X46.906Y47.799Z0F1200
G1 X47.363Y47.854Z0F1200
G1 X47.838Y47.95Z0F1200
G1 X48.322Y48.087Z0F1200
G1 X48.813Y48.269Z0F1200
G1 X49.359Y48.52Z0F1200
G1 X50.249Y48.951Z0F1200
G1 X51.207Y49.38Z0F1200
G1 X52.17Y49.791Z0F1200
G1 X55.06Y50.988Z0F1200
G1 X56.962Y51.839Z0F1200
G1 X57.873Y52.29Z0F1200
G1 X58.76Y52.77Z0F1200
G1 X59.616Y53.283Z0F1200
G1 X60.45Y53.841Z0F1200
G1 X61.233Y54.435Z0F1200
G1 X61.988Y55.086Z0F1200
G1 X62.701Y55.794Z0F1200
G1 X63.088Y56.241Z0F1200
G1 X62.396Y56.841Z0F1200
G1 X63.351Y58.535Z0F1200
G1 X63.482Y58.748Z0F1200
G1 X63.667Y59.012Z0F1200
G1 X64.129Y59.628Z0F1200
G1 X64.345Y59.937Z0F1200
G1 X64.553Y60.271Z0F1200
G1 X64.742Y60.631Z0F1200
G1 X64.9Y61.009Z0F1200
G1 X65.024Y61.42Z0F1200
G1 X65.106Y61.864Z0F1200
G1 X65.101Z0F1200
G1 X65.113Y61.901Z0F1200
G1 X65.13Y61.996Z0F1200
G1 X65.144Y61.993Z0F1200
G1 X65.25Y62.311Z0F1200
G1 X65.336Y62.664Z0F1200
G1 X65.389Y63.006Z0F1200
G1 X65.413Y63.357Z0F1200
G1 X65.409Y63.696Z0F1200
G1 X65.376Y64.048Z0F1200
G1 X65.319Y64.389Z0F1200
G1 X65.233Y64.733Z0F1200
G1 X65.124Y65.076Z0F1200
G1 X64.988Y65.418Z0F1200
G1 X64.833Y65.746Z0F1200
G1 X64.647Y66.085Z0F1200
G1 X64.454Y66.393Z0F1200
G1 X64.232Y66.705Z0F1200
G1 X63.995Y67.004Z0F1200
G1 X63.751Y67.277Z0F1200
G1 X63.347Y67.681Z0F1200
G1 X62.916Y68.061Z0F1200
G1 X62.459Y68.417Z0F1200
G1 X61.985Y68.743Z0F1200
G1 X61.495Y69.04Z0F1200
G1 X61Y69.302Z0F1200
G1 X60.481Y69.541Z0F1200
G1 X58.538Y70.302Z0F1200
G1 X58.493Y70.133Z0F1200
G1 X58.407Y70.156Z0F1200
G1 X58.249Y70.194Z0F1200
G1 X58.298Y70.396Z0F1200
G1 X57.174Y70.837Z0F1200
G1 X58.975Y73.177Z0F1200
G1 X59.292Y74.468Z0F1200
G1 X59.445Y74.431Z0F1200
G1 X59.598Y74.392Z0F1200
G1 X59.443Y73.786Z0F1200
G1 X59.743Y74.175Z0F1200
G1 X60.12Y74.713Z0F1200
G1 X60.449Y75.266Z0F1200
G1 X60.718Y75.853Z0F1200
G1 X60.793Y76.076Z0F1200
G1 X60.854Y76.341Z0F1200
G1 X60.891Y76.615Z0F1200
G1 X60.899Y76.891Z0F1200
G1 X60.878Y77.157Z0F1200
G1 X60.829Y77.408Z0F1200
G1 X60.75Y77.642Z0F1200
G1 X60.538Y78.065Z0F1200
G1 X60.258Y78.722Z0F1200
G1 X60.001Y79.248Z0F1200
G1 X59.722Y79.751Z0F1200
G1 X59.42Y80.233Z0F1200
G1 X59.096Y80.696Z0F1200
G1 X58.747Y81.146Z0F1200
G1 X58.384Y81.566Z0F1200
G1 X57.994Y81.976Z0F1200
G1 X57.586Y82.365Z0F1200
G1 X57.16Y82.734Z0F1200
G1 X56.715Y83.085Z0F1200
G1 X56.261Y83.411Z0F1200
G1 X55.774Y83.729Z0F1200
G1 X55.277Y84.023Z0F1200
G1 X54.782Y84.288Z0F1200
G1 X54.259Y84.541Z0F1200
G1 X53.724Y84.771Z0F1200
G1 X53.175Y84.983Z0F1200
G1 X52.627Y85.17Z0F1200
G1 X52.063Y85.337Z0F1200
G1 X51.492Y85.482Z0F1200
G1 X50.91Y85.607Z0F1200
G1 X50.336Y85.708Z0F1200
G1 X49.754Y85.786Z0F1200
G1 X49.156Y85.844Z0F1200
G1 X48.576Y85.878Z0F1200
G1 X47.98Y85.89Z0F1200
G1 X47.386Y85.878Z0F1200
G1 X46.813Y85.846Z0F1200
G1 X46.216Y85.789Z0F1200
G1 X45.652Y85.712Z0F1200
G1 X45.084Y85.611Z0F1200
G1 X44.503Y85.479Z0F1200
G1 X43.921Y85.316Z0F1200
G1 X43.342Y85.125Z0F1200
G1 X42.487Y84.805Z0F1200
G1 X41.535Y84.681Z0F1200
G1 X40.899Y84.566Z0F1200
G1 X40.269Y84.42Z0F1200
G1 X39.649Y84.244Z0F1200
G1 X39.049Y84.042Z0F1200
G1 X38.446Y83.807Z0F1200
G1 X37.867Y83.549Z0F1200
G1 X37.293Y83.262Z0F1200
G1 X36.729Y82.946Z0F1200
G1 X36.19Y82.613Z0F1200
G1 X35.649Y82.244Z0F1200
G1 X35.141Y81.864Z0F1200
G1 X34.633Y81.45Z0F1200
G1 X34.155Y81.024Z0F1200
G1 X33.688Y80.573Z0F1200
G1 X33.375Y80.243Z0F1200
G1 X34.085Y77.384Z0F1200
G1 X34.868Y74.373Z0F1200
G1 X35.685Y71.345Z0F1200
G0 Z2.8F500
G0 X58.508Y71.263Z2.8F1500
G1 Z0F500
G1 X58.768Y72.332Z0F1200
G1 X59.03Y73.4Z0F1200
G1 X59.178Y73.364Z0F1200
G1 X59.326Y73.326Z0F1200
G1 X59.054Y72.26Z0F1200
G1 X58.774Y71.197Z0F1200
G1 X58.68Y71.222Z0F1200
G1 X58.508Y71.263Z0F1200
G0 Z2.8F500
G0 X33.014Y77.131Z2.8F1500
G1 Z0F500
G1 X33.806Y74.087Z0F1200
G1 X34.625Y71.051Z0F1200
G1 X35.464Y68.025Z0F1200
G1 X37.186Y61.981Z0F1200
G1 X38.959Y55.823Z0F1200
G1 X38.982Y55.144Z0F1200
G1 X39.021Y54.639Z0F1200
G1 X39.084Y54.13Z0F1200
G1 X39.168Y53.634Z0F1200
G1 X39.275Y53.14Z0F1200
G1 X39.405Y52.649Z0F1200
G1 X39.558Y52.166Z0F1200
G1 X39.726Y51.712Z0F1200
G1 X39.924Y51.246Z0F1200
G1 X40.138Y50.807Z0F1200
G1 X40.373Y50.381Z0F1200
G1 X40.63Y49.968Z0F1200
G1 X40.915Y49.561Z0F1200
G1 X41.202Y49.195Z0F1200
G1 X41.526Y48.827Z0F1200
G1 X41.86Y48.489Z0F1200
G1 X42.231Y48.161Z0F1200
G1 X42.62Y47.868Z0F1200
G1 X43.032Y47.603Z0F1200
G1 X43.474Y47.363Z0F1200
G1 X43.929Y47.16Z0F1200
G1 X44.404Y46.99Z0F1200
G1 X44.891Y46.856Z0F1200
G1 X45.401Y46.757Z0F1200
G1 X45.921Y46.698Z0F1200
G1 X46.446Y46.679Z0F1200
G1 X46.99Y46.702Z0F1200
G1 X47.546Y46.769Z0F1200
G1 X48.098Y46.88Z0F1200
G1 X48.664Y47.041Z0F1200
G1 X49.23Y47.25Z0F1200
G1 X49.833Y47.527Z0F1200
G1 X50.714Y47.954Z0F1200
G1 X51.647Y48.372Z0F1200
G1 X52.597Y48.777Z0F1200
G1 X55.488Y49.975Z0F1200
G1 X57.442Y50.849Z0F1200
G1 X58.372Y51.309Z0F1200
G1 X59.299Y51.812Z0F1200
G1 X60.208Y52.356Z0F1200
G1 X61.087Y52.944Z0F1200
G1 X61.931Y53.583Z0F1200
G1 X62.734Y54.277Z0F1200
G1 X63.505Y55.043Z0F1200
G1 X64.216Y55.862Z0F1200
G1 X64.292Y55.974Z0F1200
G1 X64.341Y56.076Z0F1200
G1 X64.372Y56.182Z0F1200
G1 X64.387Y56.293Z0F1200
G1 Y56.404Z0F1200
G1 X64.367Y56.512Z0F1200
G1 X64.331Y56.62Z0F1200
G1 X63.795Y57.084Z0F1200
G1 X64.298Y57.975Z0F1200
G1 X64.401Y58.142Z0F1200
G1 X64.558Y58.367Z0F1200
G1 X65.022Y58.986Z0F1200
G1 X65.266Y59.334Z0F1200
G1 X65.509Y59.727Z0F1200
G1 X65.736Y60.159Z0F1200
G1 X65.936Y60.637Z0F1200
G1 X66.095Y61.159Z0F1200
G1 X66.159Y61.51Z0F1200
G1 X66.144Y61.516Z0F1200
G1 X66.18Y61.625Z0F1200
G1 X66.212Y61.797Z0F1200
G1 X66.236Y61.792Z0F1200
G1 X66.309Y62.008Z0F1200
G1 X66.416Y62.446Z0F1200
G1 X66.484Y62.892Z0F1200
G1 X66.514Y63.319Z0F1200
G1 X66.508Y63.762Z0F1200
G1 X66.469Y64.185Z0F1200
G1 X66.396Y64.613Z0F1200
G1 X66.292Y65.033Z0F1200
G1 X66.16Y65.446Z0F1200
G1 X65.998Y65.854Z0F1200
G1 X65.811Y66.253Z0F1200
G1 X65.603Y66.632Z0F1200
G1 X65.362Y67.015Z0F1200
G1 X65.114Y67.364Z0F1200
G1 X64.839Y67.709Z0F1200
G1 X64.554Y68.029Z0F1200
G1 X64.099Y68.484Z0F1200
G1 X63.614Y68.911Z0F1200
G1 X63.111Y69.304Z0F1200
G1 X62.582Y69.667Z0F1200
G1 X62.046Y69.992Z0F1200
G1 X61.476Y70.294Z0F1200
G1 X60.91Y70.554Z0F1200
G1 X58.939Y71.327Z0F1200
G1 X60.627Y73.52Z0F1200
G1 X61.047Y74.118Z0F1200
G1 X61.423Y74.752Z0F1200
G1 X61.743Y75.448Z0F1200
G1 X61.852Y75.775Z0F1200
G1 X61.938Y76.142Z0F1200
G1 X61.988Y76.523Z0F1200
G1 X62Y76.917Z0F1200
G1 X61.969Y77.311Z0F1200
G1 X61.893Y77.692Z0F1200
G1 X61.766Y78.069Z0F1200
G1 X61.537Y78.527Z0F1200
G1 X61.258Y79.182Z0F1200
G1 X60.977Y79.758Z0F1200
G1 X60.673Y80.305Z0F1200
G1 X60.339Y80.838Z0F1200
G1 X59.98Y81.351Z0F1200
G1 X59.601Y81.838Z0F1200
G1 X59.193Y82.311Z0F1200
G1 X58.772Y82.753Z0F1200
G1 X58.326Y83.178Z0F1200
G1 X57.861Y83.583Z0F1200
G1 X57.381Y83.961Z0F1200
G1 X56.875Y84.324Z0F1200
G1 X56.353Y84.665Z0F1200
G1 X55.825Y84.978Z0F1200
G1 X55.278Y85.27Z0F1200
G1 X54.715Y85.542Z0F1200
G1 X54.14Y85.791Z0F1200
G1 X53.552Y86.017Z0F1200
G1 X52.954Y86.22Z0F1200
G1 X52.355Y86.398Z0F1200
G1 X51.75Y86.552Z0F1200
G1 X51.121Y86.687Z0F1200
G1 X50.509Y86.794Z0F1200
G1 X49.866Y86.881Z0F1200
G1 X49.249Y86.94Z0F1200
G1 X48.61Y86.978Z0F1200
G1 X47.981Y86.99Z0F1200
G1 X47.355Y86.979Z0F1200
G1 X46.72Y86.942Z0F1200
G1 X46.101Y86.883Z0F1200
G1 X45.483Y86.799Z0F1200
G1 X44.861Y86.689Z0F1200
G1 X44.233Y86.546Z0F1200
G1 X43.601Y86.369Z0F1200
G1 X42.985Y86.166Z0F1200
G1 X42.219Y85.879Z0F1200
G1 X41.366Y85.768Z0F1200
G1 X40.67Y85.643Z0F1200
G1 X39.996Y85.486Z0F1200
G1 X39.332Y85.298Z0F1200
G1 X38.673Y85.076Z0F1200
G1 X38.025Y84.823Z0F1200
G1 X37.389Y84.541Z0F1200
G1 X36.782Y84.236Z0F1200
G1 X36.167Y83.893Z0F1200
G1 X35.588Y83.534Z0F1200
G1 X35.015Y83.144Z0F1200
G1 X34.455Y82.726Z0F1200
G1 X33.924Y82.292Z0F1200
G1 X33.412Y81.836Z0F1200
G1 X32.904Y81.345Z0F1200
G1 X32.442Y80.859Z0F1200
G1 X32.372Y80.771Z0F1200
G1 X32.327Y80.699Z0F1200
G1 X32.288Y80.613Z0F1200
G1 X32.262Y80.533Z0F1200
G1 X32.245Y80.447Z0F1200
G1 X32.239Y80.357Z0F1200
G1 X32.244Y80.265Z0F1200
G1 X32.265Y80.147Z0F1200
G1 X33.014Y77.131Z0F1200
G0 Z2.8F500
G0 X33.565Y70.757Z2.8F1500
G1 Z0F500
G1 X34.406Y67.724Z0F1200
G1 X36.128Y61.677Z0F1200
G1 X37.864Y55.65Z0F1200
G1 X37.883Y55.088Z0F1200
G1 X37.927Y54.529Z0F1200
G1 X37.995Y53.974Z0F1200
G1 X38.088Y53.423Z0F1200
G1 X38.206Y52.879Z0F1200
G1 X38.348Y52.343Z0F1200
G1 X38.515Y51.815Z0F1200
G1 X38.706Y51.298Z0F1200
G1 X38.921Y50.793Z0F1200
G1 X39.161Y50.301Z0F1200
G1 X39.425Y49.822Z0F1200
G1 X39.713Y49.359Z0F1200
G1 X40.025Y48.914Z0F1200
G1 X40.361Y48.485Z0F1200
G1 X40.72Y48.077Z0F1200
G1 X41.104Y47.689Z0F1200
G1 X41.532Y47.311Z0F1200
G1 X41.99Y46.965Z0F1200
G1 X42.475Y46.653Z0F1200
G1 X42.985Y46.377Z0F1200
G1 X43.518Y46.139Z0F1200
G1 X44.071Y45.94Z0F1200
G1 X44.644Y45.783Z0F1200
G1 X45.233Y45.669Z0F1200
G1 X45.837Y45.6Z0F1200
G1 X46.454Y45.578Z0F1200
G1 X47.081Y45.604Z0F1200
G1 X47.716Y45.681Z0F1200
G1 X48.358Y45.811Z0F1200
G1 X49.003Y45.994Z0F1200
G1 X49.651Y46.233Z0F1200
G1 X50.299Y46.53Z0F1200
G1 X51.179Y46.957Z0F1200
G1 X52.088Y47.364Z0F1200
G1 X53.023Y47.763Z0F1200
G1 X55.932Y48.968Z0F1200
G1 X57.903Y49.85Z0F1200
G1 X58.881Y50.334Z0F1200
G1 X59.848Y50.857Z0F1200
G1 X60.797Y51.426Z0F1200
G1 X61.723Y52.046Z0F1200
G1 X62.621Y52.726Z0F1200
G1 X63.484Y53.472Z0F1200
G1 X64.309Y54.291Z0F1200
G1 X65.088Y55.189Z0F1200
G1 X65.25Y55.427Z0F1200
G1 X65.372Y55.682Z0F1200
G1 X65.451Y55.951Z0F1200
G1 X65.489Y56.226Z0F1200
G1 X65.484Y56.504Z0F1200
G1 X65.438Y56.78Z0F1200
G1 X65.348Y57.048Z0F1200
G1 X65.216Y57.304Z0F1200
G1 X65.202Y57.32Z0F1200
G1 X65.195Y57.327Z0F1200
G1 X65.245Y57.415Z0F1200
G1 X65.32Y57.537Z0F1200
G1 X65.449Y57.722Z0F1200
G1 X65.91Y58.335Z0F1200
G1 X66.184Y58.728Z0F1200
G1 X66.464Y59.18Z0F1200
G1 X66.733Y59.691Z0F1200
G1 X66.973Y60.264Z0F1200
G1 X67.166Y60.899Z0F1200
G1 X67.248Y61.349Z0F1200
G1 X67.366Y61.701Z0F1200
G1 X67.496Y62.235Z0F1200
G1 X67.578Y62.766Z0F1200
G1 X67.614Y63.293Z0F1200
G1 X67.607Y63.815Z0F1200
G1 X67.56Y64.33Z0F1200
G1 X67.474Y64.836Z0F1200
G1 X67.352Y65.333Z0F1200
G1 X67.196Y65.819Z0F1200
G1 X67.008Y66.292Z0F1200
G1 X66.792Y66.751Z0F1200
G1 X66.548Y67.194Z0F1200
G1 X66.281Y67.621Z0F1200
G1 X65.991Y68.029Z0F1200
G1 X65.681Y68.418Z0F1200
G1 X65.354Y68.786Z0F1200
G1 X64.85Y69.289Z0F1200
G1 X64.318Y69.757Z0F1200
G1 X63.761Y70.191Z0F1200
G1 X63.182Y70.59Z0F1200
G1 X62.584Y70.953Z0F1200
G1 X61.969Y71.278Z0F1200
G1 X61.342Y71.566Z0F1200
G1 X60.704Y71.816Z0F1200
G1 X61.515Y72.87Z0F1200
G1 X61.971Y73.521Z0F1200
G1 X62.399Y74.241Z0F1200
G1 X62.767Y75.041Z0F1200
G1 X62.912Y75.476Z0F1200
G1 X63.021Y75.943Z0F1200
G1 X63.086Y76.435Z0F1200
G1 X63.102Y76.944Z0F1200
G1 X63.061Y77.461Z0F1200
G1 X62.958Y77.979Z0F1200
G1 X62.784Y78.491Z0F1200
G1 X62.536Y78.989Z0F1200
G1 X62.259Y79.638Z0F1200
G1 X61.953Y80.265Z0F1200
G1 X61.618Y80.868Z0F1200
G1 X61.255Y81.448Z0F1200
G1 X60.866Y82.004Z0F1200
G1 X60.451Y82.537Z0F1200
G1 X60.013Y83.046Z0F1200
G1 X59.551Y83.531Z0F1200
G1 X59.067Y83.992Z0F1200
G1 X58.563Y84.43Z0F1200
G1 X58.04Y84.843Z0F1200
G1 X57.498Y85.231Z0F1200
G1 X56.938Y85.596Z0F1200
G1 X56.364Y85.937Z0F1200
G1 X55.774Y86.252Z0F1200
G1 X55.171Y86.543Z0F1200
G1 X54.556Y86.809Z0F1200
G1 X53.929Y87.051Z0F1200
G1 X53.293Y87.267Z0F1200
G1 X52.647Y87.459Z0F1200
G1 X51.995Y87.625Z0F1200
G1 X51.335Y87.766Z0F1200
G1 X50.671Y87.882Z0F1200
G1 X50.002Y87.973Z0F1200
G1 X49.331Y88.038Z0F1200
G1 X48.657Y88.077Z0F1200
G1 X47.983Y88.09Z0F1200
G1 X47.311Y88.078Z0F1200
G1 X46.639Y88.04Z0F1200
G1 X45.971Y87.975Z0F1200
G1 X45.307Y87.885Z0F1200
G1 X44.648Y87.769Z0F1200
G1 X43.961Y87.613Z0F1200
G1 X43.283Y87.422Z0F1200
G1 X42.613Y87.201Z0F1200
G1 X41.952Y86.954Z0F1200
G1 X41.197Y86.855Z0F1200
G1 X40.453Y86.721Z0F1200
G1 X39.721Y86.551Z0F1200
G1 X39.001Y86.347Z0F1200
G1 X38.294Y86.109Z0F1200
G1 X37.602Y85.839Z0F1200
G1 X36.924Y85.538Z0F1200
G1 X36.261Y85.206Z0F1200
G1 X35.615Y84.845Z0F1200
G1 X34.986Y84.455Z0F1200
G1 X34.375Y84.039Z0F1200
G1 X33.783Y83.596Z0F1200
G1 X33.209Y83.128Z0F1200
G1 X32.657Y82.636Z0F1200
G1 X32.125Y82.122Z0F1200
G1 X31.615Y81.585Z0F1200
G1 X31.473Y81.408Z0F1200
G1 X31.355Y81.218Z0F1200
G1 X31.262Y81.016Z0F1200
G1 X31.194Y80.806Z0F1200
G1 X31.152Y80.588Z0F1200
G1 X31.137Y80.366Z0F1200
G1 X31.148Y80.143Z0F1200
G1 X31.188Y79.92Z0F1200
G1 X31.95Y76.854Z0F1200
G1 X32.744Y73.8Z0F1200
G1 X33.565Y70.757Z0F1200
G0 Z2.8F500
G0 X19.015Y47.865Z2.8F1500
G1 Z0F500
G1 X18.775Y47.891Z0F1200
G1 X18.57Y47.933Z0F1200
G1 X18.407Y47.994Z0F1200
G1 X18.292Y48.075Z0F1200
G1 X17.82Y48.564Z0F1200
G1 X17.614Y48.783Z0F1200
G1 X17.159Y49.28Z0F1200
G1 X16.682Y49.831Z0F1200
G1 X16.226Y50.402Z0F1200
G1 X15.832Y50.964Z0F1200
G1 X15.671Y51.231Z0F1200
G1 X15.542Y51.483Z0F1200
G1 X15.448Y51.717Z0F1200
G1 X15.397Y51.929Z0F1200
G1 X15.357Y52.359Z0F1200
G1 X15.354Y52.837Z0F1200
G1 X15.386Y53.343Z0F1200
G1 X15.452Y53.851Z0F1200
G1 X15.552Y54.34Z0F1200
G1 X15.684Y54.788Z0F1200
G1 X15.848Y55.171Z0F1200
G1 X16.044Y55.468Z0F1200
G1 X16.256Y55.708Z0F1200
G1 X16.46Y55.922Z0F1200
G1 X16.658Y56.112Z0F1200
G1 X16.853Y56.278Z0F1200
G1 X17.244Y56.546Z0F1200
G1 X17.655Y56.737Z0F1200
G1 X18.107Y56.862Z0F1200
G1 X18.621Y56.932Z0F1200
G1 X18.908Y56.949Z0F1200
G1 X19.219Y56.957Z0F1200
G1 X19.557Z0F1200
G1 X19.923Y56.948Z0F1200
G1 X20.461Y55.9Z0F1200
G1 X20.99Y54.865Z0F1200
G1 X21.474Y53.854Z0F1200
G1 X21.878Y52.879Z0F1200
G1 X21.944Y52.691Z0F1200
G1 X22.013Y52.47Z0F1200
G1 X22.086Y52.221Z0F1200
G1 X22.16Y51.95Z0F1200
G1 X22.308Y51.362Z0F1200
G1 X22.448Y50.75Z0F1200
G1 X22.569Y50.158Z0F1200
G1 X22.661Y49.626Z0F1200
G1 X22.692Y49.397Z0F1200
G1 X22.713Y49.2Z0F1200
G1 X22.722Y49.04Z0F1200
G1 X22.717Y48.921Z0F1200
G1 X22.664Y48.671Z0F1200
G1 X22.573Y48.446Z0F1200
G1 X22.44Y48.236Z0F1200
G1 X22.266Y48.031Z0F1200
G1 X22.11Z0F1200
G1 X21.912Y48.023Z0F1200
G1 X21.677Y48.006Z0F1200
G1 X20.823Y47.93Z0F1200
G1 X20.192Y47.881Z0F1200
G1 X19.572Y47.854Z0F1200
G1 X19.015Y47.865Z0F1200
G0 Z2.8F500
G0 X17.024Y47.805Z2.8F1500
G1 Z0F500
G1 X16.808Y48.035Z0F1200
G1 X16.337Y48.549Z0F1200
G1 X15.836Y49.127Z0F1200
G1 X15.345Y49.742Z0F1200
G1 X14.909Y50.364Z0F1200
G1 X14.709Y50.696Z0F1200
G1 X14.539Y51.028Z0F1200
G1 X14.397Y51.382Z0F1200
G1 X14.309Y51.748Z0F1200
G1 X14.258Y52.305Z0F1200
G1 X14.254Y52.868Z0F1200
G1 X14.29Y53.449Z0F1200
G1 X14.367Y54.032Z0F1200
G1 X14.483Y54.606Z0F1200
G1 X14.647Y55.162Z0F1200
G1 X14.875Y55.695Z0F1200
G1 X15.169Y56.139Z0F1200
G1 X15.446Y56.452Z0F1200
G1 X15.681Y56.699Z0F1200
G1 X15.921Y56.929Z0F1200
G1 X16.184Y57.152Z0F1200
G1 X16.698Y57.505Z0F1200
G1 X17.274Y57.773Z0F1200
G1 X17.885Y57.942Z0F1200
G1 X18.513Y58.027Z0F1200
G1 X18.861Y58.048Z0F1200
G1 X19.207Y58.057Z0F1200
G1 X19.57Z0F1200
G1 X20.602Y58.034Z0F1200
G1 X21.44Y56.401Z0F1200
G1 X21.976Y55.353Z0F1200
G1 X22.479Y54.303Z0F1200
G1 X22.907Y53.271Z0F1200
G1 X22.988Y53.036Z0F1200
G1 X23.066Y52.789Z0F1200
G1 X23.145Y52.52Z0F1200
G1 X23.224Y52.229Z0F1200
G1 X23.378Y51.619Z0F1200
G1 X23.523Y50.983Z0F1200
G1 X23.65Y50.361Z0F1200
G1 X23.748Y49.796Z0F1200
G1 X23.784Y49.531Z0F1200
G1 X23.81Y49.288Z0F1200
G1 X23.823Y49.047Z0F1200
G1 X23.813Y48.783Z0F1200
G1 X23.72Y48.348Z0F1200
G1 X23.555Y47.942Z0F1200
G1 X23.329Y47.583Z0F1200
G1 X22.772Y46.928Z0F1200
G1 X22.127Y46.932Z0F1200
G1 X21.987Y46.925Z0F1200
G1 X21.76Y46.909Z0F1200
G1 X20.914Y46.834Z0F1200
G1 X20.259Y46.783Z0F1200
G1 X19.585Y46.753Z0F1200
G1 X18.944Y46.767Z0F1200
G1 X18.605Y46.803Z0F1200
G1 X18.267Y46.873Z0F1200
G1 X17.889Y47.013Z0F1200
G1 X17.572Y47.237Z0F1200
G1 X17.024Y47.805Z0F1200
G0 Z2.8F500
G0 X13.221Y51.567Z2.8F1500
G1 Z0F500
G1 X13.158Y52.25Z0F1200
G1 X13.153Y52.898Z0F1200
G1 X13.195Y53.555Z0F1200
G1 X13.281Y54.213Z0F1200
G1 X13.415Y54.873Z0F1200
G1 X13.611Y55.535Z0F1200
G1 X13.903Y56.218Z0F1200
G1 X14.293Y56.81Z0F1200
G1 X14.635Y57.195Z0F1200
G1 X14.901Y57.476Z0F1200
G1 X15.184Y57.746Z0F1200
G1 X15.514Y58.027Z0F1200
G1 X16.151Y58.464Z0F1200
G1 X16.894Y58.809Z0F1200
G1 X17.664Y59.022Z0F1200
G1 X18.406Y59.123Z0F1200
G1 X18.813Y59.147Z0F1200
G1 X19.195Y59.157Z0F1200
G1 X19.583Z0F1200
G1 X21.281Y59.12Z0F1200
G1 X22.419Y56.903Z0F1200
G1 X22.962Y55.84Z0F1200
G1 X23.483Y54.752Z0F1200
G1 X23.935Y53.663Z0F1200
G1 X24.033Y53.382Z0F1200
G1 X24.119Y53.107Z0F1200
G1 X24.203Y52.82Z0F1200
G1 X24.288Y52.509Z0F1200
G1 X24.447Y51.876Z0F1200
G1 X24.598Y51.215Z0F1200
G1 X24.731Y50.565Z0F1200
G1 X24.835Y49.965Z0F1200
G1 X24.876Y49.665Z0F1200
G1 X24.907Y49.376Z0F1200
G1 X24.925Y49.055Z0F1200
G1 X24.908Y48.645Z0F1200
G1 X24.775Y48.024Z0F1200
G1 X24.538Y47.438Z0F1200
G1 X24.218Y46.931Z0F1200
G1 X23.278Y45.825Z0F1200
G1 X22.153Y45.832Z0F1200
G1 X22.044Y45.827Z0F1200
G1 X21.844Y45.812Z0F1200
G1 X21.005Y45.738Z0F1200
G1 X20.326Y45.685Z0F1200
G1 X19.599Y45.653Z0F1200
G1 X18.874Y45.667Z0F1200
G1 X18.435Y45.715Z0F1200
G1 X17.963Y45.812Z0F1200
G1 X17.372Y46.031Z0F1200
G1 X16.853Y46.399Z0F1200
G1 X16.228Y47.046Z0F1200
G1 X16.001Y47.286Z0F1200
G1 X15.515Y47.817Z0F1200
G1 X14.99Y48.424Z0F1200
G1 X14.464Y49.083Z0F1200
G1 X13.986Y49.764Z0F1200
G1 X13.747Y50.161Z0F1200
G1 X13.537Y50.572Z0F1200
G1 X13.347Y51.047Z0F1200
G1 X13.221Y51.567Z0F1200
G0 Z2.8F500
G0 X12.347Y55.139Z2.8F1500
G1 Z0F500
G1 X12.574Y55.909Z0F1200
G1 X12.931Y56.742Z0F1200
G1 X13.418Y57.481Z0F1200
G1 X13.824Y57.939Z0F1200
G1 X14.122Y58.253Z0F1200
G1 X14.446Y58.563Z0F1200
G1 X14.845Y58.902Z0F1200
G1 X15.605Y59.423Z0F1200
G1 X16.513Y59.845Z0F1200
G1 X17.442Y60.102Z0F1200
G1 X18.298Y60.218Z0F1200
G1 X18.766Y60.247Z0F1200
G1 X19.183Y60.257Z0F1200
G1 X19.597Z0F1200
G1 X21.96Y60.206Z0F1200
G1 X23.398Y57.404Z0F1200
G1 X23.948Y56.329Z0F1200
G1 X24.488Y55.201Z0F1200
G1 X24.963Y54.055Z0F1200
G1 X25.077Y53.727Z0F1200
G1 X25.172Y53.426Z0F1200
G1 X25.261Y53.119Z0F1200
G1 X25.352Y52.789Z0F1200
G1 X25.517Y52.133Z0F1200
G1 X25.673Y51.448Z0F1200
G1 X25.812Y50.769Z0F1200
G1 X25.922Y50.134Z0F1200
G1 X25.968Y49.798Z0F1200
G1 X26.004Y49.464Z0F1200
G1 X26.026Y49.062Z0F1200
G1 X26.003Y48.507Z0F1200
G1 X25.831Y47.7Z0F1200
G1 X25.521Y46.935Z0F1200
G1 X25.107Y46.278Z0F1200
G1 X23.784Y44.722Z0F1200
G1 X22.179Y44.732Z0F1200
G1 X22.118Y44.729Z0F1200
G1 X21.929Y44.715Z0F1200
G1 X21.096Y44.642Z0F1200
G1 X20.393Y44.587Z0F1200
G1 X19.612Y44.553Z0F1200
G1 X18.804Y44.569Z0F1200
G1 X18.265Y44.627Z0F1200
G1 X17.659Y44.751Z0F1200
G1 X16.854Y45.05Z0F1200
G1 X16.133Y45.561Z0F1200
G1 X15.432Y46.287Z0F1200
G1 X15.196Y46.538Z0F1200
G1 X14.693Y47.086Z0F1200
G1 X14.145Y47.721Z0F1200
G1 X13.583Y48.422Z0F1200
G1 X13.063Y49.164Z0F1200
G1 X12.785Y49.626Z0F1200
G1 X12.534Y50.117Z0F1200
G1 X12.296Y50.712Z0F1200
G1 X12.133Y51.386Z0F1200
G1 X12.059Y52.196Z0F1200
G1 X12.053Y52.929Z0F1200
G1 X12.099Y53.66Z0F1200
G1 X12.195Y54.395Z0F1200
G1 X12.347Y55.139Z0F1200
G0 Z2.8F500
G0 X19.061Y62.455Z2.8F1500
G1 Z0F500
G1 X19.158Z0F1200
G1 X19.623Z0F1200
G1 X20.827Y62.43Z0F1200
G1 X20.164Y64.608Z0F1200
G1 X20.098Y64.362Z0F1200
G1 X19.688Y63.43Z0F1200
G1 X19.226Y62.673Z0F1200
G1 X19.061Y62.455Z0F1200
G0 Z2.8F500
G0 X18.19Y61.313Z2.8F1500
G1 Z0F500
G1 X18.718Y61.346Z0F1200
G1 X19.17Y61.357Z0F1200
G1 X19.61Z0F1200
G1 X22.321Y61.298Z0F1200
G1 X20.949Y65.808Z0F1200
G1 X20.803Y66.238Z0F1200
G1 X20.652Y66.764Z0F1200
G1 X20.521Y67.277Z0F1200
G1 X20.4Y67.799Z0F1200
G1 X20.189Y68.804Z0F1200
G1 X19.978Y69.856Z0F1200
G1 X19.77Y70.856Z0F1200
G1 X19.531Y71.893Z0F1200
G1 X19.273Y72.857Z0F1200
G1 X18.981Y73.768Z0F1200
G1 X18.841Y74.142Z0F1200
G1 X18.691Y74.496Z0F1200
G1 X18.542Y74.803Z0F1200
G1 X18.397Y75.056Z0F1200
G1 X18.255Y75.267Z0F1200
G1 X18.122Y75.434Z0F1200
G1 X17.988Y75.573Z0F1200
G1 X17.874Y75.67Z0F1200
G1 X17.785Y75.729Z0F1200
G1 X17.687Y75.777Z0F1200
G1 X17.551Y75.826Z0F1200
G1 X17.365Y75.868Z0F1200
G1 X17.148Y75.893Z0F1200
G1 X16.9Y75.896Z0F1200
G1 X16.868Y75.831Z0F1200
G1 X16.833Y75.741Z0F1200
G1 X16.817Y75.68Z0F1200
G1 X16.804Y75.602Z0F1200
G1 X16.795Y75.491Z0F1200
G1 Y75.343Z0F1200
G1 X16.808Y75.169Z0F1200
G1 X16.825Y75.039Z0F1200
G1 X16.943Y74.498Z0F1200
G1 X17.117Y73.927Z0F1200
G1 X17.346Y73.288Z0F1200
G1 X17.612Y72.607Z0F1200
G1 X17.911Y71.887Z0F1200
G1 X18.202Y71.201Z0F1200
G1 X18.498Y70.495Z0F1200
G1 X18.773Y69.799Z0F1200
G1 X18.917Y69.401Z0F1200
G1 X19.049Y68.996Z0F1200
G1 X19.175Y68.547Z0F1200
G1 X19.299Y67.975Z0F1200
G1 X19.38Y67.203Z0F1200
G1 X19.387Y66.436Z0F1200
G1 X19.29Y65.591Z0F1200
G1 X19.057Y64.729Z0F1200
G1 X18.711Y63.94Z0F1200
G1 X18.316Y63.293Z0F1200
G1 X17.936Y62.792Z0F1200
G1 X17.558Y62.355Z0F1200
G1 X17.124Y61.913Z0F1200
G1 X16.657Y61.498Z0F1200
G1 X16.2Y61.131Z0F1200
G1 X15.729Y60.781Z0F1200
G1 X15.342Y60.514Z0F1200
G1 X16.131Y60.88Z0F1200
G1 X17.22Y61.182Z0F1200
G1 X18.19Y61.313Z0F1200
G0 Z2.8F500
G0 X14.581Y45.586Z2.8F1500
G1 Z0F500
G1 X14.39Y45.789Z0F1200
G1 X13.872Y46.354Z0F1200
G1 X13.298Y47.017Z0F1200
G1 X13.21Y47.127Z0F1200
G1 X13.26Y47.048Z0F1200
G1 X13.497Y46.711Z0F1200
G1 X13.734Y46.411Z0F1200
G1 X13.984Y46.13Z0F1200
G1 X14.248Y45.868Z0F1200
G1 X14.51Y45.64Z0F1200
G1 X14.581Y45.586Z0F1200
G0 Z2.8F500
G0 X24.93Y44.371Z2.8F1500
G1 Z0F500
G1 X24.936Z0F1200
G1 X25.178Y44.451Z0F1200
G1 X25.451Y44.555Z0F1200
G1 X25.708Y44.67Z0F1200
G1 X25.947Y44.794Z0F1200
G1 X26.18Y44.935Z0F1200
G1 X26.389Y45.08Z0F1200
G1 X26.594Y45.243Z0F1200
G1 X26.775Y45.409Z0F1200
G1 X26.914Y45.557Z0F1200
G1 X26.635Y46.755Z0F1200
G1 X26.503Y46.431Z0F1200
G1 X25.996Y45.625Z0F1200
G1 X24.93Y44.371Z0F1200
G0 Z2.8F500
G0 X23.743Y43.025Z2.8F1500
G1 Z0F500
G1 X24.482Y43.132Z0F1200
G1 X25.238Y43.314Z0F1200
G1 X25.538Y43.411Z0F1200
G1 X25.868Y43.537Z0F1200
G1 X26.19Y43.681Z0F1200
G1 X26.488Y43.836Z0F1200
G1 X26.774Y44.008Z0F1200
G1 X27.051Y44.201Z0F1200
G1 X27.305Y44.403Z0F1200
G1 X27.546Y44.624Z0F1200
G1 X27.778Y44.87Z0F1200
G1 X27.989Y45.128Z0F1200
G1 X28.104Y45.293Z0F1200
G1 X27.612Y47.414Z0F1200
G1 X26.903Y50.099Z0F1200
G1 X26.131Y52.778Z0F1200
G1 X25.325Y55.417Z0F1200
G1 X23.624Y60.795Z0F1200
G1 X21.99Y66.166Z0F1200
G1 X21.854Y66.567Z0F1200
G1 X21.713Y67.053Z0F1200
G1 X21.59Y67.536Z0F1200
G1 X21.475Y68.036Z0F1200
G1 X21.267Y69.025Z0F1200
G1 X21.062Y70.049Z0F1200
G1 X20.838Y71.121Z0F1200
G1 X20.601Y72.15Z0F1200
G1 X20.331Y73.159Z0F1200
G1 X20.018Y74.136Z0F1200
G1 X19.863Y74.55Z0F1200
G1 X19.692Y74.953Z0F1200
G1 X19.518Y75.31Z0F1200
G1 X19.331Y75.639Z0F1200
G1 X19.145Y75.917Z0F1200
G1 X18.947Y76.164Z0F1200
G1 X18.743Y76.375Z0F1200
G1 X18.538Y76.549Z0F1200
G1 X18.334Y76.684Z0F1200
G1 X18.118Y76.792Z0F1200
G1 X17.855Y76.885Z0F1200
G1 X17.557Y76.953Z0F1200
G1 X17.211Y76.993Z0F1200
G1 X16.835Y76.997Z0F1200
G1 X16.419Y76.958Z0F1200
G1 X16.314Y76.938Z0F1200
G1 X16.204Y76.821Z0F1200
G1 X16.068Y76.645Z0F1200
G1 X15.951Y76.458Z0F1200
G1 X15.86Y76.274Z0F1200
G1 X15.788Y76.086Z0F1200
G1 X15.741Y75.914Z0F1200
G1 X15.711Y75.74Z0F1200
G1 X15.695Y75.529Z0F1200
G1 Y75.307Z0F1200
G1 X15.713Y75.058Z0F1200
G1 X15.742Y74.84Z0F1200
G1 X15.876Y74.227Z0F1200
G1 X16.072Y73.584Z0F1200
G1 X16.317Y72.896Z0F1200
G1 X16.593Y72.193Z0F1200
G1 X16.895Y71.465Z0F1200
G1 X17.188Y70.774Z0F1200
G1 X17.479Y70.08Z0F1200
G1 X17.744Y69.409Z0F1200
G1 X17.876Y69.043Z0F1200
G1 X17.997Y68.676Z0F1200
G1 X18.107Y68.282Z0F1200
G1 X18.211Y67.8Z0F1200
G1 X18.281Y67.14Z0F1200
G1 X18.287Y66.495Z0F1200
G1 X18.206Y65.798Z0F1200
G1 X18.017Y65.095Z0F1200
G1 X17.734Y64.451Z0F1200
G1 X17.406Y63.914Z0F1200
G1 X17.081Y63.484Z0F1200
G1 X16.749Y63.102Z0F1200
G1 X16.365Y62.71Z0F1200
G1 X15.947Y62.338Z0F1200
G1 X15.527Y62.001Z0F1200
G1 X15.089Y61.675Z0F1200
G1 X14.243Y61.092Z0F1200
G1 X12.539Y59.986Z0F1200
G1 X11.756Y59.433Z0F1200
G1 X11.457Y59.194Z0F1200
G1 X11.16Y58.932Z0F1200
G1 X10.893Y58.665Z0F1200
G1 X10.669Y58.407Z0F1200
G1 X10.496Y58.167Z0F1200
G1 X10.348Y57.909Z0F1200
G1 X10.224Y57.626Z0F1200
G1 X10.125Y57.317Z0F1200
G1 X10.059Y56.992Z0F1200
G1 X10.028Y56.65Z0F1200
G1 X10.037Y56.299Z0F1200
G1 X10.117Y55.731Z0F1200
G1 X9.825Y55.69Z0F1200
G1 X10.113Y55.695Z0F1200
G1 X10.13Y54.669Z0F1200
G1 X10.189Y53.678Z0F1200
G1 X10.297Y52.644Z0F1200
G1 X10.454Y51.623Z0F1200
G1 X10.669Y50.58Z0F1200
G1 X10.939Y49.577Z0F1200
G1 X11.271Y48.598Z0F1200
G1 X11.673Y47.637Z0F1200
G1 X11.865Y47.249Z0F1200
G1 X12.099Y46.831Z0F1200
G1 X12.351Y46.429Z0F1200
G1 X12.609Y46.061Z0F1200
G1 X12.891Y45.704Z0F1200
G1 X13.187Y45.372Z0F1200
G1 X13.496Y45.065Z0F1200
G1 X13.818Y44.784Z0F1200
G1 X14.149Y44.533Z0F1200
G1 X14.49Y44.311Z0F1200
G1 X14.844Y44.116Z0F1200
G1 X15.212Y43.949Z0F1200
G1 X15.594Y43.812Z0F1200
G1 X15.998Y43.702Z0F1200
G1 X16.418Y43.624Z0F1200
G1 X17.004Y43.565Z0F1200
G1 X16.982Y43.35Z0F1200
G1 X17.016Y43.56Z0F1200
G1 X17.835Y43.429Z0F1200
G1 X18.698Y43.295Z0F1200
G1 X19.551Y43.176Z0F1200
G1 X20.407Y43.076Z0F1200
G1 X21.274Y43.003Z0F1200
G1 X22.116Y42.967Z0F1200
G1 X22.944Y42.973Z0F1200
G1 X23.743Y43.025Z0F1200
G0 Z2.8F500
G0 X10.217Y55.696Z2.8F1500
G1 Z0F500
G1 X10.232Y55.748Z0F1200
G1 X9.822Y55.69Z0F1200
G1 X10.217Y55.696Z0F1200
G0 Z2.8F500
G0 X11.213Y55.713Z2.8F1500
G1 Z0F500
G1 X11.223Y55.132Z0F1200
G1 X11.278Y55.405Z0F1200
G1 X11.538Y56.282Z0F1200
G1 X11.958Y57.265Z0F1200
G1 X12.543Y58.152Z0F1200
G1 X13.014Y58.683Z0F1200
G1 X13.343Y59.03Z0F1200
G1 X13.709Y59.379Z0F1200
G1 X13.979Y59.609Z0F1200
G1 X13.149Y59.071Z0F1200
G1 X12.418Y58.554Z0F1200
G1 X12.164Y58.351Z0F1200
G1 X11.914Y58.13Z0F1200
G1 X11.702Y57.917Z0F1200
G1 X11.532Y57.722Z0F1200
G1 X11.421Y57.568Z0F1200
G1 X11.333Y57.415Z0F1200
G1 X11.252Y57.231Z0F1200
G1 X11.193Y57.044Z0F1200
G1 X11.149Y56.832Z0F1200
G1 X11.13Y56.616Z0F1200
G1 X11.136Y56.386Z0F1200
G1 X11.206Y55.884Z0F1200
G1 X9.824Y55.69Z0F1200
G1 X11.213Y55.713Z0F1200
G0 Z2.8F500
G0 X17.055Y43.802Z2.8F1500
G1 Z0F500
G1 X17.029Y43.812Z0F1200
G1 X16.982Y43.346Z0F1200
G1 X17.055Y43.802Z0F1200
G0 Z2.8F500
G0 X22.549Y68.272Z2.8F1500
G1 Z0F500
G1 X22.345Y69.247Z0F1200
G1 X22.139Y70.273Z0F1200
G1 X21.912Y71.359Z0F1200
G1 X21.668Y72.415Z0F1200
G1 X21.386Y73.47Z0F1200
G1 X21.055Y74.504Z0F1200
G1 X20.886Y74.955Z0F1200
G1 X20.695Y75.405Z0F1200
G1 X20.491Y75.824Z0F1200
G1 X20.269Y76.215Z0F1200
G1 X20.031Y76.57Z0F1200
G1 X19.774Y76.89Z0F1200
G1 X19.498Y77.177Z0F1200
G1 X19.198Y77.431Z0F1200
G1 X18.885Y77.639Z0F1200
G1 X18.545Y77.807Z0F1200
G1 X18.163Y77.942Z0F1200
G1 X17.745Y78.039Z0F1200
G1 X17.279Y78.092Z0F1200
G1 X16.792Y78.097Z0F1200
G1 X16.267Y78.049Z0F1200
G1 X15.801Y77.958Z0F1200
G1 X15.599Y77.783Z0F1200
G1 X15.367Y77.537Z0F1200
G1 X15.163Y77.271Z0F1200
G1 X14.993Y76.999Z0F1200
G1 X14.85Y76.713Z0F1200
G1 X14.742Y76.432Z0F1200
G1 X14.665Y76.151Z0F1200
G1 X14.619Y75.874Z0F1200
G1 X14.596Y75.574Z0F1200
G1 Y75.257Z0F1200
G1 X14.617Y74.953Z0F1200
G1 X14.659Y74.647Z0F1200
G1 X14.812Y73.945Z0F1200
G1 X15.024Y73.248Z0F1200
G1 X15.287Y72.511Z0F1200
G1 X15.578Y71.77Z0F1200
G1 X15.872Y71.06Z0F1200
G1 X16.175Y70.346Z0F1200
G1 X16.46Y69.665Z0F1200
G1 X16.715Y69.02Z0F1200
G1 X16.836Y68.686Z0F1200
G1 X16.944Y68.357Z0F1200
G1 X17.039Y68.017Z0F1200
G1 X17.124Y67.625Z0F1200
G1 X17.182Y67.078Z0F1200
G1 X17.186Y66.553Z0F1200
G1 X17.123Y66.005Z0F1200
G1 X16.976Y65.461Z0F1200
G1 X16.756Y64.96Z0F1200
G1 X16.496Y64.534Z0F1200
G1 X16.226Y64.177Z0F1200
G1 X15.94Y63.848Z0F1200
G1 X15.606Y63.508Z0F1200
G1 X15.237Y63.179Z0F1200
G1 X14.854Y62.871Z0F1200
G1 X14.449Y62.57Z0F1200
G1 X13.631Y62.007Z0F1200
G1 X11.909Y60.889Z0F1200
G1 X11.102Y60.318Z0F1200
G1 X10.739Y60.028Z0F1200
G1 X10.409Y59.737Z0F1200
G1 X10.088Y59.416Z0F1200
G1 X9.807Y59.092Z0F1200
G1 X9.568Y58.761Z0F1200
G1 X9.364Y58.404Z0F1200
G1 X9.193Y58.015Z0F1200
G1 X9.06Y57.596Z0F1200
G1 X8.969Y57.151Z0F1200
G1 X8.927Y56.688Z0F1200
G1 X8.939Y56.208Z0F1200
G1 X9.027Y55.578Z0F1200
G1 X9.015Z0F1200
G1 X9.031Y54.631Z0F1200
G1 X9.094Y53.575Z0F1200
G1 X9.205Y52.509Z0F1200
G1 X9.372Y51.419Z0F1200
G1 X9.599Y50.326Z0F1200
G1 X9.885Y49.259Z0F1200
G1 X10.24Y48.209Z0F1200
G1 X10.671Y47.184Z0F1200
G1 X10.897Y46.725Z0F1200
G1 X11.151Y46.27Z0F1200
G1 X11.428Y45.829Z0F1200
G1 X11.729Y45.4Z0F1200
G1 X12.051Y44.993Z0F1200
G1 X12.387Y44.616Z0F1200
G1 X12.748Y44.258Z0F1200
G1 X13.122Y43.932Z0F1200
G1 X13.514Y43.634Z0F1200
G1 X13.925Y43.367Z0F1200
G1 X14.353Y43.131Z0F1200
G1 X14.798Y42.929Z0F1200
G1 X15.26Y42.763Z0F1200
G1 X15.754Y42.628Z0F1200
G1 X16.262Y42.535Z0F1200
G1 X16.893Y42.471Z0F1200
G1 Y42.465Z0F1200
G1 X17.667Y42.341Z0F1200
G1 X18.542Y42.207Z0F1200
G1 X19.42Y42.083Z0F1200
G1 X20.292Y41.981Z0F1200
G1 X21.195Y41.906Z0F1200
G1 X22.106Y41.867Z0F1200
G1 X22.982Y41.873Z0F1200
G1 X23.852Y41.93Z0F1200
G1 X24.692Y42.051Z0F1200
G1 X25.537Y42.255Z0F1200
G1 X25.901Y42.372Z0F1200
G1 X26.296Y42.523Z0F1200
G1 X26.667Y42.688Z0F1200
G1 X27.024Y42.875Z0F1200
G1 X27.374Y43.085Z0F1200
G1 X27.709Y43.318Z0F1200
G1 X28.02Y43.566Z0F1200
G1 X28.321Y43.842Z0F1200
G1 X28.603Y44.141Z0F1200
G1 X28.87Y44.469Z0F1200
G1 X29.118Y44.823Z0F1200
G1 X29.28Y45.095Z0F1200
G1 X28.677Y47.691Z0F1200
G1 X27.965Y50.388Z0F1200
G1 X27.194Y53.062Z0F1200
G1 X26.374Y55.748Z0F1200
G1 X24.674Y61.121Z0F1200
G1 X23.038Y66.501Z0F1200
G1 X22.903Y66.896Z0F1200
G1 X22.775Y67.341Z0F1200
G1 X22.659Y67.796Z0F1200
G1 X22.549Y68.272Z0F1200
G0 Z2.8F500
G0 X21.206Y76.793Z2.8F1500
G1 Z0F500
G1 X20.917Y77.223Z0F1200
G1 X20.602Y77.617Z0F1200
G1 X20.25Y77.981Z0F1200
G1 X19.86Y78.312Z0F1200
G1 X19.438Y78.593Z0F1200
G1 X18.978Y78.821Z0F1200
G1 X18.471Y79Z0F1200
G1 X17.928Y79.125Z0F1200
G1 X17.352Y79.191Z0F1200
G1 X16.741Y79.197Z0F1200
G1 X16.114Y79.14Z0F1200
G1 X15.46Y79.013Z0F1200
G1 X15.385Y78.991Z0F1200
G1 X15.316Y78.961Z0F1200
G1 X15.247Y78.923Z0F1200
G1 X15.18Y78.876Z0F1200
G1 X14.834Y78.576Z0F1200
G1 X14.528Y78.25Z0F1200
G1 X14.259Y77.9Z0F1200
G1 X14.032Y77.538Z0F1200
G1 X13.841Y77.156Z0F1200
G1 X13.695Y76.773Z0F1200
G1 X13.59Y76.39Z0F1200
G1 X13.525Y76.006Z0F1200
G1 X13.496Y75.619Z0F1200
G1 Y75.219Z0F1200
G1 X13.523Y74.833Z0F1200
G1 X13.573Y74.461Z0F1200
G1 X13.747Y73.667Z0F1200
G1 X13.982Y72.892Z0F1200
G1 X14.257Y72.125Z0F1200
G1 X14.551Y71.375Z0F1200
G1 X14.859Y70.63Z0F1200
G1 X15.161Y69.919Z0F1200
G1 X15.442Y69.25Z0F1200
G1 X15.687Y68.63Z0F1200
G1 X15.796Y68.328Z0F1200
G1 X15.891Y68.038Z0F1200
G1 X15.971Y67.752Z0F1200
G1 X16.036Y67.451Z0F1200
G1 X16.082Y67.015Z0F1200
G1 X16.085Y66.611Z0F1200
G1 X16.04Y66.213Z0F1200
G1 X15.936Y65.827Z0F1200
G1 X15.779Y65.471Z0F1200
G1 X15.585Y65.154Z0F1200
G1 X15.371Y64.87Z0F1200
G1 X15.131Y64.594Z0F1200
G1 X14.848Y64.305Z0F1200
G1 X14.526Y64.019Z0F1200
G1 X14.181Y63.742Z0F1200
G1 X13.809Y63.464Z0F1200
G1 X13.02Y62.921Z0F1200
G1 X11.298Y61.804Z0F1200
G1 X10.439Y61.196Z0F1200
G1 X10.038Y60.876Z0F1200
G1 X9.651Y60.534Z0F1200
G1 X9.284Y60.167Z0F1200
G1 X8.944Y59.775Z0F1200
G1 X8.644Y59.359Z0F1200
G1 X8.382Y58.901Z0F1200
G1 X8.163Y58.405Z0F1200
G1 X7.994Y57.872Z0F1200
G1 X7.879Y57.31Z0F1200
G1 X7.826Y56.723Z0F1200
G1 X7.841Y56.117Z0F1200
G1 X7.905Y55.657Z0F1200
G1 X7.913Z0F1200
G1 Y55.595Z0F1200
G1 X7.938Y55.425Z0F1200
G1 X7.917Y55.422Z0F1200
G1 X7.931Y54.594Z0F1200
G1 X7.997Y53.495Z0F1200
G1 X8.114Y52.365Z0F1200
G1 X8.289Y51.225Z0F1200
G1 X8.527Y50.076Z0F1200
G1 X8.833Y48.936Z0F1200
G1 X9.211Y47.818Z0F1200
G1 X9.667Y46.73Z0F1200
G1 X9.923Y46.213Z0F1200
G1 X10.204Y45.71Z0F1200
G1 X10.515Y45.214Z0F1200
G1 X10.845Y44.745Z0F1200
G1 X11.203Y44.292Z0F1200
G1 X11.59Y43.856Z0F1200
G1 X11.995Y43.455Z0F1200
G1 X12.429Y43.077Z0F1200
G1 X12.883Y42.732Z0F1200
G1 X13.358Y42.422Z0F1200
G1 X13.857Y42.148Z0F1200
G1 X14.384Y41.91Z0F1200
G1 X14.935Y41.71Z0F1200
G1 X15.505Y41.556Z0F1200
G1 X16.109Y41.444Z0F1200
G1 X16.783Y41.376Z0F1200
G1 Y41.369Z0F1200
G1 X17.504Y41.254Z0F1200
G1 X18.364Y41.121Z0F1200
G1 X19.264Y40.995Z0F1200
G1 X20.196Y40.886Z0F1200
G1 X21.127Y40.808Z0F1200
G1 X22.077Y40.767Z0F1200
G1 X23.029Y40.774Z0F1200
G1 X23.968Y40.835Z0F1200
G1 X24.902Y40.97Z0F1200
G1 X25.831Y41.194Z0F1200
G1 X26.267Y41.334Z0F1200
G1 X26.71Y41.503Z0F1200
G1 X27.148Y41.7Z0F1200
G1 X27.568Y41.918Z0F1200
G1 X27.97Y42.16Z0F1200
G1 X28.362Y42.432Z0F1200
G1 X28.739Y42.732Z0F1200
G1 X29.092Y43.057Z0F1200
G1 X29.434Y43.419Z0F1200
G1 X29.745Y43.801Z0F1200
G1 X30.043Y44.227Z0F1200
G1 X30.299Y44.658Z0F1200
G1 X30.363Y44.805Z0F1200
G1 X30.393Y44.93Z0F1200
G1 X30.4Y45.055Z0F1200
G1 X30.378Y45.228Z0F1200
G1 X29.747Y47.947Z0F1200
G1 X29.028Y50.669Z0F1200
G1 X28.241Y53.4Z0F1200
G1 X27.422Y56.08Z0F1200
G1 X25.725Y61.447Z0F1200
G1 X24.087Y66.832Z0F1200
G1 X23.953Y67.226Z0F1200
G1 X23.837Y67.629Z0F1200
G1 X23.728Y68.056Z0F1200
G1 X23.624Y68.509Z0F1200
G1 X23.422Y69.468Z0F1200
G1 X23.213Y70.506Z0F1200
G1 X22.992Y71.571Z0F1200
G1 X22.734Y72.686Z0F1200
G1 X22.442Y73.781Z0F1200
G1 X22.098Y74.854Z0F1200
G1 X21.907Y75.363Z0F1200
G1 X21.693Y75.869Z0F1200
G1 X21.465Y76.337Z0F1200
G1 X21.206Y76.793Z0F1200
G0 Z2.8F500
G0 X19.405Y79.836Z2.8F1500
G1 Z0F500
G1 X18.779Y80.058Z0F1200
G1 X18.116Y80.21Z0F1200
G1 X17.42Y80.291Z0F1200
G1 X16.698Y80.298Z0F1200
G1 X15.956Y80.229Z0F1200
G1 X15.199Y80.083Z0F1200
G1 X15.012Y80.027Z0F1200
G1 X14.833Y79.951Z0F1200
G1 X14.663Y79.857Z0F1200
G1 X14.502Y79.745Z0F1200
G1 X14.072Y79.371Z0F1200
G1 X13.689Y78.963Z0F1200
G1 X13.355Y78.529Z0F1200
G1 X13.07Y78.073Z0F1200
G1 X12.834Y77.601Z0F1200
G1 X12.649Y77.117Z0F1200
G1 X12.515Y76.628Z0F1200
G1 X12.432Y76.139Z0F1200
G1 X12.396Y75.657Z0F1200
G1 Y75.185Z0F1200
G1 X12.428Y74.722Z0F1200
G1 X12.49Y74.269Z0F1200
G1 X12.681Y73.39Z0F1200
G1 X12.937Y72.549Z0F1200
G1 X13.227Y71.739Z0F1200
G1 X13.535Y70.954Z0F1200
G1 X13.847Y70.201Z0F1200
G1 X14.147Y69.492Z0F1200
G1 X14.423Y68.835Z0F1200
G1 X14.658Y68.241Z0F1200
G1 X14.756Y67.97Z0F1200
G1 X14.838Y67.718Z0F1200
G1 X14.903Y67.487Z0F1200
G1 X14.948Y67.277Z0F1200
G1 X14.982Y66.953Z0F1200
G1 X14.985Y66.67Z0F1200
G1 X14.956Y66.42Z0F1200
G1 X14.895Y66.193Z0F1200
G1 X14.802Y65.981Z0F1200
G1 X14.675Y65.774Z0F1200
G1 X14.516Y65.563Z0F1200
G1 X14.322Y65.34Z0F1200
G1 X14.089Y65.102Z0F1200
G1 X13.816Y64.859Z0F1200
G1 X13.508Y64.612Z0F1200
G1 X13.168Y64.359Z0F1200
G1 X12.408Y63.836Z0F1200
G1 X10.679Y62.713Z0F1200
G1 X9.776Y62.074Z0F1200
G1 X9.331Y61.72Z0F1200
G1 X8.897Y61.336Z0F1200
G1 X8.479Y60.917Z0F1200
G1 X8.082Y60.46Z0F1200
G1 X7.716Y59.954Z0F1200
G1 X7.398Y59.397Z0F1200
G1 X7.132Y58.794Z0F1200
G1 X6.927Y58.15Z0F1200
G1 X6.789Y57.47Z0F1200
G1 X6.725Y56.761Z0F1200
G1 X6.743Y56.026Z0F1200
G1 X6.816Y55.506Z0F1200
G1 X6.832Y54.544Z0F1200
G1 X6.9Y53.403Z0F1200
G1 X7.022Y52.227Z0F1200
G1 X7.206Y51.029Z0F1200
G1 X7.457Y49.821Z0F1200
G1 X7.78Y48.618Z0F1200
G1 X8.182Y47.43Z0F1200
G1 X8.668Y46.271Z0F1200
G1 X8.948Y45.704Z0F1200
G1 X9.257Y45.149Z0F1200
G1 X9.596Y44.608Z0F1200
G1 X9.965Y44.084Z0F1200
G1 X10.363Y43.581Z0F1200
G1 X10.79Y43.101Z0F1200
G1 X11.247Y42.648Z0F1200
G1 X11.732Y42.224Z0F1200
G1 X12.248Y41.833Z0F1200
G1 X12.792Y41.479Z0F1200
G1 X13.366Y41.163Z0F1200
G1 X13.969Y40.89Z0F1200
G1 X14.601Y40.662Z0F1200
G1 X15.262Y40.482Z0F1200
G1 X15.953Y40.354Z0F1200
G1 X16.516Y40.297Z0F1200
G1 X17.331Y40.167Z0F1200
G1 X18.211Y40.031Z0F1200
G1 X19.13Y39.902Z0F1200
G1 X20.082Y39.792Z0F1200
G1 X21.06Y39.709Z0F1200
G1 X22.057Y39.667Z0F1200
G1 X23.067Y39.674Z0F1200
G1 X24.084Y39.741Z0F1200
G1 X25.107Y39.888Z0F1200
G1 X26.129Y40.134Z0F1200
G1 X26.635Y40.297Z0F1200
G1 X27.134Y40.488Z0F1200
G1 X27.625Y40.707Z0F1200
G1 X28.104Y40.957Z0F1200
G1 X28.569Y41.237Z0F1200
G1 X29.02Y41.55Z0F1200
G1 X29.453Y41.895Z0F1200
G1 X29.867Y42.275Z0F1200
G1 X30.258Y42.69Z0F1200
G1 X30.626Y43.141Z0F1200
G1 X30.968Y43.629Z0F1200
G1 X31.281Y44.156Z0F1200
G1 X31.411Y44.456Z0F1200
G1 X31.485Y44.771Z0F1200
G1 X31.503Y45.094Z0F1200
G1 X31.463Y45.417Z0F1200
G1 X30.814Y48.213Z0F1200
G1 X30.085Y50.974Z0F1200
G1 X29.298Y53.705Z0F1200
G1 X28.471Y56.412Z0F1200
G1 X26.775Y61.773Z0F1200
G1 X25.135Y67.167Z0F1200
G1 X25.003Y67.555Z0F1200
G1 X24.898Y67.918Z0F1200
G1 X24.797Y68.315Z0F1200
G1 X24.698Y68.746Z0F1200
G1 X24.5Y69.689Z0F1200
G1 X24.292Y70.723Z0F1200
G1 X24.063Y71.818Z0F1200
G1 X23.802Y72.951Z0F1200
G1 X23.497Y74.093Z0F1200
G1 X23.136Y75.219Z0F1200
G1 X22.929Y75.771Z0F1200
G1 X22.698Y76.318Z0F1200
G1 X22.437Y76.854Z0F1200
G1 X22.141Y77.373Z0F1200
G1 X21.807Y77.872Z0F1200
G1 X21.429Y78.344Z0F1200
G1 X21.002Y78.786Z0F1200
G1 X20.522Y79.192Z0F1200
G1 X19.988Y79.547Z0F1200
G1 X19.405Y79.836Z0F1200
G0 Z2.8F500
G0 X79.771Y73.451Z2.8F1500
G1 Z0F500
G1 X79.853Y73.616Z0F1200
G1 X79.529Y73.748Z0F1200
G1 X79.719Y73.327Z0F1200
G1 X79.771Y73.451Z0F1200
G0 Z2.8F500
G0 X80.089Y74.708Z2.8F1500
G1 Z0F500
G1 X78.2Y75.475Z0F1200
G1 X78.152Y75.49Z0F1200
G1 X78.092Y75.504Z0F1200
G1 X78.049Y75.511Z0F1200
G1 X78.008Y75.515Z0F1200
G1 X77.964Z0F1200
G1 X77.933Z0F1200
G1 X77.91Y75.51Z0F1200
G1 X77.906Z0F1200
G1 X77.902Y75.504Z0F1200
G1 X77.872Y75.455Z0F1200
G1 X77.843Y75.401Z0F1200
G1 X77.818Y75.341Z0F1200
G1 X77.795Y75.274Z0F1200
G1 X77.777Y75.208Z0F1200
G1 X77.764Y75.134Z0F1200
G1 X77.756Y75.058Z0F1200
G1 Y74.983Z0F1200
G1 Y74.906Z0F1200
G1 X77.768Y74.826Z0F1200
G1 X77.786Y74.741Z0F1200
G1 X77.81Y74.659Z0F1200
G1 X77.846Y74.566Z0F1200
G1 X77.896Y74.46Z0F1200
G1 X78.406Y73.561Z0F1200
G1 X78.932Y72.397Z0F1200
G1 X79.346Y71.253Z0F1200
G1 X79.67Y70.143Z0F1200
G1 X79.767Y69.745Z0F1200
G1 X79.814Y70.018Z0F1200
G1 X79.991Y70.779Z0F1200
G1 X80.208Y71.526Z0F1200
G1 X80.467Y72.264Z0F1200
G1 X80.773Y72.995Z0F1200
G1 X81.129Y73.719Z0F1200
G1 X81.539Y74.423Z0F1200
G1 X81.99Y75.086Z0F1200
G1 X82.056Y75.169Z0F1200
G1 X80.089Y74.708Z0F1200
G0 Z2.8F500
G0 X92.548Y77.115Z2.8F1500
G1 Z0F500
G1 X93.067Y76.729Z0F1200
G1 X93.098Y76.861Z0F1200
G1 X93.217Y77.205Z0F1200
G1 X92.548Y77.115Z0F1200
G0 Z2.8F500
G0 X91.145Y76.717Z2.8F1500
G1 Z0F500
G1 X91.747Y76.34Z0F1200
G1 X92.957Y75.441Z0F1200
G1 X93.844Y73.802Z0F1200
G1 X94.025Y73.394Z0F1200
G1 X93.913Y74.12Z0F1200
G1 X93.892Y74.987Z0F1200
G1 X93.982Y75.814Z0F1200
G1 X94.156Y76.555Z0F1200
G1 X94.39Y77.23Z0F1200
G1 X94.7Y77.898Z0F1200
G1 X95.085Y78.533Z0F1200
G1 X95.515Y79.104Z0F1200
G1 X95.987Y79.623Z0F1200
G1 X96.497Y80.09Z0F1200
G1 X97.04Y80.509Z0F1200
G1 X97.622Y80.886Z0F1200
G1 X98.243Y81.216Z0F1200
G1 X98.885Y81.492Z0F1200
G1 X99.54Y81.712Z0F1200
G1 X100.207Y81.877Z0F1200
G1 X100.883Y81.989Z0F1200
G1 X101.577Y82.045Z0F1200
G1 X102.285Y82.042Z0F1200
G1 X103.006Y81.973Z0F1200
G1 X103.721Y81.834Z0F1200
G1 X104.406Y81.631Z0F1200
G1 X105.092Y81.356Z0F1200
G1 X105.797Y80.98Z0F1200
G1 X106.483Y80.501Z0F1200
G1 X107.111Y79.937Z0F1200
G1 X107.667Y79.304Z0F1200
G1 X108.143Y78.624Z0F1200
G1 X108.378Y78.202Z0F1200
G1 X108.66Y77.845Z0F1200
G1 X109.051Y77.218Z0F1200
G1 X109.358Y76.608Z0F1200
G1 X109.623Y75.968Z0F1200
G1 X109.953Y74.92Z0F1200
G1 X110.198Y73.854Z0F1200
G1 X110.381Y72.82Z0F1200
G1 X110.531Y71.809Z0F1200
G1 X110.669Y70.822Z0F1200
G1 X110.808Y69.856Z0F1200
G1 X110.951Y69.028Z0F1200
G1 X111.135Y68.286Z0F1200
G1 X111.209Y68.063Z0F1200
G1 X111.308Y67.822Z0F1200
G1 X111.412Y67.614Z0F1200
G1 X111.512Y67.449Z0F1200
G1 X111.604Y67.327Z0F1200
G1 X111.705Y67.219Z0F1200
G1 X111.837Y67.104Z0F1200
G1 X111.996Y66.993Z0F1200
G1 X112.194Y66.881Z0F1200
G1 X112.423Y66.782Z0F1200
G1 X112.505Y66.756Z0F1200
G1 X112.607Y66.809Z0F1200
G1 X112.71Y66.88Z0F1200
G1 X112.775Y66.939Z0F1200
G1 X112.805Y66.975Z0F1200
G1 Y66.978Z0F1200
G1 X112.831Y67.065Z0F1200
G1 X112.858Y67.219Z0F1200
G1 X112.874Y67.412Z0F1200
G1 Y67.645Z0F1200
G1 X112.85Y67.926Z0F1200
G1 X112.8Y68.277Z0F1200
G1 X112.727Y68.657Z0F1200
G1 X112.632Y69.066Z0F1200
G1 X112.366Y70.029Z0F1200
G1 X112.053Y70.989Z0F1200
G1 X111.693Y71.983Z0F1200
G1 X111.316Y72.958Z0F1200
G1 X110.741Y74.404Z0F1200
G1 X110.562Y74.864Z0F1200
G1 X110.389Y75.318Z0F1200
G1 X110.225Y75.773Z0F1200
G1 X110.069Y76.244Z0F1200
G1 X109.972Y76.583Z0F1200
G1 X109.803Y77.144Z0F1200
G1 X109.651Y77.562Z0F1200
G1 X109.478Y77.964Z0F1200
G1 X109.28Y78.365Z0F1200
G1 X109.065Y78.742Z0F1200
G1 X108.829Y79.111Z0F1200
G1 X108.576Y79.461Z0F1200
G1 X108.3Y79.805Z0F1200
G1 X108.01Y80.129Z0F1200
G1 X107.695Y80.448Z0F1200
G1 X107.366Y80.749Z0F1200
G1 X107.023Y81.032Z0F1200
G1 X106.66Y81.304Z0F1200
G1 X106.284Y81.559Z0F1200
G1 X105.89Y81.799Z0F1200
G1 X105.485Y82.02Z0F1200
G1 X105.067Y82.224Z0F1200
G1 X104.644Y82.408Z0F1200
G1 X104.198Y82.577Z0F1200
G1 X103.755Y82.723Z0F1200
G1 X103.312Y82.847Z0F1200
G1 X102.844Y82.956Z0F1200
G1 X102.377Y83.042Z0F1200
G1 X101.922Y83.104Z0F1200
G1 X101.449Y83.148Z0F1200
G1 X100.981Y83.169Z0F1200
G1 X100.523Z0F1200
G1 X100.05Y83.146Z0F1200
G1 X99.588Y83.101Z0F1200
G1 X99.142Y83.037Z0F1200
G1 X98.687Y82.947Z0F1200
G1 X97.556Y82.667Z0F1200
G1 X96.821Y82.686Z0F1200
G1 X96.812Y82.681Z0F1200
G1 X96.735Y82.624Z0F1200
G1 X96.63Y82.529Z0F1200
G1 X96.495Y82.383Z0F1200
G1 X96.35Y82.204Z0F1200
G1 X96.18Y81.969Z0F1200
G1 X95.879Y81.518Z0F1200
G1 X95.573Y81.036Z0F1200
G1 X95.292Y80.583Z0F1200
G1 X93.909Y78.408Z0F1200
G1 X90.654Y77.97Z0F1200
G1 X89.402Y77.782Z0F1200
G1 X88.144Y77.573Z0F1200
G1 X86.824Y77.335Z0F1200
G1 X84.193Y76.802Z0F1200
G1 X80.178Y75.858Z0F1200
G1 X78.575Y76.509Z0F1200
G1 X78.443Y76.552Z0F1200
G1 X78.308Y76.584Z0F1200
G1 X78.185Y76.604Z0F1200
G1 X78.055Y76.615Z0F1200
G1 X77.931Z0F1200
G1 X77.819Y76.608Z0F1200
G1 X77.713Y76.593Z0F1200
G1 X77.609Y76.569Z0F1200
G1 X77.509Y76.54Z0F1200
G1 X77.432Y76.509Z0F1200
G1 X77.355Y76.472Z0F1200
G1 X77.288Y76.433Z0F1200
G1 X77.231Y76.394Z0F1200
G1 X77.19Y76.359Z0F1200
G1 X77.149Y76.319Z0F1200
G1 X77.068Y76.226Z0F1200
G1 X76.991Y76.122Z0F1200
G1 X76.916Y76.002Z0F1200
G1 X76.851Y75.878Z0F1200
G1 X76.792Y75.74Z0F1200
G1 X76.74Y75.588Z0F1200
G1 X76.703Y75.446Z0F1200
G1 X76.674Y75.288Z0F1200
G1 X76.658Y75.131Z0F1200
G1 X76.653Y74.971Z0F1200
G1 X76.662Y74.805Z0F1200
G1 X76.682Y74.643Z0F1200
G1 X76.717Y74.478Z0F1200
G1 X76.768Y74.305Z0F1200
G1 X76.835Y74.129Z0F1200
G1 X76.923Y73.946Z0F1200
G1 X77.424Y73.062Z0F1200
G1 X77.912Y71.983Z0F1200
G1 X78.3Y70.912Z0F1200
G1 X78.607Y69.86Z0F1200
G1 X78.856Y68.828Z0F1200
G1 X79.063Y67.818Z0F1200
G1 X79.242Y66.829Z0F1200
G1 X79.564Y64.939Z0F1200
G1 X79.736Y64.023Z0F1200
G1 X79.92Y63.186Z0F1200
G1 X80.132Y62.397Z0F1200
G1 X80.378Y61.664Z0F1200
G1 X80.687Y60.925Z0F1200
G1 X80.828Y60.638Z0F1200
G1 X80.998Y60.329Z0F1200
G1 X81.189Y60.017Z0F1200
G1 X81.381Y59.737Z0F1200
G1 X81.635Y59.408Z0F1200
G1 X81.833Y59.196Z0F1200
G1 X82.013Y59.036Z0F1200
G1 X82.165Y58.926Z0F1200
G1 X82.267Y58.869Z0F1200
G1 X82.326Y58.845Z0F1200
G1 X82.363Y58.86Z0F1200
G1 X82.421Y58.893Z0F1200
G1 X82.492Y58.945Z0F1200
G1 X82.57Y59.014Z0F1200
G1 X82.65Y59.102Z0F1200
G1 X82.733Y59.212Z0F1200
G1 X82.817Y59.347Z0F1200
G1 X82.899Y59.506Z0F1200
G1 X82.968Y59.673Z0F1200
G1 X83.027Y59.861Z0F1200
G1 X83.068Y60.045Z0F1200
G1 X83.096Y60.242Z0F1200
G1 X83.106Y60.433Z0F1200
G1 X83.1Y60.62Z0F1200
G1 X83.076Y60.811Z0F1200
G1 X83.038Y60.985Z0F1200
G1 X82.983Y61.158Z0F1200
G1 X82.909Y61.331Z0F1200
G1 X82.811Y61.511Z0F1200
G1 X82.694Y61.684Z0F1200
G1 X79.645Y65.358Z0F1200
G1 X80.712Y66.277Z0F1200
G1 X80.66Y66.871Z0F1200
G1 X80.647Y67.614Z0F1200
G1 X80.685Y68.356Z0F1200
G1 X80.769Y69.086Z0F1200
G1 X80.893Y69.799Z0F1200
G1 X81.056Y70.501Z0F1200
G1 X81.256Y71.19Z0F1200
G1 X81.495Y71.87Z0F1200
G1 X81.775Y72.54Z0F1200
G1 X82.1Y73.199Z0F1200
G1 X82.47Y73.837Z0F1200
G1 X82.877Y74.434Z0F1200
G1 X83.316Y74.988Z0F1200
G1 X83.79Y75.5Z0F1200
G1 X84.306Y75.975Z0F1200
G1 X84.879Y76.413Z0F1200
G1 X85.538Y76.817Z0F1200
G1 X86.271Y77.144Z0F1200
G1 X87.006Y77.362Z0F1200
G1 X87.82Y77.491Z0F1200
G1 X88.729Z0F1200
G1 X89.627Y77.335Z0F1200
G1 X90.442Y77.062Z0F1200
G1 X91.145Y76.717Z0F1200
G0 Z2.8F500
G0 X94.85Y71.166Z2.8F1500
G1 Z0F500
G1 X94.929Y70.917Z0F1200
G1 X95.189Y69.974Z0F1200
G1 X95.423Y69.041Z0F1200
G1 X95.639Y68.122Z0F1200
G1 X95.843Y67.236Z0F1200
G1 X96.055Y66.341Z0F1200
G1 X96.276Y65.502Z0F1200
G1 X96.509Y64.75Z0F1200
G1 X96.783Y64.028Z0F1200
G1 X96.904Y63.755Z0F1200
G1 X97.047Y63.468Z0F1200
G1 X97.195Y63.204Z0F1200
G1 X97.241Y63.13Z0F1200
G1 X97.276Y63.16Z0F1200
G1 X97.289Y63.173Z0F1200
G1 X97.294Y63.181Z0F1200
G1 X97.317Y63.228Z0F1200
G1 X97.344Y63.3Z0F1200
G1 X97.368Y63.403Z0F1200
G1 X97.389Y63.561Z0F1200
G1 X97.398Y63.764Z0F1200
G1 X97.389Y64.025Z0F1200
G1 X97.36Y64.319Z0F1200
G1 X97.312Y64.63Z0F1200
G1 X97.137Y65.437Z0F1200
G1 X96.897Y66.263Z0F1200
G1 X96.597Y67.123Z0F1200
G1 X96.264Y67.969Z0F1200
G1 X95.902Y68.814Z0F1200
G1 X95.522Y69.663Z0F1200
G1 X95.17Y70.442Z0F1200
G1 X94.996Y70.836Z0F1200
G1 X94.879Y71.11Z0F1200
G1 X94.85Y71.166Z0F1200
G0 Z2.8F500
G0 X92.856Y73.317Z2.8F1500
G1 Z0F500
G1 X93.254Y72.418Z0F1200
G1 X93.587Y71.513Z0F1200
G1 X93.874Y70.604Z0F1200
G1 X94.125Y69.694Z0F1200
G1 X94.354Y68.781Z0F1200
G1 X94.568Y67.873Z0F1200
G1 X94.772Y66.983Z0F1200
G1 X94.989Y66.069Z0F1200
G1 X95.217Y65.202Z0F1200
G1 X95.471Y64.386Z0F1200
G1 X95.765Y63.608Z0F1200
G1 X95.906Y63.292Z0F1200
G1 X96.073Y62.957Z0F1200
G1 X96.251Y62.637Z0F1200
G1 X96.437Y62.343Z0F1200
G1 X96.637Y62.062Z0F1200
G1 X96.849Y61.798Z0F1200
G1 X96.855Y61.79Z0F1200
G1 X97.037Y61.834Z0F1200
G1 X97.377Y61.954Z0F1200
G1 X97.655Y62.088Z0F1200
G1 X97.873Y62.226Z0F1200
G1 X98.037Y62.361Z0F1200
G1 X98.152Y62.486Z0F1200
G1 X98.243Y62.619Z0F1200
G1 X98.329Y62.79Z0F1200
G1 X98.398Y62.982Z0F1200
G1 X98.453Y63.211Z0F1200
G1 X98.486Y63.463Z0F1200
G1 X98.499Y63.76Z0F1200
G1 X98.487Y64.095Z0F1200
G1 X98.452Y64.458Z0F1200
G1 X98.395Y64.826Z0F1200
G1 X98.202Y65.712Z0F1200
G1 X97.947Y66.592Z0F1200
G1 X97.629Y67.504Z0F1200
G1 X97.276Y68.399Z0F1200
G1 X96.905Y69.267Z0F1200
G1 X96.532Y70.101Z0F1200
G1 X96.174Y70.891Z0F1200
G1 X96.004Y71.275Z0F1200
G1 X95.879Y71.569Z0F1200
G1 X95.873Y71.584Z0F1200
G1 X95.59Y72.128Z0F1200
G1 X95.32Y72.799Z0F1200
G1 X95.122Y73.497Z0F1200
G1 X95.011Y74.217Z0F1200
G1 X94.994Y74.939Z0F1200
G1 X95.069Y75.628Z0F1200
G1 X95.214Y76.249Z0F1200
G1 X95.411Y76.817Z0F1200
G1 X95.672Y77.379Z0F1200
G1 X95.997Y77.916Z0F1200
G1 X96.362Y78.401Z0F1200
G1 X96.768Y78.845Z0F1200
G1 X97.207Y79.248Z0F1200
G1 X97.676Y79.61Z0F1200
G1 X98.18Y79.937Z0F1200
G1 X98.719Y80.224Z0F1200
G1 X99.277Y80.463Z0F1200
G1 X99.848Y80.655Z0F1200
G1 X100.428Y80.799Z0F1200
G1 X101.018Y80.896Z0F1200
G1 X101.619Y80.945Z0F1200
G1 X102.23Y80.942Z0F1200
G1 X102.849Y80.883Z0F1200
G1 X103.459Y80.764Z0F1200
G1 X104.045Y80.591Z0F1200
G1 X104.627Y80.357Z0F1200
G1 X105.221Y80.041Z0F1200
G1 X105.798Y79.638Z0F1200
G1 X106.328Y79.162Z0F1200
G1 X106.801Y78.624Z0F1200
G1 X107.209Y78.039Z0F1200
G1 X107.461Y77.589Z0F1200
G1 X107.758Y77.211Z0F1200
G1 X108.091Y76.678Z0F1200
G1 X108.358Y76.149Z0F1200
G1 X108.588Y75.592Z0F1200
G1 X108.891Y74.631Z0F1200
G1 X109.119Y73.635Z0F1200
G1 X109.295Y72.643Z0F1200
G1 X109.442Y71.652Z0F1200
G1 X109.58Y70.666Z0F1200
G1 X109.721Y69.682Z0F1200
G1 X109.874Y68.8Z0F1200
G1 X110.077Y67.98Z0F1200
G1 X110.178Y67.678Z0F1200
G1 X110.304Y67.371Z0F1200
G1 X110.448Y67.083Z0F1200
G1 X110.599Y66.833Z0F1200
G1 X110.758Y66.62Z0F1200
G1 X110.94Y66.426Z0F1200
G1 X111.159Y66.235Z0F1200
G1 X111.411Y66.059Z0F1200
G1 X111.706Y65.895Z0F1200
G1 X112.036Y65.751Z0F1200
G1 X112.406Y65.632Z0F1200
G1 X112.547Y65.602Z0F1200
G1 X112.628Y65.622Z0F1200
G1 X112.92Y65.731Z0F1200
G1 X113.175Y65.865Z0F1200
G1 X113.394Y66.017Z0F1200
G1 X113.568Y66.174Z0F1200
G1 X113.697Y66.326Z0F1200
G1 X113.779Y66.456Z0F1200
G1 X113.844Y66.605Z0F1200
G1 X113.905Y66.818Z0F1200
G1 X113.951Y67.078Z0F1200
G1 X113.974Y67.371Z0F1200
G1 Y67.687Z0F1200
G1 X113.942Y68.057Z0F1200
G1 X113.887Y68.449Z0F1200
G1 X113.802Y68.889Z0F1200
G1 X113.697Y69.343Z0F1200
G1 X113.424Y70.331Z0F1200
G1 X113.088Y71.362Z0F1200
G1 X112.723Y72.37Z0F1200
G1 X112.338Y73.365Z0F1200
G1 X111.765Y74.807Z0F1200
G1 X111.588Y75.259Z0F1200
G1 X111.42Y75.7Z0F1200
G1 X111.265Y76.133Z0F1200
G1 X111.12Y76.568Z0F1200
G1 X111.016Y76.932Z0F1200
G1 X110.849Y77.487Z0F1200
G1 X110.674Y77.968Z0F1200
G1 X110.476Y78.428Z0F1200
G1 X110.251Y78.88Z0F1200
G1 X110.006Y79.313Z0F1200
G1 X109.742Y79.725Z0F1200
G1 X109.449Y80.131Z0F1200
G1 X109.138Y80.518Z0F1200
G1 X108.813Y80.883Z0F1200
G1 X108.462Y81.237Z0F1200
G1 X108.083Y81.583Z0F1200
G1 X107.702Y81.898Z0F1200
G1 X107.303Y82.197Z0F1200
G1 X106.877Y82.485Z0F1200
G1 X106.44Y82.751Z0F1200
G1 X105.988Y82.999Z0F1200
G1 X105.534Y83.221Z0F1200
G1 X105.051Y83.43Z0F1200
G1 X104.566Y83.614Z0F1200
G1 X104.086Y83.772Z0F1200
G1 X103.572Y83.916Z0F1200
G1 X103.068Y84.033Z0F1200
G1 X102.563Y84.126Z0F1200
G1 X102.037Y84.199Z0F1200
G1 X101.535Y84.245Z0F1200
G1 X100.998Y84.269Z0F1200
G1 X100.489Z0F1200
G1 X99.975Y84.244Z0F1200
G1 X99.466Y84.195Z0F1200
G1 X98.95Y84.12Z0F1200
G1 X98.445Y84.021Z0F1200
G1 X97.436Y83.771Z0F1200
G1 X96.756Y83.788Z0F1200
G1 X96.643Z0F1200
G1 X96.511Y83.754Z0F1200
G1 X96.364Y83.693Z0F1200
G1 X96.204Y83.6Z0F1200
G1 X96.038Y83.476Z0F1200
G1 X95.855Y83.311Z0F1200
G1 X95.663Y83.104Z0F1200
G1 X95.472Y82.869Z0F1200
G1 X95.284Y82.608Z0F1200
G1 X94.953Y82.112Z0F1200
G1 X94.644Y81.625Z0F1200
G1 X94.36Y81.167Z0F1200
G1 X93.255Y79.43Z0F1200
G1 X90.473Y79.055Z0F1200
G1 X89.256Y78.872Z0F1200
G1 X87.914Y78.65Z0F1200
G1 X86.63Y78.419Z0F1200
G1 X83.962Y77.877Z0F1200
G1 X80.268Y77.01Z0F1200
G1 X78.957Y77.542Z0F1200
G1 X78.739Y77.612Z0F1200
G1 X78.525Y77.663Z0F1200
G1 X78.314Y77.697Z0F1200
G1 X78.101Y77.714Z0F1200
G1 X77.903Z0F1200
G1 X77.705Y77.702Z0F1200
G1 X77.509Y77.674Z0F1200
G1 X77.331Y77.635Z0F1200
G1 X77.152Y77.58Z0F1200
G1 X76.988Y77.517Z0F1200
G1 X76.841Y77.446Z0F1200
G1 X76.692Y77.359Z0F1200
G1 X76.57Y77.274Z0F1200
G1 X76.453Y77.177Z0F1200
G1 X76.348Y77.075Z0F1200
G1 X76.209Y76.915Z0F1200
G1 X76.083Y76.744Z0F1200
G1 X75.961Y76.549Z0F1200
G1 X75.858Y76.353Z0F1200
G1 X75.764Y76.133Z0F1200
G1 X75.688Y75.912Z0F1200
G1 X75.626Y75.678Z0F1200
G1 X75.584Y75.447Z0F1200
G1 X75.559Y75.205Z0F1200
G1 X75.552Y74.958Z0F1200
G1 X75.565Y74.709Z0F1200
G1 X75.597Y74.46Z0F1200
G1 X75.65Y74.205Z0F1200
G1 X75.726Y73.951Z0F1200
G1 X75.824Y73.694Z0F1200
G1 X75.945Y73.442Z0F1200
G1 X75.948Y73.437Z0F1200
G1 X76.443Y72.563Z0F1200
G1 X76.892Y71.569Z0F1200
G1 X77.253Y70.57Z0F1200
G1 X77.544Y69.576Z0F1200
G1 X77.782Y68.589Z0F1200
G1 X77.982Y67.609Z0F1200
G1 X78.159Y66.638Z0F1200
G1 X78.485Y64.723Z0F1200
G1 X78.655Y63.817Z0F1200
G1 X78.851Y62.926Z0F1200
G1 X79.079Y62.081Z0F1200
G1 X79.347Y61.278Z0F1200
G1 X79.684Y60.471Z0F1200
G1 X79.85Y60.135Z0F1200
G1 X80.049Y59.772Z0F1200
G1 X80.266Y59.418Z0F1200
G1 X80.495Y59.084Z0F1200
G1 X80.792Y58.7Z0F1200
G1 X81.063Y58.409Z0F1200
G1 X81.328Y58.172Z0F1200
G1 X81.567Y58Z0F1200
G1 X81.787Y57.877Z0F1200
G1 X81.976Y57.8Z0F1200
G1 X82.134Y57.758Z0F1200
G1 X82.277Y57.74Z0F1200
G1 X82.412Y57.743Z0F1200
G1 X82.552Y57.764Z0F1200
G1 X82.7Y57.807Z0F1200
G1 X82.852Y57.873Z0F1200
G1 X83.019Y57.968Z0F1200
G1 X83.185Y58.089Z0F1200
G1 X83.342Y58.229Z0F1200
G1 X83.494Y58.395Z0F1200
G1 X83.643Y58.592Z0F1200
G1 X83.775Y58.803Z0F1200
G1 X83.9Y59.047Z0F1200
G1 X84.004Y59.302Z0F1200
G1 X84.09Y59.572Z0F1200
G1 X84.152Y59.848Z0F1200
G1 X84.192Y60.136Z0F1200
G1 X84.207Y60.418Z0F1200
G1 X84.197Y60.711Z0F1200
G1 X84.162Y60.994Z0F1200
G1 X84.102Y61.269Z0F1200
G1 X84.015Y61.542Z0F1200
G1 X83.898Y61.816Z0F1200
G1 X83.754Y62.081Z0F1200
G1 X83.573Y62.348Z0F1200
G1 X81.182Y65.229Z0F1200
G1 X81.889Y65.838Z0F1200
G1 X81.817Y66.272Z0F1200
G1 X81.759Y66.929Z0F1200
G1 X81.748Y67.595Z0F1200
G1 X81.782Y68.266Z0F1200
G1 X81.858Y68.929Z0F1200
G1 X81.971Y69.58Z0F1200
G1 X82.12Y70.223Z0F1200
G1 X82.304Y70.854Z0F1200
G1 X82.522Y71.475Z0F1200
G1 X82.776Y72.084Z0F1200
G1 X83.07Y72.679Z0F1200
G1 X83.401Y73.25Z0F1200
G1 X83.764Y73.782Z0F1200
G1 X84.152Y74.271Z0F1200
G1 X84.567Y74.721Z0F1200
G1 X85.014Y75.132Z0F1200
G1 X85.501Y75.505Z0F1200
G1 X86.052Y75.841Z0F1200
G1 X86.653Y76.11Z0F1200
G1 X87.25Y76.287Z0F1200
G1 X87.906Y76.391Z0F1200
G1 X88.634Z0F1200
G1 X89.358Y76.266Z0F1200
G1 X90.023Y76.042Z0F1200
G1 X90.609Y75.755Z0F1200
G1 X91.125Y75.431Z0F1200
G1 X92.105Y74.703Z0F1200
G1 X92.856Y73.317Z0F1200
G0 Z2.8F500
G0 X99.192Y62.058Z2.8F1500
G1 Z0F500
G1 X99.341Y62.354Z0F1200
G1 X99.455Y62.668Z0F1200
G1 X99.536Y63.009Z0F1200
G1 X99.583Y63.369Z0F1200
G1 X99.6Y63.752Z0F1200
G1 X99.585Y64.166Z0F1200
G1 X99.542Y64.607Z0F1200
G1 X99.478Y65.022Z0F1200
G1 X99.268Y65.986Z0F1200
G1 X98.995Y66.93Z0F1200
G1 X98.663Y67.881Z0F1200
G1 X98.296Y68.812Z0F1200
G1 X97.91Y69.716Z0F1200
G1 X97.534Y70.554Z0F1200
G1 X97.178Y71.34Z0F1200
G1 X97.013Y71.713Z0F1200
G1 X96.878Y72.031Z0F1200
G1 X96.868Y72.054Z0F1200
G1 X96.591Y72.587Z0F1200
G1 X96.362Y73.155Z0F1200
G1 X96.199Y73.731Z0F1200
G1 X96.109Y74.315Z0F1200
G1 X96.095Y74.893Z0F1200
G1 X96.155Y75.443Z0F1200
G1 X96.272Y75.942Z0F1200
G1 X96.432Y76.405Z0F1200
G1 X96.644Y76.861Z0F1200
G1 X96.909Y77.298Z0F1200
G1 X97.21Y77.698Z0F1200
G1 X97.547Y78.068Z0F1200
G1 X97.916Y78.406Z0F1200
G1 X98.312Y78.712Z0F1200
G1 X98.738Y78.988Z0F1200
G1 X99.195Y79.231Z0F1200
G1 X99.67Y79.435Z0F1200
G1 X100.156Y79.598Z0F1200
G1 X100.65Y79.72Z0F1200
G1 X101.152Y79.803Z0F1200
G1 X101.661Y79.844Z0F1200
G1 X102.175Z0F1200
G1 X102.691Y79.792Z0F1200
G1 X103.198Y79.694Z0F1200
G1 X103.684Y79.551Z0F1200
G1 X104.163Y79.358Z0F1200
G1 X104.646Y79.102Z0F1200
G1 X105.112Y78.775Z0F1200
G1 X105.544Y78.387Z0F1200
G1 X105.934Y77.944Z0F1200
G1 X106.276Y77.454Z0F1200
G1 X106.519Y77.021Z0F1200
G1 X106.548Y76.971Z0F1200
G1 X106.856Y76.579Z0F1200
G1 X107.131Y76.138Z0F1200
G1 X107.357Y75.691Z0F1200
G1 X107.554Y75.215Z0F1200
G1 X107.828Y74.343Z0F1200
G1 X108.041Y73.416Z0F1200
G1 X108.209Y72.466Z0F1200
G1 X108.354Y71.495Z0F1200
G1 X108.491Y70.51Z0F1200
G1 X108.633Y69.521Z0F1200
G1 X108.797Y68.572Z0F1200
G1 X109.02Y67.675Z0F1200
G1 X109.147Y67.295Z0F1200
G1 X109.304Y66.911Z0F1200
G1 X109.481Y66.556Z0F1200
G1 X109.687Y66.216Z0F1200
G1 X109.913Y65.915Z0F1200
G1 X110.178Y65.63Z0F1200
G1 X110.481Y65.367Z0F1200
G1 X110.827Y65.125Z0F1200
G1 X111.217Y64.907Z0F1200
G1 X111.65Y64.72Z0F1200
G1 X112.115Y64.57Z0F1200
G1 X112.56Y64.474Z0F1200
G1 X112.954Y64.568Z0F1200
G1 X113.369Y64.725Z0F1200
G1 X113.749Y64.923Z0F1200
G1 X114.078Y65.152Z0F1200
G1 X114.361Y65.408Z0F1200
G1 X114.586Y65.674Z0F1200
G1 X114.753Y65.94Z0F1200
G1 X114.88Y66.231Z0F1200
G1 X114.978Y66.569Z0F1200
G1 X115.044Y66.943Z0F1200
G1 X115.075Y67.33Z0F1200
G1 X115.072Y67.736Z0F1200
G1 X115.037Y68.171Z0F1200
G1 X114.97Y68.643Z0F1200
G1 X114.88Y69.109Z0F1200
G1 X114.765Y69.606Z0F1200
G1 X114.476Y70.653Z0F1200
G1 X114.13Y71.713Z0F1200
G1 X113.754Y72.752Z0F1200
G1 X113.36Y73.771Z0F1200
G1 X112.788Y75.211Z0F1200
G1 X112.614Y75.655Z0F1200
G1 X112.452Y76.082Z0F1200
G1 X112.304Y76.492Z0F1200
G1 X112.171Y76.893Z0F1200
G1 X112.081Y77.21Z0F1200
G1 X111.892Y77.836Z0F1200
G1 X111.695Y78.378Z0F1200
G1 X111.474Y78.893Z0F1200
G1 X111.227Y79.39Z0F1200
G1 X110.946Y79.885Z0F1200
G1 X110.652Y80.344Z0F1200
G1 X110.328Y80.793Z0F1200
G1 X109.975Y81.232Z0F1200
G1 X109.615Y81.636Z0F1200
G1 X109.218Y82.036Z0F1200
G1 X108.816Y82.404Z0F1200
G1 X108.38Y82.764Z0F1200
G1 X107.934Y83.099Z0F1200
G1 X107.475Y83.409Z0F1200
G1 X106.991Y83.704Z0F1200
G1 X106.499Y83.973Z0F1200
G1 X105.989Y84.223Z0F1200
G1 X105.465Y84.449Z0F1200
G1 X104.943Y84.647Z0F1200
G1 X104.392Y84.829Z0F1200
G1 X103.853Y84.98Z0F1200
G1 X103.293Y85.11Z0F1200
G1 X102.73Y85.214Z0F1200
G1 X102.171Y85.291Z0F1200
G1 X101.6Y85.343Z0F1200
G1 X101.036Y85.369Z0F1200
G1 X100.456Z0F1200
G1 X99.898Y85.341Z0F1200
G1 X99.326Y85.286Z0F1200
G1 X98.771Y85.206Z0F1200
G1 X98.21Y85.096Z0F1200
G1 X97.315Y84.874Z0F1200
G1 X96.765Y84.889Z0F1200
G1 X96.595Z0F1200
G1 X96.486Y84.886Z0F1200
G1 X96.481Z0F1200
G1 X96.156Y84.798Z0F1200
G1 X95.871Y84.678Z0F1200
G1 X95.602Y84.522Z0F1200
G1 X95.334Y84.324Z0F1200
G1 X95.083Y84.096Z0F1200
G1 X94.834Y83.828Z0F1200
G1 X94.599Y83.538Z0F1200
G1 X94.378Y83.233Z0F1200
G1 X94.021Y82.697Z0F1200
G1 X93.726Y82.232Z0F1200
G1 X93.429Y81.753Z0F1200
G1 X92.602Y80.452Z0F1200
G1 X90.354Y80.149Z0F1200
G1 X89.046Y79.953Z0F1200
G1 X87.746Y79.737Z0F1200
G1 X86.437Y79.501Z0F1200
G1 X83.717Y78.95Z0F1200
G1 X80.357Y78.161Z0F1200
G1 X79.333Y78.577Z0F1200
G1 X79.036Y78.672Z0F1200
G1 X78.736Y78.744Z0F1200
G1 X78.444Y78.79Z0F1200
G1 X78.154Y78.814Z0F1200
G1 X77.869Z0F1200
G1 X77.59Y78.797Z0F1200
G1 X77.313Y78.757Z0F1200
G1 X77.049Y78.699Z0F1200
G1 X76.796Y78.622Z0F1200
G1 X76.546Y78.525Z0F1200
G1 X76.32Y78.416Z0F1200
G1 X76.105Y78.291Z0F1200
G1 X75.901Y78.148Z0F1200
G1 X75.718Y77.997Z0F1200
G1 X75.548Y77.831Z0F1200
G1 X75.353Y77.606Z0F1200
G1 X75.17Y77.36Z0F1200
G1 X75.008Y77.101Z0F1200
G1 X74.861Y76.82Z0F1200
G1 X74.74Y76.537Z0F1200
G1 X74.634Y76.23Z0F1200
G1 X74.551Y75.913Z0F1200
G1 X74.494Y75.599Z0F1200
G1 X74.46Y75.279Z0F1200
G1 X74.452Y74.945Z0F1200
G1 X74.468Y74.613Z0F1200
G1 X74.512Y74.272Z0F1200
G1 X74.583Y73.935Z0F1200
G1 X74.682Y73.602Z0F1200
G1 X74.812Y73.262Z0F1200
G1 X74.979Y72.913Z0F1200
G1 X74.999Y72.88Z0F1200
G1 X75.461Y72.065Z0F1200
G1 X75.872Y71.155Z0F1200
G1 X76.208Y70.229Z0F1200
G1 X76.481Y69.293Z0F1200
G1 X76.708Y68.35Z0F1200
G1 X76.902Y67.401Z0F1200
G1 X77.075Y66.447Z0F1200
G1 X77.405Y64.515Z0F1200
G1 X77.577Y63.596Z0F1200
G1 X77.784Y62.659Z0F1200
G1 X78.025Y61.764Z0F1200
G1 X78.319Y60.884Z0F1200
G1 X78.679Y60.024Z0F1200
G1 X78.878Y59.619Z0F1200
G1 X79.096Y59.223Z0F1200
G1 X79.343Y58.821Z0F1200
G1 X79.605Y58.437Z0F1200
G1 X79.955Y57.985Z0F1200
G1 X80.293Y57.621Z0F1200
G1 X80.638Y57.314Z0F1200
G1 X80.977Y57.071Z0F1200
G1 X81.307Y56.885Z0F1200
G1 X81.622Y56.756Z0F1200
G1 X81.926Y56.675Z0F1200
G1 X82.218Y56.639Z0F1200
G1 X82.507Y56.645Z0F1200
G1 X82.793Y56.688Z0F1200
G1 X83.07Y56.769Z0F1200
G1 X83.344Y56.887Z0F1200
G1 X83.614Y57.041Z0F1200
G1 X83.875Y57.231Z0F1200
G1 X84.123Y57.452Z0F1200
G1 X84.338Y57.688Z0F1200
G1 X84.548Y57.966Z0F1200
G1 X84.732Y58.259Z0F1200
G1 X84.899Y58.586Z0F1200
G1 X85.04Y58.928Z0F1200
G1 X85.152Y59.282Z0F1200
G1 X85.235Y59.651Z0F1200
G1 X85.289Y60.035Z0F1200
G1 X85.308Y60.41Z0F1200
G1 X85.295Y60.797Z0F1200
G1 X85.248Y61.175Z0F1200
G1 X85.165Y61.554Z0F1200
G1 X85.048Y61.925Z0F1200
G1 X84.89Y62.293Z0F1200
G1 X84.693Y62.656Z0F1200
G1 X84.455Y63.006Z0F1200
G1 X82.718Y65.1Z0F1200
G1 X83.105Y65.433Z0F1200
G1 X83.001Y65.854Z0F1200
G1 X82.909Y66.41Z0F1200
G1 X82.858Y66.986Z0F1200
G1 X82.848Y67.577Z0F1200
G1 X82.878Y68.175Z0F1200
G1 X82.947Y68.771Z0F1200
G1 X83.05Y69.361Z0F1200
G1 X83.185Y69.945Z0F1200
G1 X83.352Y70.518Z0F1200
G1 X83.549Y71.08Z0F1200
G1 X83.778Y71.628Z0F1200
G1 X84.04Y72.159Z0F1200
G1 X84.333Y72.664Z0F1200
G1 X84.65Y73.13Z0F1200
G1 X84.988Y73.556Z0F1200
G1 X85.344Y73.941Z0F1200
G1 X85.722Y74.289Z0F1200
G1 X86.125Y74.596Z0F1200
G1 X86.565Y74.866Z0F1200
G1 X87.036Y75.076Z0F1200
G1 X87.493Y75.212Z0F1200
G1 X87.991Y75.291Z0F1200
G1 X88.54Z0F1200
G1 X89.089Y75.196Z0F1200
G1 X89.604Y75.022Z0F1200
G1 X90.073Y74.792Z0F1200
G1 X90.504Y74.522Z0F1200
G1 X91.254Y73.965Z0F1200
G1 X91.868Y72.832Z0F1200
G1 X92.234Y72.004Z0F1200
G1 X92.546Y71.157Z0F1200
G1 X92.818Y70.292Z0F1200
G1 X93.062Y69.414Z0F1200
G1 X93.285Y68.522Z0F1200
G1 X93.496Y67.623Z0F1200
G1 X93.702Y66.729Z0F1200
G1 X93.926Y65.784Z0F1200
G1 X94.159Y64.901Z0F1200
G1 X94.429Y64.029Z0F1200
G1 X94.747Y63.192Z0F1200
G1 X94.914Y62.816Z0F1200
G1 X95.101Y62.441Z0F1200
G1 X95.301Y62.082Z0F1200
G1 X95.523Y61.729Z0F1200
G1 X95.752Y61.407Z0F1200
G1 X96.016Y61.078Z0F1200
G1 X96.292Y60.775Z0F1200
G1 X96.471Y60.602Z0F1200
G1 X96.854Y60.657Z0F1200
G1 X97.353Y60.779Z0F1200
G1 X97.799Y60.937Z0F1200
G1 X98.187Y61.123Z0F1200
G1 X98.522Y61.335Z0F1200
G1 X98.793Y61.56Z0F1200
G1 X99.014Y61.798Z0F1200
G1 X99.192Y62.058Z0F1200
G0 Z2.8F500
G0 X100.684Y64.236Z2.8F1500
G1 Z0F500
G1 X100.634Y64.737Z0F1200
G1 X100.558Y65.233Z0F1200
G1 X100.337Y66.248Z0F1200
G1 X100.042Y67.268Z0F1200
G1 X99.695Y68.262Z0F1200
G1 X99.311Y69.237Z0F1200
G1 X98.923Y70.143Z0F1200
G1 X98.536Y71.007Z0F1200
G1 X98.183Y71.79Z0F1200
G1 X98.022Y72.151Z0F1200
G1 X97.886Y72.471Z0F1200
G1 X97.857Y72.535Z0F1200
G1 X97.592Y73.047Z0F1200
G1 X97.404Y73.512Z0F1200
G1 X97.276Y73.966Z0F1200
G1 X97.207Y74.413Z0F1200
G1 X97.196Y74.846Z0F1200
G1 X97.241Y75.257Z0F1200
G1 X97.33Y75.636Z0F1200
G1 X97.454Y75.992Z0F1200
G1 X97.616Y76.342Z0F1200
G1 X97.821Y76.68Z0F1200
G1 X98.058Y76.996Z0F1200
G1 X98.328Y77.291Z0F1200
G1 X98.625Y77.564Z0F1200
G1 X98.948Y77.813Z0F1200
G1 X99.297Y78.039Z0F1200
G1 X99.671Y78.238Z0F1200
G1 X100.062Y78.406Z0F1200
G1 X100.463Y78.541Z0F1200
G1 X100.873Y78.642Z0F1200
G1 X101.286Y78.71Z0F1200
G1 X101.703Y78.744Z0F1200
G1 X102.12Z0F1200
G1 X102.534Y78.703Z0F1200
G1 X102.937Y78.625Z0F1200
G1 X103.322Y78.51Z0F1200
G1 X103.698Y78.36Z0F1200
G1 X104.07Y78.162Z0F1200
G1 X104.427Y77.912Z0F1200
G1 X104.761Y77.612Z0F1200
G1 X105.067Y77.264Z0F1200
G1 X105.343Y76.868Z0F1200
G1 X105.555Y76.49Z0F1200
G1 X105.64Y76.347Z0F1200
G1 X105.955Y75.945Z0F1200
G1 X106.172Y75.598Z0F1200
G1 X106.356Y75.232Z0F1200
G1 X106.519Y74.839Z0F1200
G1 X106.766Y74.054Z0F1200
G1 X106.962Y73.197Z0F1200
G1 X107.124Y72.289Z0F1200
G1 X107.265Y71.338Z0F1200
G1 X107.402Y70.354Z0F1200
G1 X107.547Y69.347Z0F1200
G1 X107.72Y68.344Z0F1200
G1 X107.962Y67.37Z0F1200
G1 X108.115Y66.913Z0F1200
G1 X108.301Y66.458Z0F1200
G1 X108.52Y66.019Z0F1200
G1 X108.772Y65.603Z0F1200
G1 X109.069Y65.206Z0F1200
G1 X109.411Y64.84Z0F1200
G1 X109.803Y64.5Z0F1200
G1 X110.242Y64.192Z0F1200
G1 X110.729Y63.92Z0F1200
G1 X111.258Y63.691Z0F1200
G1 X111.833Y63.505Z0F1200
G1 X112.425Y63.377Z0F1200
G1 X112.571Y63.366Z0F1200
G1 X112.708Y63.378Z0F1200
G1 X113.274Y63.514Z0F1200
G1 X113.82Y63.719Z0F1200
G1 X114.316Y63.979Z0F1200
G1 X114.766Y64.292Z0F1200
G1 X115.152Y64.641Z0F1200
G1 X115.477Y65.023Z0F1200
G1 X115.729Y65.423Z0F1200
G1 X115.919Y65.859Z0F1200
G1 X116.051Y66.32Z0F1200
G1 X116.135Y66.797Z0F1200
G1 X116.174Y67.29Z0F1200
G1 X116.171Y67.785Z0F1200
G1 X116.129Y68.303Z0F1200
G1 X116.057Y68.814Z0F1200
G1 X115.956Y69.342Z0F1200
G1 X115.83Y69.883Z0F1200
G1 X115.53Y70.968Z0F1200
G1 X115.171Y72.071Z0F1200
G1 X114.781Y73.148Z0F1200
G1 X114.383Y74.178Z0F1200
G1 X113.811Y75.614Z0F1200
G1 X113.641Y76.051Z0F1200
G1 X113.484Y76.463Z0F1200
G1 X113.344Y76.852Z0F1200
G1 X113.223Y77.218Z0F1200
G1 X113.134Y77.528Z0F1200
G1 X112.934Y78.189Z0F1200
G1 X112.722Y78.772Z0F1200
G1 X112.47Y79.36Z0F1200
G1 X112.196Y79.913Z0F1200
G1 X111.893Y80.446Z0F1200
G1 X111.56Y80.965Z0F1200
G1 X111.203Y81.46Z0F1200
G1 X110.817Y81.94Z0F1200
G1 X110.413Y82.394Z0F1200
G1 X109.985Y82.825Z0F1200
G1 X109.533Y83.238Z0F1200
G1 X109.059Y83.63Z0F1200
G1 X108.576Y83.992Z0F1200
G1 X108.068Y84.336Z0F1200
G1 X107.542Y84.656Z0F1200
G1 X106.998Y84.955Z0F1200
G1 X106.451Y85.221Z0F1200
G1 X105.891Y85.464Z0F1200
G1 X105.302Y85.688Z0F1200
G1 X104.723Y85.878Z0F1200
G1 X104.113Y86.049Z0F1200
G1 X103.518Y86.187Z0F1200
G1 X102.916Y86.298Z0F1200
G1 X102.285Y86.385Z0F1200
G1 X101.686Y86.44Z0F1200
G1 X101.052Y86.469Z0F1200
G1 X100.432Z0F1200
G1 X99.813Y86.438Z0F1200
G1 X99.206Y86.38Z0F1200
G1 X98.578Y86.289Z0F1200
G1 X97.968Y86.17Z0F1200
G1 X97.195Y85.978Z0F1200
G1 X96.802Y85.988Z0F1200
G1 X96.57Z0F1200
G1 X96.393Y85.983Z0F1200
G1 X96.266Y85.966Z0F1200
G1 X95.796Y85.841Z0F1200
G1 X95.383Y85.667Z0F1200
G1 X94.994Y85.441Z0F1200
G1 X94.639Y85.178Z0F1200
G1 X94.306Y84.875Z0F1200
G1 X94.001Y84.548Z0F1200
G1 X93.725Y84.207Z0F1200
G1 X93.475Y83.86Z0F1200
G1 X93.111Y83.315Z0F1200
G1 X92.786Y82.803Z0F1200
G1 X92.498Y82.338Z0F1200
G1 X91.948Y81.474Z0F1200
G1 X90.177Y81.235Z0F1200
G1 X88.895Y81.042Z0F1200
G1 X87.554Y80.82Z0F1200
G1 X86.226Y80.581Z0F1200
G1 X83.487Y80.026Z0F1200
G1 X80.447Y79.312Z0F1200
G1 X79.707Y79.612Z0F1200
G1 X79.33Y79.733Z0F1200
G1 X78.957Y79.822Z0F1200
G1 X78.574Y79.883Z0F1200
G1 X78.207Y79.914Z0F1200
G1 X77.835Z0F1200
G1 X77.47Y79.892Z0F1200
G1 X77.114Y79.84Z0F1200
G1 X76.771Y79.764Z0F1200
G1 X76.43Y79.661Z0F1200
G1 X76.114Y79.538Z0F1200
G1 X75.804Y79.388Z0F1200
G1 X75.511Y79.217Z0F1200
G1 X75.237Y79.026Z0F1200
G1 X74.983Y78.817Z0F1200
G1 X74.745Y78.583Z0F1200
G1 X74.49Y78.29Z0F1200
G1 X74.265Y77.985Z0F1200
G1 X74.05Y77.643Z0F1200
G1 X73.871Y77.3Z0F1200
G1 X73.71Y76.926Z0F1200
G1 X73.581Y76.549Z0F1200
G1 X73.478Y76.159Z0F1200
G1 X73.405Y75.759Z0F1200
G1 X73.362Y75.346Z0F1200
G1 X73.351Y74.933Z0F1200
G1 X73.372Y74.511Z0F1200
G1 X73.425Y74.096Z0F1200
G1 X73.516Y73.668Z0F1200
G1 X73.641Y73.242Z0F1200
G1 X73.801Y72.825Z0F1200
G1 X74.005Y72.399Z0F1200
G1 X74.016Y72.38Z0F1200
G1 X74.05Y72.324Z0F1200
G1 X74.479Y71.566Z0F1200
G1 X74.853Y70.74Z0F1200
G1 X75.161Y69.887Z0F1200
G1 X75.417Y69.009Z0F1200
G1 X75.634Y68.111Z0F1200
G1 X75.822Y67.193Z0F1200
G1 X75.992Y66.257Z0F1200
G1 X76.32Y64.33Z0F1200
G1 X76.5Y63.375Z0F1200
G1 X76.714Y62.399Z0F1200
G1 X76.971Y61.447Z0F1200
G1 X77.286Y60.506Z0F1200
G1 X77.682Y59.557Z0F1200
G1 X77.897Y59.119Z0F1200
G1 X78.149Y58.663Z0F1200
G1 X78.418Y58.223Z0F1200
G1 X78.715Y57.79Z0F1200
G1 X79.111Y57.277Z0F1200
G1 X79.526Y56.831Z0F1200
G1 X79.949Y56.455Z0F1200
G1 X80.385Y56.141Z0F1200
G1 X80.827Y55.893Z0F1200
G1 X81.273Y55.71Z0F1200
G1 X81.714Y55.593Z0F1200
G1 X82.163Y55.538Z0F1200
G1 X82.602Y55.545Z0F1200
G1 X83.026Y55.611Z0F1200
G1 X83.442Y55.732Z0F1200
G1 X83.836Y55.901Z0F1200
G1 X84.214Y56.117Z0F1200
G1 X84.569Y56.375Z0F1200
G1 X84.893Y56.665Z0F1200
G1 X85.187Y56.987Z0F1200
G1 X85.454Y57.339Z0F1200
G1 X85.691Y57.718Z0F1200
G1 X85.899Y58.125Z0F1200
G1 X86.074Y58.55Z0F1200
G1 X86.216Y59Z0F1200
G1 X86.319Y59.455Z0F1200
G1 X86.384Y59.922Z0F1200
G1 X86.409Y60.398Z0F1200
G1 X86.392Y60.882Z0F1200
G1 X86.333Y61.364Z0F1200
G1 X86.229Y61.838Z0F1200
G1 X86.08Y62.31Z0F1200
G1 X85.88Y62.776Z0F1200
G1 X85.635Y63.226Z0F1200
G1 X85.334Y63.67Z0F1200
G1 X84.254Y64.971Z0F1200
G1 X84.386Y65.084Z0F1200
G1 X84.335Y65.197Z0F1200
G1 X84.19Y65.625Z0F1200
G1 X84.08Y66.075Z0F1200
G1 X84.001Y66.548Z0F1200
G1 X83.958Y67.044Z0F1200
G1 X83.949Y67.558Z0F1200
G1 X83.976Y68.085Z0F1200
G1 X84.036Y68.615Z0F1200
G1 X84.128Y69.143Z0F1200
G1 X84.25Y69.667Z0F1200
G1 X84.399Y70.182Z0F1200
G1 X84.576Y70.685Z0F1200
G1 X84.78Y71.172Z0F1200
G1 X85.01Y71.639Z0F1200
G1 X85.264Y72.077Z0F1200
G1 X85.537Y72.478Z0F1200
G1 X85.824Y72.839Z0F1200
G1 X86.122Y73.162Z0F1200
G1 X86.43Y73.445Z0F1200
G1 X86.747Y73.688Z0F1200
G1 X87.079Y73.891Z0F1200
G1 X87.418Y74.042Z0F1200
G1 X87.737Y74.137Z0F1200
G1 X88.076Y74.19Z0F1200
G1 X88.445Z0F1200
G1 X88.82Y74.125Z0F1200
G1 X89.185Y74.003Z0F1200
G1 X89.538Y73.83Z0F1200
G1 X89.883Y73.613Z0F1200
G1 X90.403Y73.228Z0F1200
G1 X90.88Y72.347Z0F1200
G1 X91.214Y71.591Z0F1200
G1 X91.505Y70.801Z0F1200
G1 X91.764Y69.981Z0F1200
G1 X91.998Y69.133Z0F1200
G1 X92.216Y68.262Z0F1200
G1 X92.425Y67.374Z0F1200
G1 X92.631Y66.477Z0F1200
G1 X92.855Y65.53Z0F1200
G1 X93.101Y64.601Z0F1200
G1 X93.39Y63.668Z0F1200
G1 X93.729Y62.773Z0F1200
G1 X93.92Y62.343Z0F1200
G1 X94.126Y61.929Z0F1200
G1 X94.356Y61.519Z0F1200
G1 X94.608Y61.117Z0F1200
G1 X94.878Y60.737Z0F1200
G1 X95.177Y60.365Z0F1200
G1 X95.501Y60.009Z0F1200
G1 X95.826Y59.695Z0F1200
G1 X95.981Y59.582Z0F1200
G1 X96.119Y59.52Z0F1200
G1 X96.264Y59.488Z0F1200
G1 X96.452Z0F1200
G1 X97.058Y59.575Z0F1200
G1 X97.67Y59.724Z0F1200
G1 X98.222Y59.919Z0F1200
G1 X98.721Y60.159Z0F1200
G1 X99.167Y60.442Z0F1200
G1 X99.554Y60.761Z0F1200
G1 X99.875Y61.109Z0F1200
G1 X100.142Y61.498Z0F1200
G1 X100.353Y61.918Z0F1200
G1 X100.51Y62.354Z0F1200
G1 X100.619Y62.809Z0F1200
G1 X100.68Y63.27Z0F1200
G1 X100.701Y63.755Z0F1200
G1 X100.684Y64.236Z0F1200
G0 Z2.8F500
G0 X100.726Y68.647Z2.8F1500
G1 Z0F500
G1 X100.331Y69.65Z0F1200
G1 X99.927Y70.592Z0F1200
G1 X99.539Y71.46Z0F1200
G1 X99.187Y72.239Z0F1200
G1 X99.031Y72.59Z0F1200
G1 X98.894Y72.913Z0F1200
G1 X98.847Y73.016Z0F1200
G1 X98.592Y73.507Z0F1200
G1 X98.447Y73.868Z0F1200
G1 X98.353Y74.201Z0F1200
G1 X98.305Y74.51Z0F1200
G1 X98.298Y74.799Z0F1200
G1 X98.328Y75.071Z0F1200
G1 X98.388Y75.33Z0F1200
G1 X98.475Y75.58Z0F1200
G1 X98.588Y75.824Z0F1200
G1 X98.733Y76.063Z0F1200
G1 X98.906Y76.293Z0F1200
G1 X99.107Y76.514Z0F1200
G1 X99.334Y76.722Z0F1200
G1 X99.584Y76.915Z0F1200
G1 X99.855Y77.09Z0F1200
G1 X100.147Y77.246Z0F1200
G1 X100.455Y77.377Z0F1200
G1 X100.771Y77.484Z0F1200
G1 X101.095Y77.564Z0F1200
G1 X101.42Y77.618Z0F1200
G1 X101.745Y77.644Z0F1200
G1 X102.065Z0F1200
G1 X102.376Y77.613Z0F1200
G1 X102.675Y77.555Z0F1200
G1 X102.961Y77.47Z0F1200
G1 X103.234Y77.361Z0F1200
G1 X103.494Y77.222Z0F1200
G1 X103.742Y77.049Z0F1200
G1 X103.978Y76.837Z0F1200
G1 X104.2Y76.584Z0F1200
G1 X104.41Y76.283Z0F1200
G1 X104.607Y75.931Z0F1200
G1 X104.729Y75.725Z0F1200
G1 X105.053Y75.313Z0F1200
G1 X105.212Y75.058Z0F1200
G1 X105.355Y74.774Z0F1200
G1 X105.484Y74.463Z0F1200
G1 X105.704Y73.766Z0F1200
G1 X105.884Y72.978Z0F1200
G1 X106.038Y72.112Z0F1200
G1 X106.176Y71.181Z0F1200
G1 X106.313Y70.197Z0F1200
G1 X106.46Y69.173Z0F1200
G1 X106.643Y68.121Z0F1200
G1 X106.906Y67.059Z0F1200
G1 X107.083Y66.529Z0F1200
G1 X107.297Y66.006Z0F1200
G1 X107.555Y65.49Z0F1200
G1 X107.861Y64.984Z0F1200
G1 X108.224Y64.499Z0F1200
G1 X108.646Y64.047Z0F1200
G1 X109.125Y63.631Z0F1200
G1 X109.658Y63.259Z0F1200
G1 X110.241Y62.933Z0F1200
G1 X110.872Y62.659Z0F1200
G1 X111.547Y62.442Z0F1200
G1 X112.265Y62.287Z0F1200
G1 X112.574Y62.262Z0F1200
G1 X112.884Y62.289Z0F1200
G1 X113.599Y62.461Z0F1200
G1 X114.27Y62.713Z0F1200
G1 X114.89Y63.038Z0F1200
G1 X115.45Y63.427Z0F1200
G1 X115.944Y63.874Z0F1200
G1 X116.365Y64.371Z0F1200
G1 X116.705Y64.91Z0F1200
G1 X116.955Y65.484Z0F1200
G1 X117.124Y66.073Z0F1200
G1 X117.228Y66.662Z0F1200
G1 X117.275Y67.249Z0F1200
G1 X117.271Y67.834Z0F1200
G1 X117.224Y68.417Z0F1200
G1 X117.142Y68.998Z0F1200
G1 X117.031Y69.574Z0F1200
G1 X116.898Y70.146Z0F1200
G1 X116.583Y71.29Z0F1200
G1 X116.212Y72.425Z0F1200
G1 X115.812Y73.53Z0F1200
G1 X115.405Y74.584Z0F1200
G1 X114.834Y76.018Z0F1200
G1 X114.667Y76.446Z0F1200
G1 X114.516Y76.845Z0F1200
G1 X114.384Y77.211Z0F1200
G1 X114.274Y77.542Z0F1200
G1 X114.187Y77.846Z0F1200
G1 X113.98Y78.53Z0F1200
G1 X113.743Y79.185Z0F1200
G1 X113.471Y79.817Z0F1200
G1 X113.167Y80.429Z0F1200
G1 X112.833Y81.018Z0F1200
G1 X112.469Y81.585Z0F1200
G1 X112.077Y82.129Z0F1200
G1 X111.659Y82.649Z0F1200
G1 X111.215Y83.147Z0F1200
G1 X110.747Y83.62Z0F1200
G1 X110.256Y84.068Z0F1200
G1 X109.744Y84.492Z0F1200
G1 X109.212Y84.89Z0F1200
G1 X108.661Y85.263Z0F1200
G1 X108.093Y85.609Z0F1200
G1 X107.509Y85.929Z0F1200
G1 X106.91Y86.221Z0F1200
G1 X106.297Y86.486Z0F1200
G1 X105.673Y86.724Z0F1200
G1 X105.039Y86.933Z0F1200
G1 X104.394Y87.113Z0F1200
G1 X103.742Y87.264Z0F1200
G1 X103.083Y87.386Z0F1200
G1 X102.419Y87.478Z0F1200
G1 X101.751Y87.539Z0F1200
G1 X101.08Y87.569Z0F1200
G1 X100.408Z0F1200
G1 X99.736Y87.536Z0F1200
G1 X99.065Y87.471Z0F1200
G1 X98.397Y87.375Z0F1200
G1 X97.733Y87.245Z0F1200
