;LightBurn 1.6.04
;Custom GCode device profile, absolute coords
;Bounds: X13.58 Y19.27 to X122.42 Y94.73
G00 G17 G40 G21 G54
G90
M3
G1 Z10 F500
;Offset @ 15 mm/sec, 90% power

M8
G0 Z2.8F500
G0 X67.745Y33.763Z2.8F1000
G1 Z0F500
;Layer Blue
G1 X67.043Y34.61Z0S900F800
G1 Y32.922Z0F800
G1 X67.745Y33.763Z0F800
G0 Z2.8F500
G0 X68.426Y34.353Z2.8F1000
G1 Z0F500
G1 X66.851Y36.254Z0F800
G1 X66.729Y36.842Z0F800
G1 X66.704Y37.071Z0F800
G1 X66.689Y37.285Z0F800
G1 X66.671Y37.736Z0F800
G1 X66.666Y38.264Z0F800
G1 Y40.212Z0F800
G1 X71.854Y46.368Z0F800
G1 X72.222Y46.807Z0F800
G1 X72.168Y46.971Z0F800
G1 X72.034Y47.418Z0F800
G1 X71.409Y46.688Z0F800
G1 X70.396Y45.493Z0F800
G1 X66.143Y40.45Z0F800
G1 Y30.443Z0F800
G1 X66.974Y31.434Z0F800
G1 X68.615Y33.4Z0F800
G1 X70.819Y36.049Z0F800
G1 X71.961Y37.425Z0F800
G1 X72.995Y38.676Z0F800
G1 X73.895Y39.769Z0F800
G1 X74.637Y40.674Z0F800
G1 X74.908Y41.007Z0F800
G1 X74.896Y41.026Z0F800
G1 X74.764Y41.251Z0F800
G1 X74.628Y41.487Z0F800
G1 X74.25Y41.04Z0F800
G1 X73.473Y40.111Z0F800
G1 X72.401Y38.826Z0F800
G1 X71.31Y37.521Z0F800
G1 X70.65Y36.737Z0F800
G1 X70.308Y36.333Z0F800
G1 X70.055Y36.037Z0F800
G1 X69.88Y35.838Z0F800
G1 X68.426Y34.353Z0F800
G0 Z2.8F500
G0 X65.243Y27.991Z2.8F1000
G1 Z0F500
G1 X65.486Y28.272Z0F800
G1 X65.907Y28.767Z0F800
G1 X66.408Y29.359Z0F800
G1 X67.665Y30.857Z0F800
G1 X69.306Y32.824Z0F800
G1 X71.512Y35.475Z0F800
G1 X72.654Y36.852Z0F800
G1 X73.689Y38.104Z0F800
G1 X74.591Y39.198Z0F800
G1 X75.335Y40.106Z0F800
G1 X75.899Y40.8Z0F800
G1 X76.009Y40.938Z0F800
G1 X75.787Y41.292Z0F800
G1 X75.669Y41.488Z0F800
G1 X75.542Y41.704Z0F800
G1 X75.407Y41.938Z0F800
G1 X75.138Y42.419Z0F800
G1 X74.889Y42.88Z0F800
G1 X74.795Y43.057Z0F800
G1 X74.641Y42.882Z0F800
G1 X74.426Y42.636Z0F800
G1 X74.181Y42.351Z0F800
G1 X73.563Y41.621Z0F800
G1 X72.781Y40.686Z0F800
G1 X71.711Y39.402Z0F800
G1 X70.62Y38.099Z0F800
G1 X69.962Y37.317Z0F800
G1 X69.623Y36.916Z0F800
G1 X69.375Y36.627Z0F800
G1 X69.22Y36.451Z0F800
G1 X68.481Y35.696Z0F800
G1 X67.687Y36.655Z0F800
G1 X67.619Y36.983Z0F800
G1 X67.601Y37.152Z0F800
G1 X67.587Y37.334Z0F800
G1 X67.571Y37.759Z0F800
G1 X67.565Y38.27Z0F800
G1 Y39.884Z0F800
G1 X72.541Y45.787Z0F800
G1 X73.227Y46.604Z0F800
G1 X73.199Y46.705Z0F800
G1 X73.131Y46.922Z0F800
G1 X73.027Y47.24Z0F800
G1 X72.689Y48.365Z0F800
G1 X72.453Y49.274Z0F800
G1 X72.436Y49.255Z0F800
G1 X72.175Y48.96Z0F800
G1 X71.88Y48.621Z0F800
G1 X71.542Y48.229Z0F800
G1 X70.727Y47.275Z0F800
G1 X69.707Y46.071Z0F800
G1 X65.243Y40.78Z0F800
G1 Y27.991Z0F800
G0 Z2.8F500
G0 X65.273Y26.666Z2.8F1000
G1 Z0F500
G1 X65.514Y26.933Z0F800
G1 X65.81Y27.27Z0F800
G1 X66.168Y27.685Z0F800
G1 X66.595Y28.186Z0F800
G1 X67.097Y28.78Z0F800
G1 X68.356Y30.281Z0F800
G1 X69.998Y32.249Z0F800
G1 X72.205Y34.9Z0F800
G1 X73.348Y36.278Z0F800
G1 X74.384Y37.531Z0F800
G1 X75.287Y38.628Z0F800
G1 X76.033Y39.539Z0F800
G1 X76.597Y40.232Z0F800
G1 X76.954Y40.679Z0F800
G1 X77.047Y40.8Z0F800
G1 X77.079Y40.847Z0F800
G1 X77.07Y40.88Z0F800
G1 X77.045Y40.938Z0F800
G1 X77.005Y41.015Z0F800
G1 X76.953Y41.111Z0F800
G1 X76.817Y41.343Z0F800
G1 X76.554Y41.764Z0F800
G1 X76.442Y41.949Z0F800
G1 X76.319Y42.157Z0F800
G1 X76.19Y42.382Z0F800
G1 X75.926Y42.853Z0F800
G1 X75.682Y43.305Z0F800
G1 X75.518Y43.614Z0F800
G1 X75.385Y43.855Z0F800
G1 X75.277Y44.036Z0F800
G1 X75.188Y44.166Z0F800
G1 X75.112Y44.252Z0F800
G1 X75.041Y44.304Z0F800
G1 X74.971Y44.329Z0F800
G1 X74.894Y44.335Z0F800
G1 X74.799Y44.307Z0F800
G1 X74.66Y44.207Z0F800
G1 X74.566Y44.123Z0F800
G1 X74.453Y44.01Z0F800
G1 X74.317Y43.868Z0F800
G1 X74.156Y43.692Z0F800
G1 X73.967Y43.479Z0F800
G1 X73.748Y43.228Z0F800
G1 X73.494Y42.933Z0F800
G1 X72.876Y42.202Z0F800
G1 X72.091Y41.264Z0F800
G1 X71.02Y39.979Z0F800
G1 X69.931Y38.678Z0F800
G1 X69.274Y37.898Z0F800
G1 X68.937Y37.5Z0F800
G1 X68.695Y37.216Z0F800
G1 X68.56Y37.063Z0F800
G1 X68.537Y37.04Z0F800
G1 X68.523Y37.057Z0F800
G1 X68.509Y37.123Z0F800
G1 X68.497Y37.234Z0F800
G1 X68.486Y37.384Z0F800
G1 X68.471Y37.781Z0F800
G1 X68.465Y38.275Z0F800
G1 Y39.555Z0F800
G1 X73.23Y45.208Z0F800
G1 X74.127Y46.277Z0F800
G1 X74.158Y46.328Z0F800
G1 X74.173Y46.394Z0F800
G1 Y46.481Z0F800
G1 X74.156Y46.599Z0F800
G1 X74.12Y46.753Z0F800
G1 X74.064Y46.951Z0F800
G1 X73.987Y47.201Z0F800
G1 X73.886Y47.509Z0F800
G1 X73.556Y48.608Z0F800
G1 X73.266Y49.723Z0F800
G1 X73.19Y50.049Z0F800
G1 X73.128Y50.306Z0F800
G1 X73.076Y50.5Z0F800
G1 X73.031Y50.64Z0F800
G1 X72.988Y50.735Z0F800
G1 X72.945Y50.792Z0F800
G1 X72.896Y50.821Z0F800
G1 X72.84Y50.829Z0F800
G1 X72.802Z0F800
G1 X72.759Y50.823Z0F800
G1 X72.714Y50.807Z0F800
G1 X72.652Y50.768Z0F800
G1 X72.57Y50.701Z0F800
G1 X72.464Y50.604Z0F800
G1 X72.334Y50.474Z0F800
G1 X72.175Y50.307Z0F800
G1 X71.985Y50.1Z0F800
G1 X71.761Y49.851Z0F800
G1 X71.5Y49.556Z0F800
G1 X71.201Y49.212Z0F800
G1 X70.86Y48.816Z0F800
G1 X70.041Y47.857Z0F800
G1 X69.021Y46.653Z0F800
G1 X64.343Y41.108Z0F800
G1 Y26.102Z0F800
G1 X64.611Z0F800
G1 X64.662Y26.111Z0F800
G1 X64.728Y26.144Z0F800
G1 X64.815Y26.208Z0F800
G1 X64.931Y26.311Z0F800
G1 X65.081Y26.461Z0F800
G1 X65.273Y26.666Z0F800
G0 Z2.8F500
G0 X92.473Y41.881Z2.8F1000
G1 Z0F500
G1 X91.98Y42.477Z0F800
G1 Y35.836Z0F800
G1 X92.083Y35.794Z0F800
G1 X92.611Y35.619Z0F800
G1 X92.473Y41.881Z0F800
G0 Z2.8F500
G0 X96.011Y37.619Z2.8F1000
G1 Z0F500
G1 X93.999Y35.267Z0F800
G1 X94.041Y35.257Z0F800
G1 X94.285Y35.219Z0F800
G1 X94.571Y35.183Z0F800
G1 X94.66Y35.174Z0F800
G1 X95.951Y36.708Z0F800
G1 X96.227Y37.041Z0F800
G1 X96.353Y37.196Z0F800
G1 X96.292Y37.274Z0F800
G1 X96.065Y37.552Z0F800
G1 X96.011Y37.619Z0F800
G0 Z2.8F500
G0 X91.08Y43.827Z2.8F1000
G1 Z0F500
G1 Y35.23Z0F800
G1 X91.145Y35.202Z0F800
G1 X91.78Y34.947Z0F800
G1 X92.47Y34.717Z0F800
G1 X93.185Y34.521Z0F800
G1 X93.871Y34.374Z0F800
G1 X94.159Y34.328Z0F800
G1 X94.481Y34.287Z0F800
G1 X94.759Y34.261Z0F800
G1 X94.992Y34.249Z0F800
G1 X95.057Z0F800
G1 X96.635Y36.125Z0F800
G1 X96.923Y36.472Z0F800
G1 X97.188Y36.796Z0F800
G1 X97.413Y37.073Z0F800
G1 X97.5Y37.184Z0F800
G1 X97.389Y37.333Z0F800
G1 X97.193Y37.586Z0F800
G1 X96.99Y37.842Z0F800
G1 X96.755Y38.13Z0F800
G1 X96.288Y38.697Z0F800
G1 X96.106Y38.91Z0F800
G1 X96.018Y39.009Z0F800
G1 X95.922Y38.899Z0F800
G1 X93.501Y36.069Z0F800
G1 X93.365Y42.215Z0F800
G1 X92.376Y43.409Z0F800
G1 X92.054Y43.795Z0F800
G1 X91.802Y44.09Z0F800
G1 X91.598Y44.321Z0F800
G1 X91.59Y44.33Z0F800
G1 X91.579Y44.319Z0F800
G1 X91.429Y44.174Z0F800
G1 X91.08Y43.827Z0F800
G0 Z2.8F500
G0 X90.18Y44.202Z2.8F1000
G1 Z0F500
G1 Y34.647Z0F800
G1 X90.803Y34.369Z0F800
G1 X91.464Y34.104Z0F800
G1 X92.207Y33.856Z0F800
G1 X92.975Y33.646Z0F800
G1 X93.708Y33.488Z0F800
G1 X94.033Y33.437Z0F800
G1 X94.377Y33.393Z0F800
G1 X94.698Y33.363Z0F800
G1 X94.956Y33.349Z0F800
G1 X95.47Y33.34Z0F800
G1 X97.328Y35.55Z0F800
G1 X97.62Y35.902Z0F800
G1 X97.885Y36.226Z0F800
G1 X98.118Y36.514Z0F800
G1 X98.312Y36.759Z0F800
G1 X98.46Y36.951Z0F800
G1 X98.556Y37.083Z0F800
G1 X98.594Y37.147Z0F800
G1 X98.576Y37.202Z0F800
G1 X98.513Y37.31Z0F800
G1 X98.41Y37.463Z0F800
G1 X98.271Y37.656Z0F800
G1 X98.101Y37.883Z0F800
G1 X97.905Y38.136Z0F800
G1 X97.688Y38.41Z0F800
G1 X97.454Y38.698Z0F800
G1 X96.973Y39.28Z0F800
G1 X96.777Y39.511Z0F800
G1 X96.605Y39.702Z0F800
G1 X96.455Y39.855Z0F800
G1 X96.321Y39.971Z0F800
G1 X96.2Y40.051Z0F800
G1 X96.088Y40.095Z0F800
G1 X95.981Y40.104Z0F800
G1 X95.876Y40.08Z0F800
G1 X95.77Y40.023Z0F800
G1 X95.656Y39.935Z0F800
G1 X95.533Y39.815Z0F800
G1 X95.396Y39.667Z0F800
G1 X95.242Y39.488Z0F800
G1 X94.349Y38.445Z0F800
G1 X94.258Y42.548Z0F800
G1 X93.067Y43.986Z0F800
G1 X92.745Y44.372Z0F800
G1 X92.476Y44.688Z0F800
G1 X92.254Y44.938Z0F800
G1 X92.074Y45.129Z0F800
G1 X91.929Y45.268Z0F800
G1 X91.813Y45.36Z0F800
G1 X91.722Y45.412Z0F800
G1 X91.648Y45.429Z0F800
G1 X91.51Y45.397Z0F800
G1 X91.33Y45.29Z0F800
G1 X91.221Y45.206Z0F800
G1 X91.098Y45.1Z0F800
G1 X90.958Y44.972Z0F800
G1 X90.802Y44.819Z0F800
G1 X90.18Y44.202Z0F800
G0 Z2.8F500
G0 X94.304Y51.444Z2.8F1000
G1 Z0F500
G1 X92.228Y53.904Z0F800
G1 X91.751Y54.464Z0F800
G1 X91.377Y54.896Z0F800
G1 X91.223Y55.068Z0F800
G1 X91.089Y55.214Z0F800
G1 X90.973Y55.337Z0F800
G1 X90.786Y55.519Z0F800
G1 X90.646Y55.628Z0F800
G1 X90.539Y55.682Z0F800
G1 X90.447Y55.696Z0F800
G1 X90.18Z0F800
G1 Y54.086Z0F800
G1 X92.267Y51.58Z0F800
G1 X92.74Y51.016Z0F800
G1 X93.115Y50.578Z0F800
G1 X93.27Y50.401Z0F800
G1 X93.405Y50.25Z0F800
G1 X93.523Y50.123Z0F800
G1 X93.714Y49.933Z0F800
G1 X93.856Y49.816Z0F800
G1 X93.963Y49.757Z0F800
G1 X94.051Y49.741Z0F800
G1 X94.304Z0F800
G1 Y51.444Z0F800
G0 Z2.8F500
G0 X103.052Y44.681Z2.8F1000
G1 Z0F500
G1 X102.803Y44.958Z0F800
G1 X102.541Y45.253Z0F800
G1 X102.004Y45.869Z0F800
G1 X101.475Y46.489Z0F800
G1 X101.223Y46.789Z0F800
G1 X100.988Y47.071Z0F800
G1 X100.773Y47.334Z0F800
G1 X100.58Y47.574Z0F800
G1 X100.412Y47.789Z0F800
G1 X100.265Y47.986Z0F800
G1 X100.091Y48.24Z0F800
G1 X100.07Y48.285Z0F800
G1 X100.042Y48.322Z0F800
G1 X99.754Y48.682Z0F800
G1 X99.359Y49.165Z0F800
G1 X98.85Y49.782Z0F800
G1 X98.257Y50.495Z0F800
G1 X97.267Y51.677Z0F800
G1 X96.563Y52.515Z0F800
G1 X95.845Y53.364Z0F800
G1 X95.135Y54.201Z0F800
G1 X94.452Y55.002Z0F800
G1 X93.818Y55.743Z0F800
G1 X93.251Y56.4Z0F800
G1 X92.764Y56.96Z0F800
G1 X92.405Y57.367Z0F800
G1 X92.262Y57.524Z0F800
G1 X91.957Y57.85Z0F800
G1 X91.717Y58.111Z0F800
G1 X91.461Y58.396Z0F800
G1 X91.191Y58.702Z0F800
G1 X90.634Y59.341Z0F800
G1 X90.076Y59.995Z0F800
G1 X89.806Y60.316Z0F800
G1 X89.55Y60.623Z0F800
G1 X89.313Y60.913Z0F800
G1 X89.096Y61.181Z0F800
G1 X88.904Y61.423Z0F800
G1 X88.736Y61.642Z0F800
G1 X88.585Y61.849Z0F800
G1 X88.502Y61.977Z0F800
G1 X88.466Y62.031Z0F800
G1 X88.38Y62.146Z0F800
G1 X88.231Y62.337Z0F800
G1 X88.012Y62.611Z0F800
G1 X87.771Y62.906Z0F800
G1 X87.494Y63.243Z0F800
G1 X87.195Y63.602Z0F800
G1 X86.65Y64.247Z0F800
G1 X86.449Y64.481Z0F800
G1 X86.442Y64.473Z0F800
G1 X86.104Y64.083Z0F800
G1 X85.722Y63.64Z0F800
G1 X84.77Y62.522Z0F800
G1 X83.894Y61.49Z0F800
G1 X78.624Y55.248Z0F800
G1 X78.676Y54.519Z0F800
G1 X78.682Y54.456Z0F800
G1 X79.045Y54.885Z0F800
G1 X79.659Y55.613Z0F800
G1 X81.598Y57.92Z0F800
G1 X82.403Y58.873Z0F800
G1 X83.135Y59.736Z0F800
G1 X83.777Y60.49Z0F800
G1 X84.313Y61.115Z0F800
G1 X84.728Y61.594Z0F800
G1 X85.015Y61.917Z0F800
G1 X85.163Y62.072Z0F800
G1 X86.42Y63.178Z0F800
G1 X87.699Y62.093Z0F800
G1 X87.873Y61.908Z0F800
G1 X88.147Y61.598Z0F800
G1 X88.392Y61.314Z0F800
G1 X89Y60.604Z0F800
G1 X89.723Y59.747Z0F800
G1 X90.5Y58.832Z0F800
G1 X91.229Y57.986Z0F800
G1 X91.557Y57.612Z0F800
G1 X91.855Y57.276Z0F800
G1 X92.08Y57.028Z0F800
G1 X92.46Y56.621Z0F800
G1 X92.699Y56.36Z0F800
G1 X92.961Y56.068Z0F800
G1 X93.241Y55.75Z0F800
G1 X93.828Y55.075Z0F800
G1 X94.421Y54.378Z0F800
G1 X94.708Y54.037Z0F800
G1 X94.977Y53.711Z0F800
G1 X95.227Y53.408Z0F800
G1 X95.451Y53.131Z0F800
G1 X95.646Y52.883Z0F800
G1 X95.815Y52.663Z0F800
G1 X95.978Y52.435Z0F800
G1 X96.051Y52.309Z0F800
G1 X96.146Y52.184Z0F800
G1 X96.284Y52.01Z0F800
G1 X96.46Y51.792Z0F800
G1 X96.688Y51.513Z0F800
G1 X97.279Y50.798Z0F800
G1 X98.048Y49.881Z0F800
G1 X98.996Y48.757Z0F800
G1 X100.127Y47.421Z0F800
G1 X101.448Y45.866Z0F800
G1 X102.933Y44.112Z0F800
G1 X104.367Y42.409Z0F800
G1 X105.487Y41.072Z0F800
G1 X105.729Y41.582Z0F800
G1 X105.751Y41.632Z0F800
G1 X105.708Y41.683Z0F800
G1 X105.3Y42.164Z0F800
G1 X104.821Y42.723Z0F800
G1 X104.306Y43.31Z0F800
G1 X104.074Y43.57Z0F800
G1 X103.845Y43.825Z0F800
G1 X103.664Y44.021Z0F800
G1 X103.286Y44.425Z0F800
G1 X103.052Y44.681Z0F800
G0 Z2.8F500
G0 X101.472Y47.901Z2.8F1000
G1 Z0F500
G1 X101.285Y48.133Z0F800
G1 X101.127Y48.335Z0F800
G1 X100.997Y48.509Z0F800
G1 X100.875Y48.688Z0F800
G1 X100.843Y48.756Z0F800
G1 X100.829Y48.775Z0F800
G1 X100.753Y48.874Z0F800
G1 X100.458Y49.243Z0F800
G1 X100.054Y49.738Z0F800
G1 X99.542Y50.357Z0F800
G1 X98.952Y51.067Z0F800
G1 X97.956Y52.256Z0F800
G1 X97.25Y53.096Z0F800
G1 X96.531Y53.946Z0F800
G1 X95.82Y54.785Z0F800
G1 X95.136Y55.587Z0F800
G1 X94.498Y56.333Z0F800
G1 X93.931Y56.991Z0F800
G1 X93.447Y57.546Z0F800
G1 X93.072Y57.971Z0F800
G1 X92.936Y58.121Z0F800
G1 X92.617Y58.461Z0F800
G1 X92.384Y58.716Z0F800
G1 X92.132Y58.996Z0F800
G1 X91.867Y59.295Z0F800
G1 X91.315Y59.929Z0F800
G1 X90.763Y60.577Z0F800
G1 X90.496Y60.894Z0F800
G1 X90.244Y61.196Z0F800
G1 X90.01Y61.481Z0F800
G1 X89.799Y61.743Z0F800
G1 X89.613Y61.977Z0F800
G1 X89.457Y62.181Z0F800
G1 X89.328Y62.359Z0F800
G1 X89.258Y62.467Z0F800
G1 X89.202Y62.55Z0F800
G1 X89.103Y62.683Z0F800
G1 X88.934Y62.899Z0F800
G1 X88.719Y63.168Z0F800
G1 X88.466Y63.478Z0F800
G1 X88.185Y63.819Z0F800
G1 X87.878Y64.187Z0F800
G1 X87.333Y64.833Z0F800
G1 X86.939Y65.292Z0F800
G1 X86.623Y65.655Z0F800
G1 X86.486Y65.807Z0F800
G1 X86.457Y65.839Z0F800
G1 X86.284Y65.652Z0F800
G1 X86.045Y65.384Z0F800
G1 X85.758Y65.058Z0F800
G1 X85.423Y64.672Z0F800
G1 X85.035Y64.221Z0F800
G1 X84.086Y63.109Z0F800
G1 X83.208Y62.072Z0F800
G1 X77.7Y55.549Z0F800
G1 X77.78Y54.432Z0F800
G1 X77.881Y53.37Z0F800
G1 X78.017Y52.308Z0F800
G1 X78.165Y52.474Z0F800
G1 X78.333Y52.666Z0F800
G1 X78.734Y53.13Z0F800
G1 X79.196Y53.67Z0F800
G1 X79.734Y54.306Z0F800
G1 X80.348Y55.034Z0F800
G1 X82.286Y57.34Z0F800
G1 X83.09Y58.292Z0F800
G1 X83.82Y59.154Z0F800
G1 X84.461Y59.906Z0F800
G1 X84.995Y60.527Z0F800
G1 X85.404Y61Z0F800
G1 X85.678Y61.308Z0F800
G1 X85.788Y61.423Z0F800
G1 X86.431Y61.989Z0F800
G1 X87.078Y61.439Z0F800
G1 X87.208Y61.301Z0F800
G1 X87.469Y61.005Z0F800
G1 X87.709Y60.728Z0F800
G1 X88.314Y60.021Z0F800
G1 X89.037Y59.165Z0F800
G1 X89.808Y58.256Z0F800
G1 X90.552Y57.394Z0F800
G1 X90.884Y57.014Z0F800
G1 X91.176Y56.685Z0F800
G1 X91.414Y56.422Z0F800
G1 X91.8Y56.01Z0F800
G1 X92.032Y55.756Z0F800
G1 X92.289Y55.47Z0F800
G1 X92.564Y55.158Z0F800
G1 X93.146Y54.488Z0F800
G1 X93.733Y53.797Z0F800
G1 X94.017Y53.459Z0F800
G1 X94.283Y53.139Z0F800
G1 X94.529Y52.839Z0F800
G1 X94.748Y52.568Z0F800
G1 X94.937Y52.331Z0F800
G1 X95.091Y52.128Z0F800
G1 X95.221Y51.947Z0F800
G1 X95.296Y51.816Z0F800
G1 X95.334Y51.764Z0F800
G1 X95.426Y51.643Z0F800
G1 X95.572Y51.458Z0F800
G1 X95.766Y51.219Z0F800
G1 X95.994Y50.938Z0F800
G1 X96.589Y50.221Z0F800
G1 X97.362Y49.299Z0F800
G1 X98.309Y48.175Z0F800
G1 X99.441Y46.838Z0F800
G1 X100.762Y45.284Z0F800
G1 X102.245Y43.532Z0F800
G1 X103.678Y41.83Z0F800
G1 X105.282Y39.915Z0F800
G1 Y39.001Z0F800
G1 X105.38Y39.131Z0F800
G1 X105.817Y39.8Z0F800
G1 X106.212Y40.502Z0F800
G1 X106.551Y41.216Z0F800
G1 X106.705Y41.569Z0F800
G1 X106.762Y41.708Z0F800
G1 X106.785Y41.77Z0F800
G1 X106.753Y41.818Z0F800
G1 X106.665Y41.937Z0F800
G1 X106.553Y42.075Z0F800
G1 X106.39Y42.271Z0F800
G1 X105.984Y42.749Z0F800
G1 X105.498Y43.316Z0F800
G1 X104.987Y43.898Z0F800
G1 X104.743Y44.172Z0F800
G1 X104.52Y44.42Z0F800
G1 X104.321Y44.637Z0F800
G1 X103.947Y45.037Z0F800
G1 X103.719Y45.285Z0F800
G1 X103.474Y45.557Z0F800
G1 X103.217Y45.848Z0F800
G1 X102.686Y46.457Z0F800
G1 X102.162Y47.07Z0F800
G1 X101.914Y47.366Z0F800
G1 X101.682Y47.644Z0F800
G1 X101.472Y47.901Z0F800
G0 Z2.8F500
G0 X99.642Y51.646Z2.8F1000
G1 Z0F500
G1 X98.645Y52.836Z0F800
G1 X97.937Y53.677Z0F800
G1 X97.217Y54.528Z0F800
G1 X96.505Y55.368Z0F800
G1 X95.82Y56.172Z0F800
G1 X95.182Y56.918Z0F800
G1 X94.609Y57.583Z0F800
G1 X94.121Y58.143Z0F800
G1 X93.739Y58.575Z0F800
G1 X93.593Y58.736Z0F800
G1 X93.277Y59.073Z0F800
G1 X93.05Y59.321Z0F800
G1 X92.804Y59.595Z0F800
G1 X92.543Y59.889Z0F800
G1 X91.997Y60.517Z0F800
G1 X91.449Y61.158Z0F800
G1 X91.187Y61.471Z0F800
G1 X90.938Y61.77Z0F800
G1 X90.708Y62.05Z0F800
G1 X90.501Y62.305Z0F800
G1 X90.323Y62.53Z0F800
G1 X90.178Y62.72Z0F800
G1 X90.07Y62.868Z0F800
G1 X90.004Y62.969Z0F800
G1 X89.937Y63.069Z0F800
G1 X89.812Y63.237Z0F800
G1 X89.636Y63.462Z0F800
G1 X89.417Y63.736Z0F800
G1 X89.161Y64.05Z0F800
G1 X88.876Y64.396Z0F800
G1 X88.57Y64.764Z0F800
G1 X88.017Y65.418Z0F800
G1 X87.617Y65.885Z0F800
G1 X87.292Y66.256Z0F800
G1 X87.156Y66.408Z0F800
G1 X87.035Y66.54Z0F800
G1 X86.927Y66.652Z0F800
G1 X86.751Y66.825Z0F800
G1 X86.616Y66.936Z0F800
G1 X86.514Y66.995Z0F800
G1 X86.434Y67.013Z0F800
G1 X86.389Y67.001Z0F800
G1 X86.327Y66.965Z0F800
G1 X86.244Y66.9Z0F800
G1 X86.135Y66.801Z0F800
G1 X85.998Y66.665Z0F800
G1 X85.828Y66.485Z0F800
G1 X85.621Y66.26Z0F800
G1 X85.374Y65.984Z0F800
G1 X85.083Y65.653Z0F800
G1 X84.744Y65.262Z0F800
G1 X84.353Y64.808Z0F800
G1 X83.4Y63.691Z0F800
G1 X82.521Y62.654Z0F800
G1 X76.776Y55.85Z0F800
G1 X76.882Y54.368Z0F800
G1 X76.986Y53.272Z0F800
G1 X77.132Y52.133Z0F800
G1 X77.21Y51.626Z0F800
G1 X77.285Y51.203Z0F800
G1 X77.32Y51.033Z0F800
G1 X77.353Y50.896Z0F800
G1 X77.382Y50.795Z0F800
G1 X77.408Y50.734Z0F800
G1 X77.448Y50.682Z0F800
G1 X77.496Y50.651Z0F800
G1 X77.558Y50.647Z0F800
G1 X77.639Y50.677Z0F800
G1 X77.745Y50.745Z0F800
G1 X77.88Y50.858Z0F800
G1 X78.052Y51.021Z0F800
G1 X78.265Y51.242Z0F800
G1 X78.525Y51.524Z0F800
G1 X78.837Y51.875Z0F800
G1 X79.015Y52.078Z0F800
G1 X79.416Y52.542Z0F800
G1 X79.883Y53.088Z0F800
G1 X80.421Y53.725Z0F800
G1 X81.037Y54.455Z0F800
G1 X82.975Y56.76Z0F800
G1 X83.777Y57.71Z0F800
G1 X84.506Y58.571Z0F800
G1 X85.145Y59.321Z0F800
G1 X85.676Y59.939Z0F800
G1 X86.081Y60.406Z0F800
G1 X86.341Y60.699Z0F800
G1 X86.413Y60.774Z0F800
G1 X86.441Y60.799Z0F800
G1 X86.457Y60.786Z0F800
G1 X86.543Y60.694Z0F800
G1 X86.792Y60.413Z0F800
G1 X87.027Y60.141Z0F800
G1 X87.628Y59.438Z0F800
G1 X88.35Y58.583Z0F800
G1 X89.126Y57.667Z0F800
G1 X89.875Y56.801Z0F800
G1 X90.211Y56.417Z0F800
G1 X90.509Y56.081Z0F800
G1 X90.757Y55.807Z0F800
G1 X91.139Y55.398Z0F800
G1 X91.365Y55.152Z0F800
G1 X91.616Y54.872Z0F800
G1 X91.887Y54.565Z0F800
G1 X92.463Y53.901Z0F800
G1 X93.046Y53.216Z0F800
G1 X93.326Y52.883Z0F800
G1 X93.589Y52.565Z0F800
G1 X93.831Y52.271Z0F800
G1 X94.045Y52.006Z0F800
G1 X94.226Y51.778Z0F800
G1 X94.367Y51.593Z0F800
G1 X94.463Y51.459Z0F800
G1 X94.538Y51.329Z0F800
G1 X94.609Y51.23Z0F800
G1 X94.72Y51.084Z0F800
G1 X94.873Y50.892Z0F800
G1 X95.066Y50.653Z0F800
G1 X95.301Y50.365Z0F800
G1 X95.899Y49.643Z0F800
G1 X96.672Y48.721Z0F800
G1 X97.622Y47.593Z0F800
G1 X98.755Y46.255Z0F800
G1 X100.075Y44.702Z0F800
G1 X101.558Y42.951Z0F800
G1 X102.989Y41.251Z0F800
G1 X104.382Y39.588Z0F800
G1 Y37.085Z0F800
G1 X104.674Y37.114Z0F800
G1 X104.847Y37.159Z0F800
G1 X105.03Y37.284Z0F800
G1 X105.138Y37.388Z0F800
G1 X105.265Y37.525Z0F800
G1 X105.415Y37.701Z0F800
G1 X105.594Y37.919Z0F800
G1 X106.115Y38.61Z0F800
G1 X106.59Y39.337Z0F800
G1 X107.011Y40.085Z0F800
G1 X107.369Y40.84Z0F800
G1 X107.537Y41.226Z0F800
G1 X107.601Y41.382Z0F800
G1 X107.651Y41.52Z0F800
G1 X107.703Y41.756Z0F800
G1 X107.682Y41.972Z0F800
G1 X107.641Y42.083Z0F800
G1 X107.578Y42.202Z0F800
G1 X107.492Y42.333Z0F800
G1 X107.381Y42.482Z0F800
G1 X107.244Y42.652Z0F800
G1 X107.081Y42.848Z0F800
G1 X106.667Y43.335Z0F800
G1 X106.174Y43.91Z0F800
G1 X105.659Y44.497Z0F800
G1 X105.412Y44.774Z0F800
G1 X105.183Y45.029Z0F800
G1 X104.978Y45.252Z0F800
G1 X104.607Y45.648Z0F800
G1 X104.385Y45.89Z0F800
G1 X104.146Y46.157Z0F800
G1 X103.893Y46.442Z0F800
G1 X103.367Y47.045Z0F800
G1 X102.849Y47.652Z0F800
G1 X102.604Y47.943Z0F800
G1 X102.376Y48.217Z0F800
G1 X102.17Y48.469Z0F800
G1 X101.99Y48.692Z0F800
G1 X101.842Y48.882Z0F800
G1 X101.729Y49.032Z0F800
G1 X101.659Y49.136Z0F800
G1 X101.634Y49.189Z0F800
G1 X101.613Y49.226Z0F800
G1 X101.554Y49.309Z0F800
G1 X101.457Y49.435Z0F800
G1 X101.162Y49.804Z0F800
G1 X100.748Y50.311Z0F800
G1 X100.234Y50.933Z0F800
G1 X99.642Y51.646Z0F800
G0 Z2.8F500
G0 X101.502Y36.75Z2.8F1000
G1 Z0F500
G1 X101.52Y36.729Z0F800
G1 X101.993Y37.04Z0F800
G1 X101.726Y37.352Z0F800
G1 X101.001Y38.205Z0F800
G1 X100.162Y39.2Z0F800
G1 X99.228Y40.313Z0F800
G1 X98.221Y41.517Z0F800
G1 X96.662Y43.389Z0F800
G1 X95.675Y44.57Z0F800
G1 X94.767Y45.652Z0F800
G1 X93.955Y46.617Z0F800
G1 X93.264Y47.434Z0F800
G1 X92.721Y48.071Z0F800
G1 X92.349Y48.502Z0F800
G1 X92.24Y48.625Z0F800
G1 X92.036Y48.84Z0F800
G1 X91.825Y49.071Z0F800
G1 X91.584Y49.342Z0F800
G1 X91.318Y49.649Z0F800
G1 X90.741Y50.326Z0F800
G1 X90.138Y51.047Z0F800
G1 X89.842Y51.406Z0F800
G1 X89.561Y51.751Z0F800
G1 X89.3Y52.075Z0F800
G1 X89.065Y52.369Z0F800
G1 X88.862Y52.63Z0F800
G1 X88.69Y52.858Z0F800
G1 X88.522Y53.097Z0F800
G1 X88.446Y53.234Z0F800
G1 X88.419Y53.272Z0F800
G1 X88.301Y53.428Z0F800
G1 X88.099Y53.686Z0F800
G1 X87.876Y53.964Z0F800
G1 X87.607Y54.294Z0F800
G1 X87.311Y54.653Z0F800
G1 X86.743Y55.33Z0F800
G1 X86.45Y55.675Z0F800
G1 X86.172Y55.35Z0F800
G1 X85.779Y54.884Z0F800
G1 X84.798Y53.714Z0F800
G1 X83.513Y52.175Z0F800
G1 X81.945Y50.288Z0F800
G1 X81.261Y49.46Z0F800
G1 X80.667Y48.739Z0F800
G1 X80.172Y48.134Z0F800
G1 X80.128Y48.08Z0F800
G1 X80.187Y47.941Z0F800
G1 X80.362Y47.542Z0F800
G1 X80.367Y47.531Z0F800
G1 X80.62Y47.83Z0F800
G1 X81.436Y48.809Z0F800
G1 X82.536Y50.132Z0F800
G1 X83.38Y51.141Z0F800
G1 X84.299Y52.231Z0F800
G1 X84.646Y52.639Z0F800
G1 X84.907Y52.939Z0F800
G1 X85.112Y53.168Z0F800
G1 X86.223Y54.187Z0F800
G1 X87.555Y53.328Z0F800
G1 X87.76Y53.133Z0F800
G1 X87.88Y53.006Z0F800
G1 X88.124Y52.739Z0F800
G1 X88.444Y52.374Z0F800
G1 X89.047Y51.675Z0F800
G1 X89.521Y51.117Z0F800
G1 X90.04Y50.502Z0F800
G1 X91.134Y49.195Z0F800
G1 X91.643Y48.589Z0F800
G1 X92.106Y48.042Z0F800
G1 X92.512Y47.566Z0F800
G1 X92.845Y47.181Z0F800
G1 X93.089Y46.902Z0F800
G1 X93.152Y46.833Z0F800
G1 X93.165Y46.824Z0F800
G1 X93.406Y46.594Z0F800
G1 X93.573Y46.417Z0F800
G1 X93.75Y46.223Z0F800
G1 X94.14Y45.775Z0F800
G1 X94.576Y45.258Z0F800
G1 X95.014Y44.725Z0F800
G1 X95.411Y44.228Z0F800
G1 X95.587Y44Z0F800
G1 X95.741Y43.794Z0F800
G1 X95.889Y43.586Z0F800
G1 X96.005Y43.393Z0F800
G1 X96.05Y43.328Z0F800
G1 X96.116Y43.237Z0F800
G1 X96.246Y43.066Z0F800
G1 X96.522Y42.716Z0F800
G1 X96.851Y42.313Z0F800
G1 X97.157Y41.95Z0F800
G1 X97.421Y41.648Z0F800
G1 X97.473Y41.592Z0F800
G1 X97.495Y41.58Z0F800
G1 X97.732Y41.371Z0F800
G1 X97.873Y41.232Z0F800
G1 X98.008Y41.088Z0F800
G1 X98.278Y40.786Z0F800
G1 X98.586Y40.427Z0F800
G1 X98.91Y40.037Z0F800
G1 X99.232Y39.636Z0F800
G1 X99.537Y39.245Z0F800
G1 X99.89Y38.766Z0F800
G1 X100.009Y38.609Z0F800
G1 X100.183Y38.384Z0F800
G1 X100.363Y38.153Z0F800
G1 X100.799Y37.608Z0F800
G1 X101.267Y37.032Z0F800
G1 X101.502Y36.75Z0F800
G0 Z2.8F500
G0 X101.971Y35.949Z2.8F1000
G1 Z0F500
G1 X102.529Y36.315Z0F800
G1 X103.073Y36.701Z0F800
G1 X103.314Y36.887Z0F800
G1 X102.996Y37.253Z0F800
G1 X102.411Y37.936Z0F800
G1 X101.688Y38.786Z0F800
G1 X100.851Y39.779Z0F800
G1 X99.918Y40.89Z0F800
G1 X98.913Y42.093Z0F800
G1 X97.353Y43.966Z0F800
G1 X96.367Y45.146Z0F800
G1 X95.456Y46.232Z0F800
G1 X94.642Y47.199Z0F800
G1 X93.949Y48.018Z0F800
G1 X93.402Y48.66Z0F800
G1 X93.023Y49.098Z0F800
G1 X92.91Y49.226Z0F800
G1 X92.694Y49.453Z0F800
G1 X92.494Y49.673Z0F800
G1 X92.261Y49.936Z0F800
G1 X92Y50.236Z0F800
G1 X91.429Y50.906Z0F800
G1 X90.831Y51.623Z0F800
G1 X90.538Y51.977Z0F800
G1 X90.259Y52.318Z0F800
G1 X90.002Y52.637Z0F800
G1 X89.773Y52.925Z0F800
G1 X89.576Y53.178Z0F800
G1 X89.418Y53.388Z0F800
G1 X89.286Y53.575Z0F800
G1 X89.209Y53.715Z0F800
G1 X89.155Y53.791Z0F800
G1 X89Y53.995Z0F800
G1 X88.813Y54.233Z0F800
G1 X88.574Y54.532Z0F800
G1 X88.301Y54.868Z0F800
G1 X88Y55.231Z0F800
G1 X87.429Y55.913Z0F800
G1 X87.01Y56.405Z0F800
G1 X86.679Y56.787Z0F800
G1 X86.548Y56.934Z0F800
G1 X86.451Y57.04Z0F800
G1 X86.311Y56.886Z0F800
G1 X86.094Y56.641Z0F800
G1 X85.813Y56.315Z0F800
G1 X85.482Y55.928Z0F800
G1 X85.091Y55.466Z0F800
G1 X84.108Y54.293Z0F800
G1 X82.823Y52.752Z0F800
G1 X81.253Y50.863Z0F800
G1 X80.567Y50.034Z0F800
G1 X79.969Y49.307Z0F800
G1 X79.476Y48.704Z0F800
G1 X79.11Y48.252Z0F800
G1 X79.092Y48.23Z0F800
G1 X79.189Y47.988Z0F800
G1 X79.352Y47.603Z0F800
G1 X79.543Y47.169Z0F800
G1 X79.746Y46.722Z0F800
G1 X79.93Y46.334Z0F800
G1 X80.102Y45.991Z0F800
G1 X80.151Y45.896Z0F800
G1 X80.224Y45.978Z0F800
G1 X80.44Y46.226Z0F800
G1 X80.685Y46.511Z0F800
G1 X81.311Y47.254Z0F800
G1 X82.129Y48.234Z0F800
G1 X83.227Y49.555Z0F800
G1 X84.069Y50.563Z0F800
G1 X84.986Y51.649Z0F800
G1 X85.329Y52.053Z0F800
G1 X85.581Y52.344Z0F800
G1 X85.752Y52.534Z0F800
G1 X86.319Y53.054Z0F800
G1 X86.996Y52.617Z0F800
G1 X87.124Y52.497Z0F800
G1 X87.221Y52.394Z0F800
G1 X87.452Y52.139Z0F800
G1 X87.766Y51.783Z0F800
G1 X88.363Y51.089Z0F800
G1 X88.834Y50.536Z0F800
G1 X89.351Y49.924Z0F800
G1 X90.445Y48.616Z0F800
G1 X90.956Y48.008Z0F800
G1 X91.424Y47.456Z0F800
G1 X91.83Y46.979Z0F800
G1 X92.168Y46.586Z0F800
G1 X92.423Y46.297Z0F800
G1 X92.563Y46.143Z0F800
G1 X92.605Y46.115Z0F800
G1 X92.768Y45.959Z0F800
G1 X92.913Y45.807Z0F800
G1 X93.077Y45.625Z0F800
G1 X93.457Y45.189Z0F800
G1 X93.884Y44.682Z0F800
G1 X94.315Y44.158Z0F800
G1 X94.704Y43.672Z0F800
G1 X94.871Y43.455Z0F800
G1 X95.013Y43.265Z0F800
G1 X95.136Y43.092Z0F800
G1 X95.25Y42.904Z0F800
G1 X95.31Y42.817Z0F800
G1 X95.411Y42.678Z0F800
G1 X95.52Y42.534Z0F800
G1 X95.816Y42.158Z0F800
G1 X96.145Y41.754Z0F800
G1 X96.467Y41.371Z0F800
G1 X96.763Y41.034Z0F800
G1 X96.862Y40.926Z0F800
G1 X96.913Y40.875Z0F800
G1 X96.972Y40.841Z0F800
G1 X97.119Y40.712Z0F800
G1 X97.229Y40.604Z0F800
G1 X97.345Y40.479Z0F800
G1 X97.602Y40.193Z0F800
G1 X97.898Y39.847Z0F800
G1 X98.213Y39.467Z0F800
G1 X98.526Y39.078Z0F800
G1 X98.819Y38.702Z0F800
G1 X99.166Y38.231Z0F800
G1 X99.296Y38.059Z0F800
G1 X99.467Y37.839Z0F800
G1 X99.66Y37.592Z0F800
G1 X100.106Y37.034Z0F800
G1 X100.569Y36.464Z0F800
G1 X100.817Y36.165Z0F800
G1 X101.042Y35.901Z0F800
G1 X101.237Y35.681Z0F800
G1 X101.337Y35.572Z0F800
G1 X101.438Y35.626Z0F800
G1 X101.971Y35.949Z0F800
G0 Z2.8F500
G0 X104.099Y37.357Z2.8F1000
G1 Z0F500
G1 X103.677Y37.841Z0F800
G1 X103.095Y38.52Z0F800
G1 X102.375Y39.368Z0F800
G1 X101.539Y40.359Z0F800
G1 X100.608Y41.468Z0F800
G1 X99.604Y42.67Z0F800
G1 X98.043Y44.543Z0F800
G1 X97.056Y45.724Z0F800
G1 X96.144Y46.812Z0F800
G1 X95.329Y47.78Z0F800
G1 X94.634Y48.601Z0F800
G1 X94.083Y49.248Z0F800
G1 X93.697Y49.694Z0F800
G1 X93.574Y49.833Z0F800
G1 X93.354Y50.066Z0F800
G1 X93.163Y50.275Z0F800
G1 X92.937Y50.53Z0F800
G1 X92.683Y50.823Z0F800
G1 X92.117Y51.487Z0F800
G1 X91.523Y52.197Z0F800
G1 X91.233Y52.548Z0F800
G1 X90.958Y52.885Z0F800
G1 X90.705Y53.2Z0F800
G1 X90.48Y53.482Z0F800
G1 X90.291Y53.725Z0F800
G1 X90.146Y53.918Z0F800
G1 X90.05Y54.054Z0F800
G1 X89.973Y54.193Z0F800
G1 X89.873Y54.334Z0F800
G1 X89.718Y54.539Z0F800
G1 X89.516Y54.796Z0F800
G1 X89.272Y55.1Z0F800
G1 X88.995Y55.441Z0F800
G1 X88.689Y55.81Z0F800
G1 X88.114Y56.496Z0F800
G1 X87.689Y56.995Z0F800
G1 X87.352Y57.384Z0F800
G1 X87.211Y57.542Z0F800
G1 X87.088Y57.677Z0F800
G1 X86.979Y57.791Z0F800
G1 X86.802Y57.962Z0F800
G1 X86.665Y58.071Z0F800
G1 X86.555Y58.129Z0F800
G1 X86.46Y58.152Z0F800
G1 X86.355Y58.143Z0F800
G1 X86.214Y58.063Z0F800
G1 X86.116Y57.981Z0F800
G1 X85.993Y57.863Z0F800
G1 X85.838Y57.703Z0F800
G1 X85.647Y57.494Z0F800
G1 X85.414Y57.229Z0F800
G1 X85.132Y56.904Z0F800
G1 X84.798Y56.512Z0F800
G1 X84.404Y56.047Z0F800
G1 X83.418Y54.871Z0F800
G1 X82.131Y53.328Z0F800
G1 X80.561Y51.438Z0F800
G1 X79.874Y50.607Z0F800
G1 X79.274Y49.879Z0F800
G1 X78.779Y49.274Z0F800
G1 X78.405Y48.812Z0F800
G1 X78.168Y48.514Z0F800
G1 X78.107Y48.432Z0F800
G1 X78.086Y48.399Z0F800
G1 X78.095Y48.348Z0F800
G1 X78.12Y48.263Z0F800
G1 X78.16Y48.146Z0F800
G1 X78.213Y48.004Z0F800
G1 X78.354Y47.653Z0F800
G1 X78.528Y47.241Z0F800
G1 X78.724Y46.796Z0F800
G1 X78.927Y46.35Z0F800
G1 X79.125Y45.932Z0F800
G1 X79.305Y45.572Z0F800
G1 X79.445Y45.307Z0F800
G1 X79.561Y45.096Z0F800
G1 X79.658Y44.934Z0F800
G1 X79.741Y44.814Z0F800
G1 X79.885Y44.675Z0F800
G1 X80.031Y44.627Z0F800
G1 X80.124Y44.639Z0F800
G1 X80.251Y44.715Z0F800
G1 X80.336Y44.787Z0F800
G1 X80.44Y44.886Z0F800
G1 X80.568Y45.016Z0F800
G1 X80.721Y45.182Z0F800
G1 X80.904Y45.387Z0F800
G1 X81.12Y45.636Z0F800
G1 X81.373Y45.931Z0F800
G1 X82.002Y46.677Z0F800
G1 X82.82Y47.658Z0F800
G1 X83.918Y48.979Z0F800
G1 X84.759Y49.984Z0F800
G1 X85.672Y51.068Z0F800
G1 X86.012Y51.466Z0F800
G1 X86.256Y51.748Z0F800
G1 X86.392Y51.899Z0F800
G1 X86.416Y51.921Z0F800
G1 X86.438Y51.907Z0F800
G1 X86.487Y51.86Z0F800
G1 X86.561Y51.782Z0F800
G1 X86.781Y51.539Z0F800
G1 X87.087Y51.192Z0F800
G1 X87.68Y50.504Z0F800
G1 X88.148Y49.954Z0F800
G1 X88.662Y49.345Z0F800
G1 X89.756Y48.037Z0F800
G1 X90.269Y47.427Z0F800
G1 X90.737Y46.874Z0F800
G1 X91.148Y46.392Z0F800
G1 X91.492Y45.993Z0F800
G1 X91.756Y45.692Z0F800
G1 X91.929Y45.501Z0F800
G1 X91.978Y45.452Z0F800
G1 X92Y45.435Z0F800
G1 X92.044Y45.406Z0F800
G1 X92.13Y45.324Z0F800
G1 X92.252Y45.195Z0F800
G1 X92.403Y45.028Z0F800
G1 X92.773Y44.604Z0F800
G1 X93.192Y44.106Z0F800
G1 X93.616Y43.591Z0F800
G1 X93.996Y43.116Z0F800
G1 X94.155Y42.91Z0F800
G1 X94.286Y42.735Z0F800
G1 X94.383Y42.598Z0F800
G1 X94.492Y42.417Z0F800
G1 X94.575Y42.297Z0F800
G1 X94.683Y42.148Z0F800
G1 X94.813Y41.977Z0F800
G1 X95.119Y41.589Z0F800
G1 X95.457Y41.175Z0F800
G1 X95.791Y40.778Z0F800
G1 X96.086Y40.441Z0F800
G1 X96.208Y40.309Z0F800
G1 X96.306Y40.208Z0F800
G1 X96.377Y40.143Z0F800
G1 X96.448Y40.103Z0F800
G1 X96.505Y40.053Z0F800
G1 X96.584Y39.975Z0F800
G1 X96.682Y39.871Z0F800
G1 X96.924Y39.6Z0F800
G1 X97.21Y39.267Z0F800
G1 X97.516Y38.897Z0F800
G1 X97.821Y38.519Z0F800
G1 X98.102Y38.158Z0F800
G1 X98.441Y37.697Z0F800
G1 X98.584Y37.509Z0F800
G1 X98.758Y37.284Z0F800
G1 X98.957Y37.031Z0F800
G1 X99.402Y36.472Z0F800
G1 X99.871Y35.896Z0F800
G1 X100.133Y35.581Z0F800
G1 X100.368Y35.306Z0F800
G1 X100.575Y35.071Z0F800
G1 X100.753Y34.878Z0F800
G1 X100.903Y34.727Z0F800
G1 X101.022Y34.619Z0F800
G1 X101.112Y34.553Z0F800
G1 X101.17Y34.531Z0F800
G1 X101.283Y34.554Z0F800
G1 X101.446Y34.618Z0F800
G1 X101.652Y34.718Z0F800
G1 X101.892Y34.85Z0F800
G1 X102.443Y35.183Z0F800
G1 X103.038Y35.573Z0F800
G1 X103.611Y35.979Z0F800
G1 X104.099Y36.355Z0F800
G1 X104.291Y36.519Z0F800
G1 X104.438Y36.659Z0F800
G1 X104.532Y36.771Z0F800
G1 X104.565Y36.847Z0F800
G1 X104.512Y36.955Z0F800
G1 X104.384Y37.053Z0F800
G1 X104.338Y37.094Z0F800
G1 X104.243Y37.197Z0F800
G1 X104.099Y37.357Z0F800
G0 Z2.8F500
G0 X106.706Y30.781Z2.8F1000
G1 Z0F500
G1 X106.549Y30.668Z0F800
G1 X106.599Y30.606Z0F800
G1 X106.706Y30.475Z0F800
G1 Y30.781Z0F800
G0 Z2.8F500
G0 X106.644Y31.862Z2.8F1000
G1 Z0F500
G1 X106.238Y31.554Z0F800
G1 X105.843Y31.269Z0F800
G1 X105.482Y31.022Z0F800
G1 X105.255Y30.873Z0F800
G1 X105.248Y30.867Z0F800
G1 X105.309Y30.786Z0F800
G1 X105.562Y30.461Z0F800
G1 X105.891Y30.05Z0F800
G1 X106.289Y29.563Z0F800
G1 X106.744Y29.016Z0F800
G1 X107.544Y28.062Z0F800
G1 X107.606Y27.99Z0F800
G1 Y32.644Z0F800
G1 X107.436Y32.498Z0F800
G1 X107.048Y32.18Z0F800
G1 X106.644Y31.862Z0F800
G0 Z2.8F500
G0 X104.587Y30.248Z2.8F1000
G1 Z0F500
G1 X104.859Y29.898Z0F800
G1 X105.194Y29.48Z0F800
G1 X105.592Y28.994Z0F800
G1 X106.054Y28.437Z0F800
G1 X106.861Y27.476Z0F800
G1 X107.263Y27.006Z0F800
G1 X107.429Y26.816Z0F800
G1 X107.575Y26.654Z0F800
G1 X107.701Y26.518Z0F800
G1 X107.904Y26.313Z0F800
G1 X108.053Y26.186Z0F800
G1 X108.165Y26.121Z0F800
G1 X108.253Y26.103Z0F800
G1 X108.506Z0F800
G1 Y34.257Z0F800
G1 X108.248Z0F800
G1 X108.119Y34.239Z0F800
G1 X107.987Y34.185Z0F800
G1 X107.854Y34.096Z0F800
G1 X107.721Y33.972Z0F800
G1 X107.491Y33.746Z0F800
G1 X107.198Y33.48Z0F800
G1 X106.857Y33.188Z0F800
G1 X106.484Y32.881Z0F800
G1 X106.094Y32.574Z0F800
G1 X105.703Y32.277Z0F800
G1 X105.326Y32.005Z0F800
G1 X104.98Y31.77Z0F800
G1 X104.744Y31.613Z0F800
G1 X104.552Y31.479Z0F800
G1 X104.4Y31.367Z0F800
G1 X104.285Y31.271Z0F800
G1 X104.202Y31.188Z0F800
G1 X104.147Y31.115Z0F800
G1 X104.117Y31.048Z0F800
G1 X104.108Y30.984Z0F800
G1 X104.138Y30.897Z0F800
G1 X104.227Y30.747Z0F800
G1 X104.376Y30.53Z0F800
G1 X104.587Y30.248Z0F800
G0 Z2.8F500
G0 X65.736Y52.144Z2.8F1000
G1 Z0F500
G1 X65.242Y52.942Z0F800
G1 Y51.557Z0F800
G1 X65.736Y52.144Z0F800
G0 Z2.8F500
G0 X66.388Y52.8Z2.8F1000
G1 Z0F500
G1 X65.021Y55.007Z0F800
G1 X64.958Y55.475Z0F800
G1 X64.945Y55.624Z0F800
G1 X64.933Y55.891Z0F800
G1 X64.923Y56.253Z0F800
G1 X64.915Y56.721Z0F800
G1 X64.907Y57.302Z0F800
G1 X64.901Y58.001Z0F800
G1 X64.891Y59.756Z0F800
G1 X64.885Y62.003Z0F800
G1 Y64.752Z0F800
G1 Y68.014Z0F800
G1 X64.913Y87.826Z0F800
G1 X75.978Y87.896Z0F800
G1 Y71.505Z0F800
G1 X76.195Y71.824Z0F800
G1 X76.501Y72.251Z0F800
G1 Y88.406Z0F800
G1 X64.341Z0F800
G1 Y49.093Z0F800
G1 X64.669Y49.482Z0F800
G1 X68.07Y53.517Z0F800
G1 X69.188Y54.853Z0F800
G1 X69.834Y55.632Z0F800
G1 X70.389Y56.304Z0F800
G1 X70.813Y56.823Z0F800
G1 X70.937Y56.977Z0F800
G1 Y57.008Z0F800
G1 X70.99Y57.703Z0F800
G1 X70.996Y57.762Z0F800
G1 X70.701Y57.416Z0F800
G1 X70.478Y57.149Z0F800
G1 X70.14Y56.749Z0F800
G1 X69.546Y56.055Z0F800
G1 X69.137Y55.583Z0F800
G1 X68.755Y55.145Z0F800
G1 X68.428Y54.774Z0F800
G1 X68.184Y54.504Z0F800
G1 X68.066Y54.378Z0F800
G1 X66.388Y52.8Z0F800
G0 Z2.8F500
G0 X63.441Y46.642Z2.8F1000
G1 Z0F500
G1 X63.519Y46.731Z0F800
G1 X63.947Y47.233Z0F800
G1 X65.358Y48.903Z0F800
G1 X68.76Y52.939Z0F800
G1 X69.88Y54.278Z0F800
G1 X70.529Y55.059Z0F800
G1 X71.083Y55.731Z0F800
G1 X71.516Y56.26Z0F800
G1 X71.818Y56.638Z0F800
G1 X71.824Y56.646Z0F800
G1 X71.836Y56.957Z0F800
G1 X71.886Y57.622Z0F800
G1 X71.96Y58.328Z0F800
G1 X72.057Y59.068Z0F800
G1 X72.305Y60.562Z0F800
G1 X72.346Y60.753Z0F800
G1 X72.31Y60.71Z0F800
G1 X71.765Y60.064Z0F800
G1 X71.555Y59.825Z0F800
G1 X71.329Y59.564Z0F800
G1 X70.766Y58.883Z0F800
G1 X70.426Y58.48Z0F800
G1 X70.003Y57.985Z0F800
G1 X69.789Y57.728Z0F800
G1 X69.454Y57.332Z0F800
G1 X68.864Y56.642Z0F800
G1 X68.458Y56.173Z0F800
G1 X68.079Y55.738Z0F800
G1 X67.756Y55.374Z0F800
G1 X67.522Y55.114Z0F800
G1 X67.429Y55.014Z0F800
G1 X66.574Y54.21Z0F800
G1 X65.887Y55.319Z0F800
G1 X65.853Y55.572Z0F800
G1 X65.844Y55.68Z0F800
G1 X65.833Y55.924Z0F800
G1 X65.823Y56.274Z0F800
G1 X65.814Y56.735Z0F800
G1 X65.807Y57.312Z0F800
G1 X65.801Y58.007Z0F800
G1 X65.791Y59.759Z0F800
G1 X65.785Y62.004Z0F800
G1 Y64.752Z0F800
G1 Y68.013Z0F800
G1 X65.811Y86.931Z0F800
G1 X75.078Y86.991Z0F800
G1 Y68.314Z0F800
G1 X75.117Y68.39Z0F800
G1 X75.689Y69.399Z0F800
G1 X76.299Y70.379Z0F800
G1 X76.934Y71.309Z0F800
G1 X77.401Y71.963Z0F800
G1 Y89.306Z0F800
G1 X63.441Z0F800
G1 Y46.642Z0F800
G0 Z2.8F500
G0 X63.517Y45.407Z2.8F1000
G1 Z0F500
G1 X63.641Y45.539Z0F800
G1 X63.759Y45.654Z0F800
G1 X63.874Y45.773Z0F800
G1 X63.954Y45.861Z0F800
G1 X64.204Y46.147Z0F800
G1 X64.635Y46.652Z0F800
G1 X66.046Y48.322Z0F800
G1 X69.451Y52.362Z0F800
G1 X70.572Y53.703Z0F800
G1 X71.223Y54.486Z0F800
G1 X71.777Y55.158Z0F800
G1 X72.218Y55.698Z0F800
G1 X72.528Y56.085Z0F800
G1 X72.629Y56.215Z0F800
G1 X72.692Y56.299Z0F800
G1 X72.713Y56.335Z0F800
G1 X72.735Y56.906Z0F800
G1 X72.783Y57.541Z0F800
G1 X72.854Y58.222Z0F800
G1 X72.948Y58.936Z0F800
G1 X73.189Y60.394Z0F800
G1 X73.49Y61.786Z0F800
G1 X73.717Y62.724Z0F800
G1 X73.786Y63.019Z0F800
G1 X73.812Y63.139Z0F800
G1 X73.786Y63.154Z0F800
G1 X73.715Y63.164Z0F800
G1 X73.611Y63.167Z0F800
G1 X73.484Y63.161Z0F800
G1 X73.279Y63.134Z0F800
G1 X73.098Y63.025Z0F800
G1 X72.984Y62.913Z0F800
G1 X72.838Y62.748Z0F800
G1 X72.648Y62.519Z0F800
G1 X72.282Y62.072Z0F800
G1 X71.955Y61.681Z0F800
G1 X71.622Y61.29Z0F800
G1 X71.083Y60.651Z0F800
G1 X70.88Y60.42Z0F800
G1 X70.637Y60.141Z0F800
G1 X70.075Y59.46Z0F800
G1 X69.74Y59.063Z0F800
G1 X69.319Y58.57Z0F800
G1 X69.099Y58.307Z0F800
G1 X68.768Y57.915Z0F800
G1 X68.182Y57.229Z0F800
G1 X67.778Y56.763Z0F800
G1 X67.402Y56.332Z0F800
G1 X67.085Y55.973Z0F800
G1 X66.86Y55.723Z0F800
G1 X66.792Y55.651Z0F800
G1 X66.759Y55.62Z0F800
G1 X66.753Y55.63Z0F800
G1 X66.748Y55.669Z0F800
G1 X66.742Y55.737Z0F800
G1 X66.732Y55.958Z0F800
G1 X66.723Y56.294Z0F800
G1 X66.714Y56.749Z0F800
G1 X66.707Y57.322Z0F800
G1 X66.701Y58.014Z0F800
G1 X66.691Y59.763Z0F800
G1 X66.685Y62.006Z0F800
G1 Y64.752Z0F800
G1 Y68.012Z0F800
G1 X66.71Y86.037Z0F800
G1 X74.178Y86.085Z0F800
G1 Y65.743Z0F800
G1 X74.43Z0F800
G1 X74.634Y65.765Z0F800
G1 X74.773Y65.813Z0F800
G1 X74.802Y65.849Z0F800
G1 X74.851Y65.925Z0F800
G1 X74.916Y66.037Z0F800
G1 X74.994Y66.18Z0F800
G1 X75.183Y66.541Z0F800
G1 X75.397Y66.969Z0F800
G1 X75.909Y67.961Z0F800
G1 X76.463Y68.939Z0F800
G1 X77.054Y69.888Z0F800
G1 X77.671Y70.793Z0F800
G1 X78.301Y71.674Z0F800
G1 Y90.206Z0F800
G1 X62.542Z0F800
G1 Y44.931Z0F800
G1 X62.932Y44.964Z0F800
G1 X63.089Y44.985Z0F800
G1 X63.212Y45.019Z0F800
G1 X63.292Y45.061Z0F800
G1 X63.321Y45.108Z0F800
G1 X63.346Y45.177Z0F800
G1 X63.415Y45.282Z0F800
G1 X63.517Y45.407Z0F800
G0 Z2.8F500
G0 X104.138Y75.602Z2.8F1000
G1 Z0F500
G1 X103.862Y75.667Z0F800
G1 X103.616Y75.722Z0F800
G1 Y73.6Z0F800
G1 Y64.915Z0F800
G1 X103.61Y62.289Z0F800
G1 X103.601Y60.808Z0F800
G1 X103.595Y60.333Z0F800
G1 X103.587Y60.02Z0F800
G1 X103.215Y56.049Z0F800
G1 X100.447Y58.889Z0F800
G1 X100.282Y59.076Z0F800
G1 X100.037Y59.362Z0F800
G1 X99.066Y60.501Z0F800
G1 X98.02Y61.736Z0F800
G1 X96.271Y63.807Z0F800
G1 X94.647Y65.736Z0F800
G1 X93.669Y66.907Z0F800
G1 X92.504Y68.315Z0F800
G1 Y71.305Z0F800
G1 Y92.405Z0F800
G1 X103.616Z0F800
G1 Y83.691Z0F800
G1 X103.969Y83.637Z0F800
G1 X104.12Y83.609Z0F800
G1 X104.123Y83.878Z0F800
G1 X104.13Y84.932Z0F800
G1 X104.137Y86.752Z0F800
G1 Y88.085Z0F800
G1 Y92.928Z0F800
G1 X91.979Z0F800
G1 X91.983Y68.033Z0F800
G1 X92.302Y67.651Z0F800
G1 X92.607Y67.272Z0F800
G1 X92.612Y67.267Z0F800
G1 Y67.319Z0F800
G1 X103.61Y54.295Z0F800
G1 X103.621Y49.807Z0F800
G1 X104.138Y49.194Z0F800
G1 Y75.602Z0F800
G0 Z2.8F500
G0 X92.57Y64.063Z2.8F1000
G1 Z0F500
G1 X92.002Y63.58Z0F800
G1 X92.555Y62.925Z0F800
G1 X92.57Y64.063Z0F800
G0 Z2.8F500
G0 X92.5Y65.193Z2.8F1000
G1 Z0F500
G1 X92.01Y64.769Z0F800
G1 X91.081Y63.977Z0F800
G1 Y63.276Z0F800
G1 X92.907Y61.112Z0F800
G1 X93.37Y60.569Z0F800
G1 X93.423Y60.508Z0F800
G1 X93.481Y64.896Z0F800
G1 X102.711Y53.965Z0F800
G1 X102.721Y49.477Z0F800
G1 X104.156Y47.779Z0F800
G1 X104.745Y47.088Z0F800
G1 X104.984Y46.812Z0F800
G1 X105.038Y46.751Z0F800
G1 Y76.311Z0F800
G1 X104.563Y76.426Z0F800
G1 X104.062Y76.544Z0F800
G1 X103.574Y76.653Z0F800
G1 X103.16Y76.74Z0F800
G1 X102.987Y76.773Z0F800
G1 X102.85Y76.797Z0F800
G1 X102.716Y76.819Z0F800
G1 Y72.884Z0F800
G1 Y64.917Z0F800
G1 X102.71Y62.292Z0F800
G1 X102.701Y60.816Z0F800
G1 X102.695Y60.35Z0F800
G1 X102.688Y60.072Z0F800
G1 X102.5Y58.071Z0F800
G1 X101.107Y59.501Z0F800
G1 X100.961Y59.667Z0F800
G1 X100.721Y59.947Z0F800
G1 X99.752Y61.084Z0F800
G1 X98.707Y62.317Z0F800
G1 X96.959Y64.387Z0F800
G1 X95.337Y66.315Z0F800
G1 X94.361Y67.482Z0F800
G1 X93.404Y68.64Z0F800
G1 Y72.205Z0F800
G1 Y91.505Z0F800
G1 X102.716Z0F800
G1 Y82.916Z0F800
G1 X102.837Y82.9Z0F800
G1 X103.818Y82.75Z0F800
G1 X104.875Y82.552Z0F800
G1 X105.006Y82.525Z0F800
G1 X105.013Y82.974Z0F800
G1 X105.022Y83.872Z0F800
G1 X105.03Y84.929Z0F800
G1 X105.037Y86.751Z0F800
G1 Y88.085Z0F800
G1 Y93.828Z0F800
G1 X91.079Z0F800
G1 X91.083Y67.706Z0F800
G1 X91.606Y67.08Z0F800
G1 X91.897Y66.719Z0F800
G1 X92.136Y66.402Z0F800
G1 X92.237Y66.254Z0F800
G1 X92.329Y66.107Z0F800
G1 X92.457Y65.846Z0F800
G1 X92.5Y65.193Z0F800
G0 Z2.8F500
G0 X99.394Y62.899Z2.8F1000
G1 Z0F500
G1 X97.647Y64.967Z0F800
G1 X96.026Y66.893Z0F800
G1 X95.053Y68.058Z0F800
G1 X94.304Y68.963Z0F800
G1 Y71.631Z0F800
G1 X94.775Y71.771Z0F800
G1 X95.648Y71.998Z0F800
G1 X96.554Y72.169Z0F800
G1 X97.494Y72.285Z0F800
G1 X98.473Y72.345Z0F800
G1 X99.148Y72.355Z0F800
G1 X99.842Y72.341Z0F800
G1 X100.434Y72.314Z0F800
G1 X100.956Y72.284Z0F800
G1 X101.173Y72.269Z0F800
G1 X101.352Y72.253Z0F800
G1 X101.485Y72.239Z0F800
G1 X101.565Y72.226Z0F800
G1 X101.817Y72.167Z0F800
G1 Y64.917Z0F800
G1 X101.81Y62.296Z0F800
G1 X101.801Y60.825Z0F800
G1 X101.795Y60.367Z0F800
G1 X101.789Y60.125Z0F800
G1 X101.786Y60.094Z0F800
G1 X101.768Y60.113Z0F800
G1 X101.64Y60.258Z0F800
G1 X101.405Y60.532Z0F800
G1 X100.438Y61.667Z0F800
G1 X99.394Y62.899Z0F800
G0 Z2.8F500
G0 X94.303Y73.105Z2.8F1000
G1 Z0F500
G1 Y90.605Z0F800
G1 X101.816Z0F800
G1 Y82.121Z0F800
G1 X102.713Y82.009Z0F800
G1 X103.667Y81.862Z0F800
G1 X104.703Y81.669Z0F800
G1 X105.133Y81.581Z0F800
G1 X105.641Y81.481Z0F800
G1 X105.832Y81.447Z0F800
G1 X105.868Y81.442Z0F800
G1 X105.875Y81.477Z0F800
G1 X105.882Y81.578Z0F800
G1 X105.889Y81.742Z0F800
G1 X105.902Y82.247Z0F800
G1 X105.913Y82.964Z0F800
G1 X105.922Y83.866Z0F800
G1 X105.93Y84.925Z0F800
G1 X105.937Y86.75Z0F800
G1 Y88.085Z0F800
G1 Y94.728Z0F800
G1 X90.179Z0F800
G1 X90.184Y67.379Z0F800
G1 X90.911Y66.509Z0F800
G1 X91.188Y66.166Z0F800
G1 X91.405Y65.877Z0F800
G1 X91.484Y65.762Z0F800
G1 X91.54Y65.671Z0F800
G1 X91.57Y65.609Z0F800
G1 Y65.58Z0F800
G1 X91.423Y65.451Z0F800
G1 X90.181Y64.393Z0F800
G1 Y62.947Z0F800
G1 X92.222Y60.529Z0F800
G1 X92.69Y59.979Z0F800
G1 X93.06Y59.554Z0F800
G1 X93.212Y59.383Z0F800
G1 X93.345Y59.238Z0F800
G1 X93.461Y59.116Z0F800
G1 X93.649Y58.934Z0F800
G1 X93.792Y58.82Z0F800
G1 X93.906Y58.761Z0F800
G1 X94.005Y58.738Z0F800
G1 X94.3Y58.708Z0F800
G1 X94.349Y62.473Z0F800
G1 X101.812Y53.635Z0F800
G1 X101.822Y49.146Z0F800
G1 X103.469Y47.198Z0F800
G1 X104.065Y46.498Z0F800
G1 X104.311Y46.214Z0F800
G1 X104.526Y45.972Z0F800
G1 X104.713Y45.77Z0F800
G1 X104.875Y45.604Z0F800
G1 X105.014Y45.473Z0F800
G1 X105.133Y45.375Z0F800
G1 X105.237Y45.309Z0F800
G1 X105.327Y45.271Z0F800
G1 X105.405Y45.259Z0F800
G1 X105.476Y45.271Z0F800
G1 X105.606Y45.361Z0F800
G1 X105.739Y45.523Z0F800
G1 X105.938Y45.794Z0F800
G1 Y77.018Z0F800
G1 X104.77Y77.302Z0F800
G1 X104.269Y77.42Z0F800
G1 X103.77Y77.532Z0F800
G1 X103.33Y77.624Z0F800
G1 X103.15Y77.658Z0F800
G1 X103.006Y77.684Z0F800
G1 X101.816Y77.877Z0F800
G1 Y73.105Z0F800
G1 X94.303Z0F800
;Offset @ 15 mm/sec, 90% power

M8
G0 Z2.8F500
G0 X96.417Y69.716Z2.8F1000
G1 Z0F500
;Layer Green
G1 X96.843Y69.79Z0F800
G1 X97.275Y69.856Z0F800
G1 X97.703Y69.915Z0F800
G1 X98.112Y69.962Z0F800
G1 X98.497Y69.996Z0F800
G1 X98.909Y70.012Z0F800
G1 X99.36Z0F800
G1 X99.813Y69.996Z0F800
G1 X99.809Y70.351Z0F800
G1 X99.533Y70.363Z0F800
G1 X98.987Y70.369Z0F800
G1 X98.173Y70.343Z0F800
G1 X97.368Y70.273Z0F800
G1 X96.618Y70.166Z0F800
G1 X96.288Y70.098Z0F800
G1 Y69.862Z0F800
G1 X96.291Y69.705Z0F800
G1 Y69.692Z0F800
G1 X96.417Y69.716Z0F800
G0 Z2.8F500
G0 X100.698Y71.204Z2.8F1000
G1 Z0F500
G1 X100.159Y71.236Z0F800
G1 X99.568Y71.263Z0F800
G1 X98.979Y71.27Z0F800
G1 X98.11Y71.241Z0F800
G1 X97.277Y71.169Z0F800
G1 X96.464Y71.052Z0F800
G1 X95.667Y70.889Z0F800
G1 X95.388Y70.822Z0F800
G1 Y69.848Z0F800
G1 X95.391Y69.683Z0F800
G1 X95.396Y69.551Z0F800
G1 X95.414Y69.373Z0F800
G1 X95.433Y69.301Z0F800
G1 X95.457Y69.25Z0F800
G1 X95.536Y69.138Z0F800
G1 X95.711Y68.931Z0F800
G1 X95.92Y68.698Z0F800
G1 X96.194Y68.757Z0F800
G1 X96.578Y68.831Z0F800
G1 X96.987Y68.901Z0F800
G1 X97.405Y68.965Z0F800
G1 X97.816Y69.022Z0F800
G1 X98.203Y69.066Z0F800
G1 X98.553Y69.097Z0F800
G1 X98.925Y69.111Z0F800
G1 X99.345Z0F800
G1 X99.789Y69.097Z0F800
G1 X100.239Y69.072Z0F800
G1 X100.674Y69.039Z0F800
G1 X100.722Y69.034Z0F800
G1 Y69.096Z0F800
G1 X100.717Y69.654Z0F800
G1 X100.698Y71.204Z0F800
G0 Z2.8F500
G0 X100.213Y72.135Z2.8F1000
G1 Z0F500
G1 X99.589Y72.163Z0F800
G1 X98.971Y72.169Z0F800
G1 X98.058Y72.14Z0F800
G1 X97.168Y72.063Z0F800
G1 X96.308Y71.939Z0F800
G1 X95.483Y71.77Z0F800
G1 X94.488Y71.531Z0F800
G1 Y69.834Z0F800
G1 X94.491Y69.648Z0F800
G1 X94.498Y69.485Z0F800
G1 X94.525Y69.215Z0F800
G1 X94.582Y68.994Z0F800
G1 X94.678Y68.793Z0F800
G1 X94.824Y68.586Z0F800
G1 X95.029Y68.343Z0F800
G1 X95.304Y68.037Z0F800
G1 X95.463Y67.874Z0F800
G1 X95.592Y67.775Z0F800
G1 X95.704Y67.734Z0F800
G1 X95.81Y67.743Z0F800
G1 X96.058Y67.807Z0F800
G1 X96.374Y67.875Z0F800
G1 X96.738Y67.945Z0F800
G1 X97.132Y68.013Z0F800
G1 X97.535Y68.075Z0F800
G1 X97.929Y68.129Z0F800
G1 X98.293Y68.171Z0F800
G1 X98.61Y68.199Z0F800
G1 X98.941Y68.211Z0F800
G1 X99.33Z0F800
G1 X99.751Y68.197Z0F800
G1 X100.18Y68.174Z0F800
G1 X100.592Y68.142Z0F800
G1 X100.961Y68.103Z0F800
G1 X101.264Y68.059Z0F800
G1 X101.475Y68.011Z0F800
G1 X101.525Y68.004Z0F800
G1 X101.563Y68.032Z0F800
G1 X101.591Y68.114Z0F800
G1 X101.609Y68.27Z0F800
G1 X101.616Y68.381Z0F800
G1 X101.62Y68.518Z0F800
G1 Y68.682Z0F800
G1 Y69.104Z0F800
G1 X101.617Y69.666Z0F800
G1 X101.588Y72.051Z0F800
G1 X100.213Y72.135Z0F800
G0 Z2.8F500
G0 X102.784Y79.997Z2.8F1000
G1 Z0F500
G1 X102.391Y80.056Z0F800
G1 X102.241Y80.076Z0F800
G1 X101.62Y80.179Z0F800
G1 X100.957Y80.343Z0F800
G1 X100.829Y80.359Z0F800
G1 X100.735Y80.364Z0F800
G1 X100.551Y80.369Z0F800
G1 X100.321Z0F800
G1 X100.032Z0F800
G1 X99.518Y80.359Z0F800
G1 X98.919Y80.344Z0F800
G1 X97.963Y80.309Z0F800
G1 X97.068Y80.259Z0F800
G1 X96.698Y80.232Z0F800
G1 X96.34Y80.201Z0F800
G1 X96.314Y80.198Z0F800
G1 X96.308Y79.664Z0F800
G1 X96.914Y79.726Z0F800
G1 X97.759Y79.789Z0F800
G1 X98.592Y79.827Z0F800
G1 X99.401Y79.84Z0F800
G1 X100.173Y79.826Z0F800
G1 X100.858Y79.784Z0F800
G1 X101.195Y79.76Z0F800
G1 X101.243Z0F800
G1 X101.399Y79.816Z0F800
G1 X101.945Z0F800
G1 X102.277Y79.783Z0F800
G1 X102.61Y79.738Z0F800
G1 X102.97Y79.681Z0F800
G1 X103.358Y79.612Z0F800
G1 X103.766Y79.535Z0F800
G1 X104.189Y79.45Z0F800
G1 X105.02Y79.269Z0F800
G1 X105.771Y79.086Z0F800
G1 X106.114Y78.992Z0F800
G1 X106.431Y78.893Z0F800
G1 X106.802Y78.75Z0F800
G1 X107.099Y78.568Z0F800
G1 X107.168Y78.536Z0F800
G1 X107.444Y78.418Z0F800
G1 X107.799Y78.278Z0F800
G1 X108.771Y77.892Z0F800
G1 X109.714Y77.471Z0F800
G1 X110.617Y77.02Z0F800
G1 X111.499Y76.529Z0F800
G1 X112.394Y75.973Z0F800
G1 X113.313Y75.358Z0F800
G1 X113.73Y75.065Z0F800
G1 X114.074Y74.811Z0F800
G1 X114.237Y74.685Z0F800
G1 X114.403Y74.546Z0F800
G1 X114.661Y74.294Z0F800
G1 X115.394Y73.122Z0F800
G1 X114.72Y72.05Z0F800
G1 X114.592Y71.895Z0F800
G1 X114.505Y71.799Z0F800
G1 X114.227Y71.501Z0F800
G1 X113.966Y71.23Z0F800
G1 X113.659Y70.915Z0F800
G1 X112.926Y70.171Z0F800
G1 X109.452Y66.693Z0F800
G1 X107.931Y67.691Z0F800
G1 Y67.103Z0F800
G1 X108.047Y67.017Z0F800
G1 X108.249Y66.856Z0F800
G1 X108.46Y66.683Z0F800
G1 X108.685Y66.494Z0F800
G1 X109.129Y66.106Z0F800
G1 X109.371Y65.886Z0F800
G1 X109.605Y66.111Z0F800
G1 X109.945Y66.441Z0F800
G1 X110.778Y67.259Z0F800
G1 X111.829Y68.303Z0F800
G1 X113.12Y69.591Z0F800
G1 X114.239Y70.712Z0F800
G1 X115.203Y71.685Z0F800
G1 X116.012Y72.508Z0F800
G1 X116.665Y73.181Z0F800
G1 X116.738Y73.257Z0F800
G1 X116.638Y73.354Z0F800
G1 X115.454Y74.411Z0F800
G1 X114.21Y75.418Z0F800
G1 X113.575Y75.881Z0F800
G1 X112.9Y76.334Z0F800
G1 X112.182Y76.782Z0F800
G1 X111.435Y77.214Z0F800
G1 X110.673Y77.624Z0F800
G1 X109.897Y78.008Z0F800
G1 X109.128Y78.357Z0F800
G1 X108.384Y78.664Z0F800
G1 X107.434Y79.014Z0F800
G1 X106.512Y79.319Z0F800
G1 X106.144Y79.43Z0F800
G1 X105.885Y79.5Z0F800
G1 X105.624Y79.522Z0F800
G1 X105.43Y79.546Z0F800
G1 X105.214Y79.577Z0F800
G1 X104.718Y79.657Z0F800
G1 X103.57Y79.863Z0F800
G1 X103.003Y79.961Z0F800
G1 X102.784Y79.997Z0F800
G0 Z2.8F500
G0 X97.904Y81.208Z2.8F1000
G1 Z0F500
G1 X97.014Y81.158Z0F800
G1 X96.624Y81.129Z0F800
G1 X96.271Y81.099Z0F800
G1 X95.958Y81.065Z0F800
G1 X95.717Y81.033Z0F800
G1 X95.423Y80.988Z0F800
G1 X95.396Y78.642Z0F800
G1 X96.177Y78.746Z0F800
G1 X96.994Y78.829Z0F800
G1 X97.813Y78.89Z0F800
G1 X98.62Y78.928Z0F800
G1 X99.4Y78.94Z0F800
G1 X100.137Y78.926Z0F800
G1 X100.798Y78.886Z0F800
G1 X101.14Y78.861Z0F800
G1 X101.393Y78.854Z0F800
G1 X101.558Y78.915Z0F800
G1 X101.902Z0F800
G1 X102.175Y78.889Z0F800
G1 X102.479Y78.848Z0F800
G1 X102.821Y78.793Z0F800
G1 X103.196Y78.727Z0F800
G1 X103.593Y78.651Z0F800
G1 X104.005Y78.569Z0F800
G1 X104.817Y78.392Z0F800
G1 X105.545Y78.214Z0F800
G1 X105.861Y78.127Z0F800
G1 X106.135Y78.042Z0F800
G1 X106.402Y77.94Z0F800
G1 X106.595Y77.821Z0F800
G1 X106.625Y77.798Z0F800
G1 X106.687Y77.768Z0F800
G1 X106.805Y77.713Z0F800
G1 X107.093Y77.589Z0F800
G1 X107.468Y77.441Z0F800
G1 X108.421Y77.062Z0F800
G1 X109.33Y76.657Z0F800
G1 X110.197Y76.224Z0F800
G1 X111.042Y75.753Z0F800
G1 X111.906Y75.216Z0F800
G1 X112.804Y74.616Z0F800
G1 X113.205Y74.334Z0F800
G1 X113.531Y74.094Z0F800
G1 X113.671Y73.984Z0F800
G1 X113.798Y73.878Z0F800
G1 X113.956Y73.725Z0F800
G1 X114.332Y73.123Z0F800
G1 X113.989Y72.579Z0F800
G1 X113.91Y72.483Z0F800
G1 X113.842Y72.406Z0F800
G1 X113.575Y72.121Z0F800
G1 X113.32Y71.857Z0F800
G1 X113.016Y71.544Z0F800
G1 X112.287Y70.806Z0F800
G1 X109.333Y67.847Z0F800
G1 X107.884Y68.798Z0F800
G1 X107.544Y69.017Z0F800
G1 X107.202Y69.227Z0F800
G1 X107.028Y69.329Z0F800
G1 Y68.794Z0F800
G1 X107.034Y66.646Z0F800
G1 X107.33Y66.43Z0F800
G1 X107.495Y66.305Z0F800
G1 X107.683Y66.156Z0F800
G1 X107.885Y65.99Z0F800
G1 X108.099Y65.81Z0F800
G1 X108.53Y65.434Z0F800
G1 X108.932Y65.068Z0F800
G1 X109.149Y64.867Z0F800
G1 X109.31Y64.723Z0F800
G1 X109.38Y64.664Z0F800
G1 X109.467Y64.743Z0F800
G1 X109.688Y64.946Z0F800
G1 X109.935Y65.18Z0F800
G1 X110.232Y65.465Z0F800
G1 X110.579Y65.802Z0F800
G1 X111.413Y66.621Z0F800
G1 X112.465Y67.666Z0F800
G1 X113.754Y68.952Z0F800
G1 X114.88Y70.081Z0F800
G1 X115.846Y71.054Z0F800
G1 X116.657Y71.881Z0F800
G1 X117.321Y72.565Z0F800
G1 X117.588Y72.844Z0F800
G1 X117.821Y73.091Z0F800
G1 X117.994Y73.276Z0F800
G1 X117.947Y73.327Z0F800
G1 X117.735Y73.543Z0F800
G1 X117.499Y73.776Z0F800
G1 X117.253Y74.01Z0F800
G1 X116.041Y75.093Z0F800
G1 X114.747Y76.141Z0F800
G1 X114.099Y76.613Z0F800
G1 X113.386Y77.093Z0F800
G1 X112.642Y77.556Z0F800
G1 X111.878Y77.998Z0F800
G1 X111.078Y78.428Z0F800
G1 X110.29Y78.818Z0F800
G1 X109.491Y79.181Z0F800
G1 X108.708Y79.504Z0F800
G1 X107.743Y79.859Z0F800
G1 X106.781Y80.178Z0F800
G1 X106.388Y80.296Z0F800
G1 X106.078Y80.38Z0F800
G1 X105.965Y80.407Z0F800
G1 X105.898Y80.403Z0F800
G1 X105.716Y80.417Z0F800
G1 X105.548Y80.438Z0F800
G1 X105.349Y80.467Z0F800
G1 X104.87Y80.544Z0F800
G1 X103.716Y80.751Z0F800
G1 X103.163Y80.847Z0F800
G1 X102.909Y80.888Z0F800
G1 X102.529Y80.946Z0F800
G1 X102.373Y80.966Z0F800
G1 X101.802Y81.061Z0F800
G1 X101.119Y81.23Z0F800
G1 X100.916Y81.255Z0F800
G1 X100.779Y81.263Z0F800
G1 X100.561Y81.269Z0F800
G1 X100.319Z0F800
G1 X100.015Z0F800
G1 X99.508Y81.259Z0F800
G1 X98.875Y81.243Z0F800
G1 X97.904Y81.208Z0F800
G0 Z2.8F500
G0 X94.532Y81.763Z2.8F1000
G1 Z0F500
G1 X94.483Y77.573Z0F800
G1 X94.783Y77.628Z0F800
G1 X95.513Y77.75Z0F800
G1 X96.282Y77.852Z0F800
G1 X97.073Y77.933Z0F800
G1 X97.867Y77.992Z0F800
G1 X98.648Y78.028Z0F800
G1 X99.399Y78.04Z0F800
G1 X100.101Y78.027Z0F800
G1 X100.738Y77.988Z0F800
G1 X101.105Y77.961Z0F800
G1 X101.393Y77.954Z0F800
G1 X101.501Y77.957Z0F800
G1 X101.583Y77.965Z0F800
G1 X101.637Y77.977Z0F800
G1 X101.659Y77.994Z0F800
G1 X101.716Y78.015Z0F800
G1 X101.858Z0F800
G1 X102.073Y77.994Z0F800
G1 X102.348Y77.957Z0F800
G1 X102.672Y77.905Z0F800
G1 X103.034Y77.842Z0F800
G1 X103.421Y77.768Z0F800
G1 X103.821Y77.688Z0F800
G1 X104.614Y77.515Z0F800
G1 X105.319Y77.343Z0F800
G1 X105.608Y77.264Z0F800
G1 X105.84Y77.192Z0F800
G1 X106.002Y77.129Z0F800
G1 X106.083Y77.08Z0F800
G1 X106.122Y77.049Z0F800
G1 X106.196Y77.007Z0F800
G1 X106.301Y76.954Z0F800
G1 X106.433Y76.893Z0F800
G1 X106.757Y76.754Z0F800
G1 X107.136Y76.604Z0F800
G1 X108.072Y76.232Z0F800
G1 X108.945Y75.843Z0F800
G1 X109.776Y75.428Z0F800
G1 X110.585Y74.977Z0F800
G1 X111.418Y74.459Z0F800
G1 X112.295Y73.873Z0F800
G1 X112.679Y73.604Z0F800
G1 X112.988Y73.376Z0F800
G1 X113.106Y73.284Z0F800
G1 X113.194Y73.21Z0F800
G1 X113.25Y73.156Z0F800
G1 X113.27Y73.125Z0F800
G1 X113.259Y73.107Z0F800
G1 X113.228Y73.07Z0F800
G1 X113.178Y73.014Z0F800
G1 X112.922Y72.741Z0F800
G1 X112.673Y72.483Z0F800
G1 X112.373Y72.174Z0F800
G1 X111.648Y71.439Z0F800
G1 X109.214Y69.002Z0F800
G1 X108.378Y69.551Z0F800
G1 X108.015Y69.784Z0F800
G1 X107.673Y69.994Z0F800
G1 X107.356Y70.179Z0F800
G1 X107.069Y70.335Z0F800
G1 X106.816Y70.461Z0F800
G1 X106.602Y70.554Z0F800
G1 X106.432Y70.611Z0F800
G1 X106.309Y70.631Z0F800
G1 X106.249Y70.625Z0F800
G1 X106.204Y70.589Z0F800
G1 X106.171Y70.501Z0F800
G1 X106.149Y70.335Z0F800
G1 X106.142Y70.215Z0F800
G1 X106.136Y70.067Z0F800
G1 X106.132Y69.887Z0F800
G1 X106.128Y69.421Z0F800
G1 Y68.792Z0F800
G1 X106.135Y66.187Z0F800
G1 X106.794Y65.707Z0F800
G1 X106.944Y65.594Z0F800
G1 X107.118Y65.456Z0F800
G1 X107.31Y65.298Z0F800
G1 X107.514Y65.126Z0F800
G1 X107.932Y64.762Z0F800
G1 X108.323Y64.406Z0F800
G1 X108.537Y64.207Z0F800
G1 X108.727Y64.038Z0F800
G1 X108.894Y63.896Z0F800
G1 X109.039Y63.781Z0F800
G1 X109.163Y63.693Z0F800
G1 X109.268Y63.63Z0F800
G1 X109.354Y63.593Z0F800
G1 X109.421Y63.58Z0F800
G1 X109.466Y63.591Z0F800
G1 X109.532Y63.628Z0F800
G1 X109.624Y63.692Z0F800
G1 X109.744Y63.788Z0F800
G1 X109.894Y63.916Z0F800
G1 X110.078Y64.081Z0F800
G1 X110.298Y64.285Z0F800
G1 X110.558Y64.53Z0F800
G1 X110.86Y64.82Z0F800
G1 X111.207Y65.157Z0F800
G1 X112.047Y65.982Z0F800
G1 X113.101Y67.028Z0F800
G1 X114.392Y68.316Z0F800
G1 X115.518Y69.445Z0F800
G1 X116.487Y70.423Z0F800
G1 X117.303Y71.254Z0F800
G1 X117.967Y71.938Z0F800
G1 X118.242Y72.226Z0F800
G1 X118.48Y72.478Z0F800
G1 X118.681Y72.694Z0F800
G1 X118.845Y72.875Z0F800
G1 X118.972Y73.021Z0F800
G1 X119.062Y73.131Z0F800
G1 X119.116Y73.207Z0F800
G1 X119.134Y73.248Z0F800
G1 X119.11Y73.325Z0F800
G1 X119.04Y73.438Z0F800
G1 X118.927Y73.583Z0F800
G1 X118.776Y73.756Z0F800
G1 X118.591Y73.956Z0F800
G1 X118.374Y74.178Z0F800
G1 X118.129Y74.418Z0F800
G1 X117.861Y74.674Z0F800
G1 X116.624Y75.78Z0F800
G1 X115.301Y76.851Z0F800
G1 X114.612Y77.353Z0F800
G1 X113.878Y77.846Z0F800
G1 X113.107Y78.326Z0F800
G1 X112.31Y78.788Z0F800
G1 X111.495Y79.225Z0F800
G1 X110.672Y79.633Z0F800
G1 X109.849Y80.007Z0F800
G1 X109.037Y80.342Z0F800
G1 X108.034Y80.711Z0F800
G1 X107.056Y81.035Z0F800
G1 X106.636Y81.162Z0F800
G1 X106.295Y81.254Z0F800
G1 X106.162Y81.286Z0F800
G1 X106.057Y81.306Z0F800
G1 X105.984Y81.313Z0F800
G1 X105.946Y81.308Z0F800
G1 X105.904Y81.305Z0F800
G1 X105.809Y81.313Z0F800
G1 X105.667Y81.331Z0F800
G1 X105.484Y81.356Z0F800
G1 X105.021Y81.432Z0F800
G1 X103.875Y81.637Z0F800
G1 X103.308Y81.735Z0F800
G1 X103.054Y81.776Z0F800
G1 X102.644Y81.838Z0F800
G1 X102.504Y81.856Z0F800
G1 X101.985Y81.943Z0F800
G1 X101.284Y82.117Z0F800
G1 X100.995Y82.152Z0F800
G1 X100.808Y82.163Z0F800
G1 X100.584Y82.169Z0F800
G1 X100.317Z0F800
G1 X99.999Z0F800
G1 X99.485Y82.159Z0F800
G1 X98.853Y82.143Z0F800
G1 X97.871Y82.107Z0F800
G1 X96.958Y82.056Z0F800
G1 X96.547Y82.026Z0F800
G1 X96.177Y81.994Z0F800
G1 X95.854Y81.959Z0F800
G1 X95.586Y81.924Z0F800
G1 X94.532Y81.763Z0F800
G0 Z2.8F500
G0 X89.097Y67.726Z2.8F1000
G1 Z0F500
G1 X88.965Y67.62Z0F800
G1 X88.391Y67.104Z0F800
G1 X88.161Y66.878Z0F800
G1 X88.3Y66.708Z0F800
G1 X88.829Y66.087Z0F800
G1 X89.314Y65.514Z0F800
G1 X89.56Y65.221Z0F800
G1 X89.799Y65.46Z0F800
G1 X90.102Y65.729Z0F800
G1 X90.133Y65.754Z0F800
G1 X90.128Y65.761Z0F800
G1 X89.934Y65.996Z0F800
G1 X89.753Y66.211Z0F800
G1 X89.097Y66.98Z0F800
G1 Y67.726Z0F800
G0 Z2.8F500
G0 X89.022Y68.822Z2.8F1000
G1 Z0F500
G1 X88.383Y68.307Z0F800
G1 X87.772Y67.758Z0F800
G1 X87.514Y67.505Z0F800
G1 X87.306Y67.285Z0F800
G1 X87.163Y67.11Z0F800
G1 X87.098Y66.995Z0F800
G1 X87.092Y66.928Z0F800
G1 X87.105Y66.852Z0F800
G1 X87.144Y66.76Z0F800
G1 X87.209Y66.648Z0F800
G1 X87.306Y66.51Z0F800
G1 X87.437Y66.341Z0F800
G1 X87.604Y66.137Z0F800
G1 X88.143Y65.505Z0F800
G1 X88.626Y64.935Z0F800
G1 X89.1Y64.369Z0F800
G1 X89.199Y64.258Z0F800
G1 X89.285Y64.174Z0F800
G1 X89.361Y64.114Z0F800
G1 X89.503Y64.055Z0F800
G1 X89.666Z0F800
G1 X89.801Y64.076Z0F800
G1 X89.894Y64.118Z0F800
G1 X89.951Y64.184Z0F800
G1 X89.979Y64.278Z0F800
G1 X89.999Y64.33Z0F800
G1 X90.042Y64.399Z0F800
G1 X90.108Y64.484Z0F800
G1 X90.194Y64.582Z0F800
G1 X90.417Y64.804Z0F800
G1 X90.69Y65.047Z0F800
G1 X91.373Y65.619Z0F800
G1 X91.127Y65.948Z0F800
G1 X90.996Y66.117Z0F800
G1 X90.823Y66.333Z0F800
G1 X90.629Y66.568Z0F800
G1 X90.438Y66.795Z0F800
G1 X89.997Y67.312Z0F800
G1 Y69.165Z0F800
G1 X89.739Z0F800
G1 X89.6Y69.14Z0F800
G1 X89.426Y69.071Z0F800
G1 X89.229Y68.963Z0F800
G1 X89.022Y68.822Z0F800
G0 Z2.8F500
G0 X82.836Y54.707Z2.8F1000
G1 Z0F500
G1 X82.918Y54.728Z0F800
G1 X83.013Y54.779Z0F800
G1 X83.128Y54.866Z0F800
G1 X83.269Y54.996Z0F800
G1 X83.442Y55.174Z0F800
G1 X83.654Y55.407Z0F800
G1 X83.911Y55.701Z0F800
G1 X84.697Y56.623Z0F800
G1 X85.169Y57.165Z0F800
G1 X85.58Y57.628Z0F800
G1 X85.746Y57.811Z0F800
G1 X85.876Y57.95Z0F800
G1 X86.033Y58.111Z0F800
G1 X86.163Y58.238Z0F800
G1 X86.271Y58.334Z0F800
G1 X86.363Y58.402Z0F800
G1 X86.521Y58.469Z0F800
G1 X86.68Z0F800
G1 X86.835Y58.458Z0F800
G1 X86.935Y58.516Z0F800
G1 X86.975Y58.586Z0F800
G1 X87.015Y58.692Z0F800
G1 X87.059Y58.84Z0F800
G1 X87.279Y59.644Z0F800
G1 X86.97Y59.96Z0F800
G1 X86.834Y60.098Z0F800
G1 X86.712Y60.202Z0F800
G1 X86.596Y60.266Z0F800
G1 X86.475Y60.283Z0F800
G1 X86.347Y60.25Z0F800
G1 X86.196Y60.162Z0F800
G1 X86.016Y60.013Z0F800
G1 X85.797Y59.798Z0F800
G1 X85.531Y59.511Z0F800
G1 X85.21Y59.146Z0F800
G1 X85.027Y58.932Z0F800
G1 X84.607Y58.439Z0F800
G1 X82.577Y56.039Z0F800
G1 Y54.677Z0F800
G1 X82.836Y54.707Z0F800
G0 Z2.8F500
G0 X81.807Y38.495Z2.8F1000
G1 Z0F500
G1 X82.439Y39.097Z0F800
G1 X83.14Y39.771Z0F800
G1 X83.885Y40.495Z0F800
G1 X84.65Y41.243Z0F800
G1 X85.412Y41.994Z0F800
G1 X86.146Y42.723Z0F800
G1 X86.836Y43.415Z0F800
G1 X87.437Y44.022Z0F800
G1 X87.945Y44.545Z0F800
G1 X88.162Y44.772Z0F800
G1 X88.321Y44.943Z0F800
G1 X88.404Y45.034Z0F800
G1 X88.409Y45.047Z0F800
G1 X88.665Y45.427Z0F800
G1 X88.877Y45.682Z0F800
G1 X88.948Y45.758Z0F800
G1 X88.591Y46.146Z0F800
G1 X88.101Y46.717Z0F800
G1 X87.863Y47.009Z0F800
G1 X87.644Y47.288Z0F800
G1 X87.442Y47.556Z0F800
G1 X87.291Y47.773Z0F800
G1 X86.7Y48.587Z0F800
G1 X86.431Y48.92Z0F800
G1 X86.22Y48.664Z0F800
G1 X86.504Y48.173Z0F800
G1 X86.924Y47.513Z0F800
G1 X88.192Y45.621Z0F800
G1 X84.695Y42.124Z0F800
G1 X83.952Y41.387Z0F800
G1 X83.375Y40.824Z0F800
G1 X83.076Y40.539Z0F800
G1 X82.863Y40.349Z0F800
G1 X81.755Y39.622Z0F800
G1 X80.552Y40.4Z0F800
G1 X80.294Y40.671Z0F800
G1 X80.138Y40.858Z0F800
G1 X79.988Y41.05Z0F800
G1 X79.829Y41.261Z0F800
G1 X79.657Y41.497Z0F800
G1 X79.474Y41.752Z0F800
G1 X79.28Y42.028Z0F800
G1 X78.881Y42.608Z0F800
G1 X78.48Y43.209Z0F800
G1 X78.102Y43.795Z0F800
G1 X77.761Y44.347Z0F800
G1 X77.534Y44.757Z0F800
G1 X77.294Y45.234Z0F800
G1 X77.054Y45.746Z0F800
G1 X76.822Y46.268Z0F800
G1 X76.609Y46.775Z0F800
G1 X76.428Y47.238Z0F800
G1 X76.347Y47.466Z0F800
G1 X76.276Y47.684Z0F800
G1 X76.208Y47.93Z0F800
G1 X76.156Y48.232Z0F800
G1 X76.115Y48.412Z0F800
G1 X76.041Y48.696Z0F800
G1 X75.96Y48.982Z0F800
G1 X75.861Y49.313Z0F800
G1 X75.777Y49.576Z0F800
G1 X75.701Y49.795Z0F800
G1 X75.632Y49.965Z0F800
G1 X75.529Y50.248Z0F800
G1 X75.432Y50.622Z0F800
G1 X75.351Y51.005Z0F800
G1 X75.274Y51.427Z0F800
G1 X75.135Y52.336Z0F800
G1 X75.014Y53.308Z0F800
G1 X74.961Y53.798Z0F800
G1 X74.917Y54.268Z0F800
G1 X74.883Y54.71Z0F800
G1 X74.858Y55.123Z0F800
G1 X74.847Y55.503Z0F800
G1 X74.852Y55.875Z0F800
G1 X74.91Y56.413Z0F800
G1 X75.002Y56.617Z0F800
G1 X75.005Y56.713Z0F800
G1 X75.021Y57.362Z0F800
G1 X75.072Y58.073Z0F800
G1 X75.154Y58.795Z0F800
G1 X75.266Y59.53Z0F800
G1 X75.406Y60.272Z0F800
G1 X75.572Y61.021Z0F800
G1 X75.765Y61.774Z0F800
G1 X75.986Y62.542Z0F800
G1 X76.488Y64.03Z0F800
G1 X77.076Y65.49Z0F800
G1 X77.41Y66.221Z0F800
G1 X77.759Y66.923Z0F800
G1 X78.126Y67.607Z0F800
G1 X78.514Y68.269Z0F800
G1 X78.968Y68.984Z0F800
G1 X79.451Y69.684Z0F800
G1 X79.96Y70.368Z0F800
G1 X80.495Y71.033Z0F800
G1 X81.052Y71.681Z0F800
G1 X81.634Y72.31Z0F800
G1 X82.236Y72.919Z0F800
G1 X82.859Y73.508Z0F800
G1 X83.502Y74.074Z0F800
G1 X84.163Y74.617Z0F800
G1 X84.841Y75.137Z0F800
G1 X85.536Y75.631Z0F800
G1 X86.246Y76.099Z0F800
G1 X86.97Y76.54Z0F800
G1 X87.708Y76.953Z0F800
G1 X88.197Y77.203Z0F800
G1 Y77.781Z0F800
G1 X87.341Y77.336Z0F800
G1 X86.386Y76.778Z0F800
G1 X85.462Y76.187Z0F800
G1 X84.587Y75.575Z0F800
G1 X83.731Y74.922Z0F800
G1 X82.914Y74.24Z0F800
G1 X82.139Y73.535Z0F800
G1 X81.371Y72.773Z0F800
G1 X80.652Y71.999Z0F800
G1 X80.424Y71.74Z0F800
G1 X80.243Y71.528Z0F800
G1 X80.207Y71.483Z0F800
G1 X80.167Y71.221Z0F800
G1 X79.936Y70.674Z0F800
G1 X79.779Y70.397Z0F800
G1 X79.631Y70.159Z0F800
G1 X79.465Y69.911Z0F800
G1 X79.293Y69.664Z0F800
G1 X78.775Y68.903Z0F800
G1 X78.298Y68.14Z0F800
G1 X78.059Y67.733Z0F800
G1 X77.8Y67.275Z0F800
G1 X77.523Y66.771Z0F800
G1 X77.032Y65.859Z0F800
G1 X76.869Y65.569Z0F800
G1 X76.713Y65.304Z0F800
G1 X76.564Y65.065Z0F800
G1 X76.415Y64.843Z0F800
G1 X76.244Y64.615Z0F800
G1 X76.027Y64.377Z0F800
G1 X75.712Y63.481Z0F800
G1 X75.684Y63.394Z0F800
G1 X75.706Y63.208Z0F800
G1 X75.696Y62.881Z0F800
G1 X75.666Y62.605Z0F800
G1 X75.622Y62.332Z0F800
G1 X75.565Y62.031Z0F800
G1 X75.494Y61.688Z0F800
G1 X75.273Y60.672Z0F800
G1 X75.159Y60.116Z0F800
G1 X75.067Y59.634Z0F800
G1 X74.982Y59.14Z0F800
G1 X74.85Y58.218Z0F800
G1 X74.686Y56.687Z0F800
G1 X74.614Y56.218Z0F800
G1 X74.567Y55.979Z0F800
G1 X74.508Y55.743Z0F800
G1 X74.415Y55.46Z0F800
G1 X74.405Y55.439Z0F800
G1 Y55.362Z0F800
G1 X74.413Y55.152Z0F800
G1 X74.428Y54.86Z0F800
G1 X74.501Y53.863Z0F800
G1 X74.606Y52.829Z0F800
G1 X74.664Y52.351Z0F800
G1 X74.715Y51.981Z0F800
G1 X74.745Y51.795Z0F800
G1 X74.762Y51.694Z0F800
G1 X74.781Y51.603Z0F800
G1 X74.789Y51.569Z0F800
G1 X75.182Y50.121Z0F800
G1 X75.528Y48.856Z0F800
G1 X75.677Y48.323Z0F800
G1 X75.812Y47.851Z0F800
G1 X75.941Y47.416Z0F800
G1 X76.047Y47.066Z0F800
G1 X76.158Y46.72Z0F800
G1 X76.245Y46.467Z0F800
G1 X76.412Y46.023Z0F800
G1 X76.567Y45.676Z0F800
G1 X76.722Y45.382Z0F800
G1 X76.918Y45.057Z0F800
G1 X76.995Y44.934Z0F800
G1 X77.192Y44.606Z0F800
G1 X77.556Y43.983Z0F800
G1 X77.828Y43.511Z0F800
G1 X78.1Y43.031Z0F800
G1 X78.359Y42.569Z0F800
G1 X78.591Y42.151Z0F800
G1 X78.76Y41.837Z0F800
G1 X78.922Y41.557Z0F800
G1 X79.125Y41.248Z0F800
G1 X79.384Y40.889Z0F800
G1 X79.726Y40.45Z0F800
G1 X80.108Y39.986Z0F800
G1 X80.549Y39.475Z0F800
G1 X81.048Y38.918Z0F800
G1 X81.61Y38.311Z0F800
G1 X81.807Y38.495Z0F800
G0 Z2.8F500
G0 X85.281Y40.602Z2.8F1000
G1 Z0F500
G1 X86.045Y41.355Z0F800
G1 X86.786Y42.09Z0F800
G1 X87.47Y42.774Z0F800
G1 X88.086Y43.4Z0F800
G1 X88.603Y43.931Z0F800
G1 X88.808Y44.146Z0F800
G1 X88.985Y44.335Z0F800
G1 X89.125Y44.488Z0F800
G1 X89.191Y44.564Z0F800
G1 X89.217Y44.636Z0F800
G1 X89.386Y44.886Z0F800
G1 X89.554Y45.088Z0F800
G1 X89.748Y45.298Z0F800
G1 X90.183Y45.715Z0F800
G1 X90.207Y45.735Z0F800
G1 X90.136Y45.811Z0F800
G1 X89.728Y46.24Z0F800
G1 X89.264Y46.744Z0F800
G1 X88.792Y47.295Z0F800
G1 X88.565Y47.572Z0F800
G1 X88.357Y47.836Z0F800
G1 X88.171Y48.084Z0F800
G1 X88.032Y48.283Z0F800
G1 X87.415Y49.133Z0F800
G1 X86.765Y49.939Z0F800
G1 X86.591Y50.139Z0F800
G1 X86.452Y50.296Z0F800
G1 X86.439Y50.31Z0F800
G1 X86.412Y50.281Z0F800
G1 X86.256Y50.106Z0F800
G1 X86.061Y49.878Z0F800
G1 X85.838Y49.616Z0F800
G1 X85.465Y49.165Z0F800
G1 X85.152Y48.765Z0F800
G1 X85.145Y48.755Z0F800
G1 X85.184Y48.677Z0F800
G1 X85.339Y48.388Z0F800
G1 X85.736Y47.704Z0F800
G1 X86.172Y47.017Z0F800
G1 X87.032Y45.734Z0F800
G1 X84.061Y42.762Z0F800
G1 X83.321Y42.029Z0F800
G1 X82.75Y41.472Z0F800
G1 X82.465Y41.2Z0F800
G1 X82.313Y41.064Z0F800
G1 X81.752Y40.696Z0F800
G1 X81.13Y41.098Z0F800
G1 X80.966Y41.27Z0F800
G1 X80.838Y41.422Z0F800
G1 X80.703Y41.597Z0F800
G1 X80.552Y41.797Z0F800
G1 X80.386Y42.024Z0F800
G1 X80.208Y42.273Z0F800
G1 X80.019Y42.542Z0F800
G1 X79.626Y43.113Z0F800
G1 X79.232Y43.703Z0F800
G1 X78.862Y44.276Z0F800
G1 X78.538Y44.801Z0F800
G1 X78.331Y45.177Z0F800
G1 X78.104Y45.627Z0F800
G1 X77.873Y46.12Z0F800
G1 X77.648Y46.625Z0F800
G1 X77.443Y47.114Z0F800
G1 X77.271Y47.554Z0F800
G1 X77.199Y47.757Z0F800
G1 X77.138Y47.942Z0F800
G1 X77.087Y48.127Z0F800
G1 X77.038Y48.41Z0F800
G1 X76.984Y48.646Z0F800
G1 X76.913Y48.917Z0F800
G1 X76.818Y49.257Z0F800
G1 X76.725Y49.568Z0F800
G1 X76.631Y49.862Z0F800
G1 X76.546Y50.104Z0F800
G1 X76.472Y50.288Z0F800
G1 X76.39Y50.516Z0F800
G1 X76.308Y50.828Z0F800
G1 X76.234Y51.179Z0F800
G1 X76.162Y51.575Z0F800
G1 X76.027Y52.46Z0F800
G1 X75.908Y53.412Z0F800
G1 X75.857Y53.888Z0F800
G1 X75.814Y54.344Z0F800
G1 X75.781Y54.772Z0F800
G1 X75.757Y55.164Z0F800
G1 X75.747Y55.511Z0F800
G1 X75.751Y55.821Z0F800
G1 X75.789Y56.174Z0F800
G1 X75.887Y56.391Z0F800
G1 X75.898Y56.494Z0F800
G1 X75.905Y56.69Z0F800
G1 X75.92Y57.319Z0F800
G1 X75.968Y57.99Z0F800
G1 X76.046Y58.677Z0F800
G1 X76.153Y59.378Z0F800
G1 X76.287Y60.091Z0F800
G1 X76.448Y60.812Z0F800
G1 X76.634Y61.539Z0F800
G1 X76.845Y62.273Z0F800
G1 X77.332Y63.718Z0F800
G1 X77.903Y65.135Z0F800
G1 X78.223Y65.834Z0F800
G1 X78.558Y66.51Z0F800
G1 X78.911Y67.167Z0F800
G1 X79.282Y67.8Z0F800
G1 X79.718Y68.486Z0F800
G1 X80.183Y69.159Z0F800
G1 X80.672Y69.817Z0F800
G1 X81.187Y70.458Z0F800
G1 X81.724Y71.082Z0F800
G1 X82.284Y71.688Z0F800
G1 X82.865Y72.275Z0F800
G1 X83.466Y72.843Z0F800
G1 X84.085Y73.389Z0F800
G1 X84.722Y73.912Z0F800
G1 X85.376Y74.413Z0F800
G1 X86.045Y74.889Z0F800
G1 X86.728Y75.339Z0F800
G1 X87.424Y75.763Z0F800
G1 X88.132Y76.159Z0F800
G1 X88.843Y76.521Z0F800
G1 X89.097Y76.646Z0F800
G1 Y79.179Z0F800
G1 X88.781Y79.045Z0F800
G1 X87.819Y78.599Z0F800
G1 X86.913Y78.128Z0F800
G1 X85.915Y77.545Z0F800
G1 X84.965Y76.938Z0F800
G1 X84.054Y76.3Z0F800
G1 X83.168Y75.624Z0F800
G1 X82.326Y74.921Z0F800
G1 X81.506Y74.176Z0F800
G1 X80.736Y73.413Z0F800
G1 X79.98Y72.597Z0F800
G1 X79.737Y72.321Z0F800
G1 X79.55Y72.102Z0F800
G1 X79.431Y71.955Z0F800
G1 X79.374Y71.875Z0F800
G1 X79.351Y71.831Z0F800
G1 X79.294Y71.469Z0F800
G1 X79.126Y71.072Z0F800
G1 X79.005Y70.856Z0F800
G1 X78.875Y70.647Z0F800
G1 X78.721Y70.418Z0F800
G1 X78.545Y70.164Z0F800
G1 X78.017Y69.388Z0F800
G1 X77.534Y68.617Z0F800
G1 X77.29Y68.199Z0F800
G1 X77.017Y67.718Z0F800
G1 X76.728Y67.192Z0F800
G1 X76.244Y66.293Z0F800
G1 X76.089Y66.018Z0F800
G1 X75.944Y65.771Z0F800
G1 X75.809Y65.555Z0F800
G1 X75.681Y65.364Z0F800
G1 X75.55Y65.19Z0F800
G1 X75.388Y65.012Z0F800
G1 X75.264Y64.92Z0F800
G1 X75.249Y64.876Z0F800
G1 X74.869Y63.796Z0F800
G1 X74.8Y63.587Z0F800
G1 X74.765Y63.469Z0F800
G1 X74.77Y63.46Z0F800
G1 X74.804Y63.168Z0F800
G1 X74.798Y62.945Z0F800
G1 X74.773Y62.727Z0F800
G1 X74.735Y62.485Z0F800
G1 X74.682Y62.205Z0F800
G1 X74.614Y61.875Z0F800
G1 X74.394Y60.864Z0F800
G1 X74.279Y60.31Z0F800
G1 X74.177Y59.771Z0F800
G1 X74.096Y59.299Z0F800
G1 X73.955Y58.317Z0F800
G1 X73.793Y56.803Z0F800
G1 X73.728Y56.373Z0F800
G1 X73.688Y56.175Z0F800
G1 X73.643Y55.992Z0F800
G1 X73.58Y55.801Z0F800
G1 X73.527Y55.695Z0F800
G1 X73.516Y55.669Z0F800
G1 X73.507Y55.605Z0F800
G1 X73.504Y55.511Z0F800
G1 Y55.339Z0F800
G1 X73.514Y55.106Z0F800
G1 X73.53Y54.793Z0F800
G1 X73.603Y53.798Z0F800
G1 X73.71Y52.737Z0F800
G1 X73.769Y52.258Z0F800
G1 X73.826Y51.841Z0F800
G1 X73.853Y51.67Z0F800
G1 X73.881Y51.509Z0F800
G1 X73.897Y51.428Z0F800
G1 X73.92Y51.334Z0F800
G1 X74.313Y49.887Z0F800
G1 X74.663Y48.61Z0F800
G1 X74.812Y48.076Z0F800
G1 X74.949Y47.596Z0F800
G1 X75.075Y47.169Z0F800
G1 X75.19Y46.792Z0F800
G1 X75.296Y46.461Z0F800
G1 X75.396Y46.167Z0F800
G1 X75.583Y45.671Z0F800
G1 X75.753Y45.291Z0F800
G1 X75.942Y44.933Z0F800
G1 X76.16Y44.573Z0F800
G1 X76.228Y44.464Z0F800
G1 X76.418Y44.147Z0F800
G1 X76.778Y43.531Z0F800
G1 X77.046Y43.064Z0F800
G1 X77.316Y42.588Z0F800
G1 X77.574Y42.131Z0F800
G1 X77.801Y41.72Z0F800
G1 X77.975Y41.396Z0F800
G1 X78.153Y41.088Z0F800
G1 X78.381Y40.741Z0F800
G1 X78.671Y40.34Z0F800
G1 X79.017Y39.896Z0F800
G1 X79.419Y39.406Z0F800
G1 X79.883Y38.869Z0F800
G1 X80.397Y38.296Z0F800
G1 X80.96Y37.688Z0F800
G1 X81.254Y37.377Z0F800
G1 X81.506Y37.119Z0F800
G1 X81.575Y37.051Z0F800
G1 X81.655Y37.124Z0F800
G1 X81.883Y37.333Z0F800
G1 X82.427Y37.843Z0F800
G1 X83.063Y38.449Z0F800
G1 X83.767Y39.126Z0F800
G1 X84.517Y39.854Z0F800
G1 X85.281Y40.602Z0F800
G0 Z2.8F500
G0 X90.106Y44.345Z2.8F1000
G1 Z0F500
G1 X90.231Y44.495Z0F800
G1 X90.391Y44.667Z0F800
G1 X90.784Y45.045Z0F800
G1 X91.221Y45.411Z0F800
G1 X91.319Y45.496Z0F800
G1 X91.395Y45.578Z0F800
G1 X91.44Y45.648Z0F800
G1 X91.449Y45.697Z0F800
G1 X91.421Y45.736Z0F800
G1 X91.355Y45.814Z0F800
G1 X91.254Y45.928Z0F800
G1 X91.123Y46.072Z0F800
G1 X90.788Y46.432Z0F800
G1 X90.385Y46.855Z0F800
G1 X89.937Y47.342Z0F800
G1 X89.481Y47.873Z0F800
G1 X89.267Y48.135Z0F800
G1 X89.071Y48.384Z0F800
G1 X88.9Y48.613Z0F800
G1 X88.76Y48.812Z0F800
G1 X88.132Y49.678Z0F800
G1 X87.453Y50.52Z0F800
G1 X87.271Y50.73Z0F800
G1 X87.109Y50.911Z0F800
G1 X86.966Y51.064Z0F800
G1 X86.837Y51.187Z0F800
G1 X86.719Y51.28Z0F800
G1 X86.609Y51.343Z0F800
G1 X86.502Y51.375Z0F800
G1 X86.396Z0F800
G1 X86.287Y51.345Z0F800
G1 X86.172Y51.282Z0F800
G1 X86.046Y51.186Z0F800
G1 X85.908Y51.057Z0F800
G1 X85.753Y50.894Z0F800
G1 X85.577Y50.697Z0F800
G1 X85.378Y50.465Z0F800
G1 X85.152Y50.198Z0F800
G1 X84.757Y49.72Z0F800
G1 X84.433Y49.307Z0F800
G1 X84.309Y49.138Z0F800
G1 X84.214Y49.002Z0F800
G1 X84.155Y48.904Z0F800
G1 X84.134Y48.851Z0F800
G1 X84.165Y48.733Z0F800
G1 X84.251Y48.532Z0F800
G1 X84.384Y48.265Z0F800
G1 X84.554Y47.949Z0F800
G1 X84.966Y47.238Z0F800
G1 X85.413Y46.535Z0F800
G1 X85.873Y45.848Z0F800
G1 X83.426Y43.399Z0F800
G1 X82.69Y42.671Z0F800
G1 X82.125Y42.12Z0F800
G1 X81.855Y41.862Z0F800
G1 X81.764Y41.78Z0F800
G1 X81.748Y41.77Z0F800
G1 X81.708Y41.796Z0F800
G1 X81.638Y41.87Z0F800
G1 X81.54Y41.987Z0F800
G1 X81.418Y42.144Z0F800
G1 X81.275Y42.333Z0F800
G1 X81.116Y42.552Z0F800
G1 X80.942Y42.794Z0F800
G1 X80.758Y43.056Z0F800
G1 X80.372Y43.618Z0F800
G1 X79.985Y44.197Z0F800
G1 X79.624Y44.756Z0F800
G1 X79.315Y45.256Z0F800
G1 X79.126Y45.597Z0F800
G1 X78.914Y46.021Z0F800
G1 X78.691Y46.494Z0F800
G1 X78.475Y46.982Z0F800
G1 X78.277Y47.452Z0F800
G1 X78.114Y47.869Z0F800
G1 X78.05Y48.048Z0F800
G1 X78Y48.201Z0F800
G1 X77.967Y48.324Z0F800
G1 X77.92Y48.589Z0F800
G1 X77.861Y48.847Z0F800
G1 X77.78Y49.16Z0F800
G1 X77.685Y49.5Z0F800
G1 X77.582Y49.841Z0F800
G1 X77.481Y50.158Z0F800
G1 X77.389Y50.423Z0F800
G1 X77.313Y50.611Z0F800
G1 X77.25Y50.783Z0F800
G1 X77.185Y51.034Z0F800
G1 X77.118Y51.352Z0F800
G1 X77.05Y51.724Z0F800
G1 X76.918Y52.584Z0F800
G1 X76.802Y53.515Z0F800
G1 X76.752Y53.978Z0F800
G1 X76.711Y54.421Z0F800
G1 X76.679Y54.834Z0F800
G1 X76.657Y55.204Z0F800
G1 X76.647Y55.519Z0F800
G1 X76.65Y55.766Z0F800
G1 X76.668Y55.934Z0F800
G1 X76.703Y56.011Z0F800
G1 X76.743Y56.081Z0F800
G1 X76.775Y56.227Z0F800
G1 X76.796Y56.429Z0F800
G1 X76.804Y56.668Z0F800
G1 X76.819Y57.275Z0F800
G1 X76.865Y57.907Z0F800
G1 X76.938Y58.559Z0F800
G1 X77.041Y59.228Z0F800
G1 X77.169Y59.91Z0F800
G1 X77.323Y60.603Z0F800
G1 X77.502Y61.302Z0F800
G1 X77.705Y62.005Z0F800
G1 X78.177Y63.406Z0F800
G1 X78.73Y64.779Z0F800
G1 X79.035Y65.447Z0F800
G1 X79.358Y66.097Z0F800
G1 X79.696Y66.726Z0F800
G1 X80.05Y67.332Z0F800
G1 X80.469Y67.989Z0F800
G1 X80.914Y68.635Z0F800
G1 X81.384Y69.266Z0F800
G1 X81.879Y69.882Z0F800
G1 X82.396Y70.483Z0F800
G1 X82.935Y71.066Z0F800
G1 X83.494Y71.632Z0F800
G1 X84.072Y72.178Z0F800
G1 X84.669Y72.703Z0F800
G1 X85.282Y73.207Z0F800
G1 X85.911Y73.688Z0F800
G1 X86.554Y74.146Z0F800
G1 X87.209Y74.579Z0F800
G1 X87.877Y74.985Z0F800
G1 X88.556Y75.365Z0F800
G1 X89.245Y75.716Z0F800
G1 X89.997Y76.083Z0F800
G1 Y80.342Z0F800
G1 X89.745Z0F800
G1 X89.667Y80.333Z0F800
G1 X89.558Y80.308Z0F800
G1 X89.421Y80.266Z0F800
G1 X89.259Y80.21Z0F800
G1 X88.873Y80.061Z0F800
G1 X88.422Y79.871Z0F800
G1 X87.427Y79.41Z0F800
G1 X86.469Y78.912Z0F800
G1 X85.449Y78.315Z0F800
G1 X84.466Y77.687Z0F800
G1 X83.52Y77.024Z0F800
G1 X82.609Y76.329Z0F800
G1 X81.733Y75.599Z0F800
G1 X80.892Y74.834Z0F800
G1 X80.084Y74.033Z0F800
G1 X79.308Y73.196Z0F800
G1 X79.062Y72.916Z0F800
G1 X78.866Y72.687Z0F800
G1 X78.716Y72.501Z0F800
G1 X78.606Y72.349Z0F800
G1 X78.483Y72.115Z0F800
G1 X78.422Y71.716Z0F800
G1 X78.317Y71.469Z0F800
G1 X78.231Y71.316Z0F800
G1 X78.119Y71.136Z0F800
G1 X77.978Y70.925Z0F800
G1 X77.806Y70.677Z0F800
G1 X77.266Y69.885Z0F800
G1 X76.764Y69.082Z0F800
G1 X76.506Y68.643Z0F800
G1 X76.234Y68.162Z0F800
G1 X75.939Y67.625Z0F800
G1 X75.455Y66.727Z0F800
G1 X75.309Y66.466Z0F800
G1 X75.174Y66.237Z0F800
G1 X75.053Y66.044Z0F800
G1 X74.947Y65.886Z0F800
G1 X74.856Y65.765Z0F800
G1 X74.782Y65.683Z0F800
G1 X74.725Y65.641Z0F800
G1 X74.571Y65.538Z0F800
G1 X74.481Y65.412Z0F800
G1 X74.398Y65.171Z0F800
G1 X74.014Y64.078Z0F800
G1 X73.945Y63.869Z0F800
G1 X73.894Y63.697Z0F800
G1 X73.859Y63.558Z0F800
G1 X73.84Y63.448Z0F800
G1 X73.836Y63.364Z0F800
G1 X73.846Y63.302Z0F800
G1 X73.87Y63.258Z0F800
G1 X73.893Y63.208Z0F800
G1 X73.903Y63.127Z0F800
G1 X73.899Y63.008Z0F800
G1 X73.881Y62.848Z0F800
G1 X73.848Y62.64Z0F800
G1 X73.799Y62.38Z0F800
G1 X73.733Y62.063Z0F800
G1 X73.514Y61.055Z0F800
G1 X73.396Y60.478Z0F800
G1 X73.293Y59.939Z0F800
G1 X73.205Y59.427Z0F800
G1 X73.062Y58.431Z0F800
G1 X72.9Y56.918Z0F800
G1 X72.841Y56.529Z0F800
G1 X72.81Y56.371Z0F800
G1 X72.777Y56.242Z0F800
G1 X72.745Y56.142Z0F800
G1 X72.711Y56.075Z0F800
G1 X72.643Y55.92Z0F800
G1 X72.609Y55.688Z0F800
G1 X72.604Y55.523Z0F800
G1 Y55.316Z0F800
G1 X72.615Y55.06Z0F800
G1 X72.631Y54.747Z0F800
G1 X72.708Y53.708Z0F800
G1 X72.817Y52.629Z0F800
G1 X72.877Y52.134Z0F800
G1 X72.937Y51.701Z0F800
G1 X72.966Y51.515Z0F800
G1 X72.995Y51.354Z0F800
G1 X73.022Y51.219Z0F800
G1 X73.047Y51.115Z0F800
G1 X73.445Y49.649Z0F800
G1 X73.795Y48.372Z0F800
G1 X73.947Y47.829Z0F800
G1 X74.086Y47.342Z0F800
G1 X74.214Y46.906Z0F800
G1 X74.333Y46.518Z0F800
G1 X74.444Y46.171Z0F800
G1 X74.549Y45.862Z0F800
G1 X74.749Y45.332Z0F800
G1 X74.947Y44.89Z0F800
G1 X75.155Y44.495Z0F800
G1 X75.39Y44.107Z0F800
G1 X75.459Y43.995Z0F800
G1 X75.644Y43.688Z0F800
G1 X75.999Y43.08Z0F800
G1 X76.265Y42.618Z0F800
G1 X76.533Y42.146Z0F800
G1 X76.788Y41.692Z0F800
G1 X77.011Y41.288Z0F800
G1 X77.187Y40.962Z0F800
G1 X77.388Y40.614Z0F800
G1 X77.643Y40.226Z0F800
G1 X77.951Y39.799Z0F800
G1 X78.314Y39.333Z0F800
G1 X78.731Y38.827Z0F800
G1 X79.202Y38.281Z0F800
G1 X79.727Y37.695Z0F800
G1 X80.307Y37.069Z0F800
G1 X80.609Y36.75Z0F800
G1 X80.861Y36.491Z0F800
G1 X81.066Y36.289Z0F800
G1 X81.232Y36.136Z0F800
G1 X81.364Y36.029Z0F800
G1 X81.47Y35.962Z0F800
G1 X81.554Y35.929Z0F800
G1 X81.624Y35.925Z0F800
G1 X81.672Y35.951Z0F800
G1 X81.763Y36.021Z0F800
G1 X81.895Y36.13Z0F800
G1 X82.063Y36.278Z0F800
G1 X82.265Y36.461Z0F800
G1 X82.499Y36.677Z0F800
G1 X83.048Y37.191Z0F800
G1 X83.688Y37.8Z0F800
G1 X84.394Y38.48Z0F800
G1 X85.144Y39.208Z0F800
G1 X85.913Y39.961Z0F800
G1 X86.68Y40.716Z0F800
G1 X87.42Y41.451Z0F800
G1 X88.11Y42.143Z0F800
G1 X88.727Y42.768Z0F800
G1 X89.248Y43.303Z0F800
G1 X89.465Y43.531Z0F800
G1 X89.648Y43.727Z0F800
G1 X89.797Y43.889Z0F800
G1 X89.906Y44.015Z0F800
G1 X89.974Y44.102Z0F800
G1 X89.997Y44.146Z0F800
G1 X90.026Y44.226Z0F800
G1 X90.106Y44.345Z0F800
G0 Z2.8F500
G0 X55.542Y51.523Z2.8F1000
G1 Z0F500
G1 X55.628Y51.534Z0F800
G1 X55.921Y51.564Z0F800
G1 X56.505Y51.622Z0F800
G1 Y62.688Z0F800
G1 X55.696Z0F800
G1 X55.481Z0F800
G1 X55.164Y62.683Z0F800
G1 X55.056Y62.679Z0F800
G1 X54.924Y62.667Z0F800
G1 X54.885Y62.647Z0F800
G1 X54.893Y62.604Z0F800
G1 X54.915Y62.519Z0F800
G1 X54.985Y62.267Z0F800
G1 X55.219Y61.386Z0F800
G1 X55.417Y60.487Z0F800
G1 X55.579Y59.575Z0F800
G1 X55.704Y58.656Z0F800
G1 X55.792Y57.733Z0F800
G1 X55.841Y56.812Z0F800
G1 X55.852Y55.897Z0F800
G1 X55.824Y54.994Z0F800
G1 X55.771Y54.206Z0F800
G1 X55.695Y53.441Z0F800
G1 X55.599Y52.708Z0F800
G1 X55.483Y52.019Z0F800
G1 X55.452Y51.853Z0F800
G1 X55.41Y51.604Z0F800
G1 X55.404Y51.551Z0F800
G1 X55.432Y51.517Z0F800
G1 X55.542Y51.523Z0F800
G0 Z2.8F500
G0 X50.784Y38.546Z2.8F1000
G1 Z0F500
G1 X51.2Y38.975Z0F800
G1 X51.618Y39.429Z0F800
G1 X52.067Y39.94Z0F800
G1 X52.479Y40.431Z0F800
G1 X53.327Y41.516Z0F800
G1 X54.121Y42.642Z0F800
G1 X54.664Y43.457Z0F800
G1 Y44.495Z0F800
G1 X54.637Y44.443Z0F800
G1 X54.116Y43.494Z0F800
G1 X53.852Y43.043Z0F800
G1 X53.596Y42.628Z0F800
G1 X53.342Y42.243Z0F800
G1 X53.099Y41.903Z0F800
G1 X52.891Y41.634Z0F800
G1 X52.667Y41.354Z0F800
G1 X52.425Y41.056Z0F800
G1 X52.167Y40.746Z0F800
G1 X51.645Y40.135Z0F800
G1 X51.154Y39.584Z0F800
G1 X50.567Y38.943Z0F800
G1 Y38.335Z0F800
G1 X50.784Y38.546Z0F800
G0 Z2.8F500
G0 X54.051Y40.981Z2.8F1000
G1 Z0F500
G1 X54.86Y42.129Z0F800
G1 X55.563Y43.184Z0F800
G1 Y48.628Z0F800
G1 X55.429Y48.271Z0F800
G1 X55.244Y47.814Z0F800
G1 X54.823Y46.854Z0F800
G1 X54.347Y45.854Z0F800
G1 X53.842Y44.864Z0F800
G1 X53.333Y43.938Z0F800
G1 X53.081Y43.507Z0F800
G1 X52.836Y43.112Z0F800
G1 X52.6Y42.752Z0F800
G1 X52.376Y42.44Z0F800
G1 X52.183Y42.189Z0F800
G1 X51.967Y41.918Z0F800
G1 X51.73Y41.628Z0F800
G1 X51.479Y41.326Z0F800
G1 X50.966Y40.727Z0F800
G1 X50.486Y40.188Z0F800
G1 X49.667Y39.293Z0F800
G1 Y36.413Z0F800
G1 X49.916Y36.582Z0F800
G1 X50.246Y36.835Z0F800
G1 X50.614Y37.147Z0F800
G1 X51.01Y37.509Z0F800
G1 X51.413Y37.902Z0F800
G1 X51.853Y38.355Z0F800
G1 X52.299Y38.84Z0F800
G1 X52.73Y39.331Z0F800
G1 X53.182Y39.869Z0F800
G1 X54.051Y40.981Z0F800
G0 Z2.8F500
G0 X56.463Y42.912Z2.8F1000
G1 Z0F500
G1 Y51.092Z0F800
G1 X55.885Y51.036Z0F800
G1 X55.701Y51.012Z0F800
G1 X55.556Y50.975Z0F800
G1 X55.439Y50.909Z0F800
G1 X55.342Y50.803Z0F800
G1 X55.255Y50.641Z0F800
G1 X55.169Y50.412Z0F800
G1 X55.076Y50.101Z0F800
G1 X54.966Y49.696Z0F800
G1 X54.87Y49.371Z0F800
G1 X54.743Y49.003Z0F800
G1 X54.59Y48.599Z0F800
G1 X54.414Y48.164Z0F800
G1 X54.004Y47.229Z0F800
G1 X53.54Y46.252Z0F800
G1 X53.046Y45.286Z0F800
G1 X52.55Y44.382Z0F800
G1 X52.31Y43.971Z0F800
G1 X52.078Y43.596Z0F800
G1 X51.858Y43.262Z0F800
G1 X51.654Y42.977Z0F800
G1 X51.475Y42.745Z0F800
G1 X51.267Y42.483Z0F800
G1 X51.036Y42.201Z0F800
G1 X50.791Y41.907Z0F800
G1 X50.288Y41.318Z0F800
G1 X49.818Y40.791Z0F800
G1 X48.767Y39.643Z0F800
G1 Y35.311Z0F800
G1 X49.313Z0F800
G1 X49.533Y35.347Z0F800
G1 X49.798Y35.452Z0F800
G1 X50.102Y35.621Z0F800
G1 X50.441Y35.85Z0F800
G1 X50.812Y36.135Z0F800
G1 X51.207Y36.47Z0F800
G1 X51.625Y36.852Z0F800
G1 X52.059Y37.275Z0F800
G1 X52.506Y37.736Z0F800
G1 X52.961Y38.23Z0F800
G1 X53.42Y38.752Z0F800
G1 X53.878Y39.298Z0F800
G1 X54.772Y40.443Z0F800
G1 X55.609Y41.63Z0F800
G1 X56.463Y42.912Z0F800
G0 Z2.8F500
G0 X33.751Y31.45Z2.8F1000
G1 Z0F500
G1 X34.548Y31.478Z0F800
G1 X35.352Y31.532Z0F800
G1 X36.146Y31.611Z0F800
G1 X36.939Y31.714Z0F800
G1 X37.751Y31.846Z0F800
G1 X38.54Y32Z0F800
G1 X39.34Y32.181Z0F800
G1 X40.113Y32.382Z0F800
G1 X40.887Y32.61Z0F800
G1 X41.649Y32.861Z0F800
G1 X42.392Y33.134Z0F800
G1 X42.752Y33.273Z0F800
G1 Y33.796Z0F800
G1 X42.619Y33.742Z0F800
G1 X41.481Y33.302Z0F800
G1 X40.298Y32.913Z0F800
G1 X39.103Y32.587Z0F800
G1 X37.896Y32.325Z0F800
G1 X36.681Y32.126Z0F800
G1 X35.459Y31.992Z0F800
G1 X34.233Y31.921Z0F800
G1 X33.004Y31.915Z0F800
G1 X31.775Y31.971Z0F800
G1 X30.545Y32.091Z0F800
G1 X29.319Y32.275Z0F800
G1 X28.098Y32.522Z0F800
G1 X26.884Y32.832Z0F800
G1 X25.678Y33.205Z0F800
G1 X24.481Y33.64Z0F800
G1 X23.302Y34.135Z0F800
G1 X22.807Y34.368Z0F800
G1 X22.39Y34.585Z0F800
G1 X22.186Y34.703Z0F800
G1 X21.975Y34.837Z0F800
G1 X21.611Y35.124Z0F800
G1 X20.893Y36.217Z0F800
G1 X21.417Y37.414Z0F800
G1 X21.736Y37.758Z0F800
G1 X21.931Y37.92Z0F800
G1 X22.092Y38.036Z0F800
G1 X22.254Y38.144Z0F800
G1 X22.438Y38.262Z0F800
G1 X22.656Y38.397Z0F800
G1 X23.21Y38.73Z0F800
G1 X23.968Y39.177Z0F800
G1 X24.963Y39.759Z0F800
G1 X26.229Y40.494Z0F800
G1 X28.794Y41.979Z0F800
G1 X30.569Y41.542Z0F800
G1 X30.753Y41.504Z0F800
G1 X31.027Y41.461Z0F800
G1 X31.327Y41.424Z0F800
G1 X31.713Y41.386Z0F800
G1 X32.549Y41.33Z0F800
G1 X33.391Y41.306Z0F800
G1 X34.156Y41.32Z0F800
G1 X34.909Y41.369Z0F800
G1 X35.637Y41.451Z0F800
G1 X36.36Y41.567Z0F800
G1 X37.06Y41.717Z0F800
G1 X37.749Y41.9Z0F800
G1 X38.428Y42.118Z0F800
G1 X39.091Y42.369Z0F800
G1 X39.729Y42.648Z0F800
G1 X40.36Y42.964Z0F800
G1 X40.984Y43.317Z0F800
G1 X41.583Y43.697Z0F800
G1 X42.161Y44.105Z0F800
G1 X42.739Y44.56Z0F800
G1 X43.292Y45.039Z0F800
G1 X43.825Y45.549Z0F800
G1 X44.521Y46.291Z0F800
G1 X45.157Y47.057Z0F800
G1 X45.737Y47.85Z0F800
G1 X46.267Y48.678Z0F800
G1 X46.738Y49.528Z0F800
G1 X47.152Y50.4Z0F800
G1 X47.505Y51.289Z0F800
G1 X47.806Y52.216Z0F800
G1 X47.988Y52.931Z0F800
G1 X48.092Y53.63Z0F800
G1 X48.122Y54.041Z0F800
G1 X48.142Y54.57Z0F800
G1 X48.149Y54.91Z0F800
G1 X48.153Y55.251Z0F800
G1 Y56.099Z0F800
G1 Y56.677Z0F800
G1 X48.144Y57.198Z0F800
G1 X48.128Y57.688Z0F800
G1 X48.108Y58.098Z0F800
G1 X48.04Y58.85Z0F800
G1 X47.941Y59.469Z0F800
G1 X47.799Y60.053Z0F800
G1 X47.6Y60.66Z0F800
G1 X47.478Y60.977Z0F800
G1 X47.329Y61.333Z0F800
G1 X47.159Y61.722Z0F800
G1 X46.971Y62.13Z0F800
G1 X46.443Y63.164Z0F800
G1 X45.865Y64.125Z0F800
G1 X45.228Y65.032Z0F800
G1 X44.539Y65.88Z0F800
G1 X43.81Y66.657Z0F800
G1 X43.023Y67.384Z0F800
G1 X42.194Y68.048Z0F800
G1 X41.341Y68.636Z0F800
G1 X40.432Y69.172Z0F800
G1 X39.507Y69.63Z0F800
G1 X38.539Y70.025Z0F800
G1 X37.552Y70.346Z0F800
G1 X36.552Y70.592Z0F800
G1 X35.512Y70.769Z0F800
G1 X34.472Y70.867Z0F800
G1 X33.394Y70.889Z0F800
G1 X32.791Y70.866Z0F800
G1 X32.18Y70.816Z0F800
G1 X31.573Y70.741Z0F800
G1 X30.909Y70.629Z0F800
G1 X30.516Y70.558Z0F800
G1 X30.125Y70.497Z0F800
G1 X29.763Y70.451Z0F800
G1 X29.412Y70.424Z0F800
G1 X29.31Z0F800
G1 Y69.822Z0F800
G1 X29.548Y69.888Z0F800
G1 X30.373Y70.084Z0F800
G1 X31.295Y70.23Z0F800
G1 X32.25Y70.321Z0F800
G1 X33.221Y70.359Z0F800
G1 X34.191Y70.346Z0F800
G1 X35.146Y70.279Z0F800
G1 X36.068Y70.156Z0F800
G1 X36.937Y69.971Z0F800
G1 X38.051Y69.627Z0F800
G1 X39.134Y69.196Z0F800
G1 X40.182Y68.681Z0F800
G1 X41.187Y68.091Z0F800
G1 X42.14Y67.43Z0F800
G1 X43.032Y66.702Z0F800
G1 X43.855Y65.911Z0F800
G1 X44.592Y65.067Z0F800
G1 X45.044Y64.451Z0F800
G1 X45.476Y63.779Z0F800
G1 X45.89Y63.064Z0F800
G1 X46.28Y62.321Z0F800
G1 X46.637Y61.567Z0F800
G1 X46.954Y60.818Z0F800
G1 X47.222Y60.083Z0F800
G1 X47.424Y59.386Z0F800
G1 X47.507Y58.989Z0F800
G1 X47.571Y58.589Z0F800
G1 X47.62Y58.173Z0F800
G1 X47.659Y57.731Z0F800
G1 X47.701Y56.844Z0F800
G1 X47.706Y55.913Z0F800
G1 X47.671Y54.981Z0F800
G1 X47.601Y54.093Z0F800
G1 X47.548Y53.649Z0F800
G1 X47.485Y53.231Z0F800
G1 X47.41Y52.83Z0F800
G1 X47.316Y52.441Z0F800
G1 X47.044Y51.556Z0F800
G1 X46.715Y50.692Z0F800
G1 X46.332Y49.856Z0F800
G1 X45.898Y49.05Z0F800
G1 X45.414Y48.274Z0F800
G1 X44.883Y47.532Z0F800
G1 X44.305Y46.825Z0F800
G1 X43.684Y46.157Z0F800
G1 X43.022Y45.526Z0F800
G1 X42.321Y44.937Z0F800
G1 X41.581Y44.39Z0F800
G1 X40.805Y43.887Z0F800
G1 X39.996Y43.431Z0F800
G1 X39.154Y43.023Z0F800
G1 X38.283Y42.665Z0F800
G1 X37.368Y42.353Z0F800
G1 X36.467Y42.125Z0F800
G1 X35.5Y41.964Z0F800
G1 X34.501Y41.871Z0F800
G1 X33.481Y41.841Z0F800
G1 X32.455Y41.873Z0F800
G1 X31.436Y41.966Z0F800
G1 X30.438Y42.124Z0F800
G1 X29.513Y42.341Z0F800
G1 X28.732Y42.559Z0F800
G1 X26.209Y41.056Z0F800
G1 X23.057Y39.183Z0F800
G1 X19.281Y36.945Z0F800
G1 X18.706Y36.6Z0F800
G1 X18.48Y36.46Z0F800
G1 X18.53Y36.424Z0F800
G1 X19.197Y35.95Z0F800
G1 X19.865Y35.504Z0F800
G1 X20.534Y35.084Z0F800
G1 X21.194Y34.697Z0F800
G1 X21.873Y34.326Z0F800
G1 X22.566Y33.974Z0F800
G1 X23.241Y33.656Z0F800
G1 X23.944Y33.352Z0F800
G1 X24.669Y33.064Z0F800
G1 X25.365Y32.813Z0F800
G1 X26.098Y32.574Z0F800
G1 X26.842Y32.356Z0F800
G1 X27.598Y32.159Z0F800
G1 X28.361Y31.984Z0F800
G1 X29.135Y31.83Z0F800
G1 X29.912Y31.698Z0F800
G1 X30.677Y31.594Z0F800
G1 X31.417Y31.521Z0F800
G1 X32.189Y31.471Z0F800
G1 X32.977Y31.447Z0F800
G1 X33.751Y31.45Z0F800
G0 Z2.8F500
G0 X37.906Y30.959Z2.8F1000
G1 Z0F500
G1 X38.725Y31.118Z0F800
G1 X39.543Y31.304Z0F800
G1 X40.354Y31.515Z0F800
G1 X41.162Y31.752Z0F800
G1 X41.935Y32.007Z0F800
G1 X42.73Y32.3Z0F800
G1 X43.652Y32.656Z0F800
G1 Y35.107Z0F800
G1 X43.526Y35.063Z0F800
G1 X42.95Y34.846Z0F800
G1 X42.288Y34.58Z0F800
G1 X41.178Y34.149Z0F800
G1 X40.039Y33.775Z0F800
G1 X38.888Y33.461Z0F800
G1 X37.728Y33.209Z0F800
G1 X36.559Y33.019Z0F800
G1 X35.384Y32.889Z0F800
G1 X34.205Y32.821Z0F800
G1 X33.022Y32.815Z0F800
G1 X31.839Y32.869Z0F800
G1 X30.656Y32.985Z0F800
G1 X29.476Y33.162Z0F800
G1 X28.299Y33.4Z0F800
G1 X27.128Y33.698Z0F800
G1 X25.964Y34.058Z0F800
G1 X24.81Y34.478Z0F800
G1 X23.668Y34.958Z0F800
G1 X23.207Y35.175Z0F800
G1 X22.823Y35.375Z0F800
G1 X22.653Y35.472Z0F800
G1 X22.497Y35.572Z0F800
G1 X22.283Y35.74Z0F800
G1 X21.913Y36.303Z0F800
G1 X22.18Y36.914Z0F800
G1 X22.355Y37.103Z0F800
G1 X22.481Y37.207Z0F800
G1 X22.605Y37.296Z0F800
G1 X22.747Y37.391Z0F800
G1 X22.917Y37.5Z0F800
G1 X23.126Y37.629Z0F800
G1 X23.67Y37.957Z0F800
G1 X24.423Y38.401Z0F800
G1 X25.417Y38.981Z0F800
G1 X26.681Y39.715Z0F800
G1 X28.932Y41.018Z0F800
G1 X30.363Y40.667Z0F800
G1 X30.599Y40.617Z0F800
G1 X30.894Y40.571Z0F800
G1 X31.246Y40.527Z0F800
G1 X31.628Y40.49Z0F800
G1 X32.499Y40.431Z0F800
G1 X33.394Y40.406Z0F800
G1 X34.198Y40.42Z0F800
G1 X34.977Y40.471Z0F800
G1 X35.76Y40.559Z0F800
G1 X36.522Y40.682Z0F800
G1 X37.277Y40.843Z0F800
G1 X38.004Y41.037Z0F800
G1 X38.723Y41.268Z0F800
G1 X39.423Y41.532Z0F800
G1 X40.116Y41.836Z0F800
G1 X40.792Y42.174Z0F800
G1 X41.436Y42.538Z0F800
G1 X42.087Y42.951Z0F800
G1 X42.702Y43.386Z0F800
G1 X43.306Y43.86Z0F800
G1 X43.903Y44.378Z0F800
G1 X44.463Y44.914Z0F800
G1 X45.199Y45.697Z0F800
G1 X45.867Y46.502Z0F800
G1 X46.479Y47.34Z0F800
G1 X47.039Y48.215Z0F800
G1 X47.54Y49.118Z0F800
G1 X47.976Y50.038Z0F800
G1 X48.355Y50.992Z0F800
G1 X48.67Y51.961Z0F800
G1 X48.872Y52.753Z0F800
G1 X48.988Y53.537Z0F800
G1 X49.021Y53.984Z0F800
G1 X49.042Y54.552Z0F800
G1 X49.049Y54.883Z0F800
G1 X49.053Y55.249Z0F800
G1 Y56.104Z0F800
G1 Y56.691Z0F800
G1 X49.043Y57.239Z0F800
G1 X49.028Y57.713Z0F800
G1 X49.006Y58.161Z0F800
G1 X48.934Y58.958Z0F800
G1 X48.824Y59.648Z0F800
G1 X48.667Y60.296Z0F800
G1 X48.445Y60.969Z0F800
G1 X48.313Y61.312Z0F800
G1 X48.16Y61.68Z0F800
G1 X47.982Y62.086Z0F800
G1 X47.785Y62.513Z0F800
G1 X47.227Y63.607Z0F800
G1 X46.618Y64.619Z0F800
G1 X45.95Y65.571Z0F800
G1 X45.219Y66.47Z0F800
G1 X44.442Y67.298Z0F800
G1 X43.607Y68.07Z0F800
G1 X42.742Y68.763Z0F800
G1 X41.817Y69.401Z0F800
G1 X40.868Y69.96Z0F800
G1 X39.875Y70.452Z0F800
G1 X38.848Y70.871Z0F800
G1 X37.808Y71.209Z0F800
G1 X36.725Y71.477Z0F800
G1 X35.635Y71.661Z0F800
G1 X34.522Y71.766Z0F800
G1 X33.386Y71.789Z0F800
G1 X32.74Y71.764Z0F800
G1 X32.091Y71.711Z0F800
G1 X31.438Y71.63Z0F800
G1 X30.772Y71.519Z0F800
G1 X30.366Y71.446Z0F800
G1 X30Y71.388Z0F800
G1 X29.672Y71.347Z0F800
G1 X29.372Y71.324Z0F800
G1 X29.089Y71.32Z0F800
G1 X28.816Y71.342Z0F800
G1 X28.544Y71.396Z0F800
G1 X28.417Y71.442Z0F800
G1 X28.414Y71.272Z0F800
G1 X28.41Y70.693Z0F800
G1 Y68.762Z0F800
G1 X28.433Y68.753Z0F800
G1 X28.479Y68.743Z0F800
G1 X28.531Y68.739Z0F800
G1 X28.632Y68.744Z0F800
G1 X28.799Y68.769Z0F800
G1 X29.042Y68.82Z0F800
G1 X29.351Y68.899Z0F800
G1 X29.773Y69.017Z0F800
G1 X30.547Y69.201Z0F800
G1 X31.409Y69.337Z0F800
G1 X32.31Y69.423Z0F800
G1 X33.232Y69.459Z0F800
G1 X34.154Y69.446Z0F800
G1 X35.055Y69.383Z0F800
G1 X35.915Y69.269Z0F800
G1 X36.71Y69.099Z0F800
G1 X37.751Y68.778Z0F800
G1 X38.769Y68.373Z0F800
G1 X39.755Y67.888Z0F800
G1 X40.701Y67.332Z0F800
G1 X41.598Y66.71Z0F800
G1 X42.435Y66.027Z0F800
G1 X43.203Y65.289Z0F800
G1 X43.889Y64.504Z0F800
G1 X44.302Y63.941Z0F800
G1 X44.708Y63.31Z0F800
G1 X45.102Y62.63Z0F800
G1 X45.474Y61.919Z0F800
G1 X45.815Y61.199Z0F800
G1 X46.116Y60.488Z0F800
G1 X46.366Y59.803Z0F800
G1 X46.55Y59.168Z0F800
G1 X46.622Y58.826Z0F800
G1 X46.679Y58.465Z0F800
G1 X46.725Y58.081Z0F800
G1 X46.761Y57.67Z0F800
G1 X46.801Y56.82Z0F800
G1 X46.805Y55.928Z0F800
G1 X46.773Y55.034Z0F800
G1 X46.705Y54.181Z0F800
G1 X46.656Y53.769Z0F800
G1 X46.598Y53.382Z0F800
G1 X46.529Y53.018Z0F800
G1 X46.448Y52.679Z0F800
G1 X46.192Y51.848Z0F800
G1 X45.884Y51.04Z0F800
G1 X45.526Y50.257Z0F800
G1 X45.119Y49.501Z0F800
G1 X44.666Y48.775Z0F800
G1 X44.167Y48.08Z0F800
G1 X43.626Y47.417Z0F800
G1 X43.043Y46.789Z0F800
G1 X42.422Y46.198Z0F800
G1 X41.763Y45.644Z0F800
G1 X41.068Y45.13Z0F800
G1 X40.338Y44.658Z0F800
G1 X39.578Y44.229Z0F800
G1 X38.786Y43.845Z0F800
G1 X37.966Y43.508Z0F800
G1 X37.112Y43.217Z0F800
G1 X36.282Y43.006Z0F800
G1 X35.385Y42.857Z0F800
G1 X34.446Y42.77Z0F800
G1 X33.482Y42.741Z0F800
G1 X32.51Y42.771Z0F800
G1 X31.547Y42.859Z0F800
G1 X30.611Y43.007Z0F800
G1 X29.737Y43.213Z0F800
G1 X28.604Y43.53Z0F800
G1 X25.75Y41.83Z0F800
G1 X22.598Y39.957Z0F800
G1 X18.822Y37.72Z0F800
G1 X18.242Y37.371Z0F800
G1 X17.76Y37.073Z0F800
G1 X17.38Y36.823Z0F800
G1 X17.077Y36.603Z0F800
G1 X16.961Y36.504Z0F800
G1 X17.044Y36.426Z0F800
G1 X17.301Y36.217Z0F800
G1 X17.612Y35.981Z0F800
G1 X18.011Y35.689Z0F800
G1 X18.691Y35.206Z0F800
G1 X19.37Y34.753Z0F800
G1 X20.061Y34.319Z0F800
G1 X20.759Y33.909Z0F800
G1 X21.444Y33.534Z0F800
G1 X22.164Y33.168Z0F800
G1 X22.884Y32.829Z0F800
G1 X23.605Y32.517Z0F800
G1 X24.33Y32.23Z0F800
G1 X25.094Y31.954Z0F800
G1 X25.825Y31.716Z0F800
G1 X26.599Y31.489Z0F800
G1 X27.373Y31.288Z0F800
G1 X28.17Y31.105Z0F800
G1 X28.981Y30.943Z0F800
G1 X29.788Y30.807Z0F800
G1 X30.56Y30.701Z0F800
G1 X31.354Y30.622Z0F800
G1 X32.147Y30.571Z0F800
G1 X32.953Y30.547Z0F800
G1 X33.77Y30.55Z0F800
G1 X34.595Y30.579Z0F800
G1 X35.424Y30.635Z0F800
G1 X36.242Y30.716Z0F800
G1 X37.091Y30.827Z0F800
G1 X37.906Y30.959Z0F800
G0 Z2.8F500
G0 X42.238Y31.16Z2.8F1000
G1 Z0F500
G1 X43.041Y31.455Z0F800
G1 X44.552Y32.039Z0F800
G1 Y36.268Z0F800
G1 X44.049Y36.172Z0F800
G1 X43.915Y36.14Z0F800
G1 X43.728Y36.083Z0F800
G1 X43.495Y36.006Z0F800
G1 X43.227Y35.911Z0F800
G1 X42.613Y35.681Z0F800
G1 X41.958Y35.417Z0F800
G1 X40.875Y34.997Z0F800
G1 X39.78Y34.637Z0F800
G1 X38.674Y34.336Z0F800
G1 X37.56Y34.094Z0F800
G1 X36.437Y33.911Z0F800
G1 X35.309Y33.786Z0F800
G1 X34.176Y33.721Z0F800
G1 X33.041Y33.715Z0F800
G1 X31.904Y33.767Z0F800
G1 X30.767Y33.878Z0F800
G1 X29.631Y34.048Z0F800
G1 X28.5Y34.277Z0F800
G1 X27.373Y34.565Z0F800
G1 X26.251Y34.911Z0F800
G1 X25.138Y35.316Z0F800
G1 X24.034Y35.78Z0F800
G1 X23.605Y35.982Z0F800
G1 X23.255Y36.164Z0F800
G1 X23.12Y36.242Z0F800
G1 X23.019Y36.307Z0F800
G1 X22.955Y36.357Z0F800
G1 X22.933Y36.39Z0F800
G1 X22.943Y36.413Z0F800
G1 X22.975Y36.447Z0F800
G1 X23.032Y36.495Z0F800
G1 X23.119Y36.557Z0F800
G1 X23.239Y36.638Z0F800
G1 X23.397Y36.738Z0F800
G1 X23.595Y36.861Z0F800
G1 X24.131Y37.184Z0F800
G1 X24.879Y37.625Z0F800
G1 X25.869Y38.203Z0F800
G1 X27.132Y38.937Z0F800
G1 X29.069Y40.058Z0F800
G1 X30.167Y39.788Z0F800
G1 X30.435Y39.732Z0F800
G1 X30.764Y39.68Z0F800
G1 X31.143Y39.633Z0F800
G1 X31.56Y39.592Z0F800
G1 X32.463Y39.531Z0F800
G1 X33.385Y39.506Z0F800
G1 X34.23Y39.521Z0F800
G1 X35.063Y39.575Z0F800
G1 X35.883Y39.667Z0F800
G1 X36.689Y39.797Z0F800
G1 X37.481Y39.966Z0F800
G1 X38.258Y40.173Z0F800
G1 X39.021Y40.418Z0F800
G1 X39.767Y40.7Z0F800
G1 X40.497Y41.02Z0F800
G1 X41.209Y41.376Z0F800
G1 X41.905Y41.77Z0F800
G1 X42.583Y42.2Z0F800
G1 X43.243Y42.667Z0F800
G1 X43.883Y43.169Z0F800
G1 X44.504Y43.708Z0F800
G1 X45.105Y44.283Z0F800
G1 X45.87Y45.097Z0F800
G1 X46.577Y45.948Z0F800
G1 X47.225Y46.835Z0F800
G1 X47.813Y47.754Z0F800
G1 X48.339Y48.704Z0F800
G1 X48.803Y49.681Z0F800
G1 X49.202Y50.684Z0F800
G1 X49.535Y51.711Z0F800
G1 X49.755Y52.576Z0F800
G1 X49.883Y53.437Z0F800
G1 X49.919Y53.94Z0F800
G1 X49.942Y54.534Z0F800
G1 X49.949Y54.874Z0F800
G1 X49.953Y55.247Z0F800
G1 Y56.109Z0F800
G1 Y56.706Z0F800
G1 X49.943Y57.254Z0F800
G1 X49.927Y57.758Z0F800
G1 X49.904Y58.225Z0F800
G1 X49.828Y59.067Z0F800
G1 X49.707Y59.826Z0F800
G1 X49.532Y60.545Z0F800
G1 X49.294Y61.269Z0F800
G1 X49.148Y61.646Z0F800
G1 X48.984Y62.042Z0F800
G1 X48.799Y62.462Z0F800
G1 X48.593Y62.911Z0F800
G1 X48.017Y64.04Z0F800
G1 X47.373Y65.11Z0F800
G1 X46.666Y66.117Z0F800
G1 X45.898Y67.061Z0F800
G1 X45.075Y67.939Z0F800
G1 X44.199Y68.75Z0F800
G1 X43.273Y69.49Z0F800
G1 X42.304Y70.159Z0F800
G1 X41.293Y70.754Z0F800
G1 X40.245Y71.273Z0F800
G1 X39.162Y71.715Z0F800
G1 X38.05Y72.077Z0F800
G1 X36.912Y72.357Z0F800
G1 X35.751Y72.554Z0F800
G1 X34.572Y72.666Z0F800
G1 X33.377Y72.689Z0F800
G1 X32.69Y72.663Z0F800
G1 X31.999Y72.607Z0F800
G1 X31.306Y72.521Z0F800
G1 X30.611Y72.405Z0F800
G1 X30.216Y72.333Z0F800
G1 X29.874Y72.279Z0F800
G1 X29.581Y72.243Z0F800
G1 X29.331Y72.223Z0F800
G1 X29.12Z0F800
G1 X28.94Y72.235Z0F800
G1 X28.789Y72.265Z0F800
G1 X28.659Y72.313Z0F800
G1 X28.249Y72.451Z0F800
G1 X27.869Y72.509Z0F800
G1 X27.757Y72.499Z0F800
G1 X27.672Y72.456Z0F800
G1 X27.608Y72.357Z0F800
G1 X27.564Y72.185Z0F800
G1 X27.548Y72.064Z0F800
G1 X27.535Y71.917Z0F800
G1 X27.526Y71.74Z0F800
G1 X27.519Y71.532Z0F800
G1 X27.514Y71.291Z0F800
G1 X27.51Y70.693Z0F800
G1 Y68.156Z0F800
G1 X28.027Y67.942Z0F800
G1 X28.185Y67.886Z0F800
G1 X28.346Y67.851Z0F800
G1 X28.521Y67.837Z0F800
G1 X28.721Y67.848Z0F800
G1 X28.958Y67.882Z0F800
G1 X29.242Y67.943Z0F800
G1 X29.584Y68.03Z0F800
G1 X29.998Y68.145Z0F800
G1 X30.722Y68.317Z0F800
G1 X31.521Y68.444Z0F800
G1 X32.37Y68.524Z0F800
G1 X33.243Y68.559Z0F800
G1 X34.116Y68.546Z0F800
G1 X34.964Y68.487Z0F800
G1 X35.761Y68.381Z0F800
G1 X36.483Y68.227Z0F800
G1 X37.452Y67.929Z0F800
G1 X38.403Y67.549Z0F800
G1 X39.328Y67.095Z0F800
G1 X40.216Y66.573Z0F800
G1 X41.056Y65.99Z0F800
G1 X41.838Y65.353Z0F800
G1 X42.551Y64.667Z0F800
G1 X43.186Y63.941Z0F800
G1 X43.56Y63.431Z0F800
G1 X43.939Y62.841Z0F800
G1 X44.313Y62.195Z0F800
G1 X44.668Y61.518Z0F800
G1 X44.994Y60.831Z0F800
G1 X45.278Y60.158Z0F800
G1 X45.51Y59.523Z0F800
G1 X45.676Y58.95Z0F800
G1 X45.736Y58.663Z0F800
G1 X45.788Y58.341Z0F800
G1 X45.83Y57.988Z0F800
G1 X45.863Y57.61Z0F800
G1 X45.901Y56.797Z0F800
G1 X45.905Y55.942Z0F800
G1 X45.874Y55.086Z0F800
G1 X45.809Y54.27Z0F800
G1 X45.764Y53.889Z0F800
G1 X45.71Y53.533Z0F800
G1 X45.649Y53.207Z0F800
G1 X45.579Y52.917Z0F800
G1 X45.341Y52.141Z0F800
G1 X45.054Y51.388Z0F800
G1 X44.72Y50.658Z0F800
G1 X44.34Y49.954Z0F800
G1 X43.917Y49.276Z0F800
G1 X43.453Y48.627Z0F800
G1 X42.947Y48.008Z0F800
G1 X42.403Y47.422Z0F800
G1 X41.822Y46.869Z0F800
G1 X41.206Y46.351Z0F800
G1 X40.555Y45.87Z0F800
G1 X39.873Y45.428Z0F800
G1 X39.16Y45.026Z0F800
G1 X38.418Y44.667Z0F800
G1 X37.65Y44.351Z0F800
G1 X36.856Y44.08Z0F800
G1 X36.098Y43.888Z0F800
G1 X35.269Y43.75Z0F800
G1 X34.391Y43.668Z0F800
G1 X33.482Y43.642Z0F800
G1 X32.565Y43.67Z0F800
G1 X31.659Y43.753Z0F800
G1 X30.784Y43.891Z0F800
G1 X29.961Y44.084Z0F800
G1 X28.474Y44.5Z0F800
G1 X25.289Y42.603Z0F800
G1 X22.139Y40.73Z0F800
G1 X18.363Y38.494Z0F800
G1 X17.778Y38.143Z0F800
G1 X17.278Y37.833Z0F800
G1 X16.861Y37.559Z0F800
G1 X16.524Y37.314Z0F800
G1 X16.265Y37.093Z0F800
G1 X16.082Y36.892Z0F800
G1 X15.973Y36.702Z0F800
G1 X15.935Y36.52Z0F800
G1 X15.966Y36.339Z0F800
G1 X16.064Y36.154Z0F800
G1 X16.227Y35.959Z0F800
G1 X16.452Y35.748Z0F800
G1 X16.737Y35.516Z0F800
G1 X17.08Y35.256Z0F800
G1 X17.478Y34.963Z0F800
G1 X18.178Y34.467Z0F800
G1 X18.883Y33.996Z0F800
G1 X19.594Y33.55Z0F800
G1 X20.311Y33.128Z0F800
G1 X21.036Y32.732Z0F800
G1 X21.769Y32.359Z0F800
G1 X22.509Y32.011Z0F800
G1 X23.259Y31.687Z0F800
G1 X24.019Y31.385Z0F800
G1 X24.788Y31.107Z0F800
G1 X25.568Y30.853Z0F800
G1 X26.36Y30.621Z0F800
G1 X27.164Y30.412Z0F800
G1 X27.979Y30.225Z0F800
G1 X28.809Y30.06Z0F800
G1 X29.651Y29.917Z0F800
G1 X30.457Y29.807Z0F800
G1 X31.276Y29.726Z0F800
G1 X32.105Y29.672Z0F800
G1 X32.944Y29.647Z0F800
G1 X33.79Y29.65Z0F800
G1 X34.641Y29.68Z0F800
G1 X35.496Y29.738Z0F800
G1 X36.353Y29.823Z0F800
G1 X37.209Y29.935Z0F800
G1 X38.063Y30.073Z0F800
G1 X38.914Y30.238Z0F800
G1 X39.758Y30.43Z0F800
G1 X40.595Y30.647Z0F800
G1 X41.422Y30.891Z0F800
G1 X42.238Y31.16Z0F800
G0 Z2.8F500
G0 X54.287Y69.306Z2.8F1000
G1 Z0F500
G1 X53.733Y70.126Z0F800
G1 X53.165Y70.906Z0F800
G1 X52.563Y71.67Z0F800
G1 X51.949Y72.394Z0F800
G1 X51.3Y73.102Z0F800
G1 X50.643Y73.767Z0F800
G1 X49.957Y74.408Z0F800
G1 X49.259Y75.012Z0F800
G1 X48.526Y75.597Z0F800
G1 X47.786Y76.143Z0F800
G1 X47.005Y76.67Z0F800
G1 X46.224Y77.156Z0F800
G1 X45.411Y77.616Z0F800
G1 X44.583Y78.043Z0F800
G1 X43.7Y78.467Z0F800
G1 X42.892Y78.83Z0F800
G1 X42.13Y79.144Z0F800
G1 X41.394Y79.417Z0F800
G1 X40.652Y79.66Z0F800
G1 X39.888Y79.879Z0F800
G1 X39.052Y80.089Z0F800
G1 X38.14Y80.293Z0F800
G1 X37.69Y80.379Z0F800
G1 X37.207Y80.454Z0F800
G1 X36.699Y80.517Z0F800
G1 X36.112Y80.575Z0F800
G1 X34.912Y80.654Z0F800
G1 X33.642Y80.688Z0F800
G1 X32.381Y80.677Z0F800
G1 X31.155Y80.619Z0F800
G1 X30.615Y80.575Z0F800
G1 X30.058Y80.516Z0F800
G1 X29.574Y80.45Z0F800
G1 X29.134Y80.375Z0F800
G1 X28.394Y80.216Z0F800
G1 X27.539Y80.003Z0F800
G1 X26.69Y79.769Z0F800
G1 X25.791Y79.499Z0F800
G1 X25.408Y79.376Z0F800
G1 X25.03Y79.25Z0F800
G1 X24.708Y79.136Z0F800
G1 X24.401Y79.022Z0F800
G1 X24.162Y78.926Z0F800
G1 X24.015Y78.86Z0F800
G1 X23.981Y78.842Z0F800
G1 X23.84Y78.74Z0F800
G1 X23.585Y78.582Z0F800
G1 X23.3Y78.415Z0F800
G1 X22.966Y78.226Z0F800
G1 X22.59Y78.02Z0F800
G1 X22.177Y77.798Z0F800
G1 X21.737Y77.567Z0F800
G1 X20.837Y77.1Z0F800
G1 X20.432Y76.882Z0F800
G1 X20.056Y76.673Z0F800
G1 X19.742Y76.492Z0F800
G1 X19.461Y76.324Z0F800
G1 X19.269Y76.2Z0F800
G1 X19.216Y76.163Z0F800
G1 X19.077Y76.018Z0F800
G1 X18.769Y75.738Z0F800
G1 X18.741Y75.714Z0F800
G1 X18.936Y75.559Z0F800
G1 X19.067Y75.443Z0F800
G1 X19.186Y75.351Z0F800
G1 X19.406Y75.196Z0F800
G1 X19.657Y75.03Z0F800
G1 X20.281Y74.639Z0F800
G1 X20.947Y74.246Z0F800
G1 Y77.096Z0F800
G1 X22.646Y77.944Z0F800
G1 X23.196Y78.205Z0F800
G1 X23.786Y78.456Z0F800
G1 X24.396Y78.691Z0F800
G1 X25.039Y78.914Z0F800
G1 X26.336Y79.298Z0F800
G1 X27.705Y79.623Z0F800
G1 X29.117Y79.879Z0F800
G1 X30.558Y80.067Z0F800
G1 X32.013Y80.182Z0F800
G1 X33.457Y80.22Z0F800
G1 X34.401Y80.204Z0F800
G1 X35.32Y80.157Z0F800
G1 X36.227Y80.079Z0F800
G1 X37.121Y79.968Z0F800
G1 X38.004Y79.825Z0F800
G1 X38.875Y79.649Z0F800
G1 X39.736Y79.439Z0F800
G1 X40.587Y79.196Z0F800
G1 X41.43Y78.918Z0F800
G1 X42.263Y78.607Z0F800
G1 X43.088Y78.261Z0F800
G1 X43.907Y77.881Z0F800
G1 X44.719Y77.467Z0F800
G1 X45.524Y77.019Z0F800
G1 X46.327Y76.537Z0F800
G1 X47.132Y76.017Z0F800
G1 X47.548Y75.726Z0F800
G1 X47.979Y75.399Z0F800
G1 X48.42Y75.044Z0F800
G1 X48.876Y74.657Z0F800
G1 X49.776Y73.842Z0F800
G1 X50.68Y72.961Z0F800
G1 X51.55Y72.052Z0F800
G1 X52.351Y71.15Z0F800
G1 X52.727Y70.696Z0F800
G1 X53.072Y70.258Z0F800
G1 X53.389Y69.828Z0F800
G1 X53.661Y69.427Z0F800
G1 X54.055Y68.815Z0F800
G1 X54.593Z0F800
G1 X54.287Y69.306Z0F800
G0 Z2.8F500
G0 X52.621Y72.994Z2.8F1000
G1 Z0F500
G1 X51.961Y73.713Z0F800
G1 X51.267Y74.415Z0F800
G1 X50.563Y75.073Z0F800
G1 X49.826Y75.711Z0F800
G1 X49.078Y76.308Z0F800
G1 X48.3Y76.882Z0F800
G1 X47.509Y77.417Z0F800
G1 X46.683Y77.93Z0F800
G1 X45.84Y78.407Z0F800
G1 X44.97Y78.856Z0F800
G1 X44.089Y79.279Z0F800
G1 X43.236Y79.662Z0F800
G1 X42.456Y79.983Z0F800
G1 X41.702Y80.262Z0F800
G1 X40.918Y80.519Z0F800
G1 X40.103Y80.753Z0F800
G1 X39.269Y80.963Z0F800
G1 X38.317Y81.176Z0F800
G1 X37.86Y81.264Z0F800
G1 X37.325Y81.346Z0F800
G1 X36.779Y81.414Z0F800
G1 X36.2Y81.471Z0F800
G1 X34.958Y81.553Z0F800
G1 X33.645Y81.589Z0F800
G1 X32.355Y81.576Z0F800
G1 X31.1Y81.517Z0F800
G1 X30.523Y81.47Z0F800
G1 X29.962Y81.411Z0F800
G1 X29.429Y81.338Z0F800
G1 X28.963Y81.259Z0F800
G1 X28.184Y81.091Z0F800
G1 X27.333Y80.879Z0F800
G1 X26.412Y80.625Z0F800
G1 X25.547Y80.365Z0F800
G1 X25.122Y80.229Z0F800
G1 X24.734Y80.1Z0F800
G1 X24.379Y79.975Z0F800
G1 X24.078Y79.862Z0F800
G1 X23.813Y79.756Z0F800
G1 X23.624Y79.671Z0F800
G1 X23.518Y79.616Z0F800
G1 X23.452Y79.57Z0F800
G1 X23.339Y79.488Z0F800
G1 X23.12Y79.352Z0F800
G1 X22.852Y79.195Z0F800
G1 X22.529Y79.013Z0F800
G1 X22.161Y78.812Z0F800
G1 X21.754Y78.593Z0F800
G1 X21.32Y78.364Z0F800
G1 X20.433Y77.904Z0F800
G1 X20.006Y77.675Z0F800
G1 X19.628Y77.465Z0F800
G1 X19.271Y77.26Z0F800
G1 X18.987Y77.088Z0F800
G1 X18.769Y76.949Z0F800
G1 X18.643Y76.859Z0F800
G1 X18.606Y76.828Z0F800
G1 X18.449Y76.663Z0F800
G1 X18.177Y76.416Z0F800
G1 X17.872Y76.161Z0F800
G1 X17.586Y75.94Z0F800
G1 X17.357Y75.746Z0F800
G1 X17.259Y75.63Z0F800
G1 X17.375Y75.556Z0F800
G1 X17.9Y75.234Z0F800
G1 X18.356Y74.87Z0F800
G1 X18.495Y74.748Z0F800
G1 X18.664Y74.618Z0F800
G1 X18.877Y74.467Z0F800
G1 X19.167Y74.274Z0F800
G1 X19.811Y73.872Z0F800
G1 X20.551Y73.435Z0F800
G1 X20.898Y73.239Z0F800
G1 X21.248Y73.048Z0F800
G1 X21.59Y72.867Z0F800
G1 X21.847Y72.737Z0F800
G1 Y76.54Z0F800
G1 X23.04Y77.135Z0F800
G1 X23.565Y77.384Z0F800
G1 X24.124Y77.622Z0F800
G1 X24.706Y77.845Z0F800
G1 X25.314Y78.057Z0F800
G1 X26.567Y78.428Z0F800
G1 X27.889Y78.741Z0F800
G1 X29.256Y78.99Z0F800
G1 X30.651Y79.172Z0F800
G1 X32.061Y79.283Z0F800
G1 X33.461Y79.32Z0F800
G1 X34.371Y79.304Z0F800
G1 X35.259Y79.259Z0F800
G1 X36.133Y79.184Z0F800
G1 X36.994Y79.077Z0F800
G1 X37.842Y78.94Z0F800
G1 X38.68Y78.77Z0F800
G1 X39.506Y78.569Z0F800
G1 X40.323Y78.335Z0F800
G1 X41.131Y78.069Z0F800
G1 X41.931Y77.77Z0F800
G1 X42.725Y77.438Z0F800
G1 X43.513Y77.072Z0F800
G1 X44.295Y76.672Z0F800
G1 X45.074Y76.24Z0F800
G1 X45.851Y75.773Z0F800
G1 X46.629Y75.271Z0F800
G1 X47.018Y74.998Z0F800
G1 X47.425Y74.689Z0F800
G1 X47.847Y74.35Z0F800
G1 X48.283Y73.98Z0F800
G1 X49.16Y73.186Z0F800
G1 X50.041Y72.328Z0F800
G1 X50.888Y71.442Z0F800
G1 X51.667Y70.564Z0F800
G1 X52.027Y70.13Z0F800
G1 X52.356Y69.712Z0F800
G1 X52.654Y69.308Z0F800
G1 X52.91Y68.931Z0F800
G1 X53.564Y67.917Z0F800
G1 X55.314Y67.914Z0F800
G1 X55.755Z0F800
G1 X56.16Y67.922Z0F800
G1 X56.106Y68.022Z0F800
G1 X55.589Y68.919Z0F800
G1 X55.039Y69.8Z0F800
G1 X54.471Y70.642Z0F800
G1 X53.876Y71.458Z0F800
G1 X53.264Y72.236Z0F800
G1 X52.621Y72.994Z0F800
G0 Z2.8F500
G0 X50.405Y76.4Z2.8F1000
G1 Z0F500
G1 X49.624Y77.024Z0F800
G1 X48.819Y77.617Z0F800
G1 X47.992Y78.176Z0F800
G1 X47.142Y78.704Z0F800
G1 X46.27Y79.198Z0F800
G1 X45.376Y79.66Z0F800
G1 X44.458Y80.1Z0F800
G1 X43.602Y80.484Z0F800
G1 X42.786Y80.82Z0F800
G1 X41.987Y81.116Z0F800
G1 X41.183Y81.38Z0F800
G1 X40.349Y81.619Z0F800
G1 X39.465Y81.842Z0F800
G1 X38.506Y82.056Z0F800
G1 X38.003Y82.152Z0F800
G1 X37.46Y82.236Z0F800
G1 X36.881Y82.308Z0F800
G1 X36.272Y82.368Z0F800
G1 X34.991Y82.453Z0F800
G1 X33.661Y82.489Z0F800
G1 X32.33Y82.476Z0F800
G1 X31.043Y82.415Z0F800
G1 X30.432Y82.366Z0F800
G1 X29.849Y82.304Z0F800
G1 X29.301Y82.229Z0F800
G1 X28.793Y82.143Z0F800
G1 X27.984Y81.969Z0F800
G1 X27.093Y81.747Z0F800
G1 X26.172Y81.493Z0F800
G1 X25.273Y81.223Z0F800
G1 X24.848Y81.087Z0F800
G1 X24.448Y80.953Z0F800
G1 X24.08Y80.823Z0F800
G1 X23.749Y80.7Z0F800
G1 X23.463Y80.585Z0F800
G1 X23.229Y80.48Z0F800
G1 X23.052Y80.388Z0F800
G1 X22.939Y80.31Z0F800
G1 X22.837Y80.236Z0F800
G1 X22.655Y80.123Z0F800
G1 X22.403Y79.975Z0F800
G1 X22.092Y79.8Z0F800
G1 X21.732Y79.603Z0F800
G1 X21.332Y79.388Z0F800
G1 X20.903Y79.162Z0F800
G1 X20.009Y78.698Z0F800
G1 X19.581Y78.468Z0F800
G1 X19.182Y78.247Z0F800
G1 X18.822Y78.04Z0F800
G1 X18.512Y77.853Z0F800
G1 X18.262Y77.693Z0F800
G1 X18.082Y77.565Z0F800
G1 X17.982Y77.477Z0F800
G1 X17.821Y77.309Z0F800
G1 X17.585Y77.095Z0F800
G1 X17.308Y76.862Z0F800
G1 X17.019Y76.639Z0F800
G1 X16.72Y76.385Z0F800
G1 X16.502Y76.129Z0F800
G1 X16.364Y75.875Z0F800
G1 X16.307Y75.627Z0F800
G1 X16.331Y75.391Z0F800
G1 X16.436Y75.17Z0F800
G1 X16.624Y74.97Z0F800
G1 X16.893Y74.795Z0F800
G1 X17.383Y74.496Z0F800
G1 X17.776Y74.181Z0F800
G1 X17.922Y74.052Z0F800
G1 X18.126Y73.896Z0F800
G1 X18.379Y73.717Z0F800
G1 X18.674Y73.521Z0F800
G1 X19.354Y73.096Z0F800
G1 X20.094Y72.66Z0F800
G1 X20.466Y72.45Z0F800
G1 X20.827Y72.252Z0F800
G1 X21.17Y72.071Z0F800
G1 X21.485Y71.912Z0F800
G1 X21.763Y71.779Z0F800
G1 X21.998Y71.679Z0F800
G1 X22.178Y71.615Z0F800
G1 X22.296Y71.592Z0F800
G1 X22.747Z0F800
G1 Y75.983Z0F800
G1 X23.434Y76.326Z0F800
G1 X23.935Y76.563Z0F800
G1 X24.462Y76.788Z0F800
G1 X25.015Y77Z0F800
G1 X25.59Y77.2Z0F800
G1 X26.799Y77.558Z0F800
G1 X28.073Y77.86Z0F800
G1 X29.395Y78.1Z0F800
G1 X30.745Y78.276Z0F800
G1 X32.108Y78.384Z0F800
G1 X33.465Y78.42Z0F800
G1 X34.34Y78.405Z0F800
G1 X35.197Y78.361Z0F800
G1 X36.039Y78.289Z0F800
G1 X36.867Y78.186Z0F800
G1 X37.681Y78.054Z0F800
G1 X38.484Y77.892Z0F800
G1 X39.276Y77.699Z0F800
G1 X40.058Y77.475Z0F800
G1 X40.833Y77.22Z0F800
G1 X41.6Y76.933Z0F800
G1 X42.361Y76.614Z0F800
G1 X43.119Y76.263Z0F800
G1 X43.872Y75.878Z0F800
G1 X44.624Y75.46Z0F800
