;LightBurn 1.6.04
;Custom GCode device profile, absolute coords
;Bounds: X13.58 Y19.27 to X122.42 Y94.73
G00 G17 G40 G21 G54
G90
M3
G1 Z10 F500
;Cut @ 15 mm/sec, 90% power

M8
G0 Z2.8F500
G0 X64.343Y26.102Z2.8F1000
G1 Z0F500
;Layer Blue
G1 X64.611Z0S900F800
G1 X64.662Y26.111Z0F800
G1 X64.728Y26.144Z0F800
G1 X64.815Y26.208Z0F800
G1 X64.93Y26.311Z0F800
G1 X65.081Y26.461Z0F800
G1 X65.273Y26.665Z0F800
G1 X65.514Y26.932Z0F800
G1 X65.81Y27.27Z0F800
G1 X66.168Y27.685Z0F800
G1 X66.595Y28.186Z0F800
G1 X67.097Y28.78Z0F800
G1 X68.356Y30.281Z0F800
G1 X69.998Y32.248Z0F800
G1 X72.205Y34.9Z0F800
G1 X73.348Y36.278Z0F800
G1 X74.384Y37.531Z0F800
G1 X75.287Y38.628Z0F800
G1 X76.033Y39.538Z0F800
G1 X76.597Y40.232Z0F800
G1 X76.954Y40.679Z0F800
G1 X77.047Y40.8Z0F800
G1 X77.078Y40.847Z0F800
G1 X77.07Y40.88Z0F800
G1 X77.045Y40.937Z0F800
G1 X77.005Y41.015Z0F800
G1 X76.953Y41.111Z0F800
G1 X76.817Y41.343Z0F800
G1 X76.554Y41.764Z0F800
G1 X76.442Y41.949Z0F800
G1 X76.32Y42.157Z0F800
G1 X76.19Y42.382Z0F800
G1 X75.926Y42.852Z0F800
G1 X75.682Y43.305Z0F800
G1 X75.518Y43.614Z0F800
G1 X75.385Y43.855Z0F800
G1 X75.277Y44.036Z0F800
G1 X75.188Y44.166Z0F800
G1 X75.112Y44.252Z0F800
G1 X75.041Y44.304Z0F800
G1 X74.971Y44.328Z0F800
G1 X74.894Y44.335Z0F800
G1 X74.799Y44.307Z0F800
G1 X74.66Y44.207Z0F800
G1 X74.566Y44.122Z0F800
G1 X74.453Y44.01Z0F800
G1 X74.317Y43.868Z0F800
G1 X74.156Y43.692Z0F800
G1 X73.967Y43.479Z0F800
G1 X73.747Y43.227Z0F800
G1 X73.494Y42.932Z0F800
G1 X72.876Y42.202Z0F800
G1 X72.091Y41.264Z0F800
G1 X71.02Y39.98Z0F800
G1 X69.931Y38.678Z0F800
G1 X69.274Y37.898Z0F800
G1 X68.937Y37.5Z0F800
G1 X68.695Y37.216Z0F800
G1 X68.56Y37.063Z0F800
G1 X68.537Y37.039Z0F800
G1 X68.523Y37.057Z0F800
G1 X68.509Y37.123Z0F800
G1 X68.497Y37.234Z0F800
G1 X68.487Y37.384Z0F800
G1 X68.471Y37.781Z0F800
G1 X68.466Y38.275Z0F800
G1 Y39.555Z0F800
G1 X73.23Y45.208Z0F800
G1 X74.128Y46.277Z0F800
G1 X74.158Y46.328Z0F800
G1 X74.174Y46.393Z0F800
G1 Y46.481Z0F800
G1 X74.156Y46.599Z0F800
G1 X74.12Y46.753Z0F800
G1 X74.064Y46.951Z0F800
G1 X73.987Y47.201Z0F800
G1 X73.886Y47.509Z0F800
G1 X73.556Y48.608Z0F800
G1 X73.266Y49.723Z0F800
G1 X73.19Y50.049Z0F800
G1 X73.128Y50.306Z0F800
G1 X73.076Y50.5Z0F800
G1 X73.031Y50.64Z0F800
G1 X72.988Y50.735Z0F800
G1 X72.945Y50.792Z0F800
G1 X72.897Y50.821Z0F800
G1 X72.84Y50.828Z0F800
G1 X72.802Z0F800
G1 X72.759Y50.823Z0F800
G1 X72.714Y50.807Z0F800
G1 X72.652Y50.768Z0F800
G1 X72.57Y50.701Z0F800
G1 X72.465Y50.604Z0F800
G1 X72.334Y50.474Z0F800
G1 X72.175Y50.306Z0F800
G1 X71.985Y50.1Z0F800
G1 X71.761Y49.851Z0F800
G1 X71.501Y49.556Z0F800
G1 X71.201Y49.212Z0F800
G1 X70.86Y48.816Z0F800
G1 X70.04Y47.857Z0F800
G1 X69.02Y46.653Z0F800
G1 X64.343Y41.108Z0F800
G1 Y26.102Z0F800
G0 Z2.8F500
G0 X62.541Y44.931Z2.8F1000
G1 Z0F500
G1 X62.932Y44.964Z0F800
G1 X63.089Y44.985Z0F800
G1 X63.212Y45.018Z0F800
G1 X63.292Y45.06Z0F800
G1 X63.321Y45.108Z0F800
G1 X63.346Y45.177Z0F800
G1 X63.415Y45.282Z0F800
G1 X63.517Y45.407Z0F800
G1 X63.641Y45.539Z0F800
G1 X63.759Y45.654Z0F800
G1 X63.874Y45.773Z0F800
G1 X63.954Y45.861Z0F800
G1 X64.204Y46.147Z0F800
G1 X64.635Y46.652Z0F800
G1 X66.046Y48.322Z0F800
G1 X69.451Y52.362Z0F800
G1 X70.572Y53.703Z0F800
G1 X71.223Y54.486Z0F800
G1 X71.777Y55.158Z0F800
G1 X72.218Y55.698Z0F800
G1 X72.528Y56.085Z0F800
G1 X72.63Y56.215Z0F800
G1 X72.692Y56.299Z0F800
G1 X72.713Y56.335Z0F800
G1 X72.735Y56.906Z0F800
G1 X72.783Y57.54Z0F800
G1 X72.855Y58.222Z0F800
G1 X72.948Y58.936Z0F800
G1 X73.189Y60.394Z0F800
G1 X73.49Y61.786Z0F800
G1 X73.717Y62.724Z0F800
G1 X73.786Y63.019Z0F800
G1 X73.812Y63.139Z0F800
G1 X73.786Y63.154Z0F800
G1 X73.715Y63.164Z0F800
G1 X73.611Z0F800
G1 X73.484Y63.161Z0F800
G1 X73.279Y63.134Z0F800
G1 X73.098Y63.025Z0F800
G1 X72.984Y62.913Z0F800
G1 X72.838Y62.748Z0F800
G1 X72.648Y62.519Z0F800
G1 X72.282Y62.072Z0F800
G1 X71.954Y61.681Z0F800
G1 X71.621Y61.29Z0F800
G1 X71.083Y60.652Z0F800
G1 X70.88Y60.421Z0F800
G1 X70.637Y60.14Z0F800
G1 X70.075Y59.46Z0F800
G1 X69.74Y59.063Z0F800
G1 X69.319Y58.57Z0F800
G1 X69.099Y58.307Z0F800
G1 X68.768Y57.914Z0F800
G1 X68.182Y57.23Z0F800
G1 X67.778Y56.763Z0F800
G1 X67.402Y56.332Z0F800
G1 X67.085Y55.973Z0F800
G1 X66.86Y55.723Z0F800
G1 X66.792Y55.651Z0F800
G1 X66.759Y55.62Z0F800
G1 X66.753Y55.63Z0F800
G1 X66.747Y55.669Z0F800
G1 X66.742Y55.737Z0F800
G1 X66.732Y55.958Z0F800
G1 X66.723Y56.295Z0F800
G1 X66.714Y56.749Z0F800
G1 X66.707Y57.322Z0F800
G1 X66.701Y58.014Z0F800
G1 X66.691Y59.763Z0F800
G1 X66.685Y62.006Z0F800
G1 Y64.752Z0F800
G1 Y68.012Z0F800
G1 X66.71Y86.037Z0F800
G1 X74.178Y86.085Z0F800
G1 Y65.743Z0F800
G1 X74.43Z0F800
G1 X74.635Y65.765Z0F800
G1 X74.773Y65.813Z0F800
G1 X74.802Y65.849Z0F800
G1 X74.85Y65.925Z0F800
G1 X74.915Y66.037Z0F800
G1 X74.994Y66.18Z0F800
G1 X75.183Y66.541Z0F800
G1 X75.397Y66.969Z0F800
G1 X75.909Y67.962Z0F800
G1 X76.463Y68.939Z0F800
G1 X77.054Y69.887Z0F800
G1 X77.672Y70.794Z0F800
G1 X78.301Y71.674Z0F800
G1 Y90.206Z0F800
G1 X62.541Z0F800
G1 Y44.931Z0F800
G0 Z2.8F500
G0 X78.354Y47.653Z2.8F1000
G1 Z0F500
G1 X78.528Y47.241Z0F800
G1 X78.724Y46.796Z0F800
G1 X78.927Y46.35Z0F800
G1 X79.125Y45.932Z0F800
G1 X79.305Y45.572Z0F800
G1 X79.445Y45.307Z0F800
G1 X79.561Y45.096Z0F800
G1 X79.658Y44.934Z0F800
G1 X79.741Y44.814Z0F800
G1 X79.885Y44.675Z0F800
G1 X80.031Y44.627Z0F800
G1 X80.124Y44.639Z0F800
G1 X80.251Y44.715Z0F800
G1 X80.336Y44.786Z0F800
G1 X80.441Y44.886Z0F800
G1 X80.568Y45.016Z0F800
G1 X80.721Y45.182Z0F800
G1 X80.904Y45.387Z0F800
G1 X81.12Y45.636Z0F800
G1 X81.372Y45.931Z0F800
G1 X82.002Y46.677Z0F800
G1 X82.82Y47.658Z0F800
G1 X83.918Y48.979Z0F800
G1 X84.759Y49.984Z0F800
G1 X85.672Y51.068Z0F800
G1 X86.012Y51.466Z0F800
G1 X86.256Y51.748Z0F800
G1 X86.392Y51.899Z0F800
G1 X86.416Y51.921Z0F800
G1 X86.438Y51.907Z0F800
G1 X86.487Y51.86Z0F800
G1 X86.561Y51.782Z0F800
G1 X86.781Y51.539Z0F800
G1 X87.087Y51.192Z0F800
G1 X87.68Y50.504Z0F800
G1 X88.148Y49.954Z0F800
G1 X88.662Y49.345Z0F800
G1 X89.756Y48.037Z0F800
G1 X90.269Y47.427Z0F800
G1 X90.737Y46.874Z0F800
G1 X91.149Y46.391Z0F800
G1 X91.492Y45.993Z0F800
G1 X91.756Y45.692Z0F800
G1 X91.929Y45.501Z0F800
G1 X91.978Y45.452Z0F800
G1 X92Y45.435Z0F800
G1 X92.044Y45.406Z0F800
G1 X92.13Y45.324Z0F800
G1 X92.252Y45.195Z0F800
G1 X92.403Y45.028Z0F800
G1 X92.773Y44.603Z0F800
G1 X93.193Y44.106Z0F800
G1 X93.616Y43.591Z0F800
G1 X93.996Y43.116Z0F800
G1 X94.155Y42.91Z0F800
G1 X94.286Y42.735Z0F800
G1 X94.383Y42.597Z0F800
G1 X94.492Y42.417Z0F800
G1 X94.575Y42.297Z0F800
G1 X94.683Y42.148Z0F800
G1 X94.813Y41.977Z0F800
G1 X95.118Y41.589Z0F800
G1 X95.456Y41.175Z0F800
G1 X95.791Y40.778Z0F800
G1 X96.086Y40.441Z0F800
G1 X96.207Y40.309Z0F800
G1 X96.306Y40.207Z0F800
G1 X96.377Y40.143Z0F800
G1 X96.448Y40.103Z0F800
G1 X96.505Y40.053Z0F800
G1 X96.584Y39.975Z0F800
G1 X96.682Y39.871Z0F800
G1 X96.924Y39.6Z0F800
G1 X97.21Y39.266Z0F800
G1 X97.516Y38.897Z0F800
G1 X97.821Y38.519Z0F800
G1 X98.102Y38.158Z0F800
G1 X98.441Y37.697Z0F800
G1 X98.584Y37.509Z0F800
G1 X98.758Y37.284Z0F800
G1 X98.957Y37.031Z0F800
G1 X99.402Y36.472Z0F800
G1 X99.871Y35.896Z0F800
G1 X100.133Y35.581Z0F800
G1 X100.368Y35.306Z0F800
G1 X100.575Y35.071Z0F800
G1 X100.754Y34.878Z0F800
G1 X100.903Y34.727Z0F800
G1 X101.022Y34.619Z0F800
G1 X101.112Y34.553Z0F800
G1 X101.17Y34.531Z0F800
G1 X101.283Y34.554Z0F800
G1 X101.446Y34.618Z0F800
G1 X101.652Y34.718Z0F800
G1 X101.892Y34.85Z0F800
G1 X102.444Y35.183Z0F800
G1 X103.038Y35.573Z0F800
G1 X103.611Y35.979Z0F800
G1 X104.099Y36.355Z0F800
G1 X104.291Y36.519Z0F800
G1 X104.438Y36.659Z0F800
G1 X104.532Y36.77Z0F800
G1 X104.566Y36.847Z0F800
G1 X104.512Y36.955Z0F800
G1 X104.384Y37.053Z0F800
G1 X104.339Y37.094Z0F800
G1 X104.243Y37.197Z0F800
G1 X104.099Y37.358Z0F800
G1 X103.677Y37.841Z0F800
G1 X103.095Y38.52Z0F800
G1 X102.375Y39.368Z0F800
G1 X101.539Y40.359Z0F800
G1 X100.608Y41.468Z0F800
G1 X99.604Y42.67Z0F800
G1 X98.043Y44.543Z0F800
G1 X97.056Y45.724Z0F800
G1 X96.144Y46.812Z0F800
G1 X95.329Y47.78Z0F800
G1 X94.634Y48.601Z0F800
G1 X94.083Y49.248Z0F800
G1 X93.697Y49.694Z0F800
G1 X93.574Y49.833Z0F800
G1 X93.353Y50.066Z0F800
G1 X93.163Y50.275Z0F800
G1 X92.937Y50.53Z0F800
G1 X92.683Y50.823Z0F800
G1 X92.117Y51.487Z0F800
G1 X91.523Y52.197Z0F800
G1 X91.233Y52.549Z0F800
G1 X90.958Y52.885Z0F800
G1 X90.704Y53.2Z0F800
G1 X90.48Y53.482Z0F800
G1 X90.291Y53.724Z0F800
G1 X90.145Y53.918Z0F800
G1 X90.05Y54.054Z0F800
G1 X89.973Y54.194Z0F800
G1 X89.873Y54.335Z0F800
G1 X89.718Y54.538Z0F800
G1 X89.515Y54.796Z0F800
G1 X89.272Y55.1Z0F800
G1 X88.994Y55.441Z0F800
G1 X88.689Y55.81Z0F800
G1 X88.114Y56.495Z0F800
G1 X87.69Y56.995Z0F800
G1 X87.352Y57.384Z0F800
G1 X87.211Y57.542Z0F800
G1 X87.088Y57.677Z0F800
G1 X86.979Y57.79Z0F800
G1 X86.802Y57.962Z0F800
G1 X86.665Y58.071Z0F800
G1 X86.555Y58.13Z0F800
G1 X86.46Y58.152Z0F800
G1 X86.355Y58.143Z0F800
G1 X86.214Y58.063Z0F800
G1 X86.116Y57.981Z0F800
G1 X85.993Y57.863Z0F800
G1 X85.838Y57.703Z0F800
G1 X85.647Y57.493Z0F800
G1 X85.413Y57.229Z0F800
G1 X85.132Y56.904Z0F800
G1 X84.798Y56.512Z0F800
G1 X84.404Y56.047Z0F800
G1 X83.418Y54.871Z0F800
G1 X82.131Y53.328Z0F800
G1 X80.56Y51.438Z0F800
G1 X79.873Y50.607Z0F800
G1 X79.274Y49.879Z0F800
G1 X78.779Y49.274Z0F800
G1 X78.405Y48.812Z0F800
G1 X78.169Y48.514Z0F800
G1 X78.107Y48.432Z0F800
G1 X78.086Y48.399Z0F800
G1 X78.095Y48.348Z0F800
G1 X78.12Y48.263Z0F800
G1 X78.16Y48.147Z0F800
G1 X78.213Y48.004Z0F800
G1 X78.354Y47.653Z0F800
G0 Z2.8F500
G0 X77.558Y50.648Z2.8F1000
G1 Z0F500
G1 X77.639Y50.677Z0F800
G1 X77.744Y50.745Z0F800
G1 X77.88Y50.858Z0F800
G1 X78.052Y51.021Z0F800
G1 X78.265Y51.242Z0F800
G1 X78.525Y51.524Z0F800
G1 X78.837Y51.875Z0F800
G1 X79.015Y52.078Z0F800
G1 X79.416Y52.542Z0F800
G1 X79.883Y53.089Z0F800
G1 X80.421Y53.724Z0F800
G1 X81.037Y54.455Z0F800
G1 X82.975Y56.76Z0F800
G1 X83.777Y57.711Z0F800
G1 X84.506Y58.571Z0F800
G1 X85.145Y59.321Z0F800
G1 X85.676Y59.939Z0F800
G1 X86.081Y60.406Z0F800
G1 X86.342Y60.699Z0F800
G1 X86.413Y60.775Z0F800
G1 X86.441Y60.799Z0F800
G1 X86.457Y60.786Z0F800
G1 X86.543Y60.695Z0F800
G1 X86.792Y60.412Z0F800
G1 X87.027Y60.141Z0F800
G1 X87.628Y59.438Z0F800
G1 X88.35Y58.583Z0F800
G1 X89.126Y57.668Z0F800
G1 X89.874Y56.801Z0F800
G1 X90.211Y56.417Z0F800
G1 X90.509Y56.081Z0F800
G1 X90.757Y55.806Z0F800
G1 X91.139Y55.399Z0F800
G1 X91.365Y55.152Z0F800
G1 X91.616Y54.872Z0F800
G1 X91.887Y54.565Z0F800
G1 X92.463Y53.901Z0F800
G1 X93.046Y53.216Z0F800
G1 X93.326Y52.883Z0F800
G1 X93.589Y52.566Z0F800
G1 X93.831Y52.271Z0F800
G1 X94.045Y52.006Z0F800
G1 X94.226Y51.778Z0F800
G1 X94.367Y51.593Z0F800
G1 X94.463Y51.459Z0F800
G1 X94.538Y51.329Z0F800
G1 X94.609Y51.23Z0F800
G1 X94.72Y51.084Z0F800
G1 X94.872Y50.892Z0F800
G1 X95.066Y50.653Z0F800
G1 X95.301Y50.365Z0F800
G1 X95.899Y49.643Z0F800
G1 X96.672Y48.721Z0F800
G1 X97.622Y47.593Z0F800
G1 X98.755Y46.255Z0F800
G1 X100.075Y44.702Z0F800
G1 X101.558Y42.951Z0F800
G1 X102.989Y41.251Z0F800
G1 X104.382Y39.588Z0F800
G1 Y37.086Z0F800
G1 X104.674Y37.114Z0F800
G1 X104.847Y37.159Z0F800
G1 X105.03Y37.284Z0F800
G1 X105.138Y37.388Z0F800
G1 X105.265Y37.525Z0F800
G1 X105.415Y37.701Z0F800
G1 X105.594Y37.919Z0F800
G1 X106.115Y38.611Z0F800
G1 X106.59Y39.337Z0F800
G1 X107.011Y40.085Z0F800
G1 X107.369Y40.84Z0F800
G1 X107.537Y41.226Z0F800
G1 X107.601Y41.382Z0F800
G1 X107.651Y41.52Z0F800
G1 X107.703Y41.756Z0F800
G1 X107.682Y41.972Z0F800
G1 X107.641Y42.083Z0F800
G1 X107.578Y42.202Z0F800
G1 X107.492Y42.333Z0F800
G1 X107.381Y42.482Z0F800
G1 X107.244Y42.652Z0F800
G1 X107.08Y42.848Z0F800
G1 X106.667Y43.335Z0F800
G1 X106.174Y43.91Z0F800
G1 X105.659Y44.497Z0F800
G1 X105.412Y44.774Z0F800
G1 X105.182Y45.029Z0F800
G1 X104.978Y45.253Z0F800
G1 X104.607Y45.648Z0F800
G1 X104.385Y45.89Z0F800
G1 X104.145Y46.157Z0F800
G1 X103.893Y46.442Z0F800
G1 X103.367Y47.045Z0F800
G1 X102.849Y47.652Z0F800
G1 X102.604Y47.943Z0F800
G1 X102.377Y48.217Z0F800
G1 X102.17Y48.469Z0F800
G1 X101.99Y48.693Z0F800
G1 X101.842Y48.882Z0F800
G1 X101.73Y49.032Z0F800
G1 X101.659Y49.136Z0F800
G1 X101.634Y49.189Z0F800
G1 X101.613Y49.226Z0F800
G1 X101.553Y49.309Z0F800
G1 X101.457Y49.435Z0F800
G1 X101.162Y49.804Z0F800
G1 X100.748Y50.311Z0F800
G1 X100.235Y50.933Z0F800
G1 X99.641Y51.646Z0F800
G1 X98.645Y52.836Z0F800
G1 X97.937Y53.677Z0F800
G1 X97.217Y54.529Z0F800
G1 X96.505Y55.368Z0F800
G1 X95.82Y56.172Z0F800
G1 X95.181Y56.918Z0F800
G1 X94.609Y57.582Z0F800
G1 X94.121Y58.142Z0F800
G1 X93.739Y58.575Z0F800
G1 X93.593Y58.736Z0F800
G1 X93.277Y59.073Z0F800
G1 X93.05Y59.321Z0F800
G1 X92.804Y59.595Z0F800
G1 X92.543Y59.889Z0F800
G1 X91.997Y60.517Z0F800
G1 X91.449Y61.158Z0F800
G1 X91.187Y61.471Z0F800
G1 X90.938Y61.77Z0F800
G1 X90.708Y62.05Z0F800
G1 X90.501Y62.305Z0F800
G1 X90.323Y62.53Z0F800
G1 X90.178Y62.72Z0F800
G1 X90.07Y62.868Z0F800
G1 X90.005Y62.969Z0F800
G1 X89.937Y63.069Z0F800
G1 X89.812Y63.237Z0F800
G1 X89.636Y63.462Z0F800
G1 X89.417Y63.736Z0F800
G1 X89.161Y64.05Z0F800
G1 X88.877Y64.396Z0F800
G1 X88.57Y64.764Z0F800
G1 X88.017Y65.418Z0F800
G1 X87.617Y65.885Z0F800
G1 X87.292Y66.256Z0F800
G1 X87.156Y66.408Z0F800
G1 X87.035Y66.54Z0F800
G1 X86.927Y66.652Z0F800
G1 X86.751Y66.825Z0F800
G1 X86.616Y66.936Z0F800
G1 X86.514Y66.995Z0F800
G1 X86.434Y67.012Z0F800
G1 X86.389Y67.001Z0F800
G1 X86.327Y66.965Z0F800
G1 X86.244Y66.9Z0F800
G1 X86.135Y66.801Z0F800
G1 X85.998Y66.664Z0F800
G1 X85.828Y66.486Z0F800
G1 X85.621Y66.26Z0F800
G1 X85.374Y65.984Z0F800
G1 X85.083Y65.653Z0F800
G1 X84.743Y65.262Z0F800
G1 X84.352Y64.808Z0F800
G1 X83.4Y63.691Z0F800
G1 X82.521Y62.654Z0F800
G1 X76.776Y55.85Z0F800
G1 X76.882Y54.368Z0F800
G1 X76.986Y53.272Z0F800
G1 X77.133Y52.133Z0F800
G1 X77.21Y51.626Z0F800
G1 X77.285Y51.203Z0F800
G1 X77.32Y51.033Z0F800
G1 X77.353Y50.896Z0F800
G1 X77.382Y50.795Z0F800
G1 X77.408Y50.735Z0F800
G1 X77.448Y50.682Z0F800
G1 X77.496Y50.651Z0F800
G1 X77.558Y50.648Z0F800
G0 Z2.8F500
G0 X90.18Y54.086Z2.8F1000
G1 Z0F500
G1 X92.266Y51.58Z0F800
G1 X92.74Y51.016Z0F800
G1 X93.115Y50.578Z0F800
G1 X93.27Y50.401Z0F800
G1 X93.405Y50.25Z0F800
G1 X93.523Y50.123Z0F800
G1 X93.714Y49.933Z0F800
G1 X93.856Y49.816Z0F800
G1 X93.963Y49.757Z0F800
G1 X94.051Y49.74Z0F800
G1 X94.304Z0F800
G1 Y51.444Z0F800
G1 X92.228Y53.904Z0F800
G1 X91.751Y54.464Z0F800
G1 X91.377Y54.895Z0F800
G1 X91.223Y55.068Z0F800
G1 X91.089Y55.215Z0F800
G1 X90.973Y55.337Z0F800
G1 X90.786Y55.518Z0F800
G1 X90.646Y55.628Z0F800
G1 X90.538Y55.682Z0F800
G1 X90.447Y55.696Z0F800
G1 X90.18Z0F800
G1 Y54.086Z0F800
G0 Z2.8F500
G0 X91.648Y45.429Z2.8F1000
G1 Z0F500
G1 X91.51Y45.397Z0F800
G1 X91.33Y45.29Z0F800
G1 X91.221Y45.206Z0F800
G1 X91.098Y45.1Z0F800
G1 X90.958Y44.971Z0F800
G1 X90.802Y44.819Z0F800
G1 X90.18Y44.202Z0F800
G1 Y34.647Z0F800
G1 X90.803Y34.369Z0F800
G1 X91.464Y34.104Z0F800
G1 X92.207Y33.857Z0F800
G1 X92.974Y33.646Z0F800
G1 X93.708Y33.488Z0F800
G1 X94.033Y33.436Z0F800
G1 X94.377Y33.393Z0F800
G1 X94.698Y33.363Z0F800
G1 X94.956Y33.349Z0F800
G1 X95.47Y33.34Z0F800
G1 X97.328Y35.55Z0F800
G1 X97.62Y35.902Z0F800
G1 X97.885Y36.226Z0F800
G1 X98.118Y36.514Z0F800
G1 X98.312Y36.759Z0F800
G1 X98.46Y36.951Z0F800
G1 X98.556Y37.083Z0F800
G1 X98.594Y37.147Z0F800
G1 X98.576Y37.202Z0F800
G1 X98.513Y37.31Z0F800
G1 X98.41Y37.463Z0F800
G1 X98.271Y37.656Z0F800
G1 X98.101Y37.883Z0F800
G1 X97.905Y38.136Z0F800
G1 X97.688Y38.41Z0F800
G1 X97.453Y38.698Z0F800
G1 X96.973Y39.28Z0F800
G1 X96.777Y39.511Z0F800
G1 X96.606Y39.702Z0F800
G1 X96.455Y39.855Z0F800
G1 X96.321Y39.971Z0F800
G1 X96.2Y40.051Z0F800
G1 X96.088Y40.095Z0F800
G1 X95.982Y40.104Z0F800
G1 X95.877Y40.08Z0F800
G1 X95.769Y40.023Z0F800
G1 X95.656Y39.935Z0F800
G1 X95.533Y39.816Z0F800
G1 X95.396Y39.666Z0F800
G1 X95.242Y39.488Z0F800
G1 X94.349Y38.445Z0F800
G1 X94.258Y42.548Z0F800
G1 X93.067Y43.986Z0F800
G1 X92.745Y44.372Z0F800
G1 X92.476Y44.687Z0F800
G1 X92.254Y44.938Z0F800
G1 X92.074Y45.129Z0F800
G1 X91.929Y45.268Z0F800
G1 X91.814Y45.36Z0F800
G1 X91.722Y45.412Z0F800
G1 X91.648Y45.429Z0F800
G0 Z2.8F500
G0 X107.987Y34.185Z2.8F1000
G1 Z0F500
G1 X107.854Y34.095Z0F800
G1 X107.721Y33.972Z0F800
G1 X107.491Y33.746Z0F800
G1 X107.198Y33.48Z0F800
G1 X106.857Y33.187Z0F800
G1 X106.484Y32.881Z0F800
G1 X106.094Y32.574Z0F800
G1 X105.702Y32.277Z0F800
G1 X105.326Y32.005Z0F800
G1 X104.98Y31.769Z0F800
G1 X104.744Y31.613Z0F800
G1 X104.552Y31.48Z0F800
G1 X104.4Y31.367Z0F800
G1 X104.285Y31.271Z0F800
G1 X104.202Y31.188Z0F800
G1 X104.147Y31.115Z0F800
G1 X104.117Y31.048Z0F800
G1 X104.108Y30.984Z0F800
G1 X104.138Y30.898Z0F800
G1 X104.227Y30.747Z0F800
G1 X104.376Y30.531Z0F800
G1 X104.587Y30.248Z0F800
G1 X104.86Y29.898Z0F800
G1 X105.194Y29.48Z0F800
G1 X105.592Y28.994Z0F800
G1 X106.054Y28.437Z0F800
G1 X106.861Y27.476Z0F800
G1 X107.263Y27.006Z0F800
G1 X107.429Y26.816Z0F800
G1 X107.574Y26.654Z0F800
G1 X107.701Y26.517Z0F800
G1 X107.904Y26.313Z0F800
G1 X108.053Y26.186Z0F800
G1 X108.165Y26.121Z0F800
G1 X108.253Y26.103Z0F800
G1 X108.506Z0F800
G1 Y34.257Z0F800
G1 X108.248Z0F800
G1 X108.119Y34.239Z0F800
G1 X107.987Y34.185Z0F800
G0 Z2.8F500
G0 X101.786Y60.094Z2.8F1000
G1 Z0F500
G1 X101.767Y60.113Z0F800
G1 X101.64Y60.258Z0F800
G1 X101.405Y60.532Z0F800
G1 X100.438Y61.667Z0F800
G1 X99.394Y62.899Z0F800
G1 X97.647Y64.968Z0F800
G1 X96.027Y66.893Z0F800
G1 X95.053Y68.057Z0F800
G1 X94.304Y68.963Z0F800
G1 Y71.631Z0F800
G1 X94.775Y71.771Z0F800
G1 X95.649Y71.998Z0F800
G1 X96.554Y72.169Z0F800
G1 X97.494Y72.285Z0F800
G1 X98.473Y72.345Z0F800
G1 X99.148Y72.355Z0F800
G1 X99.843Y72.341Z0F800
G1 X100.434Y72.314Z0F800
G1 X100.955Y72.284Z0F800
G1 X101.173Y72.268Z0F800
G1 X101.352Y72.253Z0F800
G1 X101.485Y72.239Z0F800
G1 X101.565Y72.226Z0F800
G1 X101.817Y72.168Z0F800
G1 Y64.918Z0F800
G1 X101.81Y62.296Z0F800
G1 X101.801Y60.825Z0F800
G1 X101.795Y60.367Z0F800
G1 X101.789Y60.125Z0F800
G1 X101.786Y60.094Z0F800
G0 Z2.8F500
G0 X94.3Y58.708Z2.8F1000
G1 Z0F500
G1 X94.349Y62.473Z0F800
G1 X101.811Y53.635Z0F800
G1 X101.822Y49.146Z0F800
G1 X103.469Y47.198Z0F800
G1 X104.065Y46.498Z0F800
G1 X104.311Y46.214Z0F800
G1 X104.526Y45.972Z0F800
G1 X104.713Y45.769Z0F800
G1 X104.874Y45.604Z0F800
G1 X105.014Y45.473Z0F800
G1 X105.133Y45.375Z0F800
G1 X105.237Y45.309Z0F800
G1 X105.326Y45.27Z0F800
G1 X105.405Y45.259Z0F800
G1 X105.476Y45.271Z0F800
G1 X105.606Y45.361Z0F800
G1 X105.739Y45.523Z0F800
G1 X105.938Y45.794Z0F800
G1 Y77.017Z0F800
G1 X104.77Y77.302Z0F800
G1 X104.269Y77.42Z0F800
G1 X103.77Y77.532Z0F800
G1 X103.33Y77.624Z0F800
G1 X103.15Y77.658Z0F800
G1 X103.007Y77.684Z0F800
G1 X101.816Y77.877Z0F800
G1 Y73.105Z0F800
G1 X94.303Z0F800
G1 Y90.605Z0F800
G1 X101.816Z0F800
G1 Y82.12Z0F800
G1 X102.713Y82.009Z0F800
G1 X103.667Y81.862Z0F800
G1 X104.703Y81.669Z0F800
G1 X105.133Y81.581Z0F800
G1 X105.641Y81.481Z0F800
G1 X105.832Y81.447Z0F800
G1 X105.868Y81.442Z0F800
G1 X105.875Y81.477Z0F800
G1 X105.882Y81.578Z0F800
G1 X105.889Y81.742Z0F800
G1 X105.902Y82.247Z0F800
G1 X105.913Y82.964Z0F800
G1 X105.922Y83.866Z0F800
G1 X105.93Y84.925Z0F800
G1 X105.937Y86.751Z0F800
G1 Y88.085Z0F800
G1 Y94.728Z0F800
G1 X90.179Z0F800
G1 X90.183Y67.379Z0F800
G1 X90.911Y66.509Z0F800
G1 X91.188Y66.166Z0F800
G1 X91.405Y65.877Z0F800
G1 X91.484Y65.762Z0F800
G1 X91.54Y65.671Z0F800
G1 X91.571Y65.61Z0F800
G1 Y65.58Z0F800
G1 X91.423Y65.451Z0F800
G1 X90.18Y64.392Z0F800
G1 Y62.947Z0F800
G1 X92.222Y60.529Z0F800
G1 X92.691Y59.979Z0F800
G1 X93.06Y59.554Z0F800
G1 X93.212Y59.383Z0F800
G1 X93.345Y59.238Z0F800
G1 X93.461Y59.116Z0F800
G1 X93.649Y58.934Z0F800
G1 X93.792Y58.821Z0F800
G1 X93.906Y58.761Z0F800
G1 X94.005Y58.738Z0F800
G1 X94.3Y58.708Z0F800
;Cut @ 15 mm/sec, 90% power

M8
G0 Z2.8F500
G0 X87.279Y59.644Z2.8F1000
G1 Z0F500
;Layer Green
G1 X86.97Y59.96Z0F800
G1 X86.834Y60.097Z0F800
G1 X86.712Y60.202Z0F800
G1 X86.596Y60.266Z0F800
G1 X86.475Y60.283Z0F800
G1 X86.346Y60.25Z0F800
G1 X86.196Y60.162Z0F800
G1 X86.016Y60.013Z0F800
G1 X85.797Y59.798Z0F800
G1 X85.531Y59.511Z0F800
G1 X85.211Y59.146Z0F800
G1 X85.027Y58.932Z0F800
G1 X84.607Y58.439Z0F800
G1 X82.576Y56.039Z0F800
G1 Y54.677Z0F800
G1 X82.836Y54.706Z0F800
G1 X82.918Y54.728Z0F800
G1 X83.013Y54.779Z0F800
G1 X83.128Y54.866Z0F800
G1 X83.269Y54.996Z0F800
G1 X83.442Y55.174Z0F800
G1 X83.654Y55.407Z0F800
G1 X83.911Y55.701Z0F800
G1 X84.697Y56.623Z0F800
G1 X85.169Y57.165Z0F800
G1 X85.58Y57.628Z0F800
G1 X85.746Y57.81Z0F800
G1 X85.876Y57.949Z0F800
G1 X86.033Y58.111Z0F800
G1 X86.163Y58.238Z0F800
G1 X86.271Y58.334Z0F800
G1 X86.363Y58.402Z0F800
G1 X86.521Y58.469Z0F800
G1 X86.679Z0F800
G1 X86.835Y58.457Z0F800
G1 X86.934Y58.516Z0F800
G1 X86.975Y58.586Z0F800
G1 X87.015Y58.692Z0F800
G1 X87.059Y58.84Z0F800
G1 X87.279Y59.644Z0F800
G0 Z2.8F500
G0 X89.504Y64.055Z2.8F1000
G1 Z0F500
G1 X89.666Z0F800
G1 X89.801Y64.076Z0F800
G1 X89.894Y64.118Z0F800
G1 X89.951Y64.184Z0F800
G1 X89.979Y64.278Z0F800
G1 X89.998Y64.33Z0F800
G1 X90.042Y64.4Z0F800
G1 X90.108Y64.484Z0F800
G1 X90.194Y64.582Z0F800
G1 X90.416Y64.804Z0F800
G1 X90.69Y65.047Z0F800
G1 X91.373Y65.619Z0F800
G1 X91.127Y65.948Z0F800
G1 X90.996Y66.117Z0F800
G1 X90.823Y66.333Z0F800
G1 X90.629Y66.568Z0F800
G1 X90.438Y66.795Z0F800
G1 X89.997Y67.312Z0F800
G1 Y69.165Z0F800
G1 X89.739Z0F800
G1 X89.6Y69.14Z0F800
G1 X89.426Y69.071Z0F800
G1 X89.229Y68.963Z0F800
G1 X89.022Y68.822Z0F800
G1 X88.383Y68.307Z0F800
G1 X87.773Y67.758Z0F800
G1 X87.514Y67.505Z0F800
G1 X87.306Y67.284Z0F800
G1 X87.163Y67.11Z0F800
G1 X87.098Y66.995Z0F800
G1 X87.092Y66.928Z0F800
G1 X87.106Y66.852Z0F800
G1 X87.144Y66.76Z0F800
G1 X87.209Y66.648Z0F800
G1 X87.306Y66.51Z0F800
G1 X87.436Y66.341Z0F800
G1 X87.605Y66.136Z0F800
G1 X88.143Y65.505Z0F800
G1 X88.626Y64.935Z0F800
G1 X89.1Y64.369Z0F800
G1 X89.199Y64.258Z0F800
G1 X89.285Y64.174Z0F800
G1 X89.361Y64.114Z0F800
G1 X89.504Y64.055Z0F800
G0 Z2.8F500
G0 X95.592Y67.775Z2.8F1000
G1 Z0F500
G1 X95.704Y67.734Z0F800
G1 X95.81Y67.743Z0F800
G1 X96.058Y67.807Z0F800
G1 X96.374Y67.876Z0F800
G1 X96.738Y67.945Z0F800
G1 X97.132Y68.013Z0F800
G1 X97.535Y68.075Z0F800
G1 X97.929Y68.129Z0F800
G1 X98.293Y68.171Z0F800
G1 X98.61Y68.199Z0F800
G1 X98.941Y68.211Z0F800
G1 X99.329Z0F800
G1 X99.751Y68.197Z0F800
G1 X100.18Y68.174Z0F800
G1 X100.592Y68.142Z0F800
G1 X100.962Y68.103Z0F800
G1 X101.264Y68.059Z0F800
G1 X101.474Y68.011Z0F800
G1 X101.525Y68.004Z0F800
G1 X101.564Y68.032Z0F800
G1 X101.591Y68.114Z0F800
G1 X101.61Y68.27Z0F800
G1 X101.616Y68.381Z0F800
G1 X101.62Y68.517Z0F800
G1 Y68.682Z0F800
G1 Y69.104Z0F800
G1 X101.617Y69.666Z0F800
G1 X101.588Y72.051Z0F800
G1 X100.214Y72.135Z0F800
G1 X99.589Y72.163Z0F800
G1 X98.971Y72.169Z0F800
G1 X98.058Y72.139Z0F800
G1 X97.168Y72.063Z0F800
G1 X96.308Y71.939Z0F800
G1 X95.483Y71.77Z0F800
G1 X94.488Y71.531Z0F800
G1 Y69.834Z0F800
G1 X94.491Y69.648Z0F800
G1 X94.498Y69.485Z0F800
G1 X94.525Y69.215Z0F800
G1 X94.582Y68.993Z0F800
G1 X94.678Y68.793Z0F800
G1 X94.824Y68.586Z0F800
G1 X95.029Y68.343Z0F800
G1 X95.304Y68.036Z0F800
G1 X95.463Y67.874Z0F800
G1 X95.592Y67.775Z0F800
G0 Z2.8F500
G0 X106.128Y68.792Z2.8F1000
G1 Z0F500
G1 X106.135Y66.187Z0F800
G1 X106.794Y65.707Z0F800
G1 X106.944Y65.594Z0F800
G1 X107.118Y65.455Z0F800
G1 X107.31Y65.298Z0F800
G1 X107.514Y65.126Z0F800
G1 X107.932Y64.762Z0F800
G1 X108.323Y64.406Z0F800
G1 X108.537Y64.207Z0F800
G1 X108.727Y64.037Z0F800
G1 X108.894Y63.896Z0F800
G1 X109.039Y63.781Z0F800
G1 X109.163Y63.693Z0F800
G1 X109.268Y63.631Z0F800
G1 X109.353Y63.593Z0F800
G1 X109.421Y63.58Z0F800
G1 X109.466Y63.591Z0F800
G1 X109.532Y63.628Z0F800
G1 X109.624Y63.692Z0F800
G1 X109.744Y63.787Z0F800
G1 X109.894Y63.916Z0F800
G1 X110.078Y64.081Z0F800
G1 X110.298Y64.285Z0F800
G1 X110.558Y64.53Z0F800
G1 X110.86Y64.82Z0F800
G1 X111.207Y65.157Z0F800
G1 X112.047Y65.982Z0F800
G1 X113.101Y67.028Z0F800
G1 X114.392Y68.317Z0F800
G1 X115.517Y69.445Z0F800
G1 X116.487Y70.423Z0F800
G1 X117.303Y71.254Z0F800
G1 X117.967Y71.938Z0F800
G1 X118.242Y72.226Z0F800
G1 X118.48Y72.478Z0F800
G1 X118.681Y72.694Z0F800
G1 X118.845Y72.875Z0F800
G1 X118.972Y73.02Z0F800
G1 X119.062Y73.131Z0F800
G1 X119.116Y73.207Z0F800
G1 X119.134Y73.248Z0F800
G1 X119.11Y73.325Z0F800
G1 X119.04Y73.437Z0F800
G1 X118.927Y73.582Z0F800
G1 X118.777Y73.757Z0F800
G1 X118.591Y73.956Z0F800
G1 X118.374Y74.178Z0F800
G1 X118.129Y74.419Z0F800
G1 X117.861Y74.674Z0F800
G1 X116.624Y75.78Z0F800
G1 X115.301Y76.85Z0F800
G1 X114.612Y77.353Z0F800
G1 X113.878Y77.846Z0F800
G1 X113.107Y78.326Z0F800
G1 X112.31Y78.788Z0F800
G1 X111.495Y79.225Z0F800
G1 X110.672Y79.633Z0F800
G1 X109.849Y80.007Z0F800
G1 X109.037Y80.342Z0F800
G1 X108.034Y80.711Z0F800
G1 X107.056Y81.035Z0F800
G1 X106.636Y81.162Z0F800
G1 X106.295Y81.254Z0F800
G1 X106.162Y81.286Z0F800
G1 X106.057Y81.306Z0F800
G1 X105.984Y81.314Z0F800
G1 X105.946Y81.308Z0F800
G1 X105.904Y81.305Z0F800
G1 X105.809Y81.313Z0F800
G1 X105.667Y81.33Z0F800
G1 X105.484Y81.357Z0F800
G1 X105.021Y81.431Z0F800
G1 X103.875Y81.637Z0F800
G1 X103.308Y81.735Z0F800
G1 X103.054Y81.776Z0F800
G1 X102.644Y81.839Z0F800
G1 X102.505Y81.857Z0F800
G1 X101.985Y81.943Z0F800
G1 X101.284Y82.117Z0F800
G1 X100.994Y82.152Z0F800
G1 X100.808Y82.163Z0F800
G1 X100.584Y82.169Z0F800
G1 X100.317Z0F800
G1 X99.999Z0F800
G1 X99.485Y82.159Z0F800
G1 X98.853Y82.143Z0F800
G1 X97.871Y82.107Z0F800
G1 X96.958Y82.056Z0F800
G1 X96.547Y82.026Z0F800
G1 X96.177Y81.993Z0F800
G1 X95.854Y81.959Z0F800
G1 X95.586Y81.924Z0F800
G1 X94.532Y81.763Z0F800
G1 X94.483Y77.573Z0F800
G1 X94.783Y77.628Z0F800
G1 X95.513Y77.75Z0F800
G1 X96.282Y77.852Z0F800
G1 X97.073Y77.933Z0F800
G1 X97.867Y77.992Z0F800
G1 X98.648Y78.028Z0F800
G1 X99.399Y78.04Z0F800
G1 X100.101Y78.027Z0F800
G1 X100.738Y77.988Z0F800
G1 X101.106Y77.962Z0F800
G1 X101.393Y77.954Z0F800
G1 X101.502Y77.957Z0F800
G1 X101.584Y77.965Z0F800
G1 X101.637Y77.977Z0F800
G1 X101.659Y77.994Z0F800
G1 X101.717Y78.015Z0F800
G1 X101.858Z0F800
G1 X102.073Y77.994Z0F800
G1 X102.348Y77.957Z0F800
G1 X102.673Y77.905Z0F800
G1 X103.034Y77.842Z0F800
G1 X103.421Y77.768Z0F800
G1 X103.821Y77.688Z0F800
G1 X104.614Y77.515Z0F800
G1 X105.319Y77.343Z0F800
G1 X105.608Y77.264Z0F800
G1 X105.84Y77.192Z0F800
G1 X106.002Y77.13Z0F800
G1 X106.083Y77.08Z0F800
G1 X106.122Y77.049Z0F800
G1 X106.196Y77.007Z0F800
G1 X106.301Y76.954Z0F800
G1 X106.432Y76.893Z0F800
G1 X106.757Y76.754Z0F800
G1 X107.136Y76.605Z0F800
G1 X108.072Y76.232Z0F800
G1 X108.945Y75.843Z0F800
G1 X109.776Y75.428Z0F800
G1 X110.585Y74.977Z0F800
G1 X111.419Y74.459Z0F800
G1 X112.295Y73.873Z0F800
G1 X112.679Y73.604Z0F800
G1 X112.988Y73.376Z0F800
G1 X113.106Y73.284Z0F800
G1 X113.194Y73.21Z0F800
G1 X113.25Y73.156Z0F800
G1 X113.269Y73.125Z0F800
G1 X113.259Y73.108Z0F800
G1 X113.228Y73.07Z0F800
G1 X113.178Y73.014Z0F800
G1 X112.922Y72.741Z0F800
G1 X112.673Y72.483Z0F800
G1 X112.373Y72.174Z0F800
G1 X111.648Y71.44Z0F800
G1 X109.214Y69.002Z0F800
G1 X108.378Y69.551Z0F800
G1 X108.015Y69.784Z0F800
G1 X107.673Y69.994Z0F800
G1 X107.356Y70.179Z0F800
G1 X107.069Y70.335Z0F800
G1 X106.816Y70.461Z0F800
G1 X106.602Y70.554Z0F800
G1 X106.432Y70.611Z0F800
G1 X106.309Y70.631Z0F800
G1 X106.249Y70.625Z0F800
G1 X106.204Y70.59Z0F800
G1 X106.171Y70.501Z0F800
G1 X106.149Y70.335Z0F800
G1 X106.141Y70.215Z0F800
G1 X106.136Y70.067Z0F800
G1 X106.132Y69.887Z0F800
G1 X106.128Y69.421Z0F800
G1 Y68.792Z0F800
G0 Z2.8F500
G0 X89.997Y76.083Z2.8F1000
G1 Z0F500
G1 Y80.342Z0F800
G1 X89.745Z0F800
G1 X89.667Y80.333Z0F800
G1 X89.558Y80.307Z0F800
G1 X89.421Y80.266Z0F800
G1 X89.259Y80.21Z0F800
G1 X88.872Y80.061Z0F800
G1 X88.422Y79.871Z0F800
G1 X87.427Y79.41Z0F800
G1 X86.469Y78.912Z0F800
G1 X85.449Y78.315Z0F800
G1 X84.466Y77.686Z0F800
G1 X83.519Y77.025Z0F800
G1 X82.609Y76.329Z0F800
G1 X81.733Y75.599Z0F800
G1 X80.892Y74.834Z0F800
G1 X80.084Y74.033Z0F800
G1 X79.308Y73.196Z0F800
G1 X79.061Y72.916Z0F800
G1 X78.866Y72.687Z0F800
G1 X78.716Y72.501Z0F800
G1 X78.606Y72.349Z0F800
G1 X78.484Y72.115Z0F800
G1 X78.422Y71.716Z0F800
G1 X78.317Y71.469Z0F800
G1 X78.231Y71.316Z0F800
G1 X78.118Y71.136Z0F800
G1 X77.978Y70.925Z0F800
G1 X77.806Y70.677Z0F800
G1 X77.266Y69.885Z0F800
G1 X76.763Y69.082Z0F800
G1 X76.506Y68.643Z0F800
G1 X76.234Y68.162Z0F800
G1 X75.939Y67.625Z0F800
G1 X75.455Y66.726Z0F800
G1 X75.308Y66.466Z0F800
G1 X75.174Y66.238Z0F800
G1 X75.053Y66.044Z0F800
G1 X74.947Y65.886Z0F800
G1 X74.856Y65.765Z0F800
G1 X74.782Y65.683Z0F800
G1 X74.725Y65.641Z0F800
G1 X74.571Y65.538Z0F800
G1 X74.481Y65.412Z0F800
G1 X74.398Y65.171Z0F800
G1 X74.014Y64.078Z0F800
G1 X73.945Y63.869Z0F800
G1 X73.894Y63.697Z0F800
G1 X73.859Y63.558Z0F800
G1 X73.84Y63.448Z0F800
G1 X73.836Y63.364Z0F800
G1 X73.846Y63.302Z0F800
G1 X73.87Y63.258Z0F800
G1 X73.893Y63.208Z0F800
G1 X73.903Y63.127Z0F800
G1 X73.899Y63.008Z0F800
G1 X73.881Y62.847Z0F800
G1 X73.848Y62.64Z0F800
G1 X73.799Y62.38Z0F800
G1 X73.734Y62.062Z0F800
G1 X73.514Y61.055Z0F800
G1 X73.395Y60.478Z0F800
G1 X73.293Y59.939Z0F800
G1 X73.205Y59.427Z0F800
G1 X73.062Y58.431Z0F800
G1 X72.9Y56.918Z0F800
G1 X72.841Y56.529Z0F800
G1 X72.809Y56.371Z0F800
G1 X72.777Y56.242Z0F800
G1 X72.744Y56.142Z0F800
G1 X72.712Y56.075Z0F800
G1 X72.643Y55.92Z0F800
G1 X72.609Y55.688Z0F800
G1 X72.604Y55.523Z0F800
G1 Y55.316Z0F800
G1 X72.615Y55.06Z0F800
G1 X72.631Y54.747Z0F800
G1 X72.708Y53.707Z0F800
G1 X72.817Y52.629Z0F800
G1 X72.877Y52.134Z0F800
G1 X72.937Y51.701Z0F800
G1 X72.967Y51.515Z0F800
G1 X72.995Y51.353Z0F800
G1 X73.022Y51.219Z0F800
G1 X73.047Y51.115Z0F800
G1 X73.445Y49.65Z0F800
G1 X73.795Y48.372Z0F800
G1 X73.947Y47.828Z0F800
G1 X74.086Y47.342Z0F800
G1 X74.214Y46.906Z0F800
G1 X74.333Y46.518Z0F800
G1 X74.444Y46.171Z0F800
G1 X74.549Y45.862Z0F800
G1 X74.749Y45.332Z0F800
G1 X74.947Y44.89Z0F800
G1 X75.155Y44.495Z0F800
G1 X75.39Y44.107Z0F800
G1 X75.46Y43.995Z0F800
G1 X75.644Y43.688Z0F800
G1 X75.999Y43.08Z0F800
G1 X76.264Y42.618Z0F800
G1 X76.533Y42.146Z0F800
G1 X76.787Y41.693Z0F800
G1 X77.011Y41.288Z0F800
G1 X77.187Y40.962Z0F800
G1 X77.388Y40.614Z0F800
G1 X77.643Y40.226Z0F800
G1 X77.951Y39.799Z0F800
G1 X78.314Y39.333Z0F800
G1 X78.731Y38.827Z0F800
G1 X79.202Y38.281Z0F800
G1 X79.727Y37.695Z0F800
G1 X80.307Y37.069Z0F800
G1 X80.61Y36.75Z0F800
G1 X80.861Y36.491Z0F800
G1 X81.066Y36.289Z0F800
G1 X81.232Y36.136Z0F800
G1 X81.364Y36.029Z0F800
G1 X81.47Y35.962Z0F800
G1 X81.554Y35.929Z0F800
G1 X81.624Y35.925Z0F800
G1 X81.672Y35.951Z0F800
G1 X81.763Y36.02Z0F800
G1 X81.894Y36.131Z0F800
G1 X82.062Y36.279Z0F800
G1 X82.265Y36.461Z0F800
G1 X82.498Y36.677Z0F800
G1 X83.048Y37.191Z0F800
G1 X83.687Y37.8Z0F800
G1 X84.394Y38.48Z0F800
G1 X85.143Y39.208Z0F800
G1 X85.913Y39.961Z0F800
G1 X86.68Y40.716Z0F800
G1 X87.42Y41.451Z0F800
G1 X88.11Y42.143Z0F800
G1 X88.727Y42.768Z0F800
G1 X89.248Y43.303Z0F800
G1 X89.465Y43.531Z0F800
G1 X89.649Y43.727Z0F800
G1 X89.797Y43.889Z0F800
G1 X89.906Y44.015Z0F800
G1 X89.974Y44.102Z0F800
G1 X89.997Y44.146Z0F800
G1 X90.026Y44.225Z0F800
G1 X90.106Y44.345Z0F800
G1 X90.231Y44.495Z0F800
G1 X90.391Y44.667Z0F800
G1 X90.784Y45.045Z0F800
G1 X91.221Y45.411Z0F800
G1 X91.319Y45.496Z0F800
G1 X91.395Y45.578Z0F800
G1 X91.441Y45.648Z0F800
G1 X91.449Y45.697Z0F800
G1 X91.421Y45.736Z0F800
G1 X91.355Y45.815Z0F800
G1 X91.254Y45.928Z0F800
G1 X91.123Y46.072Z0F800
G1 X90.788Y46.431Z0F800
G1 X90.385Y46.855Z0F800
G1 X89.937Y47.342Z0F800
G1 X89.481Y47.873Z0F800
G1 X89.267Y48.135Z0F800
G1 X89.071Y48.385Z0F800
G1 X88.9Y48.613Z0F800
G1 X88.76Y48.812Z0F800
G1 X88.132Y49.678Z0F800
G1 X87.453Y50.52Z0F800
G1 X87.271Y50.73Z0F800
G1 X87.11Y50.911Z0F800
G1 X86.966Y51.064Z0F800
G1 X86.837Y51.187Z0F800
G1 X86.719Y51.28Z0F800
G1 X86.609Y51.343Z0F800
G1 X86.502Y51.375Z0F800
G1 X86.396Z0F800
G1 X86.287Y51.345Z0F800
G1 X86.172Y51.282Z0F800
G1 X86.047Y51.186Z0F800
G1 X85.908Y51.057Z0F800
G1 X85.753Y50.894Z0F800
G1 X85.577Y50.697Z0F800
G1 X85.378Y50.465Z0F800
G1 X85.152Y50.198Z0F800
G1 X84.757Y49.72Z0F800
G1 X84.433Y49.306Z0F800
G1 X84.308Y49.138Z0F800
G1 X84.214Y49.002Z0F800
G1 X84.155Y48.904Z0F800
G1 X84.134Y48.851Z0F800
G1 X84.165Y48.733Z0F800
G1 X84.251Y48.532Z0F800
G1 X84.384Y48.265Z0F800
G1 X84.554Y47.949Z0F800
G1 X84.966Y47.238Z0F800
G1 X85.413Y46.535Z0F800
G1 X85.873Y45.848Z0F800
G1 X83.426Y43.399Z0F800
G1 X82.69Y42.671Z0F800
G1 X82.125Y42.119Z0F800
G1 X81.855Y41.862Z0F800
G1 X81.764Y41.781Z0F800
G1 X81.748Y41.77Z0F800
G1 X81.708Y41.796Z0F800
G1 X81.638Y41.87Z0F800
G1 X81.54Y41.987Z0F800
G1 X81.418Y42.143Z0F800
G1 X81.275Y42.333Z0F800
G1 X81.115Y42.552Z0F800
G1 X80.942Y42.794Z0F800
G1 X80.758Y43.056Z0F800
G1 X80.372Y43.618Z0F800
G1 X79.985Y44.197Z0F800
G1 X79.624Y44.756Z0F800
G1 X79.316Y45.256Z0F800
G1 X79.127Y45.597Z0F800
G1 X78.914Y46.021Z0F800
G1 X78.691Y46.494Z0F800
G1 X78.474Y46.982Z0F800
G1 X78.277Y47.452Z0F800
G1 X78.114Y47.869Z0F800
G1 X78.05Y48.048Z0F800
G1 X78.001Y48.201Z0F800
G1 X77.967Y48.324Z0F800
G1 X77.921Y48.59Z0F800
G1 X77.861Y48.847Z0F800
G1 X77.78Y49.16Z0F800
G1 X77.684Y49.5Z0F800
G1 X77.582Y49.841Z0F800
G1 X77.481Y50.158Z0F800
G1 X77.389Y50.423Z0F800
G1 X77.312Y50.611Z0F800
G1 X77.25Y50.783Z0F800
G1 X77.185Y51.034Z0F800
G1 X77.117Y51.352Z0F800
G1 X77.05Y51.724Z0F800
G1 X76.918Y52.584Z0F800
G1 X76.802Y53.515Z0F800
G1 X76.753Y53.977Z0F800
G1 X76.711Y54.421Z0F800
G1 X76.679Y54.834Z0F800
G1 X76.657Y55.204Z0F800
G1 X76.647Y55.519Z0F800
G1 X76.651Y55.766Z0F800
G1 X76.669Y55.934Z0F800
G1 X76.703Y56.011Z0F800
G1 X76.743Y56.081Z0F800
G1 X76.775Y56.227Z0F800
G1 X76.796Y56.429Z0F800
G1 X76.804Y56.668Z0F800
G1 X76.82Y57.275Z0F800
G1 X76.865Y57.907Z0F800
G1 X76.939Y58.559Z0F800
G1 X77.041Y59.228Z0F800
G1 X77.169Y59.91Z0F800
G1 X77.323Y60.603Z0F800
G1 X77.502Y61.302Z0F800
G1 X77.705Y62.005Z0F800
G1 X78.177Y63.406Z0F800
G1 X78.73Y64.779Z0F800
G1 X79.035Y65.447Z0F800
G1 X79.358Y66.097Z0F800
G1 X79.696Y66.726Z0F800
G1 X80.05Y67.331Z0F800
G1 X80.469Y67.989Z0F800
G1 X80.914Y68.635Z0F800
G1 X81.384Y69.266Z0F800
G1 X81.879Y69.882Z0F800
G1 X82.396Y70.483Z0F800
G1 X82.935Y71.066Z0F800
G1 X83.494Y71.632Z0F800
G1 X84.072Y72.178Z0F800
G1 X84.669Y72.703Z0F800
G1 X85.282Y73.207Z0F800
G1 X85.911Y73.688Z0F800
G1 X86.553Y74.146Z0F800
G1 X87.21Y74.578Z0F800
G1 X87.878Y74.985Z0F800
G1 X88.556Y75.365Z0F800
G1 X89.244Y75.716Z0F800
G1 X89.997Y76.083Z0F800
G0 Z2.8F500
G0 X57.153Y67.981Z2.8F1000
G1 Z0F500
G1 X56.893Y68.46Z0F800
G1 X56.357Y69.388Z0F800
G1 X55.796Y70.288Z0F800
G1 X55.209Y71.158Z0F800
G1 X54.596Y71.998Z0F800
G1 X53.959Y72.808Z0F800
G1 X53.296Y73.588Z0F800
G1 X52.61Y74.338Z0F800
G1 X51.899Y75.056Z0F800
G1 X51.164Y75.744Z0F800
G1 X50.405Y76.4Z0F800
G1 X49.624Y77.024Z0F800
G1 X48.819Y77.616Z0F800
G1 X47.992Y78.176Z0F800
G1 X47.142Y78.704Z0F800
G1 X46.27Y79.198Z0F800
G1 X45.377Y79.66Z0F800
G1 X44.458Y80.1Z0F800
G1 X43.602Y80.484Z0F800
G1 X42.786Y80.82Z0F800
G1 X41.987Y81.116Z0F800
G1 X41.183Y81.38Z0F800
G1 X40.349Y81.619Z0F800
G1 X39.465Y81.842Z0F800
G1 X38.506Y82.056Z0F800
G1 X38.004Y82.152Z0F800
G1 X37.46Y82.236Z0F800
G1 X36.881Y82.308Z0F800
G1 X36.273Y82.368Z0F800
G1 X34.991Y82.453Z0F800
G1 X33.661Y82.489Z0F800
G1 X32.33Y82.476Z0F800
G1 X31.044Y82.415Z0F800
G1 X30.432Y82.366Z0F800
G1 X29.849Y82.304Z0F800
G1 X29.301Y82.23Z0F800
G1 X28.793Y82.143Z0F800
G1 X27.984Y81.969Z0F800
G1 X27.093Y81.747Z0F800
G1 X26.172Y81.493Z0F800
G1 X25.273Y81.223Z0F800
G1 X24.848Y81.087Z0F800
G1 X24.448Y80.953Z0F800
G1 X24.08Y80.823Z0F800
G1 X23.749Y80.7Z0F800
G1 X23.464Y80.585Z0F800
G1 X23.229Y80.48Z0F800
G1 X23.052Y80.388Z0F800
G1 X22.939Y80.31Z0F800
G1 X22.837Y80.236Z0F800
G1 X22.655Y80.122Z0F800
G1 X22.403Y79.975Z0F800
G1 X22.092Y79.8Z0F800
G1 X21.732Y79.602Z0F800
G1 X21.332Y79.388Z0F800
G1 X20.903Y79.162Z0F800
G1 X20.009Y78.698Z0F800
G1 X19.58Y78.468Z0F800
G1 X19.182Y78.247Z0F800
G1 X18.822Y78.04Z0F800
G1 X18.512Y77.853Z0F800
G1 X18.262Y77.693Z0F800
G1 X18.082Y77.566Z0F800
G1 X17.982Y77.476Z0F800
G1 X17.821Y77.308Z0F800
G1 X17.586Y77.095Z0F800
G1 X17.308Y76.862Z0F800
G1 X17.019Y76.639Z0F800
G1 X16.72Y76.385Z0F800
G1 X16.502Y76.129Z0F800
G1 X16.364Y75.875Z0F800
G1 X16.307Y75.627Z0F800
G1 X16.331Y75.39Z0F800
G1 X16.436Y75.17Z0F800
G1 X16.623Y74.97Z0F800
G1 X16.892Y74.795Z0F800
G1 X17.383Y74.496Z0F800
G1 X17.776Y74.181Z0F800
G1 X17.922Y74.052Z0F800
G1 X18.126Y73.896Z0F800
G1 X18.38Y73.717Z0F800
G1 X18.674Y73.521Z0F800
G1 X19.353Y73.096Z0F800
G1 X20.094Y72.66Z0F800
G1 X20.466Y72.45Z0F800
G1 X20.827Y72.252Z0F800
G1 X21.17Y72.071Z0F800
G1 X21.485Y71.912Z0F800
G1 X21.763Y71.779Z0F800
G1 X21.997Y71.679Z0F800
G1 X22.178Y71.615Z0F800
G1 X22.297Y71.592Z0F800
G1 X22.747Z0F800
G1 Y75.983Z0F800
G1 X23.434Y76.326Z0F800
G1 X23.934Y76.563Z0F800
G1 X24.462Y76.788Z0F800
G1 X25.015Y77Z0F800
G1 X25.59Y77.2Z0F800
G1 X26.799Y77.558Z0F800
G1 X28.073Y77.86Z0F800
G1 X29.395Y78.1Z0F800
G1 X30.745Y78.276Z0F800
G1 X32.108Y78.384Z0F800
G1 X33.465Y78.42Z0F800
G1 X34.34Y78.405Z0F800
G1 X35.197Y78.361Z0F800
G1 X36.039Y78.288Z0F800
G1 X36.867Y78.186Z0F800
G1 X37.681Y78.054Z0F800
G1 X38.484Y77.892Z0F800
G1 X39.276Y77.699Z0F800
G1 X40.058Y77.475Z0F800
G1 X40.832Y77.22Z0F800
G1 X41.6Y76.933Z0F800
G1 X42.361Y76.614Z0F800
G1 X43.118Y76.262Z0F800
G1 X43.872Y75.878Z0F800
G1 X44.624Y75.46Z0F800
G1 X45.375Y75.009Z0F800
G1 X46.126Y74.524Z0F800
G1 X46.488Y74.271Z0F800
G1 X46.872Y73.98Z0F800
G1 X47.274Y73.656Z0F800
G1 X47.689Y73.304Z0F800
G1 X48.544Y72.53Z0F800
G1 X49.401Y71.694Z0F800
G1 X50.226Y70.832Z0F800
G1 X50.984Y69.978Z0F800
G1 X51.327Y69.565Z0F800
G1 X51.64Y69.167Z0F800
G1 X51.919Y68.789Z0F800
G1 X52.159Y68.434Z0F800
G1 X53.073Y67.017Z0F800
G1 X55.317Y67.014Z0F800
G1 X55.768Z0F800
G1 X56.189Y67.023Z0F800
G1 X56.571Y67.033Z0F800
G1 X56.903Y67.048Z0F800
G1 X57.178Y67.065Z0F800
G1 X57.386Y67.085Z0F800
G1 X57.518Y67.108Z0F800
G1 X57.563Y67.132Z0F800
G1 X57.55Y67.18Z0F800
G1 X57.51Y67.274Z0F800
G1 X57.448Y67.406Z0F800
G1 X57.366Y67.571Z0F800
G1 X57.153Y67.981Z0F800
G0 Z2.8F500
G0 X56.505Y62.687Z2.8F1000
G1 Z0F500
G1 X55.696Z0F800
G1 X55.481Z0F800
G1 X55.164Y62.683Z0F800
G1 X55.056Y62.679Z0F800
G1 X54.924Y62.667Z0F800
G1 X54.885Y62.647Z0F800
G1 X54.893Y62.605Z0F800
G1 X54.915Y62.519Z0F800
G1 X54.985Y62.267Z0F800
G1 X55.219Y61.386Z0F800
G1 X55.417Y60.487Z0F800
G1 X55.579Y59.575Z0F800
G1 X55.704Y58.656Z0F800
G1 X55.792Y57.733Z0F800
G1 X55.841Y56.812Z0F800
G1 X55.852Y55.897Z0F800
G1 X55.824Y54.994Z0F800
G1 X55.77Y54.206Z0F800
G1 X55.695Y53.441Z0F800
G1 X55.599Y52.708Z0F800
G1 X55.483Y52.019Z0F800
G1 X55.452Y51.853Z0F800
G1 X55.41Y51.603Z0F800
G1 X55.404Y51.551Z0F800
G1 X55.432Y51.517Z0F800
G1 X55.542Y51.523Z0F800
G1 X55.628Y51.533Z0F800
G1 X55.921Y51.564Z0F800
G1 X56.505Y51.621Z0F800
G1 Y62.687Z0F800
G0 Z2.8F500
G0 X49.294Y61.269Z2.8F1000
G1 Z0F500
G1 X49.149Y61.647Z0F800
G1 X48.984Y62.043Z0F800
G1 X48.799Y62.462Z0F800
G1 X48.593Y62.911Z0F800
G1 X48.017Y64.04Z0F800
G1 X47.373Y65.11Z0F800
G1 X46.666Y66.117Z0F800
G1 X45.898Y67.061Z0F800
G1 X45.075Y67.939Z0F800
G1 X44.199Y68.749Z0F800
G1 X43.274Y69.49Z0F800
G1 X42.304Y70.159Z0F800
G1 X41.293Y70.754Z0F800
G1 X40.244Y71.273Z0F800
G1 X39.162Y71.715Z0F800
G1 X38.05Y72.077Z0F800
G1 X36.912Y72.358Z0F800
G1 X35.751Y72.554Z0F800
G1 X34.572Y72.666Z0F800
G1 X33.378Y72.689Z0F800
G1 X32.69Y72.663Z0F800
G1 X31.999Y72.607Z0F800
G1 X31.306Y72.521Z0F800
G1 X30.611Y72.405Z0F800
G1 X30.216Y72.333Z0F800
G1 X29.874Y72.279Z0F800
G1 X29.581Y72.242Z0F800
G1 X29.331Y72.223Z0F800
G1 X29.12Y72.22Z0F800
G1 X28.941Y72.235Z0F800
G1 X28.789Y72.265Z0F800
G1 X28.659Y72.312Z0F800
G1 X28.249Y72.451Z0F800
G1 X27.869Y72.509Z0F800
G1 X27.758Y72.499Z0F800
G1 X27.672Y72.455Z0F800
G1 X27.608Y72.358Z0F800
G1 X27.564Y72.185Z0F800
G1 X27.548Y72.064Z0F800
G1 X27.535Y71.917Z0F800
G1 X27.526Y71.74Z0F800
G1 X27.519Y71.532Z0F800
G1 X27.514Y71.29Z0F800
G1 X27.51Y70.693Z0F800
G1 Y68.156Z0F800
G1 X28.027Y67.942Z0F800
G1 X28.185Y67.886Z0F800
G1 X28.346Y67.851Z0F800
G1 X28.521Y67.838Z0F800
G1 X28.721Y67.848Z0F800
G1 X28.957Y67.883Z0F800
G1 X29.241Y67.943Z0F800
G1 X29.584Y68.03Z0F800
G1 X29.997Y68.145Z0F800
G1 X30.722Y68.317Z0F800
G1 X31.521Y68.444Z0F800
G1 X32.37Y68.524Z0F800
G1 X33.243Y68.558Z0F800
G1 X34.116Y68.546Z0F800
G1 X34.964Y68.487Z0F800
G1 X35.761Y68.381Z0F800
G1 X36.483Y68.227Z0F800
G1 X37.452Y67.929Z0F800
G1 X38.403Y67.549Z0F800
G1 X39.328Y67.095Z0F800
G1 X40.216Y66.573Z0F800
G1 X41.056Y65.99Z0F800
G1 X41.838Y65.353Z0F800
G1 X42.551Y64.667Z0F800
G1 X43.186Y63.941Z0F800
G1 X43.56Y63.43Z0F800
G1 X43.94Y62.841Z0F800
G1 X44.313Y62.195Z0F800
G1 X44.668Y61.518Z0F800
G1 X44.994Y60.831Z0F800
G1 X45.278Y60.158Z0F800
G1 X45.51Y59.523Z0F800
G1 X45.676Y58.95Z0F800
G1 X45.737Y58.663Z0F800
G1 X45.788Y58.341Z0F800
G1 X45.83Y57.988Z0F800
G1 X45.863Y57.61Z0F800
G1 X45.902Y56.797Z0F800
G1 X45.905Y55.942Z0F800
G1 X45.874Y55.086Z0F800
G1 X45.809Y54.269Z0F800
G1 X45.764Y53.889Z0F800
G1 X45.711Y53.533Z0F800
G1 X45.649Y53.207Z0F800
G1 X45.579Y52.916Z0F800
G1 X45.341Y52.141Z0F800
G1 X45.054Y51.388Z0F800
G1 X44.72Y50.658Z0F800
G1 X44.341Y49.954Z0F800
G1 X43.918Y49.276Z0F800
G1 X43.452Y48.627Z0F800
G1 X42.947Y48.008Z0F800
G1 X42.403Y47.422Z0F800
G1 X41.822Y46.869Z0F800
G1 X41.205Y46.351Z0F800
G1 X40.555Y45.87Z0F800
G1 X39.873Y45.428Z0F800
G1 X39.16Y45.026Z0F800
G1 X38.419Y44.667Z0F800
G1 X37.65Y44.351Z0F800
G1 X36.856Y44.08Z0F800
G1 X36.098Y43.888Z0F800
G1 X35.269Y43.751Z0F800
G1 X34.39Y43.669Z0F800
G1 X33.482Y43.642Z0F800
G1 X32.565Y43.67Z0F800
G1 X31.659Y43.753Z0F800
G1 X30.784Y43.891Z0F800
G1 X29.962Y44.085Z0F800
G1 X28.474Y44.5Z0F800
G1 X25.289Y42.603Z0F800
G1 X22.139Y40.73Z0F800
G1 X18.363Y38.494Z0F800
G1 X17.778Y38.143Z0F800
G1 X17.278Y37.833Z0F800
G1 X16.861Y37.558Z0F800
G1 X16.524Y37.314Z0F800
G1 X16.265Y37.093Z0F800
G1 X16.082Y36.892Z0F800
G1 X15.973Y36.702Z0F800
G1 X15.935Y36.52Z0F800
G1 X15.966Y36.339Z0F800
G1 X16.064Y36.154Z0F800
G1 X16.227Y35.959Z0F800
G1 X16.452Y35.748Z0F800
G1 X16.737Y35.515Z0F800
G1 X17.08Y35.256Z0F800
G1 X17.478Y34.963Z0F800
G1 X18.178Y34.467Z0F800
G1 X18.883Y33.996Z0F800
G1 X19.594Y33.55Z0F800
G1 X20.311Y33.129Z0F800
G1 X21.036Y32.732Z0F800
G1 X21.768Y32.359Z0F800
G1 X22.509Y32.011Z0F800
G1 X23.259Y31.686Z0F800
G1 X24.018Y31.385Z0F800
G1 X24.788Y31.108Z0F800
G1 X25.568Y30.853Z0F800
G1 X26.36Y30.621Z0F800
G1 X27.163Y30.412Z0F800
G1 X27.98Y30.225Z0F800
G1 X28.809Y30.06Z0F800
G1 X29.652Y29.917Z0F800
G1 X30.457Y29.807Z0F800
G1 X31.276Y29.726Z0F800
G1 X32.105Y29.672Z0F800
G1 X32.944Y29.647Z0F800
G1 X33.79Y29.65Z0F800
G1 X34.641Y29.68Z0F800
G1 X35.496Y29.738Z0F800
G1 X36.353Y29.823Z0F800
G1 X37.209Y29.935Z0F800
G1 X38.063Y30.073Z0F800
G1 X38.914Y30.239Z0F800
G1 X39.758Y30.43Z0F800
G1 X40.595Y30.648Z0F800
G1 X41.423Y30.891Z0F800
G1 X42.239Y31.16Z0F800
G1 X43.041Y31.455Z0F800
G1 X44.552Y32.039Z0F800
G1 Y36.267Z0F800
G1 X44.049Y36.172Z0F800
G1 X43.915Y36.139Z0F800
G1 X43.728Y36.083Z0F800
G1 X43.495Y36.006Z0F800
G1 X43.226Y35.911Z0F800
G1 X42.613Y35.681Z0F800
G1 X41.958Y35.416Z0F800
G1 X40.875Y34.997Z0F800
G1 X39.78Y34.637Z0F800
G1 X38.674Y34.336Z0F800
G1 X37.559Y34.094Z0F800
G1 X36.437Y33.911Z0F800
G1 X35.309Y33.786Z0F800
G1 X34.176Y33.721Z0F800
G1 X33.041Y33.715Z0F800
G1 X31.904Y33.767Z0F800
G1 X30.767Y33.878Z0F800
G1 X29.632Y34.049Z0F800
G1 X28.5Y34.277Z0F800
G1 X27.372Y34.565Z0F800
G1 X26.251Y34.911Z0F800
G1 X25.138Y35.316Z0F800
G1 X24.034Y35.78Z0F800
G1 X23.605Y35.982Z0F800
G1 X23.255Y36.164Z0F800
G1 X23.12Y36.242Z0F800
G1 X23.019Y36.307Z0F800
G1 X22.955Y36.357Z0F800
G1 X22.933Y36.39Z0F800
G1 X22.943Y36.413Z0F800
G1 X22.975Y36.447Z0F800
G1 X23.032Y36.495Z0F800
G1 X23.119Y36.557Z0F800
G1 X23.239Y36.638Z0F800
G1 X23.397Y36.738Z0F800
G1 X23.595Y36.861Z0F800
G1 X24.132Y37.184Z0F800
G1 X24.879Y37.625Z0F800
G1 X25.869Y38.203Z0F800
G1 X27.132Y38.937Z0F800
G1 X29.069Y40.058Z0F800
G1 X30.167Y39.788Z0F800
G1 X30.435Y39.732Z0F800
G1 X30.764Y39.68Z0F800
G1 X31.143Y39.633Z0F800
G1 X31.559Y39.592Z0F800
G1 X32.463Y39.531Z0F800
G1 X33.385Y39.506Z0F800
G1 X34.23Y39.521Z0F800
G1 X35.063Y39.574Z0F800
G1 X35.883Y39.667Z0F800
G1 X36.689Y39.797Z0F800
G1 X37.481Y39.966Z0F800
G1 X38.258Y40.173Z0F800
G1 X39.02Y40.418Z0F800
G1 X39.767Y40.7Z0F800
G1 X40.496Y41.02Z0F800
G1 X41.21Y41.376Z0F800
G1 X41.905Y41.77Z0F800
G1 X42.583Y42.2Z0F800
G1 X43.243Y42.666Z0F800
G1 X43.883Y43.169Z0F800
G1 X44.504Y43.708Z0F800
G1 X45.105Y44.283Z0F800
G1 X45.87Y45.097Z0F800
G1 X46.577Y45.948Z0F800
G1 X47.225Y46.835Z0F800
G1 X47.813Y47.754Z0F800
G1 X48.339Y48.703Z0F800
G1 X48.803Y49.681Z0F800
G1 X49.202Y50.684Z0F800
G1 X49.535Y51.711Z0F800
G1 X49.755Y52.576Z0F800
G1 X49.883Y53.436Z0F800
G1 X49.92Y53.94Z0F800
G1 X49.942Y54.534Z0F800
G1 X49.949Y54.873Z0F800
G1 X49.953Y55.247Z0F800
G1 Y56.109Z0F800
G1 Y56.706Z0F800
G1 X49.943Y57.254Z0F800
G1 X49.927Y57.758Z0F800
G1 X49.904Y58.225Z0F800
G1 X49.828Y59.068Z0F800
G1 X49.707Y59.826Z0F800
G1 X49.532Y60.545Z0F800
G1 X49.294Y61.269Z0F800
G0 Z2.8F500
G0 X55.556Y50.975Z2.8F1000
G1 Z0F500
G1 X55.439Y50.909Z0F800
G1 X55.342Y50.803Z0F800
G1 X55.255Y50.641Z0F800
G1 X55.169Y50.412Z0F800
G1 X55.076Y50.101Z0F800
G1 X54.966Y49.696Z0F800
G1 X54.869Y49.371Z0F800
G1 X54.743Y49.003Z0F800
G1 X54.59Y48.599Z0F800
G1 X54.414Y48.163Z0F800
G1 X54.004Y47.229Z0F800
G1 X53.54Y46.252Z0F800
G1 X53.046Y45.286Z0F800
G1 X52.55Y44.383Z0F800
G1 X52.309Y43.971Z0F800
G1 X52.078Y43.595Z0F800
G1 X51.858Y43.262Z0F800
G1 X51.654Y42.977Z0F800
G1 X51.475Y42.745Z0F800
G1 X51.266Y42.483Z0F800
G1 X51.036Y42.201Z0F800
G1 X50.791Y41.907Z0F800
G1 X50.288Y41.318Z0F800
G1 X49.818Y40.791Z0F800
G1 X48.767Y39.643Z0F800
G1 Y35.311Z0F800
G1 X49.313Z0F800
G1 X49.533Y35.347Z0F800
G1 X49.798Y35.451Z0F800
G1 X50.102Y35.621Z0F800
G1 X50.442Y35.85Z0F800
G1 X50.811Y36.135Z0F800
G1 X51.207Y36.47Z0F800
G1 X51.625Y36.852Z0F800
G1 X52.059Y37.275Z0F800
G1 X52.506Y37.736Z0F800
G1 X52.961Y38.23Z0F800
G1 X53.42Y38.752Z0F800
G1 X53.878Y39.298Z0F800
G1 X54.772Y40.444Z0F800
G1 X55.61Y41.63Z0F800
G1 X56.464Y42.912Z0F800
G1 Y51.092Z0F800
G1 X55.885Y51.036Z0F800
G1 X55.701Y51.012Z0F800
G1 X55.556Y50.975Z0F800
;Cut @ 15 mm/sec, 90% power

M8
G0 Z2.8F500
G0 X56.99Y50.834Z2.8F1000
G1 Z0F500
;Layer Red
G1 X56.985Y48.459Z0F800
G1 X56.976Y46.551Z0F800
G1 X56.966Y45.401Z0F800
G1 X56.957Y44.758Z0F800
G1 X56.947Y44.208Z0F800
G1 X56.936Y43.746Z0F800
G1 X56.923Y43.366Z0F800
G1 X56.908Y43.062Z0F800
G1 X56.891Y42.83Z0F800
G1 X56.872Y42.664Z0F800
G1 X56.851Y42.559Z0F800
G1 X56.806Y42.463Z0F800
G1 X56.785Y42.367Z0F800
G1 X56.766Y42.219Z0F800
G1 X56.748Y42.013Z0F800
G1 X56.731Y41.746Z0F800
G1 X56.715Y41.414Z0F800
G1 X56.701Y41.012Z0F800
G1 X56.687Y40.536Z0F800
G1 X56.675Y39.982Z0F800
G1 X56.663Y39.346Z0F800
G1 X56.652Y38.624Z0F800
G1 X56.631Y36.905Z0F800
G1 X56.616Y35.358Z0F800
G1 X56.538Y24.803Z0F800
G1 X48.699Y24.735Z0F800
G1 Y30.573Z0F800
G1 X48.695Y31.893Z0F800
G1 X48.688Y32.916Z0F800
G1 X48.682Y33.327Z0F800
G1 X48.675Y33.677Z0F800
G1 X48.665Y33.971Z0F800
G1 X48.654Y34.213Z0F800
G1 X48.641Y34.408Z0F800
G1 X48.625Y34.561Z0F800
G1 X48.607Y34.675Z0F800
G1 X48.562Y34.809Z0F800
G1 X48.505Y34.846Z0F800
G1 X48.449Y34.866Z0F800
G1 X48.404Y34.938Z0F800
G1 X48.37Y35.08Z0F800
G1 X48.345Y35.307Z0F800
G1 X48.335Y35.459Z0F800
G1 X48.328Y35.638Z0F800
G1 X48.321Y35.847Z0F800
G1 X48.313Y36.365Z0F800
G1 X48.31Y37.029Z0F800
G1 Y37.802Z0F800
G1 X48.314Y38.454Z0F800
G1 X48.323Y38.973Z0F800
G1 X48.329Y39.188Z0F800
G1 X48.337Y39.376Z0F800
G1 X48.347Y39.538Z0F800
G1 X48.372Y39.795Z0F800
G1 X48.407Y39.973Z0F800
G1 X48.45Y40.089Z0F800
G1 X48.505Y40.157Z0F800
G1 X48.56Y40.232Z0F800
G1 X48.604Y40.367Z0F800
G1 X48.622Y40.464Z0F800
G1 X48.638Y40.585Z0F800
G1 X48.652Y40.732Z0F800
G1 X48.663Y40.907Z0F800
G1 X48.673Y41.114Z0F800
G1 X48.68Y41.355Z0F800
G1 X48.687Y41.633Z0F800
G1 X48.695Y42.311Z0F800
G1 X48.698Y43.169Z0F800
G1 Y47.025Z0F800
G1 X48.342Z0F800
G1 X48.236Y47.016Z0F800
G1 X48.132Y46.984Z0F800
G1 X48.026Y46.924Z0F800
G1 X47.911Y46.831Z0F800
G1 X47.78Y46.698Z0F800
G1 X47.628Y46.52Z0F800
G1 X47.449Y46.291Z0F800
G1 X47.235Y46.006Z0F800
G1 X46.868Y45.535Z0F800
G1 X46.422Y45.006Z0F800
G1 X45.954Y44.483Z0F800
G1 X45.521Y44.031Z0F800
G1 X44.557Y43.074Z0F800
G1 Y38.892Z0F800
G1 Y38.118Z0F800
G1 X44.563Y37.815Z0F800
G1 X44.568Y37.561Z0F800
G1 X44.577Y37.353Z0F800
G1 X44.587Y37.186Z0F800
G1 X44.601Y37.056Z0F800
G1 X44.618Y36.959Z0F800
G1 X44.639Y36.89Z0F800
G1 X44.664Y36.846Z0F800
G1 X44.728Y36.813Z0F800
G1 X44.895Y36.841Z0F800
G1 X44.959Y36.815Z0F800
G1 X45.005Y36.722Z0F800
G1 X45.036Y36.533Z0F800
G1 X45.047Y36.394Z0F800
G1 X45.056Y36.221Z0F800
G1 X45.062Y36.01Z0F800
G1 X45.066Y35.757Z0F800
G1 X45.07Y35.115Z0F800
G1 Y33.429Z0F800
G1 X45.065Y32.79Z0F800
G1 X45.061Y32.537Z0F800
G1 X45.054Y32.322Z0F800
G1 X45.046Y32.143Z0F800
G1 X45.035Y31.996Z0F800
G1 X45.003Y31.786Z0F800
G1 X44.957Y31.663Z0F800
G1 X44.894Y31.599Z0F800
G1 X44.812Y31.568Z0F800
G1 X44.728Y31.531Z0F800
G1 X44.664Y31.429Z0F800
G1 X44.639Y31.335Z0F800
G1 X44.618Y31.201Z0F800
G1 X44.601Y31.021Z0F800
G1 X44.587Y30.787Z0F800
G1 X44.576Y30.491Z0F800
G1 X44.567Y30.125Z0F800
G1 X44.561Y29.682Z0F800
G1 X44.557Y29.155Z0F800
G1 Y28.535Z0F800
G1 X44.553Y27.416Z0F800
G1 Y20.592Z0F800
G1 X60.619Z0F800
G1 Y66.85Z0F800
G1 X59.285Z0F800
G1 X58.989Y66.847Z0F800
G1 X58.72Y66.84Z0F800
G1 X58.479Y66.828Z0F800
G1 X58.27Y66.811Z0F800
G1 X58.095Y66.79Z0F800
G1 X57.957Y66.765Z0F800
G1 X57.859Y66.736Z0F800
G1 X57.803Y66.704Z0F800
G1 X57.73Y66.67Z0F800
G1 X57.583Y66.637Z0F800
G1 X57.363Y66.607Z0F800
G1 X57.075Y66.579Z0F800
G1 X56.72Y66.553Z0F800
G1 X56.301Y66.53Z0F800
G1 X55.821Y66.51Z0F800
G1 X55.282Y66.492Z0F800
G1 X54.91Y66.482Z0F800
G1 X54.283Y66.469Z0F800
G1 X53.794Y66.463Z0F800
G1 X53.596Z0F800
G1 X53.425Y66.468Z0F800
G1 X53.28Y66.474Z0F800
G1 X53.054Y66.495Z0F800
G1 X52.9Y66.529Z0F800
G1 X52.798Y66.576Z0F800
G1 X52.73Y66.638Z0F800
G1 X52.659Y66.7Z0F800
G1 X52.547Y66.749Z0F800
G1 X52.375Y66.786Z0F800
G1 X52.122Y66.813Z0F800
G1 X51.959Y66.823Z0F800
G1 X51.769Y66.831Z0F800
G1 X51.549Y66.838Z0F800
G1 X51.009Y66.846Z0F800
G1 X50.32Y66.85Z0F800
G1 X47.274Z0F800
G1 Y66.537Z0F800
G1 X47.287Y66.453Z0F800
G1 X47.325Y66.333Z0F800
G1 X47.385Y66.183Z0F800
G1 X47.464Y66.008Z0F800
G1 X47.67Y65.608Z0F800
G1 X47.922Y65.176Z0F800
G1 X48.202Y64.714Z0F800
G1 X48.483Y64.227Z0F800
G1 X48.614Y63.994Z0F800
G1 X48.734Y63.776Z0F800
G1 X48.837Y63.581Z0F800
G1 X48.921Y63.416Z0F800
G1 X49.271Y62.704Z0F800
G1 X52.598Z0F800
G1 X53.21Y62.71Z0F800
G1 X53.457Y62.715Z0F800
G1 X53.668Y62.722Z0F800
G1 X53.847Y62.731Z0F800
G1 X53.998Y62.742Z0F800
G1 X54.227Y62.774Z0F800
G1 X54.38Y62.82Z0F800
G1 X54.484Y62.882Z0F800
G1 X54.565Y62.963Z0F800
G1 X54.719Y63.097Z0F800
G1 X54.944Y63.176Z0F800
G1 X55.105Y63.199Z0F800
G1 X55.311Y63.213Z0F800
G1 X55.569Y63.22Z0F800
G1 X55.888Z0F800
G1 X56.991Z0F800
G1 Y50.834Z0F800
G0 Z2.8F500
G0 X27.274Y50.447Z2.8F1000
G1 Z0F500
G1 X27.266Y49.752Z0F800
G1 X27.261Y49.615Z0F800
G1 X27.19Y48.711Z0F800
G1 X20.593Y44.878Z0F800
G1 X19.264Y44.108Z0F800
G1 X18.015Y43.389Z0F800
G1 X16.876Y42.738Z0F800
G1 X15.873Y42.169Z0F800
G1 X15.036Y41.7Z0F800
G1 X14.391Y41.345Z0F800
G1 X14.149Y41.215Z0F800
G1 X13.966Y41.12Z0F800
G1 X13.845Y41.061Z0F800
G1 X13.79Y41.041Z0F800
G1 X13.584Y41.037Z0F800
G1 Y63.622Z0F800
G1 Y86.207Z0F800
G1 X13.804Z0F800
G1 X13.86Y86.192Z0F800
G1 X13.962Y86.147Z0F800
G1 X14.106Y86.074Z0F800
G1 X14.29Y85.975Z0F800
G1 X14.51Y85.853Z0F800
G1 X14.764Y85.709Z0F800
G1 X15.359Y85.362Z0F800
G1 X16.05Y84.952Z0F800
G1 X16.811Y84.492Z0F800
G1 X17.619Y83.999Z0F800
G1 X18.448Y83.489Z0F800
G1 X19.273Y82.975Z0F800
G1 X20.069Y82.475Z0F800
G1 X20.811Y82.003Z0F800
G1 X21.474Y81.575Z0F800
G1 X22.033Y81.207Z0F800
G1 X22.266Y81.05Z0F800
G1 X22.463Y80.913Z0F800
G1 X22.623Y80.8Z0F800
G1 X22.74Y80.71Z0F800
G1 X22.813Y80.647Z0F800
G1 X22.838Y80.613Z0F800
G1 X22.826Y80.566Z0F800
G1 X22.789Y80.513Z0F800
G1 X22.726Y80.454Z0F800
G1 X22.634Y80.388Z0F800
G1 X22.511Y80.313Z0F800
G1 X22.357Y80.228Z0F800
G1 X22.169Y80.132Z0F800
G1 X21.944Y80.024Z0F800
G1 X21.014Y79.552Z0F800
G1 X20.033Y79.01Z0F800
G1 X19.627Y78.781Z0F800
G1 X19.275Y78.593Z0F800
G1 X19.131Y78.52Z0F800
G1 X19.014Y78.466Z0F800
G1 X18.93Y78.431Z0F800
G1 X18.882Y78.419Z0F800
G1 X18.797Y78.441Z0F800
G1 X18.662Y78.5Z0F800
G1 X18.496Y78.587Z0F800
G1 X18.141Y78.801Z0F800
G1 X17.983Y78.888Z0F800
G1 X17.86Y78.947Z0F800
G1 X17.788Y78.969Z0F800
G1 X17.75Y78.921Z0F800
G1 X17.726Y78.78Z0F800
G1 X17.717Y78.554Z0F800
G1 X17.723Y78.248Z0F800
G1 X17.753Y77.528Z0F800
G1 X16.397Y76.539Z0F800
G1 X16.071Y76.299Z0F800
G1 X15.796Y76.091Z0F800
G1 X15.571Y75.915Z0F800
G1 X15.395Y75.769Z0F800
G1 X15.267Y75.654Z0F800
G1 X15.186Y75.566Z0F800
G1 X15.151Y75.507Z0F800
G1 X15.16Y75.475Z0F800
G1 X16.011Y74.97Z0F800
G1 X17.704Y73.975Z0F800
G1 X17.707Y56.937Z0F800
G1 X17.71Y53.814Z0F800
G1 X17.717Y51.526Z0F800
G1 X17.723Y50.655Z0F800
G1 X17.73Y49.945Z0F800
G1 X17.739Y49.38Z0F800
G1 X17.749Y48.944Z0F800
G1 X17.763Y48.62Z0F800
G1 X17.778Y48.394Z0F800
G1 X17.796Y48.247Z0F800
G1 X17.817Y48.166Z0F800
G1 X17.84Y48.133Z0F800
G1 X17.867Z0F800
G1 X17.897Y48.147Z0F800
G1 X18.03Y48.218Z0F800
G1 X18.393Y48.419Z0F800
G1 X19.124Y48.834Z0F800
G1 X20.057Y49.37Z0F800
G1 X23.114Y51.141Z0F800
G1 X23.067Y75.849Z0F800
G1 X23.937Y76.252Z0F800
G1 X24.498Y76.502Z0F800
G1 X25.066Y76.739Z0F800
G1 X25.617Y76.954Z0F800
G1 X26.126Y77.139Z0F800
G1 X26.357Y77.217Z0F800
G1 X26.568Y77.285Z0F800
G1 X26.756Y77.34Z0F800
G1 X26.918Y77.383Z0F800
G1 X27.051Y77.411Z0F800
G1 X27.151Y77.424Z0F800
G1 X27.216Y77.421Z0F800
G1 X27.243Y77.4Z0F800
G1 X27.248Y77.3Z0F800
G1 X27.252Y77.054Z0F800
G1 X27.257Y76.671Z0F800
G1 X27.265Y75.534Z0F800
G1 X27.275Y73.045Z0F800
G1 X27.285Y68.671Z0F800
G1 X27.291Y63.659Z0F800
G1 Y58.628Z0F800
G1 X27.288Y54.197Z0F800
G1 X27.281Y51.641Z0F800
G1 X27.274Y50.447Z0F800
G0 Z2.8F500
G0 X44.682Y72.034Z2.8F1000
G1 Z0F500
G1 X46.719Z0F800
G1 X47.09Y72.04Z0F800
G1 X47.365Y72.051Z0F800
G1 X47.557Y72.071Z0F800
G1 X47.681Y72.102Z0F800
G1 X47.752Y72.146Z0F800
G1 X47.784Y72.205Z0F800
G1 X47.791Y72.282Z0F800
G1 X47.765Y72.377Z0F800
G1 X47.692Y72.499Z0F800
G1 X47.578Y72.643Z0F800
G1 X47.428Y72.806Z0F800
G1 X47.045Y73.168Z0F800
G1 X46.589Y73.547Z0F800
G1 X46.109Y73.907Z0F800
G1 X45.65Y74.209Z0F800
G1 X45.444Y74.328Z0F800
G1 X45.26Y74.418Z0F800
G1 X45.106Y74.475Z0F800
G1 X44.986Y74.496Z0F800
G1 X44.887Y74.492Z0F800
G1 X44.813Y74.473Z0F800
G1 X44.759Y74.424Z0F800
G1 X44.722Y74.332Z0F800
G1 X44.7Y74.184Z0F800
G1 X44.688Y73.966Z0F800
G1 X44.683Y73.664Z0F800
G1 Y72.034Z0F800
G0 Z2.8F500
G0 X52.617Y75.065Z2.8F1000
G1 Z0F500
G1 X52.855Y74.813Z0F800
G1 X52.98Y74.687Z0F800
G1 X53.134Y74.525Z0F800
G1 X53.309Y74.333Z0F800
G1 X53.5Y74.119Z0F800
G1 X53.907Y73.648Z0F800
G1 X54.307Y73.168Z0F800
G1 X55.228Y72.034Z0F800
G1 X60.878Z0F800
G1 Y82.399Z0F800
G1 X44.682Z0F800
G1 Y80.588Z0F800
G1 X45.621Y80.116Z0F800
G1 X45.833Y80.007Z0F800
G1 X46.076Y79.877Z0F800
G1 X46.341Y79.733Z0F800
G1 X46.62Y79.578Z0F800
G1 X47.184Y79.255Z0F800
G1 X47.702Y78.947Z0F800
G1 X48.843Y78.253Z0F800
G1 X56.742Z0F800
G1 X56.668Y76.116Z0F800
G1 X52.326Y76.044Z0F800
G1 Y75.685Z0F800
G1 X52.357Y75.493Z0F800
G1 X52.452Y75.289Z0F800
G1 X52.617Y75.065Z0F800
G0 Z2.8F500
G0 X109.033Y55.902Z2.8F1000
G1 Z0F500
G1 X109.403Y55.41Z0F800
G1 X109.927Y54.656Z0F800
G1 X110.42Y53.83Z0F800
G1 X110.876Y52.947Z0F800
G1 X111.289Y52.019Z0F800
G1 X111.654Y51.061Z0F800
G1 X111.965Y50.086Z0F800
G1 X112.217Y49.107Z0F800
G1 X112.404Y48.138Z0F800
G1 X112.469Y47.631Z0F800
G1 X112.518Y47.043Z0F800
G1 X112.55Y46.403Z0F800
G1 X112.566Y45.741Z0F800
G1 Y45.087Z0F800
G1 X112.547Y44.47Z0F800
G1 X112.511Y43.919Z0F800
G1 X112.457Y43.465Z0F800
G1 X112.298Y42.592Z0F800
G1 X112.101Y41.74Z0F800
G1 X111.865Y40.907Z0F800
G1 X111.592Y40.094Z0F800
G1 X111.282Y39.302Z0F800
G1 X110.933Y38.53Z0F800
G1 X110.548Y37.78Z0F800
G1 X110.125Y37.051Z0F800
G1 X109.677Y36.378Z0F800
G1 X109.163Y35.683Z0F800
G1 X108.905Y35.36Z0F800
G1 X108.661Y35.071Z0F800
G1 X108.441Y34.829Z0F800
G1 X108.255Y34.646Z0F800
G1 X107.799Y34.241Z0F800
G1 X107.407Y33.897Z0F800
G1 X107.067Y33.602Z0F800
G1 X106.764Y33.346Z0F800
G1 X106.218Y32.905Z0F800
G1 X105.665Y32.486Z0F800
G1 X104.89Y31.911Z0F800
G1 X104.248Y31.431Z0F800
G1 X103.967Y31.235Z0F800
G1 X103.639Y31.035Z0F800
G1 X103.272Y30.833Z0F800
G1 X102.871Y30.633Z0F800
G1 X101.995Y30.25Z0F800
G1 X101.064Y29.911Z0F800
G1 X100.139Y29.638Z0F800
G1 X99.203Y29.422Z0F800
G1 X98.257Y29.261Z0F800
G1 X97.305Y29.154Z0F800
G1 X96.349Y29.103Z0F800
G1 X95.392Y29.106Z0F800
G1 X94.438Y29.162Z0F800
G1 X93.487Y29.272Z0F800
G1 X92.545Y29.435Z0F800
G1 X91.612Y29.651Z0F800
G1 X90.693Y29.919Z0F800
G1 X89.789Y30.238Z0F800
G1 X88.904Y30.609Z0F800
G1 X88.041Y31.031Z0F800
G1 X87.201Y31.504Z0F800
G1 X86.389Y32.027Z0F800
G1 X86.103Y32.217Z0F800
G1 X85.858Y32.369Z0F800
G1 X85.759Y32.426Z0F800
G1 X85.681Y32.468Z0F800
G1 X85.626Y32.492Z0F800
G1 X85.597Y32.496Z0F800
G1 X85.574Y32.481Z0F800
G1 X85.531Y32.445Z0F800
G1 X85.468Y32.39Z0F800
G1 X85.178Y32.122Z0F800
G1 X84.913Y31.873Z0F800
G1 X84.266Y31.252Z0F800
G1 X83.535Y30.542Z0F800
G1 X82.809Y29.831Z0F800
G1 X82.18Y29.207Z0F800
G1 X81.929Y28.954Z0F800
G1 X81.736Y28.756Z0F800
G1 X81.612Y28.624Z0F800
G1 X81.579Y28.586Z0F800
G1 X81.568Y28.568Z0F800
G1 X81.583Y28.537Z0F800
G1 X81.627Y28.487Z0F800
G1 X81.697Y28.42Z0F800
G1 X81.791Y28.338Z0F800
G1 X82.041Y28.137Z0F800
G1 X82.356Y27.897Z0F800
G1 X83.104Y27.361Z0F800
G1 X83.877Y26.848Z0F800
G1 X84.79Y26.304Z0F800
G1 X85.731Y25.804Z0F800
G1 X86.7Y25.35Z0F800
G1 X87.695Y24.94Z0F800
G1 X88.716Y24.576Z0F800
G1 X89.762Y24.257Z0F800
G1 X90.833Y23.985Z0F800
G1 X91.928Y23.758Z0F800
G1 X92.691Y23.632Z0F800
G1 X93.452Y23.535Z0F800
G1 X94.218Y23.466Z0F800
G1 X94.996Y23.426Z0F800
G1 X95.79Y23.414Z0F800
G1 X96.607Y23.43Z0F800
G1 X97.453Y23.474Z0F800
G1 X98.335Y23.546Z0F800
G1 X99.251Y23.657Z0F800
G1 X100.185Y23.819Z0F800
G1 X101.131Y24.029Z0F800
G1 X102.082Y24.285Z0F800
G1 X103.033Y24.586Z0F800
G1 X103.976Y24.93Z0F800
G1 X104.907Y25.315Z0F800
G1 X105.818Y25.739Z0F800
G1 X106.404Y26.022Z0F800
G1 X106.904Y26.254Z0F800
G1 X107.106Y26.344Z0F800
G1 X107.266Y26.411Z0F800
G1 X107.379Y26.454Z0F800
G1 X107.437Y26.469Z0F800
G1 X107.529Y26.425Z0F800
G1 X107.68Y26.307Z0F800
G1 X107.868Y26.131Z0F800
G1 X108.073Y25.917Z0F800
G1 X108.572Y25.366Z0F800
G1 X108.63Y25.793Z0F800
G1 X108.671Y26.264Z0F800
G1 X108.689Y26.799Z0F800
G1 Y27.379Z0F800
G1 X109.195Y27.754Z0F800
G1 X110.075Y28.437Z0F800
G1 X110.916Y29.159Z0F800
G1 X111.717Y29.917Z0F800
G1 X112.477Y30.711Z0F800
G1 X113.196Y31.538Z0F800
G1 X113.872Y32.397Z0F800
G1 X114.505Y33.287Z0F800
G1 X115.094Y34.206Z0F800
G1 X115.637Y35.153Z0F800
G1 X116.135Y36.126Z0F800
G1 X116.585Y37.124Z0F800
G1 X116.987Y38.145Z0F800
G1 X117.341Y39.187Z0F800
G1 X117.644Y40.25Z0F800
G1 X117.898Y41.332Z0F800
G1 X118.099Y42.43Z0F800
G1 X118.14Y42.732Z0F800
G1 X118.176Y43.08Z0F800
G1 X118.206Y43.468Z0F800
G1 X118.231Y43.888Z0F800
G1 X118.263Y44.799Z0F800
G1 X118.273Y45.761Z0F800
G1 X118.262Y46.72Z0F800
G1 X118.228Y47.621Z0F800
G1 X118.203Y48.033Z0F800
G1 X118.173Y48.412Z0F800
G1 X118.137Y48.749Z0F800
G1 X118.095Y49.038Z0F800
G1 X117.933Y49.926Z0F800
G1 X117.751Y50.772Z0F800
G1 X117.545Y51.584Z0F800
G1 X117.313Y52.372Z0F800
G1 X117.052Y53.146Z0F800
G1 X116.759Y53.914Z0F800
G1 X116.431Y54.687Z0F800
G1 X116.064Y55.473Z0F800
G1 X115.797Y55.996Z0F800
G1 X115.481Y56.57Z0F800
G1 X115.131Y57.169Z0F800
G1 X114.763Y57.769Z0F800
G1 X114.393Y58.344Z0F800
G1 X114.038Y58.868Z0F800
G1 X113.871Y59.103Z0F800
G1 X113.713Y59.316Z0F800
G1 X113.567Y59.504Z0F800
G1 X113.434Y59.663Z0F800
G1 X113.132Y60.01Z0F800
G1 X109.033Y55.902Z0F800
G0 Z2.8F500
G0 X106.123Y53.035Z2.8F1000
G1 Z0F500
G1 Y58.858Z0F800
G1 X109.582Y62.317Z0F800
G1 X110.415Y63.146Z0F800
G1 X111.135Y63.857Z0F800
G1 X111.745Y64.453Z0F800
G1 X112.248Y64.935Z0F800
G1 X112.46Y65.134Z0F800
G1 X112.646Y65.306Z0F800
G1 X112.807Y65.45Z0F800
G1 X112.942Y65.568Z0F800
G1 X113.052Y65.659Z0F800
G1 X113.138Y65.724Z0F800
G1 X113.199Y65.762Z0F800
G1 X113.235Y65.775Z0F800
G1 X113.3Y65.755Z0F800
G1 X113.397Y65.696Z0F800
G1 X113.527Y65.597Z0F800
G1 X113.688Y65.458Z0F800
G1 X113.882Y65.281Z0F800
G1 X114.108Y65.064Z0F800
G1 X114.366Y64.808Z0F800
G1 X114.655Y64.513Z0F800
G1 X115.469Y63.65Z0F800
G1 X116.213Y62.806Z0F800
G1 X116.896Y61.97Z0F800
G1 X117.525Y61.129Z0F800
G1 X118.11Y60.272Z0F800
G1 X118.66Y59.386Z0F800
G1 X119.182Y58.461Z0F800
G1 X119.684Y57.483Z0F800
G1 X120.164Y56.475Z0F800
G1 X120.582Y55.514Z0F800
G1 X120.947Y54.579Z0F800
G1 X121.265Y53.647Z0F800
G1 X121.543Y52.696Z0F800
G1 X121.788Y51.705Z0F800
G1 X122.007Y50.651Z0F800
G1 X122.208Y49.512Z0F800
G1 X122.249Y49.223Z0F800
G1 X122.286Y48.886Z0F800
G1 X122.318Y48.51Z0F800
G1 X122.346Y48.1Z0F800
G1 X122.388Y47.202Z0F800
G1 X122.412Y46.245Z0F800
G1 X122.416Y45.279Z0F800
G1 X122.4Y44.355Z0F800
G1 X122.384Y43.924Z0F800
G1 X122.363Y43.523Z0F800
G1 X122.337Y43.158Z0F800
G1 X122.305Y42.834Z0F800
G1 X122.149Y41.698Z0F800
G1 X121.947Y40.578Z0F800
G1 X121.699Y39.476Z0F800
G1 X121.408Y38.392Z0F800
G1 X121.073Y37.327Z0F800
G1 X120.696Y36.283Z0F800
G1 X120.278Y35.26Z0F800
G1 X119.819Y34.259Z0F800
G1 X119.321Y33.282Z0F800
G1 X118.785Y32.329Z0F800
G1 X118.211Y31.401Z0F800
G1 X117.6Y30.499Z0F800
G1 X116.954Y29.625Z0F800
G1 X116.273Y28.778Z0F800
G1 X115.559Y27.961Z0F800
G1 X114.812Y27.174Z0F800
G1 X114.033Y26.418Z0F800
G1 X113.224Y25.694Z0F800
G1 X112.384Y25.003Z0F800
G1 X111.516Y24.345Z0F800
G1 X110.62Y23.723Z0F800
G1 X109.697Y23.137Z0F800
G1 X108.748Y22.587Z0F800
G1 X107.774Y22.075Z0F800
G1 X106.776Y21.602Z0F800
G1 X105.754Y21.169Z0F800
G1 X104.711Y20.777Z0F800
G1 X103.646Y20.426Z0F800
G1 X102.562Y20.118Z0F800
G1 X101.457Y19.854Z0F800
G1 X100.335Y19.634Z0F800
G1 X99.195Y19.46Z0F800
G1 X98.926Y19.428Z0F800
G1 X98.624Y19.398Z0F800
G1 X98.295Y19.372Z0F800
G1 X97.944Y19.348Z0F800
G1 X97.193Y19.31Z0F800
G1 X96.408Y19.284Z0F800
G1 X95.625Y19.272Z0F800
G1 X94.883Y19.275Z0F800
G1 X94.539Y19.282Z0F800
G1 X94.218Y19.293Z0F800
G1 X93.926Y19.308Z0F800
G1 X93.668Y19.328Z0F800
G1 X92.71Y19.429Z0F800
G1 X91.761Y19.563Z0F800
G1 X90.822Y19.728Z0F800
G1 X89.892Y19.924Z0F800
G1 X88.974Y20.152Z0F800
G1 X88.067Y20.41Z0F800
G1 X87.171Y20.699Z0F800
G1 X86.288Y21.018Z0F800
G1 X85.418Y21.368Z0F800
G1 X84.562Y21.748Z0F800
G1 X83.719Y22.157Z0F800
G1 X82.891Y22.597Z0F800
G1 X82.078Y23.065Z0F800
G1 X81.281Y23.563Z0F800
G1 X80.5Y24.09Z0F800
G1 X79.736Y24.645Z0F800
G1 X79.456Y24.862Z0F800
G1 X79.155Y25.105Z0F800
G1 X78.836Y25.37Z0F800
G1 X78.506Y25.652Z0F800
G1 X77.836Y26.244Z0F800
G1 X77.187Y26.84Z0F800
G1 X76.885Y27.126Z0F800
G1 X76.605Y27.398Z0F800
G1 X76.353Y27.649Z0F800
G1 X76.134Y27.876Z0F800
G1 X75.955Y28.072Z0F800
G1 X75.819Y28.232Z0F800
G1 X75.734Y28.352Z0F800
G1 X75.704Y28.426Z0F800
G1 X75.732Y28.476Z0F800
G1 X75.811Y28.577Z0F800
G1 X75.939Y28.725Z0F800
G1 X76.113Y28.918Z0F800
G1 X76.328Y29.15Z0F800
G1 X76.582Y29.42Z0F800
G1 X77.191Y30.058Z0F800
G1 X77.914Y30.803Z0F800
G1 X78.721Y31.627Z0F800
G1 X79.586Y32.504Z0F800
G1 X80.482Y33.405Z0F800
G1 X81.38Y34.303Z0F800
G1 X82.254Y35.171Z0F800
G1 X83.076Y35.981Z0F800
G1 X83.819Y36.705Z0F800
G1 X84.455Y37.316Z0F800
G1 X84.724Y37.571Z0F800
G1 X84.956Y37.787Z0F800
G1 X85.148Y37.961Z0F800
G1 X85.296Y38.09Z0F800
G1 X85.397Y38.169Z0F800
G1 X85.447Y38.196Z0F800
G1 X85.502Y38.176Z0F800
G1 X85.597Y38.117Z0F800
G1 X85.725Y38.023Z0F800
G1 X85.882Y37.899Z0F800
G1 X86.261Y37.577Z0F800
G1 X86.693Y37.183Z0F800
G1 X87.104Y36.804Z0F800
G1 X87.494Y36.457Z0F800
G1 X87.866Y36.141Z0F800
G1 X88.221Y35.854Z0F800
G1 X88.562Y35.595Z0F800
G1 X88.89Y35.363Z0F800
G1 X89.207Y35.155Z0F800
G1 X89.703Y34.858Z0F800
G1 X89.856Y34.755Z0F800
G1 X89.96Y34.671Z0F800
G1 X89.998Y34.619Z0F800
G1 X90.023Y34.577Z0F800
G1 X90.096Y34.522Z0F800
G1 X90.211Y34.455Z0F800
G1 X90.364Y34.38Z0F800
G1 X90.764Y34.208Z0F800
G1 X91.254Y34.021Z0F800
G1 X91.797Y33.833Z0F800
G1 X92.353Y33.657Z0F800
G1 X92.882Y33.509Z0F800
G1 X93.344Y33.402Z0F800
G1 X93.769Y33.322Z0F800
G1 X94.133Y33.262Z0F800
G1 X94.458Y33.22Z0F800
G1 X94.764Y33.195Z0F800
G1 X95.069Y33.187Z0F800
G1 X95.395Y33.193Z0F800
G1 X95.76Y33.214Z0F800
G1 X96.186Y33.247Z0F800
G1 X96.769Y33.302Z0F800
G1 X97.297Y33.363Z0F800
G1 X97.785Y33.432Z0F800
G1 X98.244Y33.512Z0F800
G1 X99.135Y33.716Z0F800
G1 X100.076Y33.996Z0F800
G1 X100.596Y34.166Z0F800
G1 X101.023Y34.315Z0F800
G1 X101.382Y34.452Z0F800
G1 X101.699Y34.591Z0F800
G1 X101.999Y34.743Z0F800
G1 X102.308Y34.921Z0F800
G1 X102.651Y35.137Z0F800
G1 X103.054Y35.402Z0F800
G1 X103.732Y35.894Z0F800
G1 X104.386Y36.447Z0F800
G1 X105.009Y37.054Z0F800
G1 X105.596Y37.708Z0F800
G1 X106.141Y38.402Z0F800
G1 X106.638Y39.13Z0F800
G1 X107.081Y39.884Z0F800
G1 X107.465Y40.658Z0F800
G1 X107.62Y41.021Z0F800
G1 X107.746Y41.358Z0F800
G1 X107.795Y41.504Z0F800
G1 X107.832Y41.63Z0F800
G1 X107.855Y41.73Z0F800
G1 X107.864Y41.8Z0F800
G1 X107.878Y41.957Z0F800
G1 X107.916Y42.19Z0F800
G1 X107.973Y42.469Z0F800
G1 X108.042Y42.762Z0F800
G1 X108.179Y43.362Z0F800
G1 X108.284Y43.965Z0F800
G1 X108.358Y44.572Z0F800
G1 X108.402Y45.181Z0F800
G1 X108.416Y45.791Z0F800
G1 X108.399Y46.401Z0F800
G1 X108.353Y47.009Z0F800
G1 X108.277Y47.614Z0F800
G1 X108.171Y48.216Z0F800
G1 X108.036Y48.812Z0F800
G1 X107.871Y49.402Z0F800
G1 X107.678Y49.985Z0F800
G1 X107.455Y50.559Z0F800
G1 X107.204Y51.123Z0F800
G1 X106.924Y51.676Z0F800
G1 X106.616Y52.217Z0F800
G1 X106.123Y53.035Z0F800
M5
G1 Z10 F500
M9
G90
G1 Z10 F500
