;LightBurn 1.6.04
;Custom GCode device profile, absolute coords
;Bounds: X2.52 Y15.83 to X123.48 Y84.17
G00 G17 G40 G21 G54
G90
M3
G1 Z10 F500
;Cut @ 1200 mm/min, 90% power

M8
G0 Z2.8F500
G0 X3.43Y15.831Z2.8F1500
G1 Z0F500
;Layer Blue
G1 X3.733Y16.133Z0S900F1200
G0 Z2.8F500
G0 X4.035Y16.738Z2.8F1500
G1 Z0F500
G1 X4.337Y17.04Z0F1200
G0 Z2.8F500
G0 X3.43Z2.8F1500
G1 Z0F500
G1 X3.128Y16.738Z0F1200
G0 Z2.8F500
G0 X3.43Y17.645Z2.8F1500
G1 Z0F500
G1 X3.733Y17.947Z0F1200
G0 Z2.8F500
G0 X4.035Y18.854Z2.8F1500
G1 Z0F500
G1 X4.337Y19.157Z0F1200
G0 Z2.8F500
G0 X4.64Y19.459Z2.8F1500
G1 Z0F500
G1 X4.942Y19.762Z0F1200
G0 Z2.8F500
G0 Y20.064Z2.8F1500
G1 Z0F500
G1 X5.245Y20.366Z0F1200
G0 Z2.8F500
G0 X6.454Z2.8F1500
G1 Z0F500
G1 X6.757Y20.669Z0F1200
G0 Z2.8F500
G0 X6.454Z2.8F1500
G1 Z0F500
G1 X6.757Y20.971Z0F1200
G0 Z2.8F500
G0 X7.059Y20.669Z2.8F1500
G1 Z0F500
G1 X7.361Y20.971Z0F1200
G0 Z2.8F500
G0 X7.664Z2.8F1500
G1 Z0F500
G1 X7.361Y20.669Z0F1200
G0 Z2.8F500
G0 X7.059Z2.8F1500
G1 Z0F500
G1 X6.757Y20.366Z0F1200
G0 Z2.8F500
G0 X7.059Z2.8F1500
G1 Z0F500
G1 X6.757Y20.064Z0F1200
G0 Z2.8F500
G0 Z2.8F1500
G1 Z0F500
G1 X6.454Y19.762Z0F1200
G0 Z2.8F500
G0 X6.757Z2.8F1500
G1 Z0F500
G1 X7.059Y20.064Z0F1200
G0 Z2.8F500
G0 X7.361Z2.8F1500
G1 Z0F500
G1 X7.059Y19.762Z0F1200
G0 Z2.8F500
G0 X7.664Z2.8F1500
G1 Z0F500
G1 X7.966Y20.064Z0F1200
G0 Z2.8F500
G0 Z2.8F1500
G1 Z0F500
G1 X8.268Y20.366Z0F1200
G0 Z2.8F500
G0 X8.571Z2.8F1500
G1 Z0F500
G1 X8.873Y20.669Z0F1200
G0 Z2.8F500
G0 X8.571Z2.8F1500
G1 Z0F500
G1 X8.873Y20.971Z0F1200
G0 Z2.8F500
G0 X8.571Y21.274Z2.8F1500
G1 Z0F500
G1 X8.873Y21.576Z0F1200
G0 Z2.8F500
G0 X8.571Z2.8F1500
G1 Z0F500
G1 X8.873Y21.878Z0F1200
G0 Z2.8F500
G0 X8.571Z2.8F1500
G1 Z0F500
G1 X8.268Y21.576Z0F1200
G0 Z2.8F500
G0 Z2.8F1500
G1 Z0F500
G1 X7.966Y21.274Z0F1200
G0 Z2.8F500
G0 X8.268Z2.8F1500
G1 Z0F500
G1 X8.571Y21.576Z0F1200
G0 Z2.8F500
G0 Y21.274Z2.8F1500
G1 Z0F500
G1 X8.268Y20.971Z0F1200
G0 Z2.8F500
G0 X7.966Z2.8F1500
G1 Z0F500
G1 X8.268Y21.274Z0F1200
G0 Z2.8F500
G0 X7.966Y21.576Z2.8F1500
G1 Z0F500
G1 X8.268Y21.878Z0F1200
G0 Z2.8F500
G0 X7.966Z2.8F1500
G1 Z0F500
G1 X7.664Y21.576Z0F1200
G0 Z2.8F500
G0 X7.361Z2.8F1500
G1 Z0F500
G1 X7.664Y21.878Z0F1200
G0 Z2.8F500
G0 Y22.181Z2.8F1500
G1 Z0F500
G1 X7.966Y22.483Z0F1200
G0 Z2.8F500
G0 X7.361Y22.785Z2.8F1500
G1 Z0F500
G1 X7.664Y23.088Z0F1200
G0 Z2.8F500
G0 X7.966Z2.8F1500
G1 Z0F500
G1 X8.268Y23.39Z0F1200
G0 Z2.8F500
G0 Y23.693Z2.8F1500
G1 Z0F500
G1 X8.571Y23.995Z0F1200
G0 Z2.8F500
G0 X8.268Z2.8F1500
G1 Z0F500
G1 X8.571Y24.297Z0F1200
G0 Z2.8F500
G0 Z2.8F1500
G1 Z0F500
G1 X8.873Y24.6Z0F1200
G0 Z2.8F500
G0 X8.571Z2.8F1500
G1 Z0F500
G1 X8.873Y24.902Z0F1200
G0 Z2.8F500
G0 Z2.8F1500
G1 Z0F500
G1 X9.176Y25.205Z0F1200
G0 Z2.8F500
G0 X9.478Y24.902Z2.8F1500
G1 Z0F500
G1 X9.78Y25.205Z0F1200
G0 Z2.8F500
G0 Y24.902Z2.8F1500
G1 Z0F500
G1 X9.478Y24.6Z0F1200
G0 Z2.8F500
G0 Y24.297Z2.8F1500
G1 Z0F500
G1 X9.176Y23.995Z0F1200
G0 Z2.8F500
G0 Z2.8F1500
G1 Z0F500
G1 X8.873Y23.693Z0F1200
G0 Z2.8F500
G0 X8.571Z2.8F1500
G1 Z0F500
G1 X8.873Y23.995Z0F1200
G0 Z2.8F500
G0 X9.478Z2.8F1500
G1 Z0F500
G1 X9.78Y24.297Z0F1200
G0 Z2.8F500
G0 Z2.8F1500
G1 Z0F500
G1 X10.083Y24.6Z0F1200
G0 Z2.8F500
G0 X10.385Z2.8F1500
G1 Z0F500
G1 X10.083Y24.297Z0F1200
G0 Z2.8F500
G0 X10.385Z2.8F1500
G1 Z0F500
G1 X10.083Y23.995Z0F1200
G0 Z2.8F500
G0 X10.385Y23.693Z2.8F1500
G1 Z0F500
G1 X10.688Y23.995Z0F1200
G0 Z2.8F500
G0 X10.99Y23.693Z2.8F1500
G1 Z0F500
G1 X11.292Y23.995Z0F1200
G0 Z2.8F500
G0 Z2.8F1500
G1 Z0F500
G1 X11.595Y24.297Z0F1200
G0 Z2.8F500
G0 Y23.995Z2.8F1500
G1 Z0F500
G1 X11.292Y23.693Z0F1200
G0 Z2.8F500
G0 Z2.8F1500
G1 Z0F500
G1 X10.99Y23.39Z0F1200
G0 Z2.8F500
G0 Z2.8F1500
G1 Z0F500
G1 X10.688Y23.088Z0F1200
G0 Z2.8F500
G0 Z2.8F1500
G1 Z0F500
G1 X10.385Y22.785Z0F1200
G0 Z2.8F500
G0 Z2.8F1500
G1 Z0F500
G1 X10.083Y22.483Z0F1200
G0 Z2.8F500
G0 X9.78Z2.8F1500
G1 Z0F500
G1 X10.083Y22.785Z0F1200
G0 Z2.8F500
G0 Z2.8F1500
G1 Z0F500
G1 X10.385Y23.088Z0F1200
G0 Z2.8F500
G0 Z2.8F1500
G1 Z0F500
G1 X10.688Y23.39Z0F1200
G0 Z2.8F500
G0 X10.385Z2.8F1500
G1 Z0F500
G1 X10.083Y23.088Z0F1200
G0 Z2.8F500
G0 X9.78Z2.8F1500
G1 Z0F500
G1 X9.478Y22.785Z0F1200
G0 Z2.8F500
G0 X9.176Z2.8F1500
G1 Z0F500
G1 X8.873Y22.483Z0F1200
G0 Z2.8F500
G0 X9.478Y22.181Z2.8F1500
G1 Z0F500
G1 X9.78Y22.483Z0F1200
G0 Z2.8F500
G0 X10.083Y22.181Z2.8F1500
G1 Z0F500
G1 X9.78Y21.878Z0F1200
G0 Z2.8F500
G0 Y21.576Z2.8F1500
G1 Z0F500
G1 X9.478Y21.274Z0F1200
G0 Z2.8F500
G0 X9.176Z2.8F1500
G1 Z0F500
G1 X9.478Y21.576Z0F1200
G0 Z2.8F500
G0 X9.78Y21.274Z2.8F1500
G1 Z0F500
G1 X9.478Y20.971Z0F1200
G0 Z2.8F500
G0 X9.78Z2.8F1500
G1 Z0F500
G1 X9.478Y20.669Z0F1200
G0 Z2.8F500
G0 X9.176Z2.8F1500
G1 Z0F500
G1 X8.873Y20.366Z0F1200
G0 Z2.8F500
G0 X9.176Y20.064Z2.8F1500
G1 Z0F500
G1 X9.478Y20.366Z0F1200
G0 Z2.8F500
G0 Z2.8F1500
G1 Z0F500
G1 X9.78Y20.669Z0F1200
G0 Z2.8F500
G0 X10.083Z2.8F1500
G1 Z0F500
G1 X10.385Y20.971Z0F1200
G0 Z2.8F500
G0 X10.688Z2.8F1500
G1 Z0F500
G1 X10.99Y21.274Z0F1200
G0 Z2.8F500
G0 X10.688Z2.8F1500
G1 Z0F500
G1 X10.99Y21.576Z0F1200
G0 Z2.8F500
G0 Z2.8F1500
G1 Z0F500
G1 X11.292Y21.878Z0F1200
G0 Z2.8F500
G0 X11.595Z2.8F1500
G1 Z0F500
G1 X11.897Y22.181Z0F1200
G0 Z2.8F500
G0 X11.595Z2.8F1500
G1 Z0F500
G1 X11.897Y22.483Z0F1200
G0 Z2.8F500
G0 Y22.785Z2.8F1500
G1 Z0F500
G1 X12.199Y23.088Z0F1200
G0 Z2.8F500
G0 X12.502Y23.39Z2.8F1500
G1 Z0F500
G1 X12.804Y23.693Z0F1200
G0 Z2.8F500
G0 X12.502Y23.995Z2.8F1500
G1 Z0F500
G1 X12.804Y24.297Z0F1200
G0 Z2.8F500
G0 X12.502Z2.8F1500
G1 Z0F500
G1 X12.199Y23.995Z0F1200
G0 Z2.8F500
G0 X13.107Y24.297Z2.8F1500
G1 Z0F500
G1 X13.409Y24.6Z0F1200
G0 Z2.8F500
G0 X13.711Z2.8F1500
G1 Z0F500
G1 X14.014Y24.902Z0F1200
G0 Z2.8F500
G0 Z2.8F1500
G1 Z0F500
G1 X14.316Y25.205Z0F1200
G0 Z2.8F500
G0 X14.014Y25.507Z2.8F1500
G1 Z0F500
G1 X14.316Y25.809Z0F1200
G0 Z2.8F500
G0 Z2.8F1500
G1 Z0F500
G1 X14.619Y26.112Z0F1200
G0 Z2.8F500
G0 Z2.8F1500
G1 Z0F500
G1 X14.921Y26.414Z0F1200
G0 Z2.8F500
G0 Y26.112Z2.8F1500
G1 Z0F500
G1 X14.619Y25.809Z0F1200
G0 Z2.8F500
G0 X14.921Z2.8F1500
G1 Z0F500
G1 X15.223Y26.112Z0F1200
G0 Z2.8F500
G0 X15.526Z2.8F1500
G1 Z0F500
G1 X15.223Y25.809Z0F1200
G0 Z2.8F500
G0 Z2.8F1500
G1 Z0F500
G1 X14.921Y25.507Z0F1200
G0 Z2.8F500
G0 X14.619Z2.8F1500
G1 Z0F500
G1 X14.921Y25.809Z0F1200
G0 Z2.8F500
G0 X15.526Z2.8F1500
G1 Z0F500
G1 X15.828Y26.112Z0F1200
G0 Z2.8F500
G0 X16.13Z2.8F1500
G1 Z0F500
G1 X16.433Y26.414Z0F1200
G0 Z2.8F500
G0 X16.13Z2.8F1500
G1 Z0F500
G1 X16.433Y26.716Z0F1200
G0 Z2.8F500
G0 X16.735Z2.8F1500
G1 Z0F500
G1 X17.038Y27.019Z0F1200
G0 Z2.8F500
G0 X17.34Z2.8F1500
G1 Z0F500
G1 X17.642Y27.321Z0F1200
G0 Z2.8F500
G0 X17.945Z2.8F1500
G1 Z0F500
G1 X18.247Y27.624Z0F1200
G0 Z2.8F500
G0 X17.945Z2.8F1500
G1 Z0F500
G1 X18.247Y27.926Z0F1200
G0 Z2.8F500
G0 Z2.8F1500
G1 Z0F500
G1 X18.55Y28.228Z0F1200
G0 Z2.8F500
G0 Y28.531Z2.8F1500
G1 Z0F500
G1 X18.852Y28.833Z0F1200
G0 Z2.8F500
G0 Z2.8F1500
G1 Z0F500
G1 X19.154Y29.135Z0F1200
G0 Z2.8F500
G0 X18.852Z2.8F1500
G1 Z0F500
G1 X19.154Y29.438Z0F1200
G0 Z2.8F500
G0 Z2.8F1500
G1 Z0F500
G1 X19.457Y29.74Z0F1200
G0 Z2.8F500
G0 X19.154Z2.8F1500
G1 Z0F500
G1 X18.852Y29.438Z0F1200
G0 Z2.8F500
G0 X18.55Y29.74Z2.8F1500
G1 Z0F500
G1 X18.852Y30.043Z0F1200
G0 Z2.8F500
G0 X18.55Z2.8F1500
G1 Z0F500
G1 X18.852Y30.345Z0F1200
G0 Z2.8F500
G0 X19.154Z2.8F1500
G1 Z0F500
G1 X19.457Y30.647Z0F1200
G0 Z2.8F500
G0 Z2.8F1500
G1 Z0F500
G1 X19.759Y30.95Z0F1200
G0 Z2.8F500
G0 X20.061Z2.8F1500
G1 Z0F500
G1 X20.364Y31.252Z0F1200
G0 Z2.8F500
G0 X20.061Z2.8F1500
G1 Z0F500
G1 X20.364Y31.555Z0F1200
G0 Z2.8F500
G0 X20.061Z2.8F1500
G1 Z0F500
G1 X19.759Y31.252Z0F1200
G0 Z2.8F500
G0 Z2.8F1500
G1 Z0F500
G1 X19.457Y30.95Z0F1200
G0 Z2.8F500
G0 X19.154Z2.8F1500
G1 Z0F500
G1 X19.457Y31.252Z0F1200
G0 Z2.8F500
G0 X19.154Z2.8F1500
G1 Z0F500
G1 X19.457Y31.555Z0F1200
G0 Z2.8F500
G0 X19.154Z2.8F1500
G1 Z0F500
G1 X18.852Y31.252Z0F1200
G0 Z2.8F500
G0 Z2.8F1500
G1 Z0F500
G1 X18.55Y30.95Z0F1200
G0 Z2.8F500
G0 X18.247Z2.8F1500
G1 Z0F500
G1 X17.945Y30.647Z0F1200
G0 Z2.8F500
G0 Z2.8F1500
G1 Z0F500
G1 X17.642Y30.345Z0F1200
G0 Z2.8F500
G0 Z2.8F1500
G1 Z0F500
G1 X17.34Y30.043Z0F1200
G0 Z2.8F500
G0 X17.038Z2.8F1500
G1 Z0F500
G1 X16.735Y29.74Z0F1200
G0 Z2.8F500
G0 X16.433Z2.8F1500
G1 Z0F500
G1 X16.735Y30.043Z0F1200
G0 Z2.8F500
G0 X16.433Z2.8F1500
G1 Z0F500
G1 X16.13Y29.74Z0F1200
G0 Z2.8F500
G0 Z2.8F1500
G1 Z0F500
G1 X15.828Y29.438Z0F1200
G0 Z2.8F500
G0 X15.526Z2.8F1500
G1 Z0F500
G1 X15.828Y29.74Z0F1200
G0 Z2.8F500
G0 Z2.8F1500
G1 Z0F500
G1 X16.13Y30.043Z0F1200
G0 Z2.8F500
G0 X15.828Y30.345Z2.8F1500
G1 Z0F500
G1 X15.526Y30.043Z0F1200
G0 Z2.8F500
G0 X15.223Y29.74Z2.8F1500
G1 Z0F500
G1 X14.921Y29.438Z0F1200
G0 Z2.8F500
G0 X14.316Z2.8F1500
G1 Z0F500
G1 X14.014Y29.135Z0F1200
G0 Z2.8F500
G0 X13.711Y29.438Z2.8F1500
G1 Z0F500
G1 X13.409Y29.135Z0F1200
G0 Z2.8F500
G0 X13.107Z2.8F1500
G1 Z0F500
G1 X12.804Y28.833Z0F1200
G0 Z2.8F500
G0 X12.502Z2.8F1500
G1 Z0F500
G1 X12.804Y29.135Z0F1200
G0 Z2.8F500
G0 X12.502Z2.8F1500
G1 Z0F500
G1 X12.804Y29.438Z0F1200
G0 Z2.8F500
G0 X12.502Z2.8F1500
G1 Z0F500
G1 X12.804Y29.74Z0F1200
G0 Z2.8F500
G0 X12.502Z2.8F1500
G1 Z0F500
G1 X12.199Y29.438Z0F1200
G0 Z2.8F500
G0 X12.502Z2.8F1500
G1 Z0F500
G1 X12.199Y29.135Z0F1200
G0 Z2.8F500
G0 X11.292Z2.8F1500
G1 Z0F500
G1 X10.99Y28.833Z0F1200
G0 Z2.8F500
G0 X10.688Z2.8F1500
G1 Z0F500
G1 X10.385Y28.531Z0F1200
G0 Z2.8F500
G0 X10.99Z2.8F1500
G1 Z0F500
G1 X11.292Y28.833Z0F1200
G0 Z2.8F500
G0 X10.688Y29.438Z2.8F1500
G1 Z0F500
G1 X10.99Y29.74Z0F1200
G0 Z2.8F500
G0 X11.292Z2.8F1500
G1 Z0F500
G1 X11.595Y30.043Z0F1200
G0 Z2.8F500
G0 Z2.8F1500
G1 Z0F500
G1 X11.897Y30.345Z0F1200
G0 Z2.8F500
G0 X12.199Z2.8F1500
G1 Z0F500
G1 X12.502Y30.647Z0F1200
G0 Z2.8F500
G0 X12.804Z2.8F1500
G1 Z0F500
G1 X12.502Y30.345Z0F1200
G0 Z2.8F500
G0 X12.804Z2.8F1500
G1 Z0F500
G1 X13.107Y30.647Z0F1200
G0 Z2.8F500
G0 X13.409Z2.8F1500
G1 Z0F500
G1 X13.107Y30.345Z0F1200
G0 Z2.8F500
G0 X13.711Z2.8F1500
G1 Z0F500
G1 X14.014Y30.647Z0F1200
G0 Z2.8F500
G0 X14.316Z2.8F1500
G1 Z0F500
G1 X14.619Y30.95Z0F1200
G0 Z2.8F500
G0 Y31.252Z2.8F1500
G1 Z0F500
G1 X14.921Y31.555Z0F1200
G0 Z2.8F500
G0 X14.619Z2.8F1500
G1 Z0F500
G1 X14.921Y31.857Z0F1200
G0 Z2.8F500
G0 X15.223Y31.555Z2.8F1500
G1 Z0F500
G1 X14.921Y31.252Z0F1200
G0 Z2.8F500
G0 X15.526Y30.95Z2.8F1500
G1 Z0F500
G1 X15.828Y31.252Z0F1200
G0 Z2.8F500
G0 Y31.555Z2.8F1500
G1 Z0F500
G1 X16.13Y31.857Z0F1200
G0 Z2.8F500
G0 X16.735Y32.159Z2.8F1500
G1 Z0F500
G1 X17.038Y32.462Z0F1200
G0 Z2.8F500
G0 X16.433Y32.764Z2.8F1500
G1 Z0F500
G1 X16.735Y33.066Z0F1200
G0 Z2.8F500
G0 X16.13Z2.8F1500
G1 Z0F500
G1 X15.828Y32.764Z0F1200
G0 Z2.8F500
G0 X15.526Y33.066Z2.8F1500
G1 Z0F500
G1 X15.828Y33.369Z0F1200
G0 Z2.8F500
G0 X16.13Z2.8F1500
G1 Z0F500
G1 X16.433Y33.671Z0F1200
G0 Z2.8F500
G0 X16.735Z2.8F1500
G1 Z0F500
G1 X17.038Y33.974Z0F1200
G0 Z2.8F500
G0 X17.34Z2.8F1500
G1 Z0F500
G1 X17.038Y33.671Z0F1200
G0 Z2.8F500
G0 X17.34Z2.8F1500
G1 Z0F500
G1 X17.642Y33.974Z0F1200
G0 Z2.8F500
G0 Z2.8F1500
G1 Z0F500
G1 X17.945Y34.276Z0F1200
G0 Z2.8F500
G0 Y33.974Z2.8F1500
G1 Z0F500
G1 X17.642Y33.671Z0F1200
G0 Z2.8F500
G0 X17.34Y34.276Z2.8F1500
G1 Z0F500
G1 X17.642Y34.578Z0F1200
G0 Z2.8F500
G0 X17.038Z2.8F1500
G1 Z0F500
G1 X16.735Y34.276Z0F1200
G0 Z2.8F500
G0 X16.433Z2.8F1500
G1 Z0F500
G1 X16.13Y33.974Z0F1200
G0 Z2.8F500
G0 Z2.8F1500
G1 Z0F500
G1 X15.828Y33.671Z0F1200
G0 Z2.8F500
G0 X15.526Y33.974Z2.8F1500
G1 Z0F500
G1 X15.828Y34.276Z0F1200
G0 Z2.8F500
G0 X16.13Z2.8F1500
G1 Z0F500
G1 X16.433Y34.578Z0F1200
G0 Z2.8F500
G0 X17.038Y34.881Z2.8F1500
G1 Z0F500
G1 X17.34Y35.183Z0F1200
G0 Z2.8F500
G0 X17.945Y35.486Z2.8F1500
G1 Z0F500
G1 X18.247Y35.788Z0F1200
G0 Z2.8F500
G0 X18.852Y36.09Z2.8F1500
G1 Z0F500
G1 X19.154Y36.393Z0F1200
G0 Z2.8F500
G0 Z2.8F1500
G1 Z0F500
G1 X19.457Y36.695Z0F1200
G0 Z2.8F500
G0 X19.759Z2.8F1500
G1 Z0F500
G1 X20.061Y36.997Z0F1200
G0 Z2.8F500
G0 Y37.3Z2.8F1500
G1 Z0F500
G1 X20.364Y37.602Z0F1200
G0 Z2.8F500
G0 X20.666Z2.8F1500
G1 Z0F500
G1 X20.969Y37.905Z0F1200
G0 Z2.8F500
G0 Z2.8F1500
G1 Z0F500
G1 X21.271Y38.207Z0F1200
G0 Z2.8F500
G0 Y38.509Z2.8F1500
G1 Z0F500
G1 X21.573Y38.812Z0F1200
G0 Z2.8F500
G0 X21.876Z2.8F1500
G1 Z0F500
G1 X22.178Y39.114Z0F1200
G0 Z2.8F500
G0 X22.783Y39.417Z2.8F1500
G1 Z0F500
G1 X23.085Y39.719Z0F1200
G0 Z2.8F500
G0 Y40.021Z2.8F1500
G1 Z0F500
G1 X23.388Y40.324Z0F1200
G0 Z2.8F500
G0 Z2.8F1500
G1 Z0F500
G1 X23.69Y40.626Z0F1200
G0 Z2.8F500
G0 X23.085Y40.928Z2.8F1500
G1 Z0F500
G1 X23.388Y41.231Z0F1200
G0 Z2.8F500
G0 X23.69Z2.8F1500
G1 Z0F500
G1 X23.992Y41.533Z0F1200
G0 Z2.8F500
G0 Z2.8F1500
G1 Z0F500
G1 X24.295Y41.836Z0F1200
G0 Z2.8F500
G0 X24.597Z2.8F1500
G1 Z0F500
G1 X24.295Y41.533Z0F1200
G0 Z2.8F500
G0 X25.202Y41.231Z2.8F1500
G1 Z0F500
G1 X25.504Y41.533Z0F1200
G0 Z2.8F500
G0 X25.807Y41.231Z2.8F1500
G1 Z0F500
G1 X26.109Y41.533Z0F1200
G0 Z2.8F500
G0 X26.714Y41.231Z2.8F1500
G1 Z0F500
G1 X27.016Y41.533Z0F1200
G0 Z2.8F500
G0 Y41.836Z2.8F1500
G1 Z0F500
G1 X27.319Y42.138Z0F1200
G0 Z2.8F500
G0 X27.621Z2.8F1500
G1 Z0F500
G1 X27.319Y41.836Z0F1200
G0 Z2.8F500
G0 Y41.231Z2.8F1500
G1 Z0F500
G1 X27.016Y40.928Z0F1200
G0 Z2.8F500
G0 X27.319Z2.8F1500
G1 Z0F500
G1 X27.016Y40.626Z0F1200
G0 Z2.8F500
G0 X26.714Y40.324Z2.8F1500
G1 Z0F500
G1 X26.412Y40.021Z0F1200
G0 Z2.8F500
G0 Y39.719Z2.8F1500
G1 Z0F500
G1 X26.109Y39.417Z0F1200
G0 Z2.8F500
G0 X25.504Y39.719Z2.8F1500
G1 Z0F500
G1 X25.202Y39.417Z0F1200
G0 Z2.8F500
G0 X24.9Y39.719Z2.8F1500
G1 Z0F500
G1 X25.202Y40.021Z0F1200
G0 Z2.8F500
G0 X25.504Y40.324Z2.8F1500
G1 Z0F500
G1 X25.807Y40.626Z0F1200
G0 Z2.8F500
G0 X25.504Y40.928Z2.8F1500
G1 Z0F500
G1 X25.202Y40.626Z0F1200
G0 Z2.8F500
G0 X24.9Y40.928Z2.8F1500
G1 Z0F500
G1 X24.597Y40.626Z0F1200
G0 Z2.8F500
G0 X24.295Y39.417Z2.8F1500
G1 Z0F500
G1 X23.992Y39.114Z0F1200
G0 Z2.8F500
G0 X23.69Z2.8F1500
G1 Z0F500
G1 X23.388Y38.812Z0F1200
G0 Z2.8F500
G0 X23.69Y38.509Z2.8F1500
G1 Z0F500
G1 X23.388Y38.207Z0F1200
G0 Z2.8F500
G0 Y37.905Z2.8F1500
G1 Z0F500
G1 X23.085Y37.602Z0F1200
G0 Z2.8F500
G0 X23.69Z2.8F1500
G1 Z0F500
G1 X23.992Y37.905Z0F1200
G0 Z2.8F500
G0 X23.69Z2.8F1500
G1 Z0F500
G1 X23.992Y38.207Z0F1200
G0 Z2.8F500
G0 X24.597Y37.905Z2.8F1500
G1 Z0F500
G1 X24.9Y38.207Z0F1200
G0 Z2.8F500
G0 X25.202Y38.509Z2.8F1500
G1 Z0F500
G1 X25.504Y38.812Z0F1200
G0 Z2.8F500
G0 X25.202Y37.905Z2.8F1500
G1 Z0F500
G1 X24.9Y37.602Z0F1200
G0 Z2.8F500
G0 Z2.8F1500
G1 Z0F500
G1 X24.597Y37.3Z0F1200
G0 Z2.8F500
G0 X24.295Z2.8F1500
G1 Z0F500
G1 X23.992Y36.997Z0F1200
G0 Z2.8F500
G0 Z2.8F1500
G1 Z0F500
G1 X23.69Y36.695Z0F1200
G0 Z2.8F500
G0 X23.388Z2.8F1500
G1 Z0F500
G1 X23.69Y36.997Z0F1200
G0 Z2.8F500
G0 Y37.3Z2.8F1500
G1 Z0F500
G1 X23.992Y37.602Z0F1200
G0 Z2.8F500
G0 X24.295Y36.997Z2.8F1500
G1 Z0F500
G1 X23.992Y36.695Z0F1200
G0 Z2.8F500
G0 Z2.8F1500
G1 Z0F500
G1 X23.69Y36.393Z0F1200
G0 Z2.8F500
G0 Z2.8F1500
G1 Z0F500
G1 X23.388Y36.09Z0F1200
G0 Z2.8F500
G0 Z2.8F1500
G1 Z0F500
G1 X23.085Y35.788Z0F1200
G0 Z2.8F500
G0 X22.783Z2.8F1500
G1 Z0F500
G1 X23.085Y36.09Z0F1200
G0 Z2.8F500
G0 Z2.8F1500
G1 Z0F500
G1 X23.388Y36.393Z0F1200
G0 Z2.8F500
G0 X23.085Y36.695Z2.8F1500
G1 Z0F500
G1 X22.783Y36.393Z0F1200
G0 Z2.8F500
G0 Y36.09Z2.8F1500
G1 Z0F500
G1 X22.481Y35.788Z0F1200
G0 Z2.8F500
G0 X22.178Z2.8F1500
G1 Z0F500
G1 X22.481Y36.09Z0F1200
G0 Z2.8F500
G0 X22.178Y36.393Z2.8F1500
G1 Z0F500
G1 X21.876Y36.09Z0F1200
G0 Z2.8F500
G0 Z2.8F1500
G1 Z0F500
G1 X21.573Y35.788Z0F1200
G0 Z2.8F500
G0 Y35.486Z2.8F1500
G1 Z0F500
G1 X21.271Y35.183Z0F1200
G0 Z2.8F500
G0 X20.969Y34.881Z2.8F1500
G1 Z0F500
G1 X20.666Y34.578Z0F1200
G0 Z2.8F500
G0 X20.364Z2.8F1500
G1 Z0F500
G1 X20.666Y34.881Z0F1200
G0 Z2.8F500
G0 X21.271Y34.578Z2.8F1500
G1 Z0F500
G1 X20.969Y34.276Z0F1200
G0 Z2.8F500
G0 X21.271Y33.974Z2.8F1500
G1 Z0F500
G1 X21.573Y34.276Z0F1200
G0 Z2.8F500
G0 X21.876Z2.8F1500
G1 Z0F500
G1 X22.178Y34.578Z0F1200
G0 Z2.8F500
G0 Y34.276Z2.8F1500
G1 Z0F500
G1 X21.876Y33.974Z0F1200
G0 Z2.8F500
G0 X22.178Z2.8F1500
G1 Z0F500
G1 X21.876Y33.671Z0F1200
G0 Z2.8F500
G0 X22.178Z2.8F1500
G1 Z0F500
G1 X22.481Y33.974Z0F1200
G0 Z2.8F500
G0 X22.178Y33.671Z2.8F1500
G1 Z0F500
G1 X21.876Y33.369Z0F1200
G0 Z2.8F500
G0 X22.178Z2.8F1500
G1 Z0F500
G1 X21.876Y33.066Z0F1200
G0 Z2.8F500
G0 Z2.8F1500
G1 Z0F500
G1 X21.573Y32.764Z0F1200
G0 Z2.8F500
G0 X21.876Z2.8F1500
G1 Z0F500
G1 X21.573Y32.462Z0F1200
G0 Z2.8F500
G0 Z2.8F1500
G1 Z0F500
G1 X21.271Y32.159Z0F1200
G0 Z2.8F500
G0 X20.969Z2.8F1500
G1 Z0F500
G1 X20.666Y31.857Z0F1200
G0 Z2.8F500
G0 X20.364Y32.159Z2.8F1500
G1 Z0F500
G1 X20.666Y32.462Z0F1200
G0 Z2.8F500
G0 Z2.8F1500
G1 Z0F500
G1 X20.969Y32.764Z0F1200
G0 Z2.8F500
G0 Z2.8F1500
G1 Z0F500
G1 X21.271Y33.066Z0F1200
G0 Z2.8F500
G0 Z2.8F1500
G1 Z0F500
G1 X21.573Y33.369Z0F1200
G0 Z2.8F500
G0 X21.271Z2.8F1500
G1 Z0F500
G1 X21.573Y33.671Z0F1200
G0 Z2.8F500
G0 X20.666Y33.369Z2.8F1500
G1 Z0F500
G1 X20.364Y33.066Z0F1200
G0 Z2.8F500
G0 Z2.8F1500
G1 Z0F500
G1 X20.061Y32.764Z0F1200
G0 Z2.8F500
G0 Z2.8F1500
G1 Z0F500
G1 X19.759Y32.462Z0F1200
G0 Z2.8F500
G0 Y32.764Z2.8F1500
G1 Z0F500
G1 X20.061Y33.066Z0F1200
G0 Z2.8F500
G0 X20.364Y32.764Z2.8F1500
G1 Z0F500
G1 X20.666Y33.066Z0F1200
G0 Z2.8F500
G0 X20.364Y32.462Z2.8F1500
G1 Z0F500
G1 X20.061Y32.159Z0F1200
G0 Z2.8F500
G0 Y31.857Z2.8F1500
G1 Z0F500
G1 X19.759Y31.555Z0F1200
G0 Z2.8F500
G0 X18.852Z2.8F1500
G1 Z0F500
G1 X18.55Y31.252Z0F1200
G0 Z2.8F500
G0 X18.852Y30.95Z2.8F1500
G1 Z0F500
G1 X18.55Y30.647Z0F1200
G0 Z2.8F500
G0 X18.852Z2.8F1500
G1 Z0F500
G1 X18.55Y30.345Z0F1200
G0 Z2.8F500
G0 Z2.8F1500
G1 Z0F500
G1 X18.247Y30.043Z0F1200
G0 Z2.8F500
G0 X17.945Z2.8F1500
G1 Z0F500
G1 X17.642Y29.74Z0F1200
G0 Z2.8F500
G0 X17.34Z2.8F1500
G1 Z0F500
G1 X17.038Y29.438Z0F1200
G0 Z2.8F500
G0 X16.735Z2.8F1500
G1 Z0F500
G1 X17.038Y29.74Z0F1200
G0 Z2.8F500
G0 X16.735Y29.438Z2.8F1500
G1 Z0F500
G1 X16.433Y29.135Z0F1200
G0 Z2.8F500
G0 Y28.833Z2.8F1500
G1 Z0F500
G1 X16.13Y28.531Z0F1200
G0 Z2.8F500
G0 Z2.8F1500
G1 Z0F500
G1 X15.828Y28.228Z0F1200
G0 Z2.8F500
G0 Y28.531Z2.8F1500
G1 Z0F500
G1 X16.13Y28.833Z0F1200
G0 Z2.8F500
G0 X16.433Y28.531Z2.8F1500
G1 Z0F500
G1 X16.735Y28.833Z0F1200
G0 Z2.8F500
G0 X17.34Z2.8F1500
G1 Z0F500
G1 X17.642Y29.135Z0F1200
G0 Z2.8F500
G0 Z2.8F1500
G1 Z0F500
G1 X17.945Y29.438Z0F1200
G0 Z2.8F500
G0 X18.247Y28.833Z2.8F1500
G1 Z0F500
G1 X17.945Y28.531Z0F1200
G0 Z2.8F500
G0 Z2.8F1500
G1 Z0F500
G1 X17.642Y28.228Z0F1200
G0 Z2.8F500
G0 Z2.8F1500
G1 Z0F500
G1 X17.34Y27.926Z0F1200
G0 Z2.8F500
G0 X17.642Z2.8F1500
G1 Z0F500
G1 X17.34Y27.624Z0F1200
G0 Z2.8F500
G0 X17.642Z2.8F1500
G1 Z0F500
G1 X17.945Y27.926Z0F1200
G0 Z2.8F500
G0 X18.55Y27.624Z2.8F1500
G1 Z0F500
G1 X18.852Y27.926Z0F1200
G0 Z2.8F500
G0 X19.154Z2.8F1500
G1 Z0F500
G1 X19.457Y28.228Z0F1200
G0 Z2.8F500
G0 X19.154Z2.8F1500
G1 Z0F500
G1 X19.457Y28.531Z0F1200
G0 Z2.8F500
G0 X19.154Y28.833Z2.8F1500
G1 Z0F500
G1 X18.852Y28.531Z0F1200
G0 Z2.8F500
G0 X19.154Y27.926Z2.8F1500
G1 Z0F500
G1 X18.852Y27.624Z0F1200
G0 Z2.8F500
G0 X19.154Z2.8F1500
G1 Z0F500
G1 X19.457Y27.926Z0F1200
G0 Z2.8F500
G0 Z2.8F1500
G1 Z0F500
G1 X19.759Y28.228Z0F1200
G0 Z2.8F500
G0 Z2.8F1500
G1 Z0F500
G1 X20.061Y28.531Z0F1200
G0 Z2.8F500
G0 Z2.8F1500
G1 Z0F500
G1 X20.364Y28.833Z0F1200
G0 Z2.8F500
G0 X20.061Z2.8F1500
G1 Z0F500
G1 X20.364Y29.135Z0F1200
G0 Z2.8F500
G0 Y29.438Z2.8F1500
G1 Z0F500
G1 X20.666Y29.74Z0F1200
G0 Z2.8F500
G0 X20.364Z2.8F1500
G1 Z0F500
G1 X20.666Y30.043Z0F1200
G0 Z2.8F500
G0 Z2.8F1500
G1 Z0F500
G1 X20.969Y30.345Z0F1200
G0 Z2.8F500
G0 Z2.8F1500
G1 Z0F500
G1 X21.271Y30.647Z0F1200
G0 Z2.8F500
G0 X21.573Z2.8F1500
G1 Z0F500
G1 X21.876Y30.95Z0F1200
G0 Z2.8F500
G0 Z2.8F1500
G1 Z0F500
G1 X22.178Y31.252Z0F1200
G0 Z2.8F500
G0 X21.876Z2.8F1500
G1 Z0F500
G1 X22.178Y31.555Z0F1200
G0 Z2.8F500
G0 X21.876Z2.8F1500
G1 Z0F500
G1 X21.573Y31.252Z0F1200
G0 Z2.8F500
G0 X21.876Z2.8F1500
G1 Z0F500
G1 X21.573Y30.95Z0F1200
G0 Z2.8F500
G0 Y30.647Z2.8F1500
G1 Z0F500
G1 X21.271Y30.345Z0F1200
G0 Z2.8F500
G0 Z2.8F1500
G1 Z0F500
G1 X20.969Y30.043Z0F1200
G0 Z2.8F500
G0 X21.271Z2.8F1500
G1 Z0F500
G1 X21.573Y30.345Z0F1200
G0 Z2.8F500
G0 Z2.8F1500
G1 Z0F500
G1 X21.876Y30.647Z0F1200
G0 Z2.8F500
G0 Z2.8F1500
G1 Z0F500
G1 X22.178Y30.95Z0F1200
G0 Z2.8F500
G0 Z2.8F1500
G1 Z0F500
G1 X22.481Y31.252Z0F1200
G0 Z2.8F500
G0 Z2.8F1500
G1 Z0F500
G1 X22.783Y31.555Z0F1200
G0 Z2.8F500
G0 X23.085Z2.8F1500
G1 Z0F500
G1 X23.388Y31.857Z0F1200
G0 Z2.8F500
G0 X23.69Z2.8F1500
G1 Z0F500
G1 X23.388Y31.555Z0F1200
G0 Z2.8F500
G0 X23.085Z2.8F1500
G1 Z0F500
G1 X22.783Y31.252Z0F1200
G0 Z2.8F500
G0 X23.085Y30.95Z2.8F1500
G1 Z0F500
G1 X23.388Y31.252Z0F1200
G0 Z2.8F500
G0 X23.69Z2.8F1500
G1 Z0F500
G1 X23.992Y31.555Z0F1200
G0 Z2.8F500
G0 Z2.8F1500
G1 Z0F500
G1 X24.295Y31.857Z0F1200
G0 Z2.8F500
G0 X24.597Z2.8F1500
G1 Z0F500
G1 X24.9Y32.159Z0F1200
G0 Z2.8F500
G0 X24.597Z2.8F1500
G1 Z0F500
G1 X24.9Y32.462Z0F1200
G0 Z2.8F500
G0 Z2.8F1500
G1 Z0F500
G1 X25.202Y32.764Z0F1200
G0 Z2.8F500
G0 Z2.8F1500
G1 Z0F500
G1 X25.504Y33.066Z0F1200
G0 Z2.8F500
G0 Z2.8F1500
G1 Z0F500
G1 X25.807Y33.369Z0F1200
G0 Z2.8F500
G0 Z2.8F1500
G1 Z0F500
G1 X26.109Y33.671Z0F1200
G0 Z2.8F500
G0 X25.807Z2.8F1500
G1 Z0F500
G1 X26.109Y33.974Z0F1200
G0 Z2.8F500
G0 X25.807Z2.8F1500
G1 Z0F500
G1 X25.504Y33.671Z0F1200
G0 Z2.8F500
G0 Z2.8F1500
G1 Z0F500
G1 X25.202Y33.369Z0F1200
G0 Z2.8F500
G0 Z2.8F1500
G1 Z0F500
G1 X24.9Y33.066Z0F1200
G0 Z2.8F500
G0 Z2.8F1500
G1 Z0F500
G1 X24.597Y32.764Z0F1200
G0 Z2.8F500
G0 Z2.8F1500
G1 Z0F500
G1 X24.295Y32.462Z0F1200
G0 Z2.8F500
G0 X23.992Z2.8F1500
G1 Z0F500
G1 X23.69Y32.159Z0F1200
G0 Z2.8F500
G0 X23.388Z2.8F1500
G1 Z0F500
G1 X23.69Y32.462Z0F1200
G0 Z2.8F500
G0 Z2.8F1500
G1 Z0F500
G1 X23.992Y32.764Z0F1200
G0 Z2.8F500
G0 X24.295Z2.8F1500
G1 Z0F500
G1 X24.597Y33.066Z0F1200
G0 Z2.8F500
G0 X24.295Z2.8F1500
G1 Z0F500
G1 X24.597Y33.369Z0F1200
G0 Z2.8F500
G0 Z2.8F1500
G1 Z0F500
G1 X24.9Y33.671Z0F1200
G0 Z2.8F500
G0 X24.597Z2.8F1500
G1 Z0F500
G1 X24.9Y33.974Z0F1200
G0 Z2.8F500
G0 X25.202Z2.8F1500
G1 Z0F500
G1 X25.504Y34.276Z0F1200
G0 Z2.8F500
G0 Z2.8F1500
G1 Z0F500
G1 X25.807Y34.578Z0F1200
G0 Z2.8F500
G0 Z2.8F1500
G1 Z0F500
G1 X26.109Y34.881Z0F1200
G0 Z2.8F500
G0 Z2.8F1500
G1 Z0F500
G1 X26.412Y35.183Z0F1200
G0 Z2.8F500
G0 Z2.8F1500
G1 Z0F500
G1 X26.714Y35.486Z0F1200
G0 Z2.8F500
G0 Z2.8F1500
G1 Z0F500
G1 X27.016Y35.788Z0F1200
G0 Z2.8F500
G0 Z2.8F1500
G1 Z0F500
G1 X27.319Y36.09Z0F1200
G0 Z2.8F500
G0 X27.016Z2.8F1500
G1 Z0F500
G1 X27.319Y36.393Z0F1200
G0 Z2.8F500
G0 X27.016Z2.8F1500
G1 Z0F500
G1 X27.319Y36.695Z0F1200
G0 Z2.8F500
G0 Z2.8F1500
G1 Z0F500
G1 X27.621Y36.997Z0F1200
G0 Z2.8F500
G0 Z2.8F1500
G1 Z0F500
G1 X27.923Y37.3Z0F1200
G0 Z2.8F500
G0 X27.621Z2.8F1500
G1 Z0F500
G1 X27.923Y37.602Z0F1200
G0 Z2.8F500
G0 X27.319Y37.905Z2.8F1500
G1 Z0F500
G1 X27.621Y38.207Z0F1200
G0 Z2.8F500
G0 X27.319Y38.509Z2.8F1500
G1 Z0F500
G1 X27.016Y38.207Z0F1200
G0 Z2.8F500
G0 Z2.8F1500
G1 Z0F500
G1 X26.714Y37.905Z0F1200
G0 Z2.8F500
G0 X27.016Z2.8F1500
G1 Z0F500
G1 X26.714Y37.602Z0F1200
G0 Z2.8F500
G0 X27.016Z2.8F1500
G1 Z0F500
G1 X26.714Y37.3Z0F1200
G0 Z2.8F500
G0 Z2.8F1500
G1 Z0F500
G1 X26.412Y36.997Z0F1200
G0 Z2.8F500
G0 Z2.8F1500
G1 Z0F500
G1 X26.109Y36.695Z0F1200
G0 Z2.8F500
G0 Z2.8F1500
G1 Z0F500
G1 X25.807Y36.393Z0F1200
G0 Z2.8F500
G0 X26.109Z2.8F1500
G1 Z0F500
G1 X25.807Y36.09Z0F1200
G0 Z2.8F500
G0 X25.504Y35.788Z2.8F1500
G1 Z0F500
G1 X25.202Y35.486Z0F1200
G0 Z2.8F500
G0 X25.504Z2.8F1500
G1 Z0F500
G1 X25.202Y35.183Z0F1200
G0 Z2.8F500
G0 X24.9Z2.8F1500
G1 Z0F500
G1 X24.597Y34.881Z0F1200
G0 Z2.8F500
G0 X24.9Z2.8F1500
G1 Z0F500
G1 X24.597Y34.578Z0F1200
G0 Z2.8F500
G0 X24.295Y34.881Z2.8F1500
G1 Z0F500
G1 X23.992Y34.578Z0F1200
G0 Z2.8F500
G0 X24.295Y34.276Z2.8F1500
G1 Z0F500
G1 X23.992Y33.974Z0F1200
G0 Z2.8F500
G0 X24.295Z2.8F1500
G1 Z0F500
G1 X23.992Y33.671Z0F1200
G0 Z2.8F500
G0 Z2.8F1500
G1 Z0F500
G1 X23.69Y33.369Z0F1200
G0 Z2.8F500
G0 Z2.8F1500
G1 Z0F500
G1 X23.388Y33.066Z0F1200
G0 Z2.8F500
G0 Z2.8F1500
G1 Z0F500
G1 X23.085Y32.764Z0F1200
G0 Z2.8F500
G0 X23.388Z2.8F1500
G1 Z0F500
G1 X23.69Y33.066Z0F1200
G0 Z2.8F500
G0 X23.992Z2.8F1500
G1 Z0F500
G1 X24.295Y33.369Z0F1200
G0 Z2.8F500
G0 Y33.671Z2.8F1500
G1 Z0F500
G1 X24.597Y33.974Z0F1200
G0 Z2.8F500
G0 X24.9Y34.276Z2.8F1500
G1 Z0F500
G1 X25.202Y34.578Z0F1200
G0 Z2.8F500
G0 X25.504Z2.8F1500
G1 Z0F500
G1 X25.202Y34.276Z0F1200
G0 Z2.8F500
G0 X26.109Y34.578Z2.8F1500
G1 Z0F500
G1 X26.412Y34.881Z0F1200
G0 Z2.8F500
G0 X26.714Z2.8F1500
G1 Z0F500
G1 X26.412Y34.578Z0F1200
G0 Z2.8F500
G0 X25.807Y34.881Z2.8F1500
G1 Z0F500
G1 X26.109Y35.183Z0F1200
G0 Z2.8F500
G0 Y35.486Z2.8F1500
G1 Z0F500
G1 X26.412Y35.788Z0F1200
G0 Z2.8F500
G0 X26.109Z2.8F1500
G1 Z0F500
G1 X25.807Y35.486Z0F1200
G0 Z2.8F500
G0 X26.412Z2.8F1500
G1 Z0F500
G1 X26.714Y35.788Z0F1200
G0 Z2.8F500
G0 Z2.8F1500
G1 Z0F500
G1 X27.016Y36.09Z0F1200
G0 Z2.8F500
G0 X26.714Z2.8F1500
G1 Z0F500
G1 X27.016Y36.393Z0F1200
G0 Z2.8F500
G0 X26.714Z2.8F1500
G1 Z0F500
G1 X27.016Y36.695Z0F1200
G0 Z2.8F500
G0 Z2.8F1500
G1 Z0F500
G1 X27.319Y36.997Z0F1200
G0 Z2.8F500
G0 X27.016Z2.8F1500
G1 Z0F500
G1 X27.319Y37.3Z0F1200
G0 Z2.8F500
G0 X28.226Y36.997Z2.8F1500
G1 Z0F500
G1 X28.528Y37.3Z0F1200
G0 Z2.8F500
G0 X28.831Z2.8F1500
G1 Z0F500
G1 X29.133Y37.602Z0F1200
G0 Z2.8F500
G0 X28.831Z2.8F1500
G1 Z0F500
G1 X29.133Y37.905Z0F1200
G0 Z2.8F500
G0 X28.831Z2.8F1500
G1 Z0F500
G1 X29.133Y38.207Z0F1200
G0 Z2.8F500
G0 Z2.8F1500
G1 Z0F500
G1 X29.435Y38.509Z0F1200
G0 Z2.8F500
G0 X29.738Y38.207Z2.8F1500
G1 Z0F500
G1 X29.435Y37.905Z0F1200
G0 Z2.8F500
G0 X29.738Z2.8F1500
G1 Z0F500
G1 X30.04Y38.207Z0F1200
G0 Z2.8F500
G0 Y38.509Z2.8F1500
G1 Z0F500
G1 X30.343Y38.812Z0F1200
G0 Z2.8F500
G0 X30.645Z2.8F1500
G1 Z0F500
G1 X30.343Y38.509Z0F1200
G0 Z2.8F500
G0 X30.645Y38.207Z2.8F1500
G1 Z0F500
G1 X30.947Y38.509Z0F1200
G0 Z2.8F500
G0 Z2.8F1500
G1 Z0F500
G1 X31.25Y38.812Z0F1200
G0 Z2.8F500
G0 X30.947Z2.8F1500
G1 Z0F500
G1 X31.25Y39.114Z0F1200
G0 Z2.8F500
G0 Z2.8F1500
G1 Z0F500
G1 X31.552Y39.417Z0F1200
G0 Z2.8F500
G0 X31.854Z2.8F1500
G1 Z0F500
G1 X32.157Y39.719Z0F1200
G0 Z2.8F500
G0 Y40.021Z2.8F1500
G1 Z0F500
G1 X32.459Y40.324Z0F1200
G0 Z2.8F500
G0 Z2.8F1500
G1 Z0F500
G1 X32.762Y40.626Z0F1200
G0 Z2.8F500
G0 Z2.8F1500
G1 Z0F500
G1 X33.064Y40.928Z0F1200
G0 Z2.8F500
G0 X33.366Z2.8F1500
G1 Z0F500
G1 X33.669Y41.231Z0F1200
G0 Z2.8F500
G0 Z2.8F1500
G1 Z0F500
G1 X33.971Y41.533Z0F1200
G0 Z2.8F500
G0 X34.274Z2.8F1500
G1 Z0F500
G1 X33.971Y41.231Z0F1200
G0 Z2.8F500
G0 Z2.8F1500
G1 Z0F500
G1 X33.669Y40.928Z0F1200
G0 Z2.8F500
G0 X33.366Z2.8F1500
G1 Z0F500
G1 X33.064Y40.626Z0F1200
G0 Z2.8F500
G0 Z2.8F1500
G1 Z0F500
G1 X32.762Y40.324Z0F1200
G0 Z2.8F500
G0 X33.064Z2.8F1500
G1 Z0F500
G1 X33.366Y40.626Z0F1200
G0 Z2.8F500
G0 X33.669Z2.8F1500
G1 Z0F500
G1 X33.366Y40.324Z0F1200
G0 Z2.8F500
G0 X33.669Z2.8F1500
G1 Z0F500
G1 X33.971Y40.626Z0F1200
G0 Z2.8F500
G0 X34.274Z2.8F1500
G1 Z0F500
G1 X33.971Y40.324Z0F1200
G0 Z2.8F500
G0 X33.669Z2.8F1500
G1 Z0F500
G1 X33.366Y40.021Z0F1200
G0 Z2.8F500
G0 X33.669Z2.8F1500
G1 Z0F500
G1 X33.366Y39.719Z0F1200
G0 Z2.8F500
G0 Z2.8F1500
G1 Z0F500
G1 X33.064Y39.417Z0F1200
G0 Z2.8F500
G0 Z2.8F1500
G1 Z0F500
G1 X32.762Y39.114Z0F1200
G0 Z2.8F500
G0 Z2.8F1500
G1 Z0F500
G1 X32.459Y38.812Z0F1200
G0 Z2.8F500
G0 X32.157Z2.8F1500
G1 Z0F500
G1 X31.854Y38.509Z0F1200
G0 Z2.8F500
G0 X31.552Z2.8F1500
G1 Z0F500
G1 X31.25Y38.207Z0F1200
G0 Z2.8F500
G0 X31.552Z2.8F1500
G1 Z0F500
G1 X31.25Y37.905Z0F1200
G0 Z2.8F500
G0 Z2.8F1500
G1 Z0F500
G1 X30.947Y37.602Z0F1200
G0 Z2.8F500
G0 Z2.8F1500
G1 Z0F500
G1 X30.645Y37.3Z0F1200
G0 Z2.8F500
G0 Z2.8F1500
G1 Z0F500
G1 X30.343Y36.997Z0F1200
G0 Z2.8F500
G0 Z2.8F1500
G1 Z0F500
G1 X30.04Y36.695Z0F1200
G0 Z2.8F500
G0 X30.343Y36.393Z2.8F1500
G1 Z0F500
G1 X30.645Y36.695Z0F1200
G0 Z2.8F500
G0 Y36.997Z2.8F1500
G1 Z0F500
G1 X30.947Y37.3Z0F1200
G0 Z2.8F500
G0 X31.25Z2.8F1500
G1 Z0F500
G1 X30.947Y36.997Z0F1200
G0 Z2.8F500
G0 X31.25Z2.8F1500
G1 Z0F500
G1 X31.552Y37.3Z0F1200
G0 Z2.8F500
G0 Z2.8F1500
G1 Z0F500
G1 X31.854Y37.602Z0F1200
G0 Z2.8F500
G0 X31.552Z2.8F1500
G1 Z0F500
G1 X31.854Y37.905Z0F1200
G0 Z2.8F500
G0 X32.459Z2.8F1500
G1 Z0F500
G1 X32.762Y38.207Z0F1200
G0 Z2.8F500
G0 Z2.8F1500
G1 Z0F500
G1 X33.064Y38.509Z0F1200
G0 Z2.8F500
G0 Z2.8F1500
G1 Z0F500
G1 X33.366Y38.812Z0F1200
G0 Z2.8F500
G0 Z2.8F1500
G1 Z0F500
G1 X33.669Y39.114Z0F1200
G0 Z2.8F500
G0 X33.366Z2.8F1500
G1 Z0F500
G1 X33.669Y39.417Z0F1200
G0 Z2.8F500
G0 Z2.8F1500
G1 Z0F500
G1 X33.971Y39.719Z0F1200
G0 Z2.8F500
G0 X33.669Z2.8F1500
G1 Z0F500
G1 X33.971Y40.021Z0F1200
G0 Z2.8F500
G0 X33.669Y39.719Z2.8F1500
G1 Z0F500
G1 X33.366Y39.417Z0F1200
G0 Z2.8F500
G0 Z2.8F1500
G1 Z0F500
G1 X33.064Y39.114Z0F1200
G0 Z2.8F500
G0 Z2.8F1500
G1 Z0F500
G1 X32.762Y38.812Z0F1200
G0 Z2.8F500
G0 Z2.8F1500
G1 Z0F500
G1 X32.459Y38.509Z0F1200
G0 Z2.8F500
G0 X32.762Z2.8F1500
G1 Z0F500
G1 X33.064Y38.812Z0F1200
G0 Z2.8F500
G0 Z2.8F1500
G1 Z0F500
G1 X33.366Y39.114Z0F1200
G0 Z2.8F500
G0 X33.669Y38.812Z2.8F1500
G1 Z0F500
G1 X33.971Y39.114Z0F1200
G0 Z2.8F500
G0 Y38.812Z2.8F1500
G1 Z0F500
G1 X33.669Y38.509Z0F1200
G0 Z2.8F500
G0 Z2.8F1500
G1 Z0F500
G1 X33.366Y38.207Z0F1200
G0 Z2.8F500
G0 Z2.8F1500
G1 Z0F500
G1 X33.064Y37.905Z0F1200
G0 Z2.8F500
G0 Z2.8F1500
G1 Z0F500
G1 X32.762Y37.602Z0F1200
G0 Z2.8F500
G0 Z2.8F1500
G1 Z0F500
G1 X32.459Y37.3Z0F1200
G0 Z2.8F500
G0 Z2.8F1500
G1 Z0F500
G1 X32.157Y36.997Z0F1200
G0 Z2.8F500
G0 Z2.8F1500
G1 Z0F500
G1 X31.854Y36.695Z0F1200
G0 Z2.8F500
G0 Z2.8F1500
G1 Z0F500
G1 X31.552Y36.393Z0F1200
G0 Z2.8F500
G0 X31.854Z2.8F1500
G1 Z0F500
G1 X32.157Y36.695Z0F1200
G0 Z2.8F500
G0 Z2.8F1500
G1 Z0F500
G1 X32.459Y36.997Z0F1200
G0 Z2.8F500
G0 Z2.8F1500
G1 Z0F500
G1 X32.762Y37.3Z0F1200
G0 Z2.8F500
G0 Z2.8F1500
G1 Z0F500
G1 X33.064Y37.602Z0F1200
G0 Z2.8F500
G0 Z2.8F1500
G1 Z0F500
G1 X33.366Y37.905Z0F1200
G0 Z2.8F500
G0 Z2.8F1500
G1 Z0F500
G1 X33.669Y38.207Z0F1200
G0 Z2.8F500
G0 Z2.8F1500
G1 Z0F500
G1 X33.971Y38.509Z0F1200
G0 Z2.8F500
G0 Z2.8F1500
G1 Z0F500
G1 X34.274Y38.812Z0F1200
G0 Z2.8F500
G0 X34.576Z2.8F1500
G1 Z0F500
G1 X34.274Y38.509Z0F1200
G0 Z2.8F500
G0 X34.576Z2.8F1500
G1 Z0F500
G1 X34.274Y38.207Z0F1200
G0 Z2.8F500
G0 Z2.8F1500
G1 Z0F500
G1 X33.971Y37.905Z0F1200
G0 Z2.8F500
G0 X34.274Z2.8F1500
G1 Z0F500
G1 X34.576Y38.207Z0F1200
G0 Z2.8F500
G0 X33.669Y37.905Z2.8F1500
G1 Z0F500
G1 X33.366Y37.602Z0F1200
G0 Z2.8F500
G0 Z2.8F1500
G1 Z0F500
G1 X33.064Y37.3Z0F1200
G0 Z2.8F500
G0 X33.366Z2.8F1500
G1 Z0F500
G1 X33.669Y37.602Z0F1200
G0 Z2.8F500
G0 Y37.3Z2.8F1500
G1 Z0F500
G1 X33.366Y36.997Z0F1200
G0 Z2.8F500
G0 Z2.8F1500
G1 Z0F500
G1 X33.064Y36.695Z0F1200
G0 Z2.8F500
G0 X32.762Z2.8F1500
G1 Z0F500
G1 X33.064Y36.997Z0F1200
G0 Z2.8F500
G0 Z2.8F1500
G1 Z0F500
G1 X33.366Y37.3Z0F1200
G0 Z2.8F500
G0 X33.971Y36.997Z2.8F1500
G1 Z0F500
G1 X33.669Y36.695Z0F1200
G0 Z2.8F500
G0 X33.971Z2.8F1500
G1 Z0F500
G1 X34.274Y36.997Z0F1200
G0 Z2.8F500
G0 X33.971Y36.695Z2.8F1500
G1 Z0F500
G1 X33.669Y36.393Z0F1200
G0 Z2.8F500
G0 X33.366Y36.695Z2.8F1500
G1 Z0F500
G1 X33.064Y36.393Z0F1200
G0 Z2.8F500
G0 Y36.09Z2.8F1500
G1 Z0F500
G1 X32.762Y35.788Z0F1200
G0 Z2.8F500
G0 X33.064Z2.8F1500
G1 Z0F500
G1 X33.366Y36.09Z0F1200
G0 Z2.8F500
G0 Y35.788Z2.8F1500
G1 Z0F500
G1 X33.064Y35.486Z0F1200
G0 Z2.8F500
G0 Z2.8F1500
G1 Z0F500
G1 X32.762Y35.183Z0F1200
G0 Z2.8F500
G0 X33.064Z2.8F1500
G1 Z0F500
G1 X33.366Y35.486Z0F1200
G0 Z2.8F500
G0 Z2.8F1500
G1 Z0F500
G1 X33.669Y35.788Z0F1200
G0 Z2.8F500
G0 X34.274Y35.486Z2.8F1500
G1 Z0F500
G1 X33.971Y35.183Z0F1200
G0 Z2.8F500
G0 X33.366Z2.8F1500
G1 Z0F500
G1 X33.064Y34.881Z0F1200
G0 Z2.8F500
G0 Z2.8F1500
G1 Z0F500
G1 X32.762Y34.578Z0F1200
G0 Z2.8F500
G0 Z2.8F1500
G1 Z0F500
G1 X32.459Y34.276Z0F1200
G0 Z2.8F500
G0 Z2.8F1500
G1 Z0F500
G1 X32.157Y33.974Z0F1200
G0 Z2.8F500
G0 Z2.8F1500
G1 Z0F500
G1 X31.854Y33.671Z0F1200
G0 Z2.8F500
G0 X31.552Z2.8F1500
G1 Z0F500
G1 X31.25Y33.369Z0F1200
G0 Z2.8F500
G0 Z2.8F1500
G1 Z0F500
G1 X30.947Y33.066Z0F1200
G0 Z2.8F500
G0 Z2.8F1500
G1 Z0F500
G1 X30.645Y32.764Z0F1200
G0 Z2.8F500
G0 Z2.8F1500
G1 Z0F500
G1 X30.343Y32.462Z0F1200
G0 Z2.8F500
G0 Z2.8F1500
G1 Z0F500
G1 X30.04Y32.159Z0F1200
G0 Z2.8F500
G0 Z2.8F1500
G1 Z0F500
G1 X29.738Y31.857Z0F1200
G0 Z2.8F500
G0 Z2.8F1500
G1 Z0F500
G1 X29.435Y31.555Z0F1200
G0 Z2.8F500
G0 Z2.8F1500
G1 Z0F500
G1 X29.133Y31.252Z0F1200
G0 Z2.8F500
G0 X29.435Z2.8F1500
G1 Z0F500
G1 X29.738Y31.555Z0F1200
G0 Z2.8F500
G0 Z2.8F1500
G1 Z0F500
G1 X30.04Y31.857Z0F1200
G0 Z2.8F500
G0 Z2.8F1500
G1 Z0F500
G1 X30.343Y32.159Z0F1200
G0 Z2.8F500
G0 X30.645Y31.857Z2.8F1500
G1 Z0F500
G1 X30.947Y32.159Z0F1200
G0 Z2.8F500
G0 X31.25Z2.8F1500
G1 Z0F500
G1 X30.947Y31.857Z0F1200
G0 Z2.8F500
G0 Z2.8F1500
G1 Z0F500
G1 X30.645Y31.555Z0F1200
G0 Z2.8F500
G0 Z2.8F1500
G1 Z0F500
G1 X30.343Y31.252Z0F1200
G0 Z2.8F500
G0 X30.04Z2.8F1500
G1 Z0F500
G1 X29.738Y30.95Z0F1200
G0 Z2.8F500
G0 Y30.647Z2.8F1500
G1 Z0F500
G1 X29.435Y30.345Z0F1200
G0 Z2.8F500
G0 Z2.8F1500
G1 Z0F500
G1 X29.133Y30.043Z0F1200
G0 Z2.8F500
G0 Z2.8F1500
G1 Z0F500
G1 X28.831Y29.74Z0F1200
G0 Z2.8F500
G0 Z2.8F1500
G1 Z0F500
G1 X28.528Y29.438Z0F1200
G0 Z2.8F500
G0 Z2.8F1500
G1 Z0F500
G1 X28.226Y29.135Z0F1200
G0 Z2.8F500
G0 X27.923Z2.8F1500
G1 Z0F500
G1 X27.621Y28.833Z0F1200
G0 Z2.8F500
G0 X27.923Z2.8F1500
G1 Z0F500
G1 X27.621Y28.531Z0F1200
G0 Z2.8F500
G0 X27.319Z2.8F1500
G1 Z0F500
G1 X27.016Y28.228Z0F1200
G0 Z2.8F500
G0 Z2.8F1500
G1 Z0F500
G1 X26.714Y27.926Z0F1200
G0 Z2.8F500
G0 Z2.8F1500
G1 Z0F500
G1 X26.412Y27.624Z0F1200
G0 Z2.8F500
G0 Z2.8F1500
G1 Z0F500
G1 X26.109Y27.321Z0F1200
G0 Z2.8F500
G0 X25.807Z2.8F1500
G1 Z0F500
G1 X26.109Y27.624Z0F1200
G0 Z2.8F500
G0 Z2.8F1500
G1 Z0F500
G1 X26.412Y27.926Z0F1200
G0 Z2.8F500
G0 X26.109Z2.8F1500
G1 Z0F500
G1 X26.412Y28.228Z0F1200
G0 Z2.8F500
G0 X26.109Z2.8F1500
G1 Z0F500
G1 X25.807Y27.926Z0F1200
G0 Z2.8F500
G0 X25.504Z2.8F1500
G1 Z0F500
G1 X25.202Y27.624Z0F1200
G0 Z2.8F500
G0 Z2.8F1500
G1 Z0F500
G1 X24.9Y27.321Z0F1200
G0 Z2.8F500
G0 Z2.8F1500
G1 Z0F500
G1 X24.597Y27.019Z0F1200
G0 Z2.8F500
G0 X24.9Z2.8F1500
G1 Z0F500
G1 X25.202Y27.321Z0F1200
G0 Z2.8F500
G0 X24.9Y27.624Z2.8F1500
G1 Z0F500
G1 X24.597Y27.321Z0F1200
G0 Z2.8F500
G0 Z2.8F1500
G1 Z0F500
G1 X24.295Y27.019Z0F1200
G0 Z2.8F500
G0 Z2.8F1500
G1 Z0F500
G1 X23.992Y26.716Z0F1200
G0 Z2.8F500
G0 Z2.8F1500
G1 Z0F500
G1 X23.69Y26.414Z0F1200
G0 Z2.8F500
G0 Z2.8F1500
G1 Z0F500
G1 X23.388Y26.112Z0F1200
G0 Z2.8F500
G0 Z2.8F1500
G1 Z0F500
G1 X23.085Y25.809Z0F1200
G0 Z2.8F500
G0 X22.783Z2.8F1500
G1 Z0F500
G1 X23.085Y26.112Z0F1200
G0 Z2.8F500
G0 Z2.8F1500
G1 Z0F500
G1 X23.388Y26.414Z0F1200
G0 Z2.8F500
G0 Z2.8F1500
G1 Z0F500
G1 X23.69Y26.716Z0F1200
G0 Z2.8F500
G0 X23.388Z2.8F1500
G1 Z0F500
G1 X23.085Y26.414Z0F1200
G0 Z2.8F500
G0 Z2.8F1500
G1 Z0F500
G1 X22.783Y26.112Z0F1200
G0 Z2.8F500
G0 Z2.8F1500
G1 Z0F500
G1 X22.481Y25.809Z0F1200
G0 Z2.8F500
G0 Z2.8F1500
G1 Z0F500
G1 X22.178Y25.507Z0F1200
G0 Z2.8F500
G0 Z2.8F1500
G1 Z0F500
G1 X21.876Y25.205Z0F1200
G0 Z2.8F500
G0 Z2.8F1500
G1 Z0F500
G1 X21.573Y24.902Z0F1200
G0 Z2.8F500
G0 Z2.8F1500
G1 Z0F500
G1 X21.271Y24.6Z0F1200
G0 Z2.8F500
G0 Z2.8F1500
G1 Z0F500
G1 X20.969Y24.297Z0F1200
G0 Z2.8F500
G0 Z2.8F1500
G1 Z0F500
G1 X20.666Y23.995Z0F1200
G0 Z2.8F500
G0 Z2.8F1500
G1 Z0F500
G1 X20.364Y23.693Z0F1200
G0 Z2.8F500
G0 Z2.8F1500
G1 Z0F500
G1 X20.061Y23.39Z0F1200
G0 Z2.8F500
G0 X20.364Z2.8F1500
G1 Z0F500
G1 X20.666Y23.693Z0F1200
G0 Z2.8F500
G0 Z2.8F1500
G1 Z0F500
G1 X20.969Y23.995Z0F1200
G0 Z2.8F500
G0 Z2.8F1500
G1 Z0F500
G1 X21.271Y24.297Z0F1200
G0 Z2.8F500
G0 Z2.8F1500
G1 Z0F500
G1 X21.573Y24.6Z0F1200
G0 Z2.8F500
G0 Z2.8F1500
G1 Z0F500
G1 X21.876Y24.902Z0F1200
G0 Z2.8F500
G0 Z2.8F1500
G1 Z0F500
G1 X22.178Y25.205Z0F1200
G0 Z2.8F500
G0 Z2.8F1500
G1 Z0F500
G1 X22.481Y25.507Z0F1200
G0 Z2.8F500
G0 X22.783Z2.8F1500
G1 Z0F500
G1 X22.481Y25.205Z0F1200
G0 Z2.8F500
G0 Z2.8F1500
G1 Z0F500
G1 X22.178Y24.902Z0F1200
G0 Z2.8F500
G0 Z2.8F1500
G1 Z0F500
G1 X21.876Y24.6Z0F1200
G0 Z2.8F500
G0 Z2.8F1500
G1 Z0F500
G1 X21.573Y24.297Z0F1200
G0 Z2.8F500
G0 Z2.8F1500
G1 Z0F500
G1 X21.271Y23.995Z0F1200
G0 Z2.8F500
G0 Z2.8F1500
G1 Z0F500
G1 X20.969Y23.693Z0F1200
G0 Z2.8F500
G0 Z2.8F1500
G1 Z0F500
G1 X20.666Y23.39Z0F1200
G0 Z2.8F500
G0 Z2.8F1500
G1 Z0F500
G1 X20.364Y23.088Z0F1200
G0 Z2.8F500
G0 Z2.8F1500
G1 Z0F500
G1 X20.061Y22.785Z0F1200
G0 Z2.8F500
G0 Z2.8F1500
G1 Z0F500
G1 X19.759Y22.483Z0F1200
G0 Z2.8F500
G0 Z2.8F1500
G1 Z0F500
G1 X19.457Y22.181Z0F1200
G0 Z2.8F500
G0 Z2.8F1500
G1 Z0F500
G1 X19.154Y21.878Z0F1200
G0 Z2.8F500
G0 Z2.8F1500
G1 Z0F500
G1 X18.852Y21.576Z0F1200
G0 Z2.8F500
G0 Z2.8F1500
G1 Z0F500
G1 X18.55Y21.274Z0F1200
G0 Z2.8F500
G0 Z2.8F1500
G1 Z0F500
G1 X18.247Y20.971Z0F1200
G0 Z2.8F500
G0 Z2.8F1500
G1 Z0F500
G1 X17.945Y20.669Z0F1200
G0 Z2.8F500
G0 Z2.8F1500
G1 Z0F500
G1 X17.642Y20.366Z0F1200
G0 Z2.8F500
G0 Z2.8F1500
G1 Z0F500
G1 X17.34Y20.064Z0F1200
G0 Z2.8F500
G0 Z2.8F1500
G1 Z0F500
G1 X17.038Y19.762Z0F1200
G0 Z2.8F500
G0 Z2.8F1500
G1 Z0F500
G1 X16.735Y19.459Z0F1200
G0 Z2.8F500
G0 Z2.8F1500
G1 Z0F500
G1 X16.433Y19.157Z0F1200
G0 Z2.8F500
G0 Z2.8F1500
G1 Z0F500
G1 X16.13Y18.854Z0F1200
G0 Z2.8F500
G0 Z2.8F1500
G1 Z0F500
G1 X15.828Y18.552Z0F1200
G0 Z2.8F500
G0 Z2.8F1500
G1 Z0F500
G1 X15.526Y18.25Z0F1200
G0 Z2.8F500
G0 Z2.8F1500
G1 Z0F500
G1 X15.223Y17.947Z0F1200
G0 Z2.8F500
G0 Z2.8F1500
G1 Z0F500
G1 X14.921Y17.645Z0F1200
G0 Z2.8F500
G0 Z2.8F1500
G1 Z0F500
G1 X14.619Y17.343Z0F1200
G0 Z2.8F500
G0 Z2.8F1500
G1 Z0F500
G1 X14.316Y17.04Z0F1200
G0 Z2.8F500
G0 Z2.8F1500
G1 Z0F500
G1 X14.014Y16.738Z0F1200
G0 Z2.8F500
G0 Z2.8F1500
G1 Z0F500
G1 X13.711Y16.435Z0F1200
G0 Z2.8F500
G0 X14.014Z2.8F1500
G1 Z0F500
G1 X14.316Y16.738Z0F1200
G0 Z2.8F500
G0 Z2.8F1500
G1 Z0F500
G1 X14.619Y17.04Z0F1200
G0 Z2.8F500
G0 Z2.8F1500
G1 Z0F500
G1 X14.921Y17.343Z0F1200
G0 Z2.8F500
G0 Z2.8F1500
G1 Z0F500
G1 X15.223Y17.645Z0F1200
G0 Z2.8F500
G0 Z2.8F1500
G1 Z0F500
G1 X15.526Y17.947Z0F1200
G0 Z2.8F500
G0 Z2.8F1500
G1 Z0F500
G1 X15.828Y18.25Z0F1200
G0 Z2.8F500
G0 Z2.8F1500
G1 Z0F500
G1 X16.13Y18.552Z0F1200
G0 Z2.8F500
G0 Z2.8F1500
G1 Z0F500
G1 X16.433Y18.854Z0F1200
G0 Z2.8F500
G0 Z2.8F1500
G1 Z0F500
G1 X16.735Y19.157Z0F1200
G0 Z2.8F500
G0 Z2.8F1500
G1 Z0F500
G1 X17.038Y19.459Z0F1200
G0 Z2.8F500
G0 Z2.8F1500
G1 Z0F500
G1 X17.34Y19.762Z0F1200
G0 Z2.8F500
G0 Z2.8F1500
G1 Z0F500
G1 X17.642Y20.064Z0F1200
G0 Z2.8F500
G0 Z2.8F1500
G1 Z0F500
G1 X17.945Y20.366Z0F1200
G0 Z2.8F500
G0 Z2.8F1500
G1 Z0F500
G1 X18.247Y20.669Z0F1200
G0 Z2.8F500
G0 Z2.8F1500
G1 Z0F500
G1 X18.55Y20.971Z0F1200
G0 Z2.8F500
G0 Z2.8F1500
G1 Z0F500
G1 X18.852Y21.274Z0F1200
G0 Z2.8F500
G0 Z2.8F1500
G1 Z0F500
G1 X19.154Y21.576Z0F1200
G0 Z2.8F500
G0 Z2.8F1500
G1 Z0F500
G1 X19.457Y21.878Z0F1200
G0 Z2.8F500
G0 Z2.8F1500
G1 Z0F500
G1 X19.759Y22.181Z0F1200
G0 Z2.8F500
G0 Z2.8F1500
G1 Z0F500
G1 X20.061Y22.483Z0F1200
G0 Z2.8F500
G0 Z2.8F1500
G1 Z0F500
G1 X20.364Y22.785Z0F1200
G0 Z2.8F500
G0 Z2.8F1500
G1 Z0F500
G1 X20.666Y23.088Z0F1200
G0 Z2.8F500
G0 Z2.8F1500
G1 Z0F500
G1 X20.969Y23.39Z0F1200
G0 Z2.8F500
G0 Z2.8F1500
G1 Z0F500
G1 X21.271Y23.693Z0F1200
G0 Z2.8F500
G0 Z2.8F1500
G1 Z0F500
G1 X21.573Y23.995Z0F1200
G0 Z2.8F500
G0 Z2.8F1500
G1 Z0F500
G1 X21.876Y24.297Z0F1200
G0 Z2.8F500
G0 Z2.8F1500
G1 Z0F500
G1 X22.178Y24.6Z0F1200
G0 Z2.8F500
G0 Z2.8F1500
G1 Z0F500
G1 X22.481Y24.902Z0F1200
G0 Z2.8F500
G0 X22.783Z2.8F1500
G1 Z0F500
G1 X23.085Y25.205Z0F1200
G0 Z2.8F500
G0 X22.783Z2.8F1500
G1 Z0F500
G1 X23.085Y25.507Z0F1200
G0 Z2.8F500
G0 X23.388Y25.809Z2.8F1500
G1 Z0F500
G1 X23.69Y26.112Z0F1200
G0 Z2.8F500
G0 Z2.8F1500
G1 Z0F500
G1 X23.992Y26.414Z0F1200
G0 Z2.8F500
G0 X24.295Z2.8F1500
G1 Z0F500
G1 X23.992Y26.112Z0F1200
G0 Z2.8F500
G0 Z2.8F1500
G1 Z0F500
G1 X23.69Y25.809Z0F1200
G0 Z2.8F500
G0 X23.992Z2.8F1500
G1 Z0F500
G1 X23.69Y25.507Z0F1200
G0 Z2.8F500
G0 X23.992Z2.8F1500
G1 Z0F500
G1 X24.295Y25.809Z0F1200
G0 Z2.8F500
G0 X24.597Z2.8F1500
G1 Z0F500
G1 X24.9Y26.112Z0F1200
G0 Z2.8F500
G0 Z2.8F1500
G1 Z0F500
G1 X25.202Y26.414Z0F1200
G0 Z2.8F500
G0 X24.9Z2.8F1500
G1 Z0F500
G1 X25.202Y26.716Z0F1200
G0 Z2.8F500
G0 X24.597Y26.414Z2.8F1500
G1 Z0F500
G1 X24.295Y26.112Z0F1200
G0 Z2.8F500
G0 X24.597Y25.809Z2.8F1500
G1 Z0F500
G1 X24.295Y25.507Z0F1200
G0 Z2.8F500
G0 Z2.8F1500
G1 Z0F500
G1 X23.992Y25.205Z0F1200
G0 Z2.8F500
G0 Z2.8F1500
G1 Z0F500
G1 X23.69Y24.902Z0F1200
G0 Z2.8F500
G0 Z2.8F1500
G1 Z0F500
G1 X23.388Y24.6Z0F1200
G0 Z2.8F500
G0 Z2.8F1500
G1 Z0F500
G1 X23.085Y24.297Z0F1200
G0 Z2.8F500
G0 Z2.8F1500
G1 Z0F500
G1 X22.783Y23.995Z0F1200
G0 Z2.8F500
G0 Z2.8F1500
G1 Z0F500
G1 X22.481Y23.693Z0F1200
G0 Z2.8F500
G0 Z2.8F1500
G1 Z0F500
G1 X22.178Y23.39Z0F1200
G0 Z2.8F500
G0 Z2.8F1500
G1 Z0F500
G1 X21.876Y23.088Z0F1200
G0 Z2.8F500
G0 Z2.8F1500
G1 Z0F500
G1 X21.573Y22.785Z0F1200
G0 Z2.8F500
G0 Z2.8F1500
G1 Z0F500
G1 X21.271Y22.483Z0F1200
G0 Z2.8F500
G0 Z2.8F1500
G1 Z0F500
G1 X20.969Y22.181Z0F1200
G0 Z2.8F500
G0 Z2.8F1500
G1 Z0F500
G1 X20.666Y21.878Z0F1200
G0 Z2.8F500
G0 Z2.8F1500
G1 Z0F500
G1 X20.364Y21.576Z0F1200
G0 Z2.8F500
G0 Z2.8F1500
G1 Z0F500
G1 X20.061Y21.274Z0F1200
G0 Z2.8F500
G0 Z2.8F1500
G1 Z0F500
G1 X19.759Y20.971Z0F1200
G0 Z2.8F500
G0 Z2.8F1500
G1 Z0F500
G1 X19.457Y20.669Z0F1200
G0 Z2.8F500
G0 Z2.8F1500
G1 Z0F500
G1 X19.154Y20.366Z0F1200
G0 Z2.8F500
G0 Z2.8F1500
G1 Z0F500
G1 X18.852Y20.064Z0F1200
G0 Z2.8F500
G0 Z2.8F1500
G1 Z0F500
G1 X18.55Y19.762Z0F1200
G0 Z2.8F500
G0 Z2.8F1500
G1 Z0F500
G1 X18.247Y19.459Z0F1200
G0 Z2.8F500
G0 Z2.8F1500
G1 Z0F500
G1 X17.945Y19.157Z0F1200
G0 Z2.8F500
G0 Z2.8F1500
G1 Z0F500
G1 X17.642Y18.854Z0F1200
G0 Z2.8F500
G0 Z2.8F1500
G1 Z0F500
G1 X17.34Y18.552Z0F1200
G0 Z2.8F500
G0 Z2.8F1500
G1 Z0F500
G1 X17.038Y18.25Z0F1200
G0 Z2.8F500
G0 Z2.8F1500
G1 Z0F500
G1 X16.735Y17.947Z0F1200
G0 Z2.8F500
G0 Z2.8F1500
G1 Z0F500
G1 X16.433Y17.645Z0F1200
G0 Z2.8F500
G0 Z2.8F1500
G1 Z0F500
G1 X16.13Y17.343Z0F1200
G0 Z2.8F500
G0 Z2.8F1500
G1 Z0F500
G1 X15.828Y17.04Z0F1200
G0 Z2.8F500
G0 Z2.8F1500
G1 Z0F500
G1 X15.526Y16.738Z0F1200
G0 Z2.8F500
G0 Z2.8F1500
G1 Z0F500
G1 X15.223Y16.435Z0F1200
G0 Z2.8F500
G0 Z2.8F1500
G1 Z0F500
G1 X14.921Y16.133Z0F1200
G0 Z2.8F500
G0 Z2.8F1500
G1 Z0F500
G1 X14.619Y15.831Z0F1200
G0 Z2.8F500
G0 X14.921Z2.8F1500
G1 Z0F500
G1 X15.223Y16.133Z0F1200
G0 Z2.8F500
G0 Z2.8F1500
G1 Z0F500
G1 X15.526Y16.435Z0F1200
G0 Z2.8F500
G0 Z2.8F1500
G1 Z0F500
G1 X15.828Y16.738Z0F1200
G0 Z2.8F500
G0 Z2.8F1500
G1 Z0F500
G1 X16.13Y17.04Z0F1200
G0 Z2.8F500
G0 Z2.8F1500
G1 Z0F500
G1 X16.433Y17.343Z0F1200
G0 Z2.8F500
G0 Z2.8F1500
G1 Z0F500
G1 X16.735Y17.645Z0F1200
G0 Z2.8F500
G0 Z2.8F1500
G1 Z0F500
G1 X17.038Y17.947Z0F1200
G0 Z2.8F500
G0 Z2.8F1500
G1 Z0F500
G1 X17.34Y18.25Z0F1200
G0 Z2.8F500
G0 Z2.8F1500
G1 Z0F500
G1 X17.642Y18.552Z0F1200
G0 Z2.8F500
G0 Z2.8F1500
G1 Z0F500
G1 X17.945Y18.854Z0F1200
G0 Z2.8F500
G0 Z2.8F1500
G1 Z0F500
G1 X18.247Y19.157Z0F1200
G0 Z2.8F500
G0 Z2.8F1500
G1 Z0F500
G1 X18.55Y19.459Z0F1200
G0 Z2.8F500
G0 Z2.8F1500
G1 Z0F500
G1 X18.852Y19.762Z0F1200
G0 Z2.8F500
G0 Z2.8F1500
G1 Z0F500
G1 X19.154Y20.064Z0F1200
G0 Z2.8F500
G0 Z2.8F1500
G1 Z0F500
G1 X19.457Y20.366Z0F1200
G0 Z2.8F500
G0 Z2.8F1500
G1 Z0F500
G1 X19.759Y20.669Z0F1200
G0 Z2.8F500
G0 Z2.8F1500
G1 Z0F500
G1 X20.061Y20.971Z0F1200
G0 Z2.8F500
G0 Z2.8F1500
G1 Z0F500
G1 X20.364Y21.274Z0F1200
G0 Z2.8F500
G0 Z2.8F1500
G1 Z0F500
G1 X20.666Y21.576Z0F1200
G0 Z2.8F500
G0 Z2.8F1500
G1 Z0F500
G1 X20.969Y21.878Z0F1200
G0 Z2.8F500
G0 Z2.8F1500
G1 Z0F500
G1 X21.271Y22.181Z0F1200
G0 Z2.8F500
G0 Z2.8F1500
G1 Z0F500
G1 X21.573Y22.483Z0F1200
G0 Z2.8F500
G0 Z2.8F1500
G1 Z0F500
G1 X21.876Y22.785Z0F1200
G0 Z2.8F500
G0 Z2.8F1500
G1 Z0F500
G1 X22.178Y23.088Z0F1200
G0 Z2.8F500
G0 Z2.8F1500
G1 Z0F500
G1 X22.481Y23.39Z0F1200
G0 Z2.8F500
G0 Z2.8F1500
G1 Z0F500
G1 X22.783Y23.693Z0F1200
G0 Z2.8F500
G0 X23.085Z2.8F1500
G1 Z0F500
G1 X23.388Y23.995Z0F1200
G0 Z2.8F500
G0 X23.69Z2.8F1500
G1 Z0F500
G1 X23.992Y24.297Z0F1200
G0 Z2.8F500
G0 Z2.8F1500
G1 Z0F500
G1 X24.295Y24.6Z0F1200
G0 Z2.8F500
G0 X23.992Z2.8F1500
G1 Z0F500
G1 X23.69Y24.297Z0F1200
G0 Z2.8F500
G0 X23.388Z2.8F1500
G1 Z0F500
G1 X23.69Y24.6Z0F1200
G0 Z2.8F500
G0 Z2.8F1500
G1 Z0F500
G1 X23.992Y24.902Z0F1200
G0 Z2.8F500
G0 Z2.8F1500
G1 Z0F500
G1 X24.295Y25.205Z0F1200
G0 Z2.8F500
G0 X24.597Z2.8F1500
G1 Z0F500
G1 X24.295Y24.902Z0F1200
G0 Z2.8F500
G0 X24.9Z2.8F1500
G1 Z0F500
G1 X25.202Y25.205Z0F1200
G0 Z2.8F500
G0 Z2.8F1500
G1 Z0F500
G1 X25.504Y25.507Z0F1200
G0 Z2.8F500
G0 Z2.8F1500
G1 Z0F500
G1 X25.807Y25.809Z0F1200
G0 Z2.8F500
G0 X25.504Z2.8F1500
G1 Z0F500
G1 X25.807Y26.112Z0F1200
G0 Z2.8F500
G0 X25.504Z2.8F1500
G1 Z0F500
G1 X25.807Y26.414Z0F1200
G0 Z2.8F500
G0 X26.109Z2.8F1500
G1 Z0F500
G1 X26.412Y26.716Z0F1200
G0 Z2.8F500
G0 X26.714Z2.8F1500
G1 Z0F500
G1 X26.412Y26.414Z0F1200
G0 Z2.8F500
G0 X26.714Z2.8F1500
G1 Z0F500
G1 X27.016Y26.716Z0F1200
G0 Z2.8F500
G0 Z2.8F1500
G1 Z0F500
G1 X27.319Y27.019Z0F1200
G0 Z2.8F500
G0 Z2.8F1500
G1 Z0F500
G1 X27.621Y27.321Z0F1200
G0 Z2.8F500
G0 X27.319Z2.8F1500
G1 Z0F500
G1 X27.016Y27.019Z0F1200
G0 Z2.8F500
G0 X26.714Z2.8F1500
G1 Z0F500
G1 X27.016Y27.321Z0F1200
G0 Z2.8F500
G0 Z2.8F1500
G1 Z0F500
G1 X27.319Y27.624Z0F1200
G0 Z2.8F500
G0 X27.016Z2.8F1500
G1 Z0F500
G1 X27.319Y27.926Z0F1200
G0 Z2.8F500
G0 X27.621Z2.8F1500
G1 Z0F500
G1 X27.923Y28.228Z0F1200
G0 Z2.8F500
G0 Z2.8F1500
G1 Z0F500
G1 X28.226Y28.531Z0F1200
G0 Z2.8F500
G0 X28.528Z2.8F1500
G1 Z0F500
G1 X28.226Y28.228Z0F1200
G0 Z2.8F500
G0 Z2.8F1500
G1 Z0F500
G1 X27.923Y27.926Z0F1200
G0 Z2.8F500
G0 Z2.8F1500
G1 Z0F500
G1 X27.621Y27.624Z0F1200
G0 Z2.8F500
G0 X27.923Y27.321Z2.8F1500
G1 Z0F500
G1 X28.226Y27.624Z0F1200
G0 Z2.8F500
G0 Y27.321Z2.8F1500
G1 Z0F500
G1 X27.923Y27.019Z0F1200
G0 Z2.8F500
G0 Z2.8F1500
G1 Z0F500
G1 X27.621Y26.716Z0F1200
G0 Z2.8F500
G0 Z2.8F1500
G1 Z0F500
G1 X27.319Y26.414Z0F1200
G0 Z2.8F500
G0 Z2.8F1500
G1 Z0F500
G1 X27.016Y26.112Z0F1200
G0 Z2.8F500
G0 Y25.809Z2.8F1500
G1 Z0F500
G1 X26.714Y25.507Z0F1200
G0 Z2.8F500
G0 Z2.8F1500
G1 Z0F500
G1 X26.412Y25.205Z0F1200
G0 Z2.8F500
G0 X26.109Z2.8F1500
G1 Z0F500
G1 X26.412Y25.507Z0F1200
G0 Z2.8F500
G0 X26.109Y25.809Z2.8F1500
G1 Z0F500
G1 X25.807Y25.507Z0F1200
G0 Z2.8F500
G0 X25.202Y25.809Z2.8F1500
G1 Z0F500
G1 X25.504Y26.112Z0F1200
G0 Z2.8F500
G0 X25.202Z2.8F1500
G1 Z0F500
G1 X24.9Y25.809Z0F1200
G0 Z2.8F500
G0 X23.992Y25.507Z2.8F1500
G1 Z0F500
G1 X23.69Y25.205Z0F1200
G0 Z2.8F500
G0 Z2.8F1500
G1 Z0F500
G1 X23.388Y24.902Z0F1200
G0 Z2.8F500
G0 Z2.8F1500
G1 Z0F500
G1 X23.085Y24.6Z0F1200
G0 Z2.8F500
G0 Z2.8F1500
G1 Z0F500
G1 X22.783Y24.297Z0F1200
G0 Z2.8F500
G0 Z2.8F1500
G1 Z0F500
G1 X22.481Y23.995Z0F1200
G0 Z2.8F500
G0 Z2.8F1500
G1 Z0F500
G1 X22.178Y23.693Z0F1200
G0 Z2.8F500
G0 Z2.8F1500
G1 Z0F500
G1 X21.876Y23.39Z0F1200
G0 Z2.8F500
G0 Z2.8F1500
G1 Z0F500
G1 X21.573Y23.088Z0F1200
G0 Z2.8F500
G0 Z2.8F1500
G1 Z0F500
G1 X21.271Y22.785Z0F1200
G0 Z2.8F500
G0 Z2.8F1500
G1 Z0F500
G1 X20.969Y22.483Z0F1200
G0 Z2.8F500
G0 Z2.8F1500
G1 Z0F500
G1 X20.666Y22.181Z0F1200
G0 Z2.8F500
G0 Z2.8F1500
G1 Z0F500
G1 X20.364Y21.878Z0F1200
G0 Z2.8F500
G0 Z2.8F1500
G1 Z0F500
G1 X20.061Y21.576Z0F1200
G0 Z2.8F500
G0 Z2.8F1500
G1 Z0F500
G1 X19.759Y21.274Z0F1200
G0 Z2.8F500
G0 Z2.8F1500
G1 Z0F500
G1 X19.457Y20.971Z0F1200
G0 Z2.8F500
G0 Z2.8F1500
G1 Z0F500
G1 X19.154Y20.669Z0F1200
G0 Z2.8F500
G0 Z2.8F1500
G1 Z0F500
G1 X18.852Y20.366Z0F1200
G0 Z2.8F500
G0 Z2.8F1500
G1 Z0F500
G1 X18.55Y20.064Z0F1200
G0 Z2.8F500
G0 Z2.8F1500
G1 Z0F500
G1 X18.247Y19.762Z0F1200
G0 Z2.8F500
G0 Z2.8F1500
G1 Z0F500
G1 X17.945Y19.459Z0F1200
G0 Z2.8F500
G0 Z2.8F1500
G1 Z0F500
G1 X17.642Y19.157Z0F1200
G0 Z2.8F500
G0 Z2.8F1500
G1 Z0F500
G1 X17.34Y18.854Z0F1200
G0 Z2.8F500
G0 Z2.8F1500
G1 Z0F500
G1 X17.038Y18.552Z0F1200
G0 Z2.8F500
G0 Z2.8F1500
G1 Z0F500
G1 X16.735Y18.25Z0F1200
G0 Z2.8F500
G0 Z2.8F1500
G1 Z0F500
G1 X16.433Y17.947Z0F1200
G0 Z2.8F500
G0 Z2.8F1500
G1 Z0F500
G1 X16.13Y17.645Z0F1200
G0 Z2.8F500
G0 Z2.8F1500
G1 Z0F500
G1 X15.828Y17.343Z0F1200
G0 Z2.8F500
G0 Z2.8F1500
G1 Z0F500
G1 X15.526Y17.04Z0F1200
G0 Z2.8F500
G0 Z2.8F1500
G1 Z0F500
G1 X15.223Y16.738Z0F1200
G0 Z2.8F500
G0 Z2.8F1500
G1 Z0F500
G1 X14.921Y16.435Z0F1200
G0 Z2.8F500
G0 Z2.8F1500
G1 Z0F500
G1 X14.619Y16.133Z0F1200
G0 Z2.8F500
G0 Z2.8F1500
G1 Z0F500
G1 X14.316Y15.831Z0F1200
G0 Z2.8F500
G0 X14.014Z2.8F1500
G1 Z0F500
G1 X14.316Y16.133Z0F1200
G0 Z2.8F500
G0 Z2.8F1500
G1 Z0F500
G1 X14.619Y16.435Z0F1200
G0 Z2.8F500
G0 Z2.8F1500
G1 Z0F500
G1 X14.921Y16.738Z0F1200
G0 Z2.8F500
G0 Z2.8F1500
G1 Z0F500
G1 X15.223Y17.04Z0F1200
G0 Z2.8F500
G0 Z2.8F1500
G1 Z0F500
G1 X15.526Y17.343Z0F1200
G0 Z2.8F500
G0 Z2.8F1500
G1 Z0F500
G1 X15.828Y17.645Z0F1200
G0 Z2.8F500
G0 Z2.8F1500
G1 Z0F500
G1 X16.13Y17.947Z0F1200
G0 Z2.8F500
G0 Z2.8F1500
G1 Z0F500
G1 X16.433Y18.25Z0F1200
G0 Z2.8F500
G0 Z2.8F1500
G1 Z0F500
G1 X16.735Y18.552Z0F1200
G0 Z2.8F500
G0 Z2.8F1500
G1 Z0F500
G1 X17.038Y18.854Z0F1200
G0 Z2.8F500
G0 Z2.8F1500
G1 Z0F500
G1 X17.34Y19.157Z0F1200
G0 Z2.8F500
G0 Z2.8F1500
G1 Z0F500
G1 X17.642Y19.459Z0F1200
G0 Z2.8F500
G0 Z2.8F1500
G1 Z0F500
G1 X17.945Y19.762Z0F1200
G0 Z2.8F500
G0 Z2.8F1500
G1 Z0F500
G1 X18.247Y20.064Z0F1200
G0 Z2.8F500
G0 Z2.8F1500
G1 Z0F500
G1 X18.55Y20.366Z0F1200
G0 Z2.8F500
G0 Z2.8F1500
G1 Z0F500
G1 X18.852Y20.669Z0F1200
G0 Z2.8F500
G0 Z2.8F1500
G1 Z0F500
G1 X19.154Y20.971Z0F1200
G0 Z2.8F500
G0 Z2.8F1500
G1 Z0F500
G1 X19.457Y21.274Z0F1200
G0 Z2.8F500
G0 Z2.8F1500
G1 Z0F500
G1 X19.759Y21.576Z0F1200
G0 Z2.8F500
G0 Z2.8F1500
G1 Z0F500
G1 X20.061Y21.878Z0F1200
G0 Z2.8F500
G0 Z2.8F1500
G1 Z0F500
G1 X20.364Y22.181Z0F1200
G0 Z2.8F500
G0 Z2.8F1500
G1 Z0F500
G1 X20.666Y22.483Z0F1200
G0 Z2.8F500
G0 Z2.8F1500
G1 Z0F500
G1 X20.969Y22.785Z0F1200
G0 Z2.8F500
G0 Z2.8F1500
G1 Z0F500
G1 X21.271Y23.088Z0F1200
G0 Z2.8F500
G0 Z2.8F1500
G1 Z0F500
G1 X21.573Y23.39Z0F1200
G0 Z2.8F500
G0 Z2.8F1500
G1 Z0F500
G1 X21.876Y23.693Z0F1200
G0 Z2.8F500
G0 Z2.8F1500
G1 Z0F500
G1 X22.178Y23.995Z0F1200
G0 Z2.8F500
G0 Z2.8F1500
G1 Z0F500
G1 X22.481Y24.297Z0F1200
G0 Z2.8F500
G0 Z2.8F1500
G1 Z0F500
G1 X22.783Y24.6Z0F1200
G0 Z2.8F500
G0 Z2.8F1500
G1 Z0F500
G1 X23.085Y24.902Z0F1200
G0 Z2.8F500
G0 X22.783Z2.8F1500
G1 Z0F500
G1 X22.481Y24.6Z0F1200
G0 Z2.8F500
G0 Z2.8F1500
G1 Z0F500
G1 X22.178Y24.297Z0F1200
G0 Z2.8F500
G0 Z2.8F1500
G1 Z0F500
G1 X21.876Y23.995Z0F1200
G0 Z2.8F500
G0 Z2.8F1500
G1 Z0F500
G1 X21.573Y23.693Z0F1200
G0 Z2.8F500
G0 Z2.8F1500
G1 Z0F500
G1 X21.271Y23.39Z0F1200
G0 Z2.8F500
G0 Z2.8F1500
G1 Z0F500
G1 X20.969Y23.088Z0F1200
G0 Z2.8F500
G0 Z2.8F1500
G1 Z0F500
G1 X20.666Y22.785Z0F1200
G0 Z2.8F500
G0 Z2.8F1500
G1 Z0F500
G1 X20.364Y22.483Z0F1200
G0 Z2.8F500
G0 Z2.8F1500
G1 Z0F500
G1 X20.061Y22.181Z0F1200
G0 Z2.8F500
G0 Z2.8F1500
G1 Z0F500
G1 X19.759Y21.878Z0F1200
G0 Z2.8F500
G0 Z2.8F1500
G1 Z0F500
G1 X19.457Y21.576Z0F1200
G0 Z2.8F500
G0 Z2.8F1500
G1 Z0F500
G1 X19.154Y21.274Z0F1200
G0 Z2.8F500
G0 Z2.8F1500
G1 Z0F500
G1 X18.852Y20.971Z0F1200
G0 Z2.8F500
G0 Z2.8F1500
G1 Z0F500
G1 X18.55Y20.669Z0F1200
G0 Z2.8F500
G0 Z2.8F1500
G1 Z0F500
G1 X18.247Y20.366Z0F1200
G0 Z2.8F500
G0 Z2.8F1500
G1 Z0F500
G1 X17.945Y20.064Z0F1200
G0 Z2.8F500
G0 Z2.8F1500
G1 Z0F500
G1 X17.642Y19.762Z0F1200
G0 Z2.8F500
G0 Z2.8F1500
G1 Z0F500
G1 X17.34Y19.459Z0F1200
G0 Z2.8F500
G0 Z2.8F1500
G1 Z0F500
G1 X17.038Y19.157Z0F1200
G0 Z2.8F500
G0 Z2.8F1500
G1 Z0F500
G1 X16.735Y18.854Z0F1200
G0 Z2.8F500
G0 Z2.8F1500
G1 Z0F500
G1 X16.433Y18.552Z0F1200
G0 Z2.8F500
G0 Z2.8F1500
G1 Z0F500
G1 X16.13Y18.25Z0F1200
G0 Z2.8F500
G0 Z2.8F1500
G1 Z0F500
G1 X15.828Y17.947Z0F1200
G0 Z2.8F500
G0 Z2.8F1500
G1 Z0F500
G1 X15.526Y17.645Z0F1200
G0 Z2.8F500
G0 X15.223Y17.343Z2.8F1500
G1 Z0F500
G1 X14.921Y17.04Z0F1200
G0 Z2.8F500
G0 Z2.8F1500
G1 Z0F500
G1 X14.619Y16.738Z0F1200
G0 Z2.8F500
G0 Z2.8F1500
G1 Z0F500
G1 X14.316Y16.435Z0F1200
G0 Z2.8F500
G0 Z2.8F1500
G1 Z0F500
G1 X14.014Y16.133Z0F1200
G0 Z2.8F500
G0 Z2.8F1500
G1 Z0F500
G1 X13.711Y15.831Z0F1200
G0 Z2.8F500
G0 X13.409Z2.8F1500
G1 Z0F500
G1 X13.711Y16.133Z0F1200
G0 Z2.8F500
G0 Z2.8F1500
G1 Z0F500
G1 X14.014Y16.435Z0F1200
G0 Z2.8F500
G0 X13.711Y16.738Z2.8F1500
G1 Z0F500
G1 X14.014Y17.04Z0F1200
G0 Z2.8F500
G0 Z2.8F1500
G1 Z0F500
G1 X14.316Y17.343Z0F1200
G0 Z2.8F500
G0 Z2.8F1500
G1 Z0F500
G1 X14.619Y17.645Z0F1200
G0 Z2.8F500
G0 Z2.8F1500
G1 Z0F500
G1 X14.921Y17.947Z0F1200
G0 Z2.8F500
G0 X14.619Z2.8F1500
G1 Z0F500
G1 X14.921Y18.25Z0F1200
G0 Z2.8F500
G0 X14.619Z2.8F1500
G1 Z0F500
G1 X14.921Y18.552Z0F1200
G0 Z2.8F500
G0 X15.223Z2.8F1500
G1 Z0F500
G1 X15.526Y18.854Z0F1200
G0 Z2.8F500
G0 Z2.8F1500
G1 Z0F500
G1 X15.828Y19.157Z0F1200
G0 Z2.8F500
G0 Z2.8F1500
G1 Z0F500
G1 X16.13Y19.459Z0F1200
G0 Z2.8F500
G0 Z2.8F1500
G1 Z0F500
G1 X16.433Y19.762Z0F1200
G0 Z2.8F500
G0 Z2.8F1500
G1 Z0F500
G1 X16.735Y20.064Z0F1200
G0 Z2.8F500
G0 Z2.8F1500
G1 Z0F500
G1 X17.038Y20.366Z0F1200
G0 Z2.8F500
G0 Z2.8F1500
G1 Z0F500
G1 X17.34Y20.669Z0F1200
G0 Z2.8F500
G0 Z2.8F1500
G1 Z0F500
G1 X17.642Y20.971Z0F1200
G0 Z2.8F500
G0 Z2.8F1500
G1 Z0F500
G1 X17.945Y21.274Z0F1200
G0 Z2.8F500
G0 Z2.8F1500
G1 Z0F500
G1 X18.247Y21.576Z0F1200
G0 Z2.8F500
G0 X17.945Z2.8F1500
G1 Z0F500
G1 X18.247Y21.878Z0F1200
G0 Z2.8F500
G0 Z2.8F1500
G1 Z0F500
G1 X18.55Y22.181Z0F1200
G0 Z2.8F500
G0 Z2.8F1500
G1 Z0F500
G1 X18.852Y22.483Z0F1200
G0 Z2.8F500
G0 Z2.8F1500
G1 Z0F500
G1 X19.154Y22.785Z0F1200
G0 Z2.8F500
G0 Z2.8F1500
G1 Z0F500
G1 X19.457Y23.088Z0F1200
G0 Z2.8F500
G0 Z2.8F1500
G1 Z0F500
G1 X19.759Y23.39Z0F1200
G0 Z2.8F500
G0 X19.457Z2.8F1500
G1 Z0F500
G1 X19.759Y23.693Z0F1200
G0 Z2.8F500
G0 X20.061Z2.8F1500
G1 Z0F500
G1 X20.364Y23.995Z0F1200
G0 Z2.8F500
G0 Z2.8F1500
G1 Z0F500
G1 X20.666Y24.297Z0F1200
G0 Z2.8F500
G0 Z2.8F1500
G1 Z0F500
G1 X20.969Y24.6Z0F1200
G0 Z2.8F500
G0 Z2.8F1500
G1 Z0F500
G1 X21.271Y24.902Z0F1200
G0 Z2.8F500
G0 Z2.8F1500
G1 Z0F500
G1 X21.573Y25.205Z0F1200
G0 Z2.8F500
G0 Z2.8F1500
G1 Z0F500
G1 X21.876Y25.507Z0F1200
G0 Z2.8F500
G0 Z2.8F1500
G1 Z0F500
G1 X22.178Y25.809Z0F1200
G0 Z2.8F500
G0 Z2.8F1500
G1 Z0F500
G1 X22.481Y26.112Z0F1200
G0 Z2.8F500
G0 Z2.8F1500
G1 Z0F500
G1 X22.783Y26.414Z0F1200
G0 Z2.8F500
G0 Z2.8F1500
G1 Z0F500
G1 X23.085Y26.716Z0F1200
G0 Z2.8F500
G0 Z2.8F1500
G1 Z0F500
G1 X23.388Y27.019Z0F1200
G0 Z2.8F500
G0 Z2.8F1500
G1 Z0F500
G1 X23.69Y27.321Z0F1200
G0 Z2.8F500
G0 X23.992Z2.8F1500
G1 Z0F500
G1 X24.295Y27.624Z0F1200
G0 Z2.8F500
G0 Z2.8F1500
G1 Z0F500
G1 X24.597Y27.926Z0F1200
G0 Z2.8F500
G0 X24.9Z2.8F1500
G1 Z0F500
G1 X25.202Y28.228Z0F1200
G0 Z2.8F500
G0 Z2.8F1500
G1 Z0F500
G1 X25.504Y28.531Z0F1200
G0 Z2.8F500
G0 Z2.8F1500
G1 Z0F500
G1 X25.807Y28.833Z0F1200
G0 Z2.8F500
G0 X25.504Z2.8F1500
G1 Z0F500
G1 X25.807Y29.135Z0F1200
G0 Z2.8F500
G0 Z2.8F1500
G1 Z0F500
G1 X26.109Y29.438Z0F1200
G0 Z2.8F500
G0 X25.807Z2.8F1500
G1 Z0F500
G1 X25.504Y29.135Z0F1200
G0 Z2.8F500
G0 Z2.8F1500
G1 Z0F500
G1 X25.202Y28.833Z0F1200
G0 Z2.8F500
G0 Z2.8F1500
G1 Z0F500
G1 X24.9Y28.531Z0F1200
G0 Z2.8F500
G0 Z2.8F1500
G1 Z0F500
G1 X24.597Y28.228Z0F1200
G0 Z2.8F500
G0 X24.9Z2.8F1500
G1 Z0F500
G1 X25.202Y28.531Z0F1200
G0 Z2.8F500
G0 Z2.8F1500
G1 Z0F500
G1 X25.504Y28.833Z0F1200
G0 Z2.8F500
G0 X25.202Y29.135Z2.8F1500
G1 Z0F500
G1 X25.504Y29.438Z0F1200
G0 Z2.8F500
G0 Z2.8F1500
G1 Z0F500
G1 X25.807Y29.74Z0F1200
G0 Z2.8F500
G0 Z2.8F1500
G1 Z0F500
G1 X26.109Y30.043Z0F1200
G0 Z2.8F500
G0 X26.412Z2.8F1500
G1 Z0F500
G1 X26.714Y30.345Z0F1200
G0 Z2.8F500
G0 X26.412Z2.8F1500
G1 Z0F500
G1 X26.714Y30.647Z0F1200
G0 Z2.8F500
G0 Z2.8F1500
G1 Z0F500
G1 X27.016Y30.95Z0F1200
G0 Z2.8F500
G0 X26.714Z2.8F1500
G1 Z0F500
G1 X27.016Y31.252Z0F1200
G0 Z2.8F500
G0 X27.319Z2.8F1500
G1 Z0F500
G1 X27.621Y31.555Z0F1200
G0 Z2.8F500
G0 X27.923Z2.8F1500
G1 Z0F500
G1 X28.226Y31.857Z0F1200
G0 Z2.8F500
G0 X28.528Z2.8F1500
G1 Z0F500
G1 X28.226Y31.555Z0F1200
G0 Z2.8F500
G0 X27.923Z2.8F1500
G1 Z0F500
G1 X27.621Y31.252Z0F1200
G0 Z2.8F500
G0 X27.923Z2.8F1500
G1 Z0F500
G1 X27.621Y30.95Z0F1200
G0 Z2.8F500
G0 Z2.8F1500
G1 Z0F500
G1 X27.319Y30.647Z0F1200
G0 Z2.8F500
G0 X27.621Z2.8F1500
G1 Z0F500
G1 X27.319Y30.345Z0F1200
G0 Z2.8F500
G0 Z2.8F1500
G1 Z0F500
G1 X27.016Y30.043Z0F1200
G0 Z2.8F500
G0 X27.621Z2.8F1500
G1 Z0F500
G1 X27.923Y30.345Z0F1200
G0 Z2.8F500
G0 X28.226Z2.8F1500
G1 Z0F500
G1 X27.923Y30.043Z0F1200
G0 Z2.8F500
G0 Z2.8F1500
G1 Z0F500
G1 X27.621Y29.74Z0F1200
G0 Z2.8F500
G0 Y29.438Z2.8F1500
G1 Z0F500
G1 X27.319Y29.135Z0F1200
G0 Z2.8F500
G0 X27.621Z2.8F1500
G1 Z0F500
G1 X27.923Y29.438Z0F1200
G0 Z2.8F500
G0 X28.528Y29.135Z2.8F1500
G1 Z0F500
G1 X28.226Y28.833Z0F1200
G0 Z2.8F500
G0 X28.528Z2.8F1500
G1 Z0F500
G1 X28.831Y29.135Z0F1200
G0 Z2.8F500
G0 Z2.8F1500
G1 Z0F500
G1 X29.133Y29.438Z0F1200
G0 Z2.8F500
G0 X29.435Z2.8F1500
G1 Z0F500
G1 X29.133Y29.135Z0F1200
G0 Z2.8F500
G0 Z2.8F1500
G1 Z0F500
G1 X28.831Y28.833Z0F1200
G0 Z2.8F500
G0 X29.133Y28.531Z2.8F1500
G1 Z0F500
G1 X29.435Y28.833Z0F1200
G0 Z2.8F500
G0 Z2.8F1500
G1 Z0F500
G1 X29.738Y29.135Z0F1200
G0 Z2.8F500
G0 Z2.8F1500
G1 Z0F500
G1 X30.04Y29.438Z0F1200
G0 Z2.8F500
G0 Z2.8F1500
G1 Z0F500
G1 X30.343Y29.74Z0F1200
G0 Z2.8F500
G0 Z2.8F1500
G1 Z0F500
G1 X30.645Y30.043Z0F1200
G0 Z2.8F500
G0 Z2.8F1500
G1 Z0F500
G1 X30.947Y30.345Z0F1200
G0 Z2.8F500
G0 Z2.8F1500
G1 Z0F500
G1 X31.25Y30.647Z0F1200
G0 Z2.8F500
G0 Z2.8F1500
G1 Z0F500
G1 X31.552Y30.95Z0F1200
G0 Z2.8F500
G0 Z2.8F1500
G1 Z0F500
G1 X31.854Y31.252Z0F1200
G0 Z2.8F500
G0 Z2.8F1500
G1 Z0F500
G1 X32.157Y31.555Z0F1200
G0 Z2.8F500
G0 Z2.8F1500
G1 Z0F500
G1 X32.459Y31.857Z0F1200
G0 Z2.8F500
G0 Z2.8F1500
G1 Z0F500
G1 X32.762Y32.159Z0F1200
G0 Z2.8F500
G0 Z2.8F1500
G1 Z0F500
G1 X33.064Y32.462Z0F1200
G0 Z2.8F500
G0 X32.762Z2.8F1500
G1 Z0F500
G1 X33.064Y32.764Z0F1200
G0 Z2.8F500
G0 X32.762Z2.8F1500
G1 Z0F500
G1 X33.064Y33.066Z0F1200
G0 Z2.8F500
G0 X32.762Z2.8F1500
G1 Z0F500
G1 X33.064Y33.369Z0F1200
G0 Z2.8F500
G0 X32.762Z2.8F1500
G1 Z0F500
G1 X33.064Y33.671Z0F1200
G0 Z2.8F500
G0 Z2.8F1500
G1 Z0F500
G1 X33.366Y33.974Z0F1200
G0 Z2.8F500
G0 X33.064Z2.8F1500
G1 Z0F500
G1 X33.366Y34.276Z0F1200
G0 Z2.8F500
G0 X33.064Z2.8F1500
G1 Z0F500
G1 X33.366Y34.578Z0F1200
G0 Z2.8F500
G0 X33.064Z2.8F1500
G1 Z0F500
G1 X33.366Y34.881Z0F1200
G0 Z2.8F500
G0 X33.064Y34.578Z2.8F1500
G1 Z0F500
G1 X32.762Y34.276Z0F1200
G0 Z2.8F500
G0 Z2.8F1500
G1 Z0F500
G1 X32.459Y33.974Z0F1200
G0 Z2.8F500
G0 X32.762Z2.8F1500
G1 Z0F500
G1 X33.064Y34.276Z0F1200
G0 Z2.8F500
G0 Y33.974Z2.8F1500
G1 Z0F500
G1 X32.762Y33.671Z0F1200
G0 Z2.8F500
G0 Z2.8F1500
G1 Z0F500
G1 X32.459Y33.369Z0F1200
G0 Z2.8F500
G0 X32.157Z2.8F1500
G1 Z0F500
G1 X32.459Y33.671Z0F1200
G0 Z2.8F500
G0 Z2.8F1500
G1 Z0F500
G1 X32.762Y33.974Z0F1200
G0 Z2.8F500
G0 X32.157Y34.276Z2.8F1500
G1 Z0F500
G1 X32.459Y34.578Z0F1200
G0 Z2.8F500
G0 X32.762Y34.881Z2.8F1500
G1 Z0F500
G1 X33.064Y35.183Z0F1200
G0 Z2.8F500
G0 X32.157Y35.486Z2.8F1500
G1 Z0F500
G1 X32.459Y35.788Z0F1200
G0 Z2.8F500
G0 X32.157Y36.09Z2.8F1500
G1 Z0F500
G1 X32.459Y36.393Z0F1200
G0 Z2.8F500
G0 X32.157Z2.8F1500
G1 Z0F500
G1 X31.854Y36.09Z0F1200
G0 Z2.8F500
G0 X31.552Z2.8F1500
G1 Z0F500
G1 X31.854Y36.393Z0F1200
G0 Z2.8F500
G0 X31.552Y36.09Z2.8F1500
G1 Z0F500
G1 X31.25Y35.788Z0F1200
G0 Z2.8F500
G0 X31.552Z2.8F1500
G1 Z0F500
G1 X31.25Y35.486Z0F1200
G0 Z2.8F500
G0 Z2.8F1500
G1 Z0F500
G1 X30.947Y35.183Z0F1200
G0 Z2.8F500
G0 X30.645Z2.8F1500
G1 Z0F500
G1 X30.343Y34.881Z0F1200
G0 Z2.8F500
G0 Z2.8F1500
G1 Z0F500
G1 X30.04Y34.578Z0F1200
G0 Z2.8F500
G0 X30.343Z2.8F1500
G1 Z0F500
G1 X30.04Y34.276Z0F1200
G0 Z2.8F500
G0 Z2.8F1500
G1 Z0F500
G1 X29.738Y33.974Z0F1200
G0 Z2.8F500
G0 X29.435Z2.8F1500
G1 Z0F500
G1 X29.738Y34.276Z0F1200
G0 Z2.8F500
G0 Y34.578Z2.8F1500
G1 Z0F500
G1 X30.04Y34.881Z0F1200
G0 Z2.8F500
G0 Z2.8F1500
G1 Z0F500
G1 X30.343Y35.183Z0F1200
G0 Z2.8F500
G0 X30.04Z2.8F1500
G1 Z0F500
G1 X30.343Y35.486Z0F1200
G0 Z2.8F500
G0 Z2.8F1500
G1 Z0F500
G1 X30.645Y35.788Z0F1200
G0 Z2.8F500
G0 X30.947Z2.8F1500
G1 Z0F500
G1 X30.645Y35.486Z0F1200
G0 Z2.8F500
G0 X30.343Y35.788Z2.8F1500
G1 Z0F500
G1 X30.04Y35.486Z0F1200
G0 Z2.8F500
G0 X29.435Y35.788Z2.8F1500
G1 Z0F500
G1 X29.738Y36.09Z0F1200
G0 Z2.8F500
G0 X29.435Z2.8F1500
G1 Z0F500
G1 X29.738Y36.393Z0F1200
G0 Z2.8F500
G0 X29.133Y36.695Z2.8F1500
G1 Z0F500
G1 X29.435Y36.997Z0F1200
G0 Z2.8F500
G0 X29.738Y37.3Z2.8F1500
G1 Z0F500
G1 X30.04Y37.602Z0F1200
G0 Z2.8F500
G0 Z2.8F1500
G1 Z0F500
G1 X30.343Y37.905Z0F1200
G0 Z2.8F500
G0 Y37.602Z2.8F1500
G1 Z0F500
G1 X30.04Y37.3Z0F1200
G0 Z2.8F500
G0 X30.343Z2.8F1500
G1 Z0F500
G1 X30.645Y37.602Z0F1200
G0 Z2.8F500
G0 X29.738Y37.905Z2.8F1500
G1 Z0F500
G1 X29.435Y37.602Z0F1200
G0 Z2.8F500
G0 X28.226Y38.207Z2.8F1500
G1 Z0F500
G1 X28.528Y38.509Z0F1200
G0 Z2.8F500
G0 Z2.8F1500
G1 Z0F500
G1 X28.831Y38.812Z0F1200
G0 Z2.8F500
G0 X28.528Y39.114Z2.8F1500
G1 Z0F500
G1 X28.226Y38.812Z0F1200
G0 Z2.8F500
G0 X27.319Y39.114Z2.8F1500
G1 Z0F500
G1 X27.016Y38.812Z0F1200
G0 Z2.8F500
G0 Y39.417Z2.8F1500
G1 Z0F500
G1 X27.319Y39.719Z0F1200
G0 Z2.8F500
G0 X27.016Z2.8F1500
G1 Z0F500
G1 X27.319Y40.021Z0F1200
G0 Z2.8F500
G0 X27.016Z2.8F1500
G1 Z0F500
G1 X27.319Y40.324Z0F1200
G0 Z2.8F500
G0 X27.621Y40.021Z2.8F1500
G1 Z0F500
G1 X27.923Y40.324Z0F1200
G0 Z2.8F500
G0 Z2.8F1500
G1 Z0F500
G1 X28.226Y40.626Z0F1200
G0 Z2.8F500
G0 X28.528Y40.324Z2.8F1500
G1 Z0F500
G1 X28.831Y40.626Z0F1200
G0 Z2.8F500
G0 X29.133Z2.8F1500
G1 Z0F500
G1 X28.831Y40.324Z0F1200
G0 Z2.8F500
G0 X29.133Y40.021Z2.8F1500
G1 Z0F500
G1 X29.435Y40.324Z0F1200
G0 Z2.8F500
G0 X29.738Z2.8F1500
G1 Z0F500
G1 X30.04Y40.626Z0F1200
G0 Z2.8F500
G0 X30.343Y40.928Z2.8F1500
G1 Z0F500
G1 X30.645Y41.231Z0F1200
G0 Z2.8F500
G0 X30.04Z2.8F1500
G1 Z0F500
G1 X29.738Y40.928Z0F1200
G0 Z2.8F500
G0 X29.435Z2.8F1500
G1 Z0F500
G1 X29.738Y41.231Z0F1200
G0 Z2.8F500
G0 X29.435Z2.8F1500
G1 Z0F500
G1 X29.133Y40.928Z0F1200
G0 Z2.8F500
G0 X28.831Z2.8F1500
G1 Z0F500
G1 X29.133Y41.231Z0F1200
G0 Z2.8F500
G0 Y41.533Z2.8F1500
G1 Z0F500
G1 X29.435Y41.836Z0F1200
G0 Z2.8F500
G0 X29.738Y42.138Z2.8F1500
G1 Z0F500
G1 X30.04Y42.44Z0F1200
G0 Z2.8F500
G0 X29.738Y42.743Z2.8F1500
G1 Z0F500
G1 X29.435Y42.44Z0F1200
G0 Z2.8F500
G0 Y42.743Z2.8F1500
G1 Z0F500
G1 X29.738Y43.045Z0F1200
G0 Z2.8F500
G0 X29.435Y43.348Z2.8F1500
G1 Z0F500
G1 X29.738Y43.65Z0F1200
G0 Z2.8F500
G0 X29.435Z2.8F1500
G1 Z0F500
G1 X29.738Y43.952Z0F1200
G0 Z2.8F500
G0 Z2.8F1500
G1 Z0F500
G1 X30.04Y44.255Z0F1200
G0 Z2.8F500
G0 Z2.8F1500
G1 Z0F500
G1 X30.343Y44.557Z0F1200
G0 Z2.8F500
G0 Y44.255Z2.8F1500
G1 Z0F500
G1 X30.04Y43.952Z0F1200
G0 Z2.8F500
G0 X29.435Z2.8F1500
G1 Z0F500
G1 X29.133Y43.65Z0F1200
G0 Z2.8F500
G0 Y43.952Z2.8F1500
G1 Z0F500
G1 X29.435Y44.255Z0F1200
G0 Z2.8F500
G0 X29.133Z2.8F1500
G1 Z0F500
G1 X28.831Y43.952Z0F1200
G0 Z2.8F500
G0 X28.528Y44.255Z2.8F1500
G1 Z0F500
G1 X28.831Y44.557Z0F1200
G0 Z2.8F500
G0 X28.528Z2.8F1500
G1 Z0F500
G1 X28.831Y44.859Z0F1200
G0 Z2.8F500
G0 X29.133Z2.8F1500
G1 Z0F500
G1 X29.435Y45.162Z0F1200
G0 Z2.8F500
G0 Z2.8F1500
G1 Z0F500
G1 X29.738Y45.464Z0F1200
G0 Z2.8F500
G0 Y45.162Z2.8F1500
G1 Z0F500
G1 X29.435Y44.859Z0F1200
G0 Z2.8F500
G0 X30.04Z2.8F1500
G1 Z0F500
G1 X30.343Y45.162Z0F1200
G0 Z2.8F500
G0 X30.04Z2.8F1500
G1 Z0F500
G1 X30.343Y45.464Z0F1200
G0 Z2.8F500
G0 Y45.767Z2.8F1500
G1 Z0F500
G1 X30.645Y46.069Z0F1200
G0 Z2.8F500
G0 Z2.8F1500
G1 Z0F500
G1 X30.947Y46.371Z0F1200
G0 Z2.8F500
G0 X30.645Z2.8F1500
G1 Z0F500
G1 X30.343Y46.069Z0F1200
G0 Z2.8F500
G0 Z2.8F1500
G1 Z0F500
G1 X30.04Y45.767Z0F1200
G0 Z2.8F500
G0 X29.738Z2.8F1500
G1 Z0F500
G1 X30.04Y46.069Z0F1200
G0 Z2.8F500
G0 X29.738Z2.8F1500
G1 Z0F500
G1 X30.04Y46.371Z0F1200
G0 Z2.8F500
G0 X30.343Y46.674Z2.8F1500
G1 Z0F500
G1 X30.645Y46.976Z0F1200
G0 Z2.8F500
G0 X30.947Z2.8F1500
G1 Z0F500
G1 X31.25Y47.279Z0F1200
G0 Z2.8F500
G0 X30.947Z2.8F1500
G1 Z0F500
G1 X31.25Y47.581Z0F1200
G0 Z2.8F500
G0 X31.552Z2.8F1500
G1 Z0F500
G1 X31.854Y47.883Z0F1200
G0 Z2.8F500
G0 Z2.8F1500
G1 Z0F500
G1 X32.157Y48.186Z0F1200
G0 Z2.8F500
G0 X32.459Z2.8F1500
G1 Z0F500
G1 X32.762Y48.488Z0F1200
G0 Z2.8F500
G0 Z2.8F1500
G1 Z0F500
G1 X33.064Y48.79Z0F1200
G0 Z2.8F500
G0 Z2.8F1500
G1 Z0F500
G1 X33.366Y49.093Z0F1200
G0 Z2.8F500
G0 X33.064Z2.8F1500
G1 Z0F500
G1 X32.762Y48.79Z0F1200
G0 Z2.8F500
G0 Z2.8F1500
G1 Z0F500
G1 X32.459Y48.488Z0F1200
G0 Z2.8F500
G0 X32.157Z2.8F1500
G1 Z0F500
G1 X31.854Y48.186Z0F1200
G0 Z2.8F500
G0 Y48.488Z2.8F1500
G1 Z0F500
G1 X32.157Y48.79Z0F1200
G0 Z2.8F500
G0 X32.459Z2.8F1500
G1 Z0F500
G1 X32.762Y49.093Z0F1200
G0 Z2.8F500
G0 X33.064Y49.395Z2.8F1500
G1 Z0F500
G1 X33.366Y49.698Z0F1200
G0 Z2.8F500
G0 X33.669Z2.8F1500
G1 Z0F500
G1 X33.971Y50Z0F1200
G0 Z2.8F500
G0 X33.669Z2.8F1500
G1 Z0F500
G1 X33.971Y50.302Z0F1200
G0 Z2.8F500
G0 Z2.8F1500
G1 Z0F500
G1 X34.274Y50.605Z0F1200
G0 Z2.8F500
G0 Z2.8F1500
G1 Z0F500
G1 X34.576Y50.907Z0F1200
G0 Z2.8F500
G0 X34.274Z2.8F1500
G1 Z0F500
G1 X33.971Y50.605Z0F1200
G0 Z2.8F500
G0 Z2.8F1500
G1 Z0F500
G1 X33.669Y50.302Z0F1200
G0 Z2.8F500
G0 X33.366Y50.605Z2.8F1500
G1 Z0F500
G1 X33.669Y50.907Z0F1200
G0 Z2.8F500
G0 X33.971Z2.8F1500
G1 Z0F500
G1 X34.274Y51.21Z0F1200
G0 Z2.8F500
G0 Z2.8F1500
G1 Z0F500
G1 X34.576Y51.512Z0F1200
G0 Z2.8F500
G0 Z2.8F1500
G1 Z0F500
G1 X34.878Y51.814Z0F1200
G0 Z2.8F500
G0 Y52.117Z2.8F1500
G1 Z0F500
G1 X35.181Y52.419Z0F1200
G0 Z2.8F500
G0 X35.483Z2.8F1500
G1 Z0F500
G1 X35.181Y52.117Z0F1200
G0 Z2.8F500
G0 X35.483Z2.8F1500
G1 Z0F500
G1 X35.785Y52.419Z0F1200
G0 Z2.8F500
G0 X36.088Z2.8F1500
G1 Z0F500
G1 X36.39Y52.721Z0F1200
G0 Z2.8F500
G0 X36.088Z2.8F1500
G1 Z0F500
G1 X36.39Y53.024Z0F1200
G0 Z2.8F500
G0 Z2.8F1500
G1 Z0F500
G1 X36.693Y53.326Z0F1200
G0 Z2.8F500
G0 Z2.8F1500
G1 Z0F500
G1 X36.995Y53.629Z0F1200
G0 Z2.8F500
G0 X36.693Z2.8F1500
G1 Z0F500
G1 X36.995Y53.931Z0F1200
G0 Z2.8F500
G0 Z2.8F1500
G1 Z0F500
G1 X37.297Y54.233Z0F1200
G0 Z2.8F500
G0 Z2.8F1500
G1 Z0F500
G1 X37.6Y54.536Z0F1200
G0 Z2.8F500
G0 X37.297Z2.8F1500
G1 Z0F500
G1 X37.6Y54.838Z0F1200
G0 Z2.8F500
G0 Z2.8F1500
G1 Z0F500
G1 X37.902Y55.141Z0F1200
G0 Z2.8F500
G0 Z2.8F1500
G1 Z0F500
G1 X38.205Y55.443Z0F1200
G0 Z2.8F500
G0 X37.902Z2.8F1500
G1 Z0F500
G1 X38.205Y55.745Z0F1200
G0 Z2.8F500
G0 X37.902Z2.8F1500
G1 Z0F500
G1 X38.205Y56.048Z0F1200
G0 Z2.8F500
G0 X37.902Z2.8F1500
G1 Z0F500
G1 X38.205Y56.35Z0F1200
G0 Z2.8F500
G0 X37.902Z2.8F1500
G1 Z0F500
G1 X37.6Y56.048Z0F1200
G0 Z2.8F500
G0 Z2.8F1500
G1 Z0F500
G1 X37.297Y55.745Z0F1200
G0 Z2.8F500
G0 Z2.8F1500
G1 Z0F500
G1 X36.995Y55.443Z0F1200
G0 Z2.8F500
G0 X36.693Y55.141Z2.8F1500
G1 Z0F500
G1 X36.39Y54.838Z0F1200
G0 Z2.8F500
G0 Z2.8F1500
G1 Z0F500
G1 X36.088Y54.536Z0F1200
G0 Z2.8F500
G0 X36.39Z2.8F1500
G1 Z0F500
G1 X36.088Y54.233Z0F1200
G0 Z2.8F500
G0 X36.39Z2.8F1500
G1 Z0F500
G1 X36.693Y54.536Z0F1200
G0 Z2.8F500
G0 Z2.8F1500
G1 Z0F500
G1 X36.995Y54.838Z0F1200
G0 Z2.8F500
G0 X37.297Z2.8F1500
G1 Z0F500
G1 X36.995Y54.536Z0F1200
G0 Z2.8F500
G0 Z2.8F1500
G1 Z0F500
G1 X36.693Y54.233Z0F1200
G0 Z2.8F500
G0 Z2.8F1500
G1 Z0F500
G1 X36.39Y53.931Z0F1200
G0 Z2.8F500
G0 X36.693Z2.8F1500
G1 Z0F500
G1 X36.995Y54.233Z0F1200
G0 Z2.8F500
G0 X36.693Y53.931Z2.8F1500
G1 Z0F500
G1 X36.39Y53.629Z0F1200
G0 Z2.8F500
G0 Z2.8F1500
G1 Z0F500
G1 X36.088Y53.326Z0F1200
G0 Z2.8F500
G0 X35.785Z2.8F1500
G1 Z0F500
G1 X36.088Y53.629Z0F1200
G0 Z2.8F500
G0 X35.785Z2.8F1500
G1 Z0F500
G1 X35.483Y53.326Z0F1200
G0 Z2.8F500
G0 X35.181Z2.8F1500
G1 Z0F500
G1 X35.483Y53.629Z0F1200
G0 Z2.8F500
G0 X35.181Z2.8F1500
G1 Z0F500
G1 X35.483Y53.931Z0F1200
G0 Z2.8F500
G0 Z2.8F1500
G1 Z0F500
G1 X35.785Y54.233Z0F1200
G0 Z2.8F500
G0 X35.181Y54.536Z2.8F1500
G1 Z0F500
G1 X35.483Y54.838Z0F1200
G0 Z2.8F500
G0 Z2.8F1500
G1 Z0F500
G1 X35.785Y55.141Z0F1200
G0 Z2.8F500
G0 Z2.8F1500
G1 Z0F500
G1 X36.088Y55.443Z0F1200
G0 Z2.8F500
G0 Z2.8F1500
G1 Z0F500
G1 X36.39Y55.745Z0F1200
G0 Z2.8F500
G0 Z2.8F1500
G1 Z0F500
G1 X36.693Y56.048Z0F1200
G0 Z2.8F500
G0 Y56.35Z2.8F1500
G1 Z0F500
G1 X36.995Y56.652Z0F1200
G0 Z2.8F500
G0 Z2.8F1500
G1 Z0F500
G1 X37.297Y56.955Z0F1200
G0 Z2.8F500
G0 X36.995Z2.8F1500
G1 Z0F500
G1 X37.297Y57.257Z0F1200
G0 Z2.8F500
G0 X37.6Z2.8F1500
G1 Z0F500
G1 X37.902Y57.56Z0F1200
G0 Z2.8F500
G0 Z2.8F1500
G1 Z0F500
G1 X38.205Y57.862Z0F1200
G0 Z2.8F500
G0 Y58.164Z2.8F1500
G1 Z0F500
G1 X38.507Y58.467Z0F1200
G0 Z2.8F500
G0 X38.205Y58.769Z2.8F1500
G1 Z0F500
G1 X37.902Y58.467Z0F1200
G0 Z2.8F500
G0 X37.297Y58.769Z2.8F1500
G1 Z0F500
G1 X36.995Y58.467Z0F1200
G0 Z2.8F500
G0 X36.693Z2.8F1500
G1 Z0F500
G1 X36.995Y58.769Z0F1200
G0 Z2.8F500
G0 Z2.8F1500
G1 Z0F500
G1 X37.297Y59.072Z0F1200
G0 Z2.8F500
G0 X36.995Z2.8F1500
G1 Z0F500
G1 X37.297Y59.374Z0F1200
G0 Z2.8F500
G0 X37.902Z2.8F1500
G1 Z0F500
G1 X38.205Y59.676Z0F1200
G0 Z2.8F500
G0 X37.902Z2.8F1500
G1 Z0F500
G1 X38.205Y59.979Z0F1200
G0 Z2.8F500
G0 X37.902Z2.8F1500
G1 Z0F500
G1 X38.205Y60.281Z0F1200
G0 Z2.8F500
G0 X37.902Z2.8F1500
G1 Z0F500
G1 X38.205Y60.583Z0F1200
G0 Z2.8F500
G0 X38.507Z2.8F1500
G1 Z0F500
G1 X38.809Y60.886Z0F1200
G0 Z2.8F500
G0 Z2.8F1500
G1 Z0F500
G1 X39.112Y61.188Z0F1200
G0 Z2.8F500
G0 X38.809Z2.8F1500
G1 Z0F500
G1 X38.507Y60.886Z0F1200
G0 Z2.8F500
G0 X38.205Z2.8F1500
G1 Z0F500
G1 X38.507Y61.188Z0F1200
G0 Z2.8F500
G0 Z2.8F1500
G1 Z0F500
G1 X38.809Y61.491Z0F1200
G0 Z2.8F500
G0 Z2.8F1500
G1 Z0F500
G1 X39.112Y61.793Z0F1200
G0 Z2.8F500
G0 X38.809Z2.8F1500
G1 Z0F500
G1 X39.112Y62.095Z0F1200
G0 Z2.8F500
G0 X39.414Z2.8F1500
G1 Z0F500
G1 X39.716Y62.398Z0F1200
G0 Z2.8F500
G0 Z2.8F1500
G1 Z0F500
G1 X40.019Y62.7Z0F1200
G0 Z2.8F500
G0 X40.321Z2.8F1500
G1 Z0F500
G1 X40.624Y63.003Z0F1200
G0 Z2.8F500
G0 X40.926Z2.8F1500
G1 Z0F500
G1 X41.228Y63.305Z0F1200
G0 Z2.8F500
G0 Z2.8F1500
G1 Z0F500
G1 X41.531Y63.607Z0F1200
G0 Z2.8F500
G0 X41.228Z2.8F1500
G1 Z0F500
G1 X41.531Y63.91Z0F1200
G0 Z2.8F500
G0 X41.228Z2.8F1500
G1 Z0F500
G1 X41.531Y64.212Z0F1200
G0 Z2.8F500
G0 Z2.8F1500
G1 Z0F500
G1 X41.833Y64.514Z0F1200
G0 Z2.8F500
G0 Z2.8F1500
G1 Z0F500
G1 X42.135Y64.817Z0F1200
G0 Z2.8F500
G0 Z2.8F1500
G1 Z0F500
G1 X42.438Y65.119Z0F1200
G0 Z2.8F500
G0 X42.74Z2.8F1500
G1 Z0F500
G1 X42.438Y64.817Z0F1200
G0 Z2.8F500
G0 Z2.8F1500
G1 Z0F500
G1 X42.135Y64.514Z0F1200
G0 Z2.8F500
G0 X42.438Z2.8F1500
G1 Z0F500
G1 X42.135Y64.212Z0F1200
G0 Z2.8F500
G0 Z2.8F1500
G1 Z0F500
G1 X41.833Y63.91Z0F1200
G0 Z2.8F500
G0 Y63.607Z2.8F1500
G1 Z0F500
G1 X41.531Y63.305Z0F1200
G0 Z2.8F500
G0 Z2.8F1500
G1 Z0F500
G1 X41.228Y63.003Z0F1200
G0 Z2.8F500
G0 Z2.8F1500
G1 Z0F500
G1 X40.926Y62.7Z0F1200
G0 Z2.8F500
G0 X40.624Y62.398Z2.8F1500
G1 Z0F500
G1 X40.321Y62.095Z0F1200
G0 Z2.8F500
G0 X40.019Z2.8F1500
G1 Z0F500
G1 X40.321Y62.398Z0F1200
G0 Z2.8F500
G0 X40.019Z2.8F1500
G1 Z0F500
G1 X39.716Y62.095Z0F1200
G0 Z2.8F500
G0 X39.112Y62.398Z2.8F1500
G1 Z0F500
G1 X39.414Y62.7Z0F1200
G0 Z2.8F500
G0 X38.809Y62.398Z2.8F1500
G1 Z0F500
G1 X38.507Y62.095Z0F1200
G0 Z2.8F500
G0 X38.205Z2.8F1500
G1 Z0F500
G1 X38.507Y62.398Z0F1200
G0 Z2.8F500
G0 Y62.7Z2.8F1500
G1 Z0F500
G1 X38.809Y63.003Z0F1200
G0 Z2.8F500
G0 X38.507Z2.8F1500
G1 Z0F500
G1 X38.205Y62.7Z0F1200
G0 Z2.8F500
G0 Z2.8F1500
G1 Z0F500
G1 X37.902Y62.398Z0F1200
G0 Z2.8F500
G0 Z2.8F1500
G1 Z0F500
G1 X37.6Y62.095Z0F1200
G0 Z2.8F500
G0 X37.297Z2.8F1500
G1 Z0F500
G1 X36.995Y61.793Z0F1200
G0 Z2.8F500
G0 X37.297Z2.8F1500
G1 Z0F500
G1 X36.995Y61.491Z0F1200
G0 Z2.8F500
G0 Y61.188Z2.8F1500
G1 Z0F500
G1 X36.693Y60.886Z0F1200
G0 Z2.8F500
G0 Z2.8F1500
G1 Z0F500
G1 X36.39Y60.583Z0F1200
G0 Z2.8F500
G0 X36.088Z2.8F1500
G1 Z0F500
G1 X36.39Y60.886Z0F1200
G0 Z2.8F500
G0 X36.088Z2.8F1500
G1 Z0F500
G1 X35.785Y60.583Z0F1200
G0 Z2.8F500
G0 X35.483Z2.8F1500
G1 Z0F500
G1 X35.785Y60.886Z0F1200
G0 Z2.8F500
G0 X35.483Z2.8F1500
G1 Z0F500
G1 X35.181Y60.583Z0F1200
G0 Z2.8F500
G0 X35.483Z2.8F1500
G1 Z0F500
G1 X35.181Y60.281Z0F1200
G0 Z2.8F500
G0 Z2.8F1500
G1 Z0F500
G1 X34.878Y59.979Z0F1200
G0 Z2.8F500
G0 X35.181Z2.8F1500
G1 Z0F500
G1 X34.878Y59.676Z0F1200
G0 Z2.8F500
G0 X35.181Z2.8F1500
G1 Z0F500
G1 X35.483Y59.979Z0F1200
G0 Z2.8F500
G0 X35.785Z2.8F1500
G1 Z0F500
G1 X36.088Y60.281Z0F1200
G0 Z2.8F500
G0 Y59.979Z2.8F1500
G1 Z0F500
G1 X35.785Y59.676Z0F1200
G0 Z2.8F500
G0 X35.483Z2.8F1500
G1 Z0F500
G1 X35.785Y59.979Z0F1200
G0 Z2.8F500
G0 X36.088Y59.676Z2.8F1500
G1 Z0F500
G1 X35.785Y59.374Z0F1200
G0 Z2.8F500
G0 X35.483Z2.8F1500
G1 Z0F500
G1 X35.181Y59.072Z0F1200
G0 Z2.8F500
G0 Z2.8F1500
G1 Z0F500
G1 X34.878Y58.769Z0F1200
G0 Z2.8F500
G0 Z2.8F1500
G1 Z0F500
G1 X34.576Y58.467Z0F1200
G0 Z2.8F500
G0 X34.878Z2.8F1500
G1 Z0F500
G1 X35.181Y58.769Z0F1200
G0 Z2.8F500
G0 X35.483Y58.467Z2.8F1500
G1 Z0F500
G1 X35.785Y58.769Z0F1200
G0 Z2.8F500
G0 X36.088Z2.8F1500
G1 Z0F500
G1 X36.39Y59.072Z0F1200
G0 Z2.8F500
G0 Z2.8F1500
G1 Z0F500
G1 X36.693Y59.374Z0F1200
G0 Z2.8F500
G0 X36.39Z2.8F1500
G1 Z0F500
G1 X36.693Y59.676Z0F1200
G0 Z2.8F500
G0 Z2.8F1500
G1 Z0F500
G1 X36.995Y59.979Z0F1200
G0 Z2.8F500
G0 Z2.8F1500
G1 Z0F500
G1 X37.297Y60.281Z0F1200
G0 Z2.8F500
G0 X37.6Z2.8F1500
G1 Z0F500
G1 X37.902Y60.583Z0F1200
G0 Z2.8F500
G0 X37.6Z2.8F1500
G1 Z0F500
G1 X37.902Y60.886Z0F1200
G0 Z2.8F500
G0 Y61.188Z2.8F1500
G1 Z0F500
G1 X38.205Y61.491Z0F1200
G0 Z2.8F500
G0 Z2.8F1500
G1 Z0F500
G1 X38.507Y61.793Z0F1200
G0 Z2.8F500
G0 Z2.8F1500
G1 Z0F500
G1 X38.809Y62.095Z0F1200
G0 Z2.8F500
G0 X39.414Y61.188Z2.8F1500
G1 Z0F500
G1 X39.112Y60.886Z0F1200
G0 Z2.8F500
G0 Z2.8F1500
G1 Z0F500
G1 X38.809Y60.583Z0F1200
G0 Z2.8F500
G0 Z2.8F1500
G1 Z0F500
G1 X38.507Y60.281Z0F1200
G0 Z2.8F500
G0 X38.809Y59.979Z2.8F1500
G1 Z0F500
G1 X38.507Y59.676Z0F1200
G0 Z2.8F500
G0 X38.809Z2.8F1500
G1 Z0F500
G1 X39.112Y59.979Z0F1200
G0 Z2.8F500
G0 X39.414Y60.583Z2.8F1500
G1 Z0F500
G1 X39.716Y60.886Z0F1200
G0 Z2.8F500
G0 Z2.8F1500
G1 Z0F500
G1 X40.019Y61.188Z0F1200
G0 Z2.8F500
G0 X40.624Y60.886Z2.8F1500
G1 Z0F500
G1 X40.321Y60.583Z0F1200
G0 Z2.8F500
G0 X40.926Z2.8F1500
G1 Z0F500
G1 X41.228Y60.886Z0F1200
G0 Z2.8F500
G0 X41.531Y60.583Z2.8F1500
G1 Z0F500
G1 X41.228Y60.281Z0F1200
G0 Z2.8F500
G0 X41.531Z2.8F1500
G1 Z0F500
G1 X41.833Y60.583Z0F1200
G0 Z2.8F500
G0 Y60.886Z2.8F1500
G1 Z0F500
G1 X42.135Y61.188Z0F1200
G0 Z2.8F500
G0 X42.438Y61.491Z2.8F1500
G1 Z0F500
G1 X42.74Y61.793Z0F1200
G0 Z2.8F500
G0 X42.438Z2.8F1500
G1 Z0F500
G1 X42.74Y62.095Z0F1200
G0 Z2.8F500
G0 X43.043Y62.398Z2.8F1500
G1 Z0F500
G1 X43.345Y62.7Z0F1200
G0 Z2.8F500
G0 X43.647Z2.8F1500
G1 Z0F500
G1 X43.95Y63.003Z0F1200
G0 Z2.8F500
G0 Z2.8F1500
G1 Z0F500
G1 X44.252Y63.305Z0F1200
G0 Z2.8F500
G0 Z2.8F1500
G1 Z0F500
G1 X44.555Y63.607Z0F1200
G0 Z2.8F500
G0 Y63.91Z2.8F1500
G1 Z0F500
G1 X44.857Y64.212Z0F1200
G0 Z2.8F500
G0 X45.159Z2.8F1500
G1 Z0F500
G1 X45.462Y64.514Z0F1200
G0 Z2.8F500
G0 X45.764Y64.817Z2.8F1500
G1 Z0F500
G1 X46.066Y65.119Z0F1200
G0 Z2.8F500
G0 Z2.8F1500
G1 Z0F500
G1 X46.369Y65.422Z0F1200
G0 Z2.8F500
G0 Z2.8F1500
G1 Z0F500
G1 X46.671Y65.724Z0F1200
G0 Z2.8F500
G0 Z2.8F1500
G1 Z0F500
G1 X46.974Y66.026Z0F1200
G0 Z2.8F500
G0 Z2.8F1500
G1 Z0F500
G1 X47.276Y66.329Z0F1200
G0 Z2.8F500
G0 Y66.026Z2.8F1500
G1 Z0F500
G1 X46.974Y65.724Z0F1200
G0 Z2.8F500
G0 X47.276Z2.8F1500
G1 Z0F500
G1 X46.974Y65.422Z0F1200
G0 Z2.8F500
G0 X47.276Y65.119Z2.8F1500
G1 Z0F500
G1 X47.578Y65.422Z0F1200
G0 Z2.8F500
G0 Y65.724Z2.8F1500
G1 Z0F500
G1 X47.881Y66.026Z0F1200
G0 Z2.8F500
G0 X48.183Z2.8F1500
G1 Z0F500
G1 X47.881Y65.724Z0F1200
G0 Z2.8F500
G0 X48.183Y65.422Z2.8F1500
G1 Z0F500
G1 X48.486Y65.724Z0F1200
G0 Z2.8F500
G0 X49.09Z2.8F1500
G1 Z0F500
G1 X49.393Y66.026Z0F1200
G0 Z2.8F500
G0 X49.695Y66.329Z2.8F1500
G1 Z0F500
G1 X49.997Y66.631Z0F1200
G0 Z2.8F500
G0 X49.695Z2.8F1500
G1 Z0F500
G1 X49.997Y66.934Z0F1200
G0 Z2.8F500
G0 X49.695Z2.8F1500
G1 Z0F500
G1 X49.393Y66.631Z0F1200
G0 Z2.8F500
G0 X49.09Y66.934Z2.8F1500
G1 Z0F500
G1 X48.788Y66.631Z0F1200
G0 Z2.8F500
G0 X48.486Y66.934Z2.8F1500
G1 Z0F500
G1 X48.788Y67.236Z0F1200
G0 Z2.8F500
G0 Y67.538Z2.8F1500
G1 Z0F500
G1 X49.09Y67.841Z0F1200
G0 Z2.8F500
G0 Z2.8F1500
G1 Z0F500
G1 X49.393Y68.143Z0F1200
G0 Z2.8F500
G0 X49.695Z2.8F1500
G1 Z0F500
G1 X49.997Y68.445Z0F1200
G0 Z2.8F500
G0 X49.695Z2.8F1500
G1 Z0F500
G1 X49.997Y68.748Z0F1200
G0 Z2.8F500
G0 X49.695Z2.8F1500
G1 Z0F500
G1 X49.997Y69.05Z0F1200
G0 Z2.8F500
G0 X49.393Y69.353Z2.8F1500
G1 Z0F500
G1 X49.695Y69.655Z0F1200
G0 Z2.8F500
G0 X49.997Z2.8F1500
G1 Z0F500
G1 X50.3Y69.957Z0F1200
G0 Z2.8F500
G0 X50.905Y70.26Z2.8F1500
G1 Z0F500
G1 X51.207Y70.562Z0F1200
G0 Z2.8F500
G0 X50.905Z2.8F1500
G1 Z0F500
G1 X51.207Y70.864Z0F1200
G0 Z2.8F500
G0 Z2.8F1500
G1 Z0F500
G1 X51.509Y71.167Z0F1200
G0 Z2.8F500
G0 X51.812Z2.8F1500
G1 Z0F500
G1 X52.114Y71.469Z0F1200
G0 Z2.8F500
G0 X51.812Y71.772Z2.8F1500
G1 Z0F500
G1 X52.114Y72.074Z0F1200
G0 Z2.8F500
G0 Y72.376Z2.8F1500
G1 Z0F500
G1 X52.417Y72.679Z0F1200
G0 Z2.8F500
G0 Z2.8F1500
G1 Z0F500
G1 X52.719Y72.981Z0F1200
G0 Z2.8F500
G0 X52.417Y73.284Z2.8F1500
G1 Z0F500
G1 X52.114Y72.981Z0F1200
G0 Z2.8F500
G0 X51.812Z2.8F1500
G1 Z0F500
G1 X52.114Y73.284Z0F1200
G0 Z2.8F500
G0 Z2.8F1500
G1 Z0F500
G1 X52.417Y73.586Z0F1200
G0 Z2.8F500
G0 X52.114Z2.8F1500
G1 Z0F500
G1 X52.417Y73.888Z0F1200
G0 Z2.8F500
G0 X52.114Z2.8F1500
G1 Z0F500
G1 X51.812Y73.586Z0F1200
G0 Z2.8F500
G0 X51.509Z2.8F1500
G1 Z0F500
G1 X51.812Y73.888Z0F1200
G0 Z2.8F500
G0 X51.509Z2.8F1500
G1 Z0F500
G1 X51.812Y74.191Z0F1200
G0 Z2.8F500
G0 X51.509Z2.8F1500
G1 Z0F500
G1 X51.812Y74.493Z0F1200
G0 Z2.8F500
G0 X51.207Y74.795Z2.8F1500
G1 Z0F500
G1 X51.509Y75.098Z0F1200
G0 Z2.8F500
G0 Z2.8F1500
G1 Z0F500
G1 X51.812Y75.4Z0F1200
G0 Z2.8F500
G0 X52.114Y75.703Z2.8F1500
G1 Z0F500
G1 X52.417Y76.005Z0F1200
G0 Z2.8F500
G0 X52.719Y75.703Z2.8F1500
G1 Z0F500
G1 X53.021Y76.005Z0F1200
G0 Z2.8F500
G0 Z2.8F1500
G1 Z0F500
G1 X53.324Y76.307Z0F1200
G0 Z2.8F500
G0 X53.626Z2.8F1500
G1 Z0F500
G1 X53.928Y76.61Z0F1200
G0 Z2.8F500
G0 X54.231Z2.8F1500
G1 Z0F500
G1 X54.533Y76.912Z0F1200
G0 Z2.8F500
G0 Z2.8F1500
G1 Z0F500
G1 X54.836Y77.215Z0F1200
G0 Z2.8F500
G0 X54.533Z2.8F1500
G1 Z0F500
G1 X54.836Y77.517Z0F1200
G0 Z2.8F500
G0 X55.138Y78.122Z2.8F1500
G1 Z0F500
G1 X55.44Y78.424Z0F1200
G0 Z2.8F500
G0 Y78.726Z2.8F1500
G1 Z0F500
G1 X55.743Y79.029Z0F1200
G0 Z2.8F500
G0 X56.045Y79.331Z2.8F1500
G1 Z0F500
G1 X56.348Y79.634Z0F1200
G0 Z2.8F500
G0 X56.65Y79.936Z2.8F1500
G1 Z0F500
G1 X56.952Y80.238Z0F1200
G0 Z2.8F500
G0 X57.255Z2.8F1500
G1 Z0F500
G1 X57.557Y80.541Z0F1200
G0 Z2.8F500
G0 X57.255Z2.8F1500
G1 Z0F500
G1 X57.557Y80.843Z0F1200
G0 Z2.8F500
G0 X57.255Z2.8F1500
G1 Z0F500
G1 X57.557Y81.146Z0F1200
G0 Z2.8F500
G0 X57.255Y81.448Z2.8F1500
G1 Z0F500
G1 X57.557Y81.75Z0F1200
G0 Z2.8F500
G0 Y82.053Z2.8F1500
G1 Z0F500
G1 X57.859Y82.355Z0F1200
G0 Z2.8F500
G0 X57.255Y82.96Z2.8F1500
G1 Z0F500
G1 X57.557Y83.262Z0F1200
G0 Z2.8F500
G0 X57.255Z2.8F1500
G1 Z0F500
G1 X56.952Y82.96Z0F1200
G0 Z2.8F500
G0 X56.65Y82.657Z2.8F1500
G1 Z0F500
G1 X56.348Y82.355Z0F1200
G0 Z2.8F500
G0 X56.045Y82.657Z2.8F1500
G1 Z0F500
G1 X55.743Y82.355Z0F1200
G0 Z2.8F500
G0 Y82.053Z2.8F1500
G1 Z0F500
G1 X55.44Y81.75Z0F1200
G0 Z2.8F500
G0 X54.836Y82.053Z2.8F1500
G1 Z0F500
G1 X55.138Y82.355Z0F1200
G0 Z2.8F500
G0 X54.231Y82.053Z2.8F1500
G1 Z0F500
G1 X53.928Y81.75Z0F1200
G0 Z2.8F500
G0 X53.626Z2.8F1500
G1 Z0F500
G1 X53.928Y82.053Z0F1200
G0 Z2.8F500
G0 X53.626Y81.75Z2.8F1500
G1 Z0F500
G1 X53.324Y81.448Z0F1200
G0 Z2.8F500
G0 Z2.8F1500
G1 Z0F500
G1 X53.021Y81.146Z0F1200
G0 Z2.8F500
G0 Y80.843Z2.8F1500
G1 Z0F500
G1 X52.719Y80.541Z0F1200
G0 Z2.8F500
G0 X52.417Z2.8F1500
G1 Z0F500
G1 X52.114Y80.238Z0F1200
G0 Z2.8F500
G0 X52.417Z2.8F1500
G1 Z0F500
G1 X52.114Y79.936Z0F1200
G0 Z2.8F500
G0 X52.417Y79.634Z2.8F1500
G1 Z0F500
G1 X52.719Y79.936Z0F1200
G0 Z2.8F500
G0 X53.021Y80.238Z2.8F1500
G1 Z0F500
G1 X53.324Y80.541Z0F1200
G0 Z2.8F500
G0 Y79.936Z2.8F1500
G1 Z0F500
G1 X53.021Y79.634Z0F1200
G0 Z2.8F500
G0 X52.719Y79.029Z2.8F1500
G1 Z0F500
G1 X52.417Y78.726Z0F1200
G0 Z2.8F500
G0 Y78.424Z2.8F1500
G1 Z0F500
G1 X52.114Y78.122Z0F1200
G0 Z2.8F500
G0 X52.417Y77.819Z2.8F1500
G1 Z0F500
G1 X52.719Y78.122Z0F1200
G0 Z2.8F500
G0 Y77.819Z2.8F1500
G1 Z0F500
G1 X52.417Y77.517Z0F1200
G0 Z2.8F500
G0 X52.719Z2.8F1500
G1 Z0F500
G1 X52.417Y77.215Z0F1200
G0 Z2.8F500
G0 X52.114Y76.912Z2.8F1500
G1 Z0F500
G1 X51.812Y76.61Z0F1200
G0 Z2.8F500
G0 X51.509Y76.912Z2.8F1500
G1 Z0F500
G1 X51.207Y76.61Z0F1200
G0 Z2.8F500
G0 X50.905Z2.8F1500
G1 Z0F500
G1 X51.207Y76.912Z0F1200
G0 Z2.8F500
G0 Y77.215Z2.8F1500
G1 Z0F500
G1 X51.509Y77.517Z0F1200
G0 Z2.8F500
G0 X51.812Z2.8F1500
G1 Z0F500
G1 X51.509Y77.215Z0F1200
G0 Z2.8F500
G0 X50.905Y77.517Z2.8F1500
G1 Z0F500
G1 X51.207Y77.819Z0F1200
G0 Z2.8F500
G0 X51.509Y78.424Z2.8F1500
G1 Z0F500
G1 X51.812Y78.726Z0F1200
G0 Z2.8F500
G0 X50.905Z2.8F1500
G1 Z0F500
G1 X50.602Y78.424Z0F1200
G0 Z2.8F500
G0 X50.3Z2.8F1500
G1 Z0F500
G1 X49.997Y78.122Z0F1200
G0 Z2.8F500
G0 Z2.8F1500
G1 Z0F500
G1 X49.695Y77.819Z0F1200
G0 Z2.8F500
G0 Z2.8F1500
G1 Z0F500
G1 X49.393Y77.517Z0F1200
G0 Z2.8F500
G0 X49.695Z2.8F1500
G1 Z0F500
G1 X49.393Y77.215Z0F1200
G0 Z2.8F500
G0 Y76.912Z2.8F1500
G1 Z0F500
G1 X49.09Y76.61Z0F1200
G0 Z2.8F500
G0 X49.393Z2.8F1500
G1 Z0F500
G1 X49.09Y76.307Z0F1200
G0 Z2.8F500
G0 X48.788Z2.8F1500
G1 Z0F500
G1 X48.486Y76.005Z0F1200
G0 Z2.8F500
G0 X48.183Y76.307Z2.8F1500
G1 Z0F500
G1 X48.486Y76.61Z0F1200
G0 Z2.8F500
G0 X47.881Y77.215Z2.8F1500
G1 Z0F500
G1 X48.183Y77.517Z0F1200
G0 Z2.8F500
G0 X48.486Z2.8F1500
G1 Z0F500
G1 X48.788Y77.819Z0F1200
G0 Z2.8F500
G0 Z2.8F1500
G1 Z0F500
G1 X49.09Y78.122Z0F1200
G0 Z2.8F500
G0 Y77.819Z2.8F1500
G1 Z0F500
G1 X48.788Y77.517Z0F1200
G0 Z2.8F500
G0 X47.881Z2.8F1500
G1 Z0F500
G1 X47.578Y77.215Z0F1200
G0 Z2.8F500
G0 Z2.8F1500
G1 Z0F500
G1 X47.276Y76.912Z0F1200
G0 Z2.8F500
G0 Z2.8F1500
G1 Z0F500
G1 X46.974Y76.61Z0F1200
G0 Z2.8F500
G0 X47.276Z2.8F1500
G1 Z0F500
G1 X46.974Y76.307Z0F1200
G0 Z2.8F500
G0 X47.578Y76.005Z2.8F1500
G1 Z0F500
G1 X47.276Y75.703Z0F1200
G0 Z2.8F500
G0 X47.578Y75.4Z2.8F1500
G1 Z0F500
G1 X47.881Y75.703Z0F1200
G0 Z2.8F500
G0 X48.183Z2.8F1500
G1 Z0F500
G1 X47.881Y75.4Z0F1200
G0 Z2.8F500
G0 X48.486Y75.098Z2.8F1500
G1 Z0F500
G1 X48.788Y75.4Z0F1200
G0 Z2.8F500
G0 X49.393Y75.098Z2.8F1500
G1 Z0F500
G1 X49.695Y75.4Z0F1200
G0 Z2.8F500
G0 X49.393Y75.098Z2.8F1500
G1 Z0F500
G1 X49.09Y74.795Z0F1200
G0 Z2.8F500
G0 Z2.8F1500
G1 Z0F500
G1 X48.788Y74.493Z0F1200
G0 Z2.8F500
G0 X49.393Z2.8F1500
G1 Z0F500
G1 X49.695Y74.795Z0F1200
G0 Z2.8F500
G0 X50.602Z2.8F1500
G1 Z0F500
G1 X50.905Y75.098Z0F1200
G0 Z2.8F500
G0 X51.207Z2.8F1500
G1 Z0F500
G1 X50.905Y74.795Z0F1200
G0 Z2.8F500
G0 Y74.191Z2.8F1500
G1 Z0F500
G1 X50.602Y73.888Z0F1200
G0 Z2.8F500
G0 X50.3Z2.8F1500
G1 Z0F500
G1 X50.602Y74.191Z0F1200
G0 Z2.8F500
G0 X50.3Z2.8F1500
G1 Z0F500
G1 X49.997Y73.888Z0F1200
G0 Z2.8F500
G0 Z2.8F1500
G1 Z0F500
G1 X49.695Y73.586Z0F1200
G0 Z2.8F500
G0 X49.997Z2.8F1500
G1 Z0F500
G1 X49.695Y73.284Z0F1200
G0 Z2.8F500
G0 Z2.8F1500
G1 Z0F500
G1 X49.393Y72.981Z0F1200
G0 Z2.8F500
G0 X49.695Z2.8F1500
G1 Z0F500
G1 X49.997Y73.284Z0F1200
G0 Z2.8F500
G0 Z2.8F1500
G1 Z0F500
G1 X50.3Y73.586Z0F1200
G0 Z2.8F500
G0 Y73.284Z2.8F1500
G1 Z0F500
G1 X49.997Y72.981Z0F1200
G0 Z2.8F500
G0 X50.3Y72.679Z2.8F1500
G1 Z0F500
G1 X50.602Y72.981Z0F1200
G0 Z2.8F500
G0 X50.905Z2.8F1500
G1 Z0F500
G1 X51.207Y73.284Z0F1200
G0 Z2.8F500
G0 Y73.586Z2.8F1500
G1 Z0F500
G1 X51.509Y73.888Z0F1200
G0 Z2.8F500
G0 X51.812Y73.284Z2.8F1500
G1 Z0F500
G1 X51.509Y72.981Z0F1200
G0 Z2.8F500
G0 Z2.8F1500
G1 Z0F500
G1 X51.207Y72.679Z0F1200
G0 Z2.8F500
G0 Z2.8F1500
G1 Z0F500
G1 X50.905Y72.376Z0F1200
G0 Z2.8F500
G0 X51.207Z2.8F1500
G1 Z0F500
G1 X50.905Y72.074Z0F1200
G0 Z2.8F500
G0 X51.207Z2.8F1500
G1 Z0F500
G1 X51.509Y72.376Z0F1200
G0 Z2.8F500
G0 X51.207Y72.074Z2.8F1500
G1 Z0F500
G1 X50.905Y71.772Z0F1200
G0 Z2.8F500
G0 X50.602Z2.8F1500
G1 Z0F500
G1 X50.3Y71.469Z0F1200
G0 Z2.8F500
G0 X49.997Z2.8F1500
G1 Z0F500
G1 X49.695Y71.167Z0F1200
G0 Z2.8F500
G0 X49.393Z2.8F1500
G1 Z0F500
G1 X49.695Y71.469Z0F1200
G0 Z2.8F500
G0 X49.393Z2.8F1500
G1 Z0F500
G1 X49.09Y71.167Z0F1200
G0 Z2.8F500
G0 X48.788Z2.8F1500
G1 Z0F500
G1 X48.486Y70.864Z0F1200
G0 Z2.8F500
G0 X48.183Y70.562Z2.8F1500
G1 Z0F500
G1 X47.881Y70.26Z0F1200
G0 Z2.8F500
G0 X47.578Z2.8F1500
G1 Z0F500
G1 X47.276Y69.957Z0F1200
G0 Z2.8F500
G0 Z2.8F1500
G1 Z0F500
G1 X46.974Y69.655Z0F1200
G0 Z2.8F500
G0 X47.276Y69.353Z2.8F1500
G1 Z0F500
G1 X47.578Y69.655Z0F1200
G0 Z2.8F500
G0 Z2.8F1500
G1 Z0F500
G1 X47.881Y69.957Z0F1200
G0 Z2.8F500
G0 Z2.8F1500
G1 Z0F500
G1 X48.183Y70.26Z0F1200
G0 Z2.8F500
G0 X47.578Y70.562Z2.8F1500
G1 Z0F500
G1 X47.881Y70.864Z0F1200
G0 Z2.8F500
G0 Y71.167Z2.8F1500
G1 Z0F500
G1 X48.183Y71.469Z0F1200
G0 Z2.8F500
G0 X48.486Z2.8F1500
G1 Z0F500
G1 X48.788Y71.772Z0F1200
G0 Z2.8F500
G0 Z2.8F1500
G1 Z0F500
G1 X49.09Y72.074Z0F1200
G0 Z2.8F500
G0 X48.788Y72.376Z2.8F1500
G1 Z0F500
G1 X49.09Y72.679Z0F1200
G0 Z2.8F500
G0 X48.788Y72.376Z2.8F1500
G1 Z0F500
G1 X48.486Y72.074Z0F1200
G0 Z2.8F500
G0 Z2.8F1500
G1 Z0F500
G1 X48.183Y71.772Z0F1200
G0 Z2.8F500
G0 X47.881Y72.074Z2.8F1500
G1 Z0F500
G1 X48.183Y72.376Z0F1200
G0 Z2.8F500
G0 X47.881Y72.679Z2.8F1500
G1 Z0F500
G1 X48.183Y72.981Z0F1200
G0 Z2.8F500
G0 X47.881Z2.8F1500
G1 Z0F500
G1 X47.578Y72.679Z0F1200
G0 Z2.8F500
G0 X47.881Z2.8F1500
G1 Z0F500
G1 X47.578Y72.376Z0F1200
G0 Z2.8F500
G0 X47.276Z2.8F1500
G1 Z0F500
G1 X46.974Y72.074Z0F1200
G0 Z2.8F500
G0 X46.671Z2.8F1500
G1 Z0F500
G1 X46.974Y72.376Z0F1200
G0 Z2.8F500
G0 Y72.679Z2.8F1500
G1 Z0F500
G1 X47.276Y72.981Z0F1200
G0 Z2.8F500
G0 Z2.8F1500
G1 Z0F500
G1 X47.578Y73.284Z0F1200
G0 Z2.8F500
G0 X47.276Z2.8F1500
G1 Z0F500
G1 X47.578Y73.586Z0F1200
G0 Z2.8F500
G0 X47.881Y73.284Z2.8F1500
G1 Z0F500
G1 X48.183Y73.586Z0F1200
G0 Z2.8F500
G0 X48.486Z2.8F1500
G1 Z0F500
G1 X48.183Y73.284Z0F1200
G0 Z2.8F500
G0 X47.881Z2.8F1500
G1 Z0F500
G1 X47.578Y72.981Z0F1200
G0 Z2.8F500
G0 X47.276Y73.284Z2.8F1500
G1 Z0F500
G1 X46.974Y72.981Z0F1200
G0 Z2.8F500
G0 Z2.8F1500
G1 Z0F500
G1 X46.671Y72.679Z0F1200
G0 Z2.8F500
G0 X46.369Z2.8F1500
G1 Z0F500
G1 X46.671Y72.981Z0F1200
G0 Z2.8F500
G0 Z2.8F1500
G1 Z0F500
G1 X46.974Y73.284Z0F1200
G0 Z2.8F500
G0 Y73.586Z2.8F1500
G1 Z0F500
G1 X47.276Y73.888Z0F1200
G0 Z2.8F500
G0 Z2.8F1500
G1 Z0F500
G1 X47.578Y74.191Z0F1200
G0 Z2.8F500
G0 X47.276Y74.493Z2.8F1500
G1 Z0F500
G1 X47.578Y74.795Z0F1200
G0 Z2.8F500
G0 X47.276Z2.8F1500
G1 Z0F500
G1 X46.974Y74.493Z0F1200
G0 Z2.8F500
G0 Z2.8F1500
G1 Z0F500
G1 X46.671Y74.191Z0F1200
G0 Z2.8F500
G0 X46.974Z2.8F1500
G1 Z0F500
G1 X46.671Y73.888Z0F1200
G0 Z2.8F500
G0 Y73.586Z2.8F1500
G1 Z0F500
G1 X46.369Y73.284Z0F1200
G0 Z2.8F500
G0 Y72.981Z2.8F1500
G1 Z0F500
G1 X46.066Y72.679Z0F1200
G0 Z2.8F500
G0 X45.159Z2.8F1500
G1 Z0F500
G1 X44.857Y72.376Z0F1200
G0 Z2.8F500
G0 Y72.679Z2.8F1500
G1 Z0F500
G1 X45.159Y72.981Z0F1200
G0 Z2.8F500
G0 X45.462Y73.284Z2.8F1500
G1 Z0F500
G1 X45.764Y73.586Z0F1200
G0 Z2.8F500
G0 Z2.8F1500
G1 Z0F500
G1 X46.066Y73.888Z0F1200
G0 Z2.8F500
G0 Y73.586Z2.8F1500
G1 Z0F500
G1 X45.764Y73.284Z0F1200
G0 Z2.8F500
G0 X45.462Y73.888Z2.8F1500
G1 Z0F500
G1 X45.764Y74.191Z0F1200
G0 Z2.8F500
G0 X45.159Z2.8F1500
G1 Z0F500
G1 X44.857Y73.888Z0F1200
G0 Z2.8F500
G0 X44.555Y74.191Z2.8F1500
G1 Z0F500
G1 X44.857Y74.493Z0F1200
G0 Z2.8F500
G0 X44.555Y74.191Z2.8F1500
G1 Z0F500
G1 X44.252Y73.888Z0F1200
G0 Z2.8F500
G0 X44.555Y73.586Z2.8F1500
G1 Z0F500
G1 X44.252Y73.284Z0F1200
G0 Z2.8F500
G0 Y72.981Z2.8F1500
G1 Z0F500
G1 X43.95Y72.679Z0F1200
G0 Z2.8F500
G0 Y72.376Z2.8F1500
G1 Z0F500
G1 X43.647Y72.074Z0F1200
G0 Z2.8F500
G0 Y71.772Z2.8F1500
G1 Z0F500
G1 X43.345Y71.469Z0F1200
G0 Z2.8F500
G0 X43.647Z2.8F1500
G1 Z0F500
G1 X43.345Y71.167Z0F1200
G0 Z2.8F500
G0 X43.647Z2.8F1500
G1 Z0F500
G1 X43.95Y71.469Z0F1200
G0 Z2.8F500
G0 X44.252Z2.8F1500
G1 Z0F500
G1 X44.555Y71.772Z0F1200
G0 Z2.8F500
G0 Y71.469Z2.8F1500
G1 Z0F500
G1 X44.252Y71.167Z0F1200
G0 Z2.8F500
G0 Z2.8F1500
G1 Z0F500
G1 X43.95Y70.864Z0F1200
G0 Z2.8F500
G0 X43.647Z2.8F1500
G1 Z0F500
G1 X43.95Y71.167Z0F1200
G0 Z2.8F500
G0 X44.555Y70.864Z2.8F1500
G1 Z0F500
G1 X44.252Y70.562Z0F1200
G0 Z2.8F500
G0 X45.159Y70.864Z2.8F1500
G1 Z0F500
G1 X45.462Y71.167Z0F1200
G0 Z2.8F500
G0 Y71.469Z2.8F1500
G1 Z0F500
G1 X45.764Y71.772Z0F1200
G0 Z2.8F500
G0 X46.066Y71.469Z2.8F1500
G1 Z0F500
G1 X46.369Y71.772Z0F1200
G0 Z2.8F500
G0 Z2.8F1500
G1 Z0F500
G1 X46.671Y72.074Z0F1200
G0 Z2.8F500
G0 X46.974Y71.772Z2.8F1500
G1 Z0F500
G1 X47.276Y72.074Z0F1200
G0 Z2.8F500
G0 X46.671Y71.469Z2.8F1500
G1 Z0F500
G1 X46.369Y71.167Z0F1200
G0 Z2.8F500
G0 X45.764Y70.864Z2.8F1500
G1 Z0F500
G1 X45.462Y70.562Z0F1200
G0 Z2.8F500
G0 X45.764Y70.26Z2.8F1500
G1 Z0F500
G1 X45.462Y69.957Z0F1200
G0 Z2.8F500
G0 X45.764Y69.655Z2.8F1500
G1 Z0F500
G1 X46.066Y69.957Z0F1200
G0 Z2.8F500
G0 Y69.655Z2.8F1500
G1 Z0F500
G1 X45.764Y69.353Z0F1200
G0 Z2.8F500
G0 X45.462Z2.8F1500
G1 Z0F500
G1 X45.159Y69.05Z0F1200
G0 Z2.8F500
G0 Z2.8F1500
G1 Z0F500
G1 X44.857Y68.748Z0F1200
G0 Z2.8F500
G0 Z2.8F1500
G1 Z0F500
G1 X44.555Y68.445Z0F1200
G0 Z2.8F500
G0 X44.252Y68.748Z2.8F1500
G1 Z0F500
G1 X43.95Y68.445Z0F1200
G0 Z2.8F500
G0 Y68.143Z2.8F1500
G1 Z0F500
G1 X43.647Y67.841Z0F1200
G0 Z2.8F500
G0 X43.043Z2.8F1500
G1 Z0F500
G1 X42.74Y67.538Z0F1200
G0 Z2.8F500
G0 X42.438Y67.236Z2.8F1500
G1 Z0F500
G1 X42.135Y66.934Z0F1200
G0 Z2.8F500
G0 Z2.8F1500
G1 Z0F500
G1 X41.833Y66.631Z0F1200
G0 Z2.8F500
G0 X42.135Z2.8F1500
G1 Z0F500
G1 X42.438Y66.934Z0F1200
G0 Z2.8F500
G0 X43.345Z2.8F1500
G1 Z0F500
G1 X43.647Y67.236Z0F1200
G0 Z2.8F500
G0 Y66.631Z2.8F1500
G1 Z0F500
G1 X43.345Y66.329Z0F1200
G0 Z2.8F500
G0 X43.647Y66.026Z2.8F1500
G1 Z0F500
G1 X43.95Y66.329Z0F1200
G0 Z2.8F500
G0 Z2.8F1500
G1 Z0F500
G1 X44.252Y66.631Z0F1200
G0 Z2.8F500
G0 X44.555Y66.329Z2.8F1500
G1 Z0F500
G1 X44.252Y66.026Z0F1200
G0 Z2.8F500
G0 X44.555Z2.8F1500
G1 Z0F500
G1 X44.252Y65.724Z0F1200
G0 Z2.8F500
G0 Y65.422Z2.8F1500
G1 Z0F500
G1 X43.95Y65.119Z0F1200
G0 Z2.8F500
G0 X43.647Z2.8F1500
G1 Z0F500
G1 X43.345Y64.817Z0F1200
G0 Z2.8F500
G0 Z2.8F1500
G1 Z0F500
G1 X43.043Y64.514Z0F1200
G0 Z2.8F500
G0 X43.345Z2.8F1500
G1 Z0F500
G1 X43.043Y64.212Z0F1200
G0 Z2.8F500
G0 Z2.8F1500
G1 Z0F500
G1 X42.74Y63.91Z0F1200
G0 Z2.8F500
G0 X42.438Z2.8F1500
G1 Z0F500
G1 X42.74Y64.212Z0F1200
G0 Z2.8F500
G0 X43.647Z2.8F1500
G1 Z0F500
G1 X43.95Y64.514Z0F1200
G0 Z2.8F500
G0 Z2.8F1500
G1 Z0F500
G1 X44.252Y64.817Z0F1200
G0 Z2.8F500
G0 Y64.514Z2.8F1500
G1 Z0F500
G1 X43.95Y64.212Z0F1200
G0 Z2.8F500
G0 Z2.8F1500
G1 Z0F500
G1 X43.647Y63.91Z0F1200
G0 Z2.8F500
G0 X43.95Z2.8F1500
G1 Z0F500
G1 X43.647Y63.607Z0F1200
G0 Z2.8F500
G0 X43.95Z2.8F1500
G1 Z0F500
G1 X44.252Y63.91Z0F1200
G0 Z2.8F500
G0 X43.647Y63.305Z2.8F1500
G1 Z0F500
G1 X43.345Y63.003Z0F1200
G0 Z2.8F500
G0 Z2.8F1500
G1 Z0F500
G1 X43.043Y62.7Z0F1200
G0 Z2.8F500
G0 X42.74Z2.8F1500
G1 Z0F500
G1 X43.043Y63.003Z0F1200
G0 Z2.8F500
G0 X43.95Y62.7Z2.8F1500
G1 Z0F500
G1 X44.252Y63.003Z0F1200
G0 Z2.8F500
G0 X44.555Y62.7Z2.8F1500
G1 Z0F500
G1 X44.857Y63.003Z0F1200
G0 Z2.8F500
G0 Z2.8F1500
G1 Z0F500
G1 X45.159Y63.305Z0F1200
G0 Z2.8F500
G0 Y63.003Z2.8F1500
G1 Z0F500
G1 X44.857Y62.7Z0F1200
G0 Z2.8F500
G0 Z2.8F1500
G1 Z0F500
G1 X44.555Y62.398Z0F1200
G0 Z2.8F500
G0 X44.252Z2.8F1500
G1 Z0F500
G1 X43.95Y62.095Z0F1200
G0 Z2.8F500
G0 X43.647Y61.793Z2.8F1500
G1 Z0F500
G1 X43.345Y61.491Z0F1200
G0 Z2.8F500
G0 Z2.8F1500
G1 Z0F500
G1 X43.043Y61.188Z0F1200
G0 Z2.8F500
G0 X43.345Z2.8F1500
G1 Z0F500
G1 X43.647Y61.491Z0F1200
G0 Z2.8F500
G0 X44.555Z2.8F1500
G1 Z0F500
G1 X44.857Y61.793Z0F1200
G0 Z2.8F500
G0 Z2.8F1500
G1 Z0F500
G1 X45.159Y62.095Z0F1200
G0 Z2.8F500
G0 Y62.398Z2.8F1500
G1 Z0F500
G1 X45.462Y62.7Z0F1200
G0 Z2.8F500
G0 X45.764Y63.003Z2.8F1500
G1 Z0F500
G1 X46.066Y63.305Z0F1200
G0 Z2.8F500
G0 X46.369Y63.003Z2.8F1500
G1 Z0F500
G1 X46.671Y63.305Z0F1200
G0 Z2.8F500
G0 X46.974Z2.8F1500
G1 Z0F500
G1 X47.276Y63.607Z0F1200
G0 Z2.8F500
G0 Z2.8F1500
G1 Z0F500
G1 X47.578Y63.91Z0F1200
G0 Z2.8F500
G0 X47.881Z2.8F1500
G1 Z0F500
G1 X47.578Y63.607Z0F1200
G0 Z2.8F500
G0 Y63.305Z2.8F1500
G1 Z0F500
G1 X47.276Y63.003Z0F1200
G0 Z2.8F500
G0 X47.578Z2.8F1500
G1 Z0F500
G1 X47.881Y63.305Z0F1200
G0 Z2.8F500
G0 X48.788Y63.003Z2.8F1500
G1 Z0F500
G1 X49.09Y63.305Z0F1200
G0 Z2.8F500
G0 X49.695Z2.8F1500
G1 Z0F500
G1 X49.997Y63.607Z0F1200
G0 Z2.8F500
G0 X50.3Z2.8F1500
G1 Z0F500
G1 X49.997Y63.305Z0F1200
G0 Z2.8F500
G0 X50.602Y63.003Z2.8F1500
G1 Z0F500
G1 X50.905Y63.305Z0F1200
G0 Z2.8F500
G0 X51.207Z2.8F1500
G1 Z0F500
G1 X51.509Y63.607Z0F1200
G0 Z2.8F500
G0 Z2.8F1500
G1 Z0F500
G1 X51.812Y63.91Z0F1200
G0 Z2.8F500
G0 Z2.8F1500
G1 Z0F500
G1 X52.114Y64.212Z0F1200
G0 Z2.8F500
G0 X52.417Z2.8F1500
G1 Z0F500
G1 X52.719Y64.514Z0F1200
G0 Z2.8F500
G0 X53.021Z2.8F1500
G1 Z0F500
G1 X52.719Y64.212Z0F1200
G0 Z2.8F500
G0 Z2.8F1500
G1 Z0F500
G1 X52.417Y63.91Z0F1200
G0 Z2.8F500
G0 Z2.8F1500
G1 Z0F500
G1 X52.114Y63.607Z0F1200
G0 Z2.8F500
G0 X52.417Y63.305Z2.8F1500
G1 Z0F500
G1 X52.719Y63.607Z0F1200
G0 Z2.8F500
G0 Z2.8F1500
G1 Z0F500
G1 X53.021Y63.91Z0F1200
G0 Z2.8F500
G0 Y64.212Z2.8F1500
G1 Z0F500
G1 X53.324Y64.514Z0F1200
G0 Z2.8F500
G0 X53.626Z2.8F1500
G1 Z0F500
G1 X53.324Y64.212Z0F1200
G0 Z2.8F500
G0 X53.626Y63.91Z2.8F1500
G1 Z0F500
G1 X53.928Y64.212Z0F1200
G0 Z2.8F500
G0 X54.231Z2.8F1500
G1 Z0F500
G1 X54.533Y64.514Z0F1200
G0 Z2.8F500
G0 Z2.8F1500
G1 Z0F500
G1 X54.836Y64.817Z0F1200
G0 Z2.8F500
G0 X55.138Z2.8F1500
G1 Z0F500
G1 X54.836Y64.514Z0F1200
G0 Z2.8F500
G0 X55.138Z2.8F1500
G1 Z0F500
G1 X55.44Y64.817Z0F1200
G0 Z2.8F500
G0 Y65.119Z2.8F1500
G1 Z0F500
G1 X55.743Y65.422Z0F1200
G0 Z2.8F500
G0 Z2.8F1500
G1 Z0F500
G1 X56.045Y65.724Z0F1200
G0 Z2.8F500
G0 X56.348Y66.026Z2.8F1500
G1 Z0F500
G1 X56.65Y66.329Z0F1200
G0 Z2.8F500
G0 Z2.8F1500
G1 Z0F500
G1 X56.952Y66.631Z0F1200
G0 Z2.8F500
G0 Z2.8F1500
G1 Z0F500
G1 X57.255Y66.934Z0F1200
G0 Z2.8F500
G0 X57.557Z2.8F1500
G1 Z0F500
G1 X57.859Y67.236Z0F1200
G0 Z2.8F500
G0 Z2.8F1500
G1 Z0F500
G1 X58.162Y67.538Z0F1200
G0 Z2.8F500
G0 X57.859Z2.8F1500
G1 Z0F500
G1 X58.162Y67.841Z0F1200
G0 Z2.8F500
G0 X57.859Y68.143Z2.8F1500
G1 Z0F500
G1 X58.162Y68.445Z0F1200
G0 Z2.8F500
G0 X57.859Z2.8F1500
G1 Z0F500
G1 X58.162Y68.748Z0F1200
G0 Z2.8F500
G0 X57.859Z2.8F1500
G1 Z0F500
G1 X57.557Y68.445Z0F1200
G0 Z2.8F500
G0 X57.255Z2.8F1500
G1 Z0F500
G1 X57.557Y68.748Z0F1200
G0 Z2.8F500
G0 X57.255Y69.05Z2.8F1500
G1 Z0F500
G1 X57.557Y69.353Z0F1200
G0 Z2.8F500
G0 Z2.8F1500
G1 Z0F500
G1 X57.859Y69.655Z0F1200
G0 Z2.8F500
G0 X58.162Z2.8F1500
G1 Z0F500
G1 X58.464Y69.957Z0F1200
G0 Z2.8F500
G0 X58.767Z2.8F1500
G1 Z0F500
G1 X59.069Y70.26Z0F1200
G0 Z2.8F500
G0 X58.767Z2.8F1500
G1 Z0F500
G1 X59.069Y70.562Z0F1200
G0 Z2.8F500
G0 X58.767Z2.8F1500
G1 Z0F500
G1 X58.464Y70.26Z0F1200
G0 Z2.8F500
G0 X58.162Z2.8F1500
G1 Z0F500
G1 X58.464Y70.562Z0F1200
G0 Z2.8F500
G0 Y70.864Z2.8F1500
G1 Z0F500
G1 X58.767Y71.167Z0F1200
G0 Z2.8F500
G0 X59.069Y70.864Z2.8F1500
G1 Z0F500
G1 X59.371Y71.167Z0F1200
G0 Z2.8F500
G0 Y71.469Z2.8F1500
G1 Z0F500
G1 X59.674Y71.772Z0F1200
G0 Z2.8F500
G0 Z2.8F1500
G1 Z0F500
G1 X59.976Y72.074Z0F1200
G0 Z2.8F500
G0 X60.279Z2.8F1500
G1 Z0F500
G1 X59.976Y71.772Z0F1200
G0 Z2.8F500
G0 X60.279Y71.469Z2.8F1500
G1 Z0F500
G1 X59.976Y71.167Z0F1200
G0 Z2.8F500
G0 X60.279Z2.8F1500
G1 Z0F500
G1 X60.581Y71.469Z0F1200
G0 Z2.8F500
G0 Z2.8F1500
G1 Z0F500
G1 X60.883Y71.772Z0F1200
G0 Z2.8F500
G0 X60.581Z2.8F1500
G1 Z0F500
G1 X60.883Y72.074Z0F1200
G0 Z2.8F500
G0 X60.581Y72.376Z2.8F1500
G1 Z0F500
G1 X60.883Y72.679Z0F1200
G0 Z2.8F500
G0 X60.581Z2.8F1500
G1 Z0F500
G1 X60.883Y72.981Z0F1200
G0 Z2.8F500
G0 X60.581Z2.8F1500
G1 Z0F500
G1 X60.883Y73.284Z0F1200
G0 Z2.8F500
G0 X61.186Z2.8F1500
G1 Z0F500
G1 X61.488Y73.586Z0F1200
G0 Z2.8F500
G0 X61.79Z2.8F1500
G1 Z0F500
G1 X61.488Y73.284Z0F1200
G0 Z2.8F500
G0 Z2.8F1500
G1 Z0F500
G1 X61.186Y72.981Z0F1200
G0 Z2.8F500
G0 X61.488Y72.679Z2.8F1500
G1 Z0F500
G1 X61.186Y72.376Z0F1200
G0 Z2.8F500
G0 Y71.772Z2.8F1500
G1 Z0F500
G1 X60.883Y71.469Z0F1200
G0 Z2.8F500
G0 X61.488Z2.8F1500
G1 Z0F500
G1 X61.79Y71.772Z0F1200
G0 Z2.8F500
G0 Z2.8F1500
G1 Z0F500
G1 X62.093Y72.074Z0F1200
G0 Z2.8F500
G0 X62.698Y72.376Z2.8F1500
G1 Z0F500
G1 X63Y72.679Z0F1200
G0 Z2.8F500
G0 Z2.8F1500
G1 Z0F500
G1 X63.302Y72.981Z0F1200
G0 Z2.8F500
G0 X63Z2.8F1500
G1 Z0F500
G1 X63.302Y73.284Z0F1200
G0 Z2.8F500
G0 X63Y73.586Z2.8F1500
G1 Z0F500
G1 X63.302Y73.888Z0F1200
G0 Z2.8F500
G0 Z2.8F1500
G1 Z0F500
G1 X63.605Y74.191Z0F1200
G0 Z2.8F500
G0 X63.302Z2.8F1500
G1 Z0F500
G1 X63.605Y74.493Z0F1200
G0 Z2.8F500
G0 X63.302Z2.8F1500
G1 Z0F500
G1 X63.605Y74.795Z0F1200
G0 Z2.8F500
G0 X64.21Z2.8F1500
G1 Z0F500
G1 X64.512Y75.098Z0F1200
G0 Z2.8F500
G0 X64.21Z2.8F1500
G1 Z0F500
G1 X64.512Y75.4Z0F1200
G0 Z2.8F500
G0 Z2.8F1500
G1 Z0F500
G1 X64.814Y75.703Z0F1200
G0 Z2.8F500
G0 Z2.8F1500
G1 Z0F500
G1 X65.117Y76.005Z0F1200
G0 Z2.8F500
G0 Z2.8F1500
G1 Z0F500
G1 X65.419Y76.307Z0F1200
G0 Z2.8F500
G0 X65.721Y76.005Z2.8F1500
G1 Z0F500
G1 X65.419Y75.703Z0F1200
G0 Z2.8F500
G0 Z2.8F1500
G1 Z0F500
G1 X65.117Y75.4Z0F1200
G0 Z2.8F500
G0 Y75.098Z2.8F1500
G1 Z0F500
G1 X64.814Y74.795Z0F1200
G0 Z2.8F500
G0 Z2.8F1500
G1 Z0F500
G1 X64.512Y74.493Z0F1200
G0 Z2.8F500
G0 X64.21Z2.8F1500
G1 Z0F500
G1 X63.907Y74.191Z0F1200
G0 Z2.8F500
G0 X64.21Y73.888Z2.8F1500
G1 Z0F500
G1 X64.512Y74.191Z0F1200
G0 Z2.8F500
G0 X64.814Y73.586Z2.8F1500
G1 Z0F500
G1 X64.512Y73.284Z0F1200
G0 Z2.8F500
G0 X64.814Z2.8F1500
G1 Z0F500
G1 X65.117Y73.586Z0F1200
G0 Z2.8F500
G0 Z2.8F1500
G1 Z0F500
G1 X65.419Y73.888Z0F1200
G0 Z2.8F500
G0 X65.721Z2.8F1500
G1 Z0F500
G1 X66.024Y74.191Z0F1200
G0 Z2.8F500
G0 X65.721Y73.888Z2.8F1500
G1 Z0F500
G1 X65.419Y73.586Z0F1200
G0 Z2.8F500
G0 Z2.8F1500
G1 Z0F500
G1 X65.117Y73.284Z0F1200
G0 Z2.8F500
G0 X66.024Y72.981Z2.8F1500
G1 Z0F500
G1 X65.721Y72.679Z0F1200
G0 Z2.8F500
G0 Y72.074Z2.8F1500
G1 Z0F500
G1 X65.419Y71.772Z0F1200
G0 Z2.8F500
G0 X65.721Z2.8F1500
G1 Z0F500
G1 X66.024Y72.074Z0F1200
G0 Z2.8F500
G0 Y71.772Z2.8F1500
G1 Z0F500
G1 X65.721Y71.469Z0F1200
G0 Z2.8F500
G0 X66.024Z2.8F1500
G1 Z0F500
G1 X65.721Y71.167Z0F1200
G0 Z2.8F500
G0 X66.024Z2.8F1500
G1 Z0F500
G1 X66.326Y71.469Z0F1200
G0 Z2.8F500
G0 X66.629Z2.8F1500
G1 Z0F500
G1 X66.931Y71.772Z0F1200
G0 Z2.8F500
G0 X67.536Y71.469Z2.8F1500
G1 Z0F500
G1 X67.838Y71.772Z0F1200
G0 Z2.8F500
G0 X68.141Y72.074Z2.8F1500
G1 Z0F500
G1 X68.443Y72.376Z0F1200
G0 Z2.8F500
G0 X68.141Z2.8F1500
G1 Z0F500
G1 X68.443Y72.679Z0F1200
G0 Z2.8F500
G0 X67.838Y72.981Z2.8F1500
G1 Z0F500
G1 X67.536Y72.679Z0F1200
G0 Z2.8F500
G0 X67.233Z2.8F1500
G1 Z0F500
G1 X67.536Y72.981Z0F1200
G0 Z2.8F500
G0 Z2.8F1500
G1 Z0F500
G1 X67.838Y73.284Z0F1200
G0 Z2.8F500
G0 Z2.8F1500
G1 Z0F500
G1 X68.141Y73.586Z0F1200
G0 Z2.8F500
G0 Z2.8F1500
G1 Z0F500
G1 X68.443Y73.888Z0F1200
G0 Z2.8F500
G0 X68.141Z2.8F1500
G1 Z0F500
G1 X68.443Y74.191Z0F1200
G0 Z2.8F500
G0 X68.141Z2.8F1500
G1 Z0F500
G1 X67.838Y73.888Z0F1200
G0 Z2.8F500
G0 X68.141Z2.8F1500
G1 Z0F500
G1 X67.838Y73.586Z0F1200
G0 Z2.8F500
G0 X68.141Y73.284Z2.8F1500
G1 Z0F500
G1 X68.443Y73.586Z0F1200
G0 Z2.8F500
G0 X68.745Z2.8F1500
G1 Z0F500
G1 X68.443Y73.284Z0F1200
G0 Z2.8F500
G0 X69.048Z2.8F1500
G1 Z0F500
G1 X69.35Y73.586Z0F1200
G0 Z2.8F500
G0 X69.652Z2.8F1500
G1 Z0F500
G1 X69.35Y73.284Z0F1200
G0 Z2.8F500
G0 X69.652Z2.8F1500
G1 Z0F500
G1 X69.955Y73.586Z0F1200
G0 Z2.8F500
G0 X70.257Z2.8F1500
G1 Z0F500
G1 X69.955Y73.284Z0F1200
G0 Z2.8F500
G0 Z2.8F1500
G1 Z0F500
G1 X69.652Y72.981Z0F1200
G0 Z2.8F500
G0 X69.955Z2.8F1500
G1 Z0F500
G1 X69.652Y72.679Z0F1200
G0 Z2.8F500
G0 Z2.8F1500
G1 Z0F500
G1 X69.35Y72.376Z0F1200
G0 Z2.8F500
G0 Z2.8F1500
G1 Z0F500
G1 X69.048Y72.074Z0F1200
G0 Z2.8F500
G0 Y72.376Z2.8F1500
G1 Z0F500
G1 X69.35Y72.679Z0F1200
G0 Z2.8F500
G0 X69.652Y72.074Z2.8F1500
G1 Z0F500
G1 X69.35Y71.772Z0F1200
G0 Z2.8F500
G0 X69.652Z2.8F1500
G1 Z0F500
G1 X69.35Y71.469Z0F1200
G0 Z2.8F500
G0 X69.652Y71.167Z2.8F1500
G1 Z0F500
G1 X69.955Y71.469Z0F1200
G0 Z2.8F500
G0 X70.257Z2.8F1500
G1 Z0F500
G1 X69.955Y71.167Z0F1200
G0 Z2.8F500
G0 X70.56Y71.469Z2.8F1500
G1 Z0F500
G1 X70.862Y71.772Z0F1200
G0 Z2.8F500
G0 X71.164Z2.8F1500
G1 Z0F500
G1 X71.467Y72.074Z0F1200
G0 Z2.8F500
G0 Z2.8F1500
G1 Z0F500
G1 X71.769Y72.376Z0F1200
G0 Z2.8F500
G0 X72.072Z2.8F1500
G1 Z0F500
G1 X72.374Y72.679Z0F1200
G0 Z2.8F500
G0 X72.072Z2.8F1500
G1 Z0F500
G1 X72.374Y72.981Z0F1200
G0 Z2.8F500
G0 Z2.8F1500
G1 Z0F500
G1 X72.676Y73.284Z0F1200
G0 Z2.8F500
G0 Z2.8F1500
G1 Z0F500
G1 X72.979Y73.586Z0F1200
G0 Z2.8F500
G0 X73.281Y73.888Z2.8F1500
G1 Z0F500
G1 X73.583Y74.191Z0F1200
G0 Z2.8F500
G0 X73.281Z2.8F1500
G1 Z0F500
G1 X73.583Y74.493Z0F1200
G0 Z2.8F500
G0 Z2.8F1500
G1 Z0F500
G1 X73.886Y74.795Z0F1200
G0 Z2.8F500
G0 X73.583Z2.8F1500
G1 Z0F500
G1 X73.281Y74.493Z0F1200
G0 Z2.8F500
G0 Z2.8F1500
G1 Z0F500
G1 X72.979Y74.191Z0F1200
G0 Z2.8F500
G0 X72.676Y74.493Z2.8F1500
G1 Z0F500
G1 X72.374Y74.191Z0F1200
G0 Z2.8F500
G0 Y74.493Z2.8F1500
G1 Z0F500
G1 X72.676Y74.795Z0F1200
G0 Z2.8F500
G0 Z2.8F1500
G1 Z0F500
G1 X72.979Y75.098Z0F1200
G0 Z2.8F500
G0 X72.676Z2.8F1500
G1 Z0F500
G1 X72.979Y75.4Z0F1200
G0 Z2.8F500
G0 Y75.703Z2.8F1500
G1 Z0F500
G1 X73.281Y76.005Z0F1200
G0 Z2.8F500
G0 Z2.8F1500
G1 Z0F500
G1 X73.583Y76.307Z0F1200
G0 Z2.8F500
G0 Y76.61Z2.8F1500
G1 Z0F500
G1 X73.886Y76.912Z0F1200
G0 Z2.8F500
G0 X74.188Z2.8F1500
G1 Z0F500
G1 X74.491Y77.215Z0F1200
G0 Z2.8F500
G0 X74.793Z2.8F1500
G1 Z0F500
G1 X75.095Y77.517Z0F1200
G0 Z2.8F500
G0 X74.793Y77.819Z2.8F1500
G1 Z0F500
G1 X74.491Y77.517Z0F1200
G0 Z2.8F500
G0 X74.188Z2.8F1500
G1 Z0F500
G1 X73.886Y77.215Z0F1200
G0 Z2.8F500
G0 X73.583Z2.8F1500
G1 Z0F500
G1 X73.886Y77.517Z0F1200
G0 Z2.8F500
G0 Y77.819Z2.8F1500
G1 Z0F500
G1 X74.188Y78.122Z0F1200
G0 Z2.8F500
G0 X74.491Z2.8F1500
G1 Z0F500
G1 X74.793Y78.424Z0F1200
G0 Z2.8F500
G0 X75.398Y78.122Z2.8F1500
G1 Z0F500
G1 X75.7Y78.424Z0F1200
G0 Z2.8F500
G0 X76.003Z2.8F1500
G1 Z0F500
G1 X76.305Y78.726Z0F1200
G0 Z2.8F500
G0 X76.003Z2.8F1500
G1 Z0F500
G1 X76.305Y79.029Z0F1200
G0 Z2.8F500
G0 X76.607Z2.8F1500
G1 Z0F500
G1 X76.91Y79.331Z0F1200
G0 Z2.8F500
G0 X77.212Z2.8F1500
G1 Z0F500
G1 X76.91Y79.029Z0F1200
G0 Z2.8F500
G0 Y78.726Z2.8F1500
G1 Z0F500
G1 X76.607Y78.424Z0F1200
G0 Z2.8F500
G0 Z2.8F1500
G1 Z0F500
G1 X76.305Y78.122Z0F1200
G0 Z2.8F500
G0 X76.003Z2.8F1500
G1 Z0F500
G1 X76.305Y78.424Z0F1200
G0 Z2.8F500
G0 X77.514Y78.726Z2.8F1500
G1 Z0F500
G1 X77.817Y79.029Z0F1200
G0 Z2.8F500
G0 X77.514Z2.8F1500
G1 Z0F500
G1 X77.817Y79.331Z0F1200
G0 Z2.8F500
G0 X78.724Y79.029Z2.8F1500
G1 Z0F500
G1 X79.026Y79.331Z0F1200
G0 Z2.8F500
G0 X79.329Z2.8F1500
G1 Z0F500
G1 X79.026Y79.029Z0F1200
G0 Z2.8F500
G0 Z2.8F1500
G1 Z0F500
G1 X78.724Y78.726Z0F1200
G0 Z2.8F500
G0 Y78.122Z2.8F1500
G1 Z0F500
G1 X78.422Y77.819Z0F1200
G0 Z2.8F500
G0 X78.119Z2.8F1500
G1 Z0F500
G1 X78.422Y78.122Z0F1200
G0 Z2.8F500
G0 X79.026Y77.819Z2.8F1500
G1 Z0F500
G1 X78.724Y77.517Z0F1200
G0 Z2.8F500
G0 X79.026Y77.215Z2.8F1500
G1 Z0F500
G1 X78.724Y76.912Z0F1200
G0 Z2.8F500
G0 X79.026Z2.8F1500
G1 Z0F500
