G90 ; Absolute positioning
G21 ; Millimeters

G0 Z10 F500;      ; Move to clearance level - Z motion limited to 500
; G0 X-10 Y-10 F1200; Homing
; G0 X-5 Y-5 F1200; go in
; G10 P0 L20 X0 Y0; set to zero
G1 F1200;           ; Set feed rate to 1000
;LightBurn 1.6.04
;Custom GCode device profile, absolute coords
;Bounds: X24.84 Y34.56 to X97.17 Y77.44
G00 G17 G40 G21 G54
G90
M4
;Cut @ 1200 mm/min, 80% power

M8

; Washing sequence (no color)
G1 Z10 F1000;        ; Raise brush to safe height
G0 X5.000 Y5.000
G1 Z-1 F800;         ; Lower brush for cleaning - controlled movement
G1 X10.000 Y12.000 Z8.000 F1200
G1 Z-1 F800;         ; Lower brush for cleaning - controlled movement
G1 X25.000 Y14.000 Z6.000 F800
G1 Z8 F800;         ; Maintain brush height - controlled movement
; --- FIX X Backlash: -0.800mm ---
G0 X24.200 Y14.000 F200
; --- FIX Y Backlash: -0.900mm ---
G0 X24.200 Y13.100 F200
G0 X4.200 Y4.100
G1 Z-1 F800;         ; Lower brush for cleaning - controlled movement
; --- FIX X Backlash: 0.800mm ---
G0 X5.000 Y4.100 F200
; --- FIX Y Backlash: 0.900mm ---
G0 X5.000 Y5.000 F200
G1 X15.000 Y12.000 Z8.000 F1200
G1 Z-1 F800;         ; Lower brush for cleaning - controlled movement
G1 X25.000 Y14.000 Z6.000 F800
G1 Z10 F800;         ; Maintain brush height - controlled movement
G1 F1200;           ; Set feed rate to 1000
G0 Z3.5 F1000
G0 X34.347 Y39.909 Z3.500
G1 Z0 F1000
;Layer Wash
G1 X34.312 Y40.025 Z0.000 F1600
G1 X34.331 Y40.105 Z0.000 F1600
G1 X34.393 Y40.156 Z0.000 F1600
G1 X34.485 Y40.185 Z0.000 F1600
G1 X34.710 Y40.200 Z0.000 F1600
G1 X34.907 Y40.206 Z0.000 F1600
G1 X37.261 Y40.355 Z0.000 F1600
G1 X39.618 Y40.465 Z0.000 F1600
G1 X39.823 Y40.465 Z0.000 F1600
G1 X40.060 Y40.455 Z0.000 F1600
G1 X40.165 Y40.430 Z0.000 F1600
G1 X40.246 Y40.382 Z0.000 F1600
; --- FIX Y Backlash: -0.900mm ---
G0 X40.246 Y39.482 F200
G1 X40.294 Y39.404 Z0.000 F1600
G1 X40.297 Y39.288 Z0.000 F1600
; --- FIX X Backlash: -0.800mm ---
G0 X39.497 Y39.288 F200
G1 X39.220 Y39.084 Z0.000 F1600
G1 X38.898 Y38.941 Z0.000 F1600
G1 X38.226 Y38.718 Z0.000 F1600
G1 X37.791 Y38.633 Z0.000 F1600
G1 X37.353 Y38.600 Z0.000 F1600
G1 X36.915 Y38.606 Z0.000 F1600
G1 X36.475 Y38.641 Z0.000 F1600
; --- FIX Y Backlash: 0.900mm ---
G0 X36.475 Y39.541 F200
G1 X35.595 Y39.648 Z0.000 F1600
G1 X34.716 Y39.727 Z0.000 F1600
G1 X34.422 Y39.763 Z0.000 F1600
G1 X34.123 Y39.787 Z0.000 F1600
G1 X33.828 Y39.826 Z0.000 F1600
G1 X33.547 Y39.909 Z0.000 F1600
G0 Z3.5 F1000
; --- FIX X Backlash: 0.800mm ---
G0 X34.347 Y39.909 F200
G0 X34.714 Y40.904 Z3.500
G1 Z0 F1000
; --- FIX X Backlash: -0.800mm ---
G0 X33.914 Y40.904 F200
G1 X32.251 Y40.870 Z0.000 F1600
G1 X31.999 Y40.910 Z0.000 F1600
G1 X31.759 Y41.006 Z0.000 F1600
G1 X31.540 Y41.143 Z0.000 F1600
G1 X31.353 Y41.308 Z0.000 F1600
G1 X31.387 Y41.417 Z0.000 F1600
; --- FIX X Backlash: 0.800mm ---
G0 X32.187 Y41.417 F200
G1 X32.255 Y41.487 Z0.000 F1600
G1 X32.349 Y41.525 Z0.000 F1600
G1 X32.462 Y41.540 Z0.000 F1600
G1 X32.707 Y41.540 Z0.000 F1600
G1 X32.924 Y41.549 Z0.000 F1600
G1 X34.104 Y41.563 Z0.000 F1600
G1 X35.285 Y41.566 Z0.000 F1600
G1 X36.460 Y41.563 Z0.000 F1600
G1 X37.637 Y41.567 Z0.000 F1600
G1 X38.813 Y41.559 Z0.000 F1600
G1 X39.986 Y41.519 Z0.000 F1600
; --- FIX Y Backlash: -0.900mm ---
G0 X39.986 Y40.619 F200
G1 X40.059 Y40.548 Z0.000 F1600
G1 X40.082 Y40.479 Z0.000 F1600
G1 X40.065 Y40.416 Z0.000 F1600
G1 X40.017 Y40.361 Z0.000 F1600
; --- FIX X Backlash: -0.800mm ---
G0 X39.217 Y40.361 F200
G1 X39.064 Y40.290 Z0.000 F1600
G1 X38.896 Y40.293 Z0.000 F1600
G1 X37.235 Y40.200 Z0.000 F1600
G1 X35.575 Y40.092 Z0.000 F1600
G1 X33.914 Y40.004 Z0.000 F1600
G0 Z3.5 F1000
; --- FIX Y Backlash: 0.900mm ---
G0 X33.914 Y40.904 F200
G0 X32.430 Y44.453 Z3.500
G1 Z0 F1000
; --- FIX Y Backlash: -0.900mm ---
G0 X32.430 Y43.553 F200
G1 X31.476 Y43.370 Z0.000 F1600
G1 X30.516 Y43.207 Z0.000 F1600
G1 X29.551 Y43.094 Z0.000 F1600
G1 X28.582 Y43.064 Z0.000 F1600
; --- FIX Y Backlash: 0.900mm ---
G0 X28.582 Y43.964 F200
G1 X28.487 Y44.032 Z0.000 F1600
G1 X28.450 Y44.111 Z0.000 F1600
G1 X28.459 Y44.197 Z0.000 F1600
G1 X28.504 Y44.285 Z0.000 F1600
; --- FIX X Backlash: 0.800mm ---
G0 X29.304 Y44.285 F200
G1 X29.453 Y44.455 Z0.000 F1600
G1 X29.600 Y44.592 Z0.000 F1600
G1 X29.737 Y44.751 Z0.000 F1600
G1 X29.897 Y44.852 Z0.000 F1600
G1 X30.075 Y44.907 Z0.000 F1600
G1 X30.265 Y44.928 Z0.000 F1600
G1 X30.666 Y44.918 Z0.000 F1600
G1 X31.844 Y44.918 Z0.000 F1600
G1 X32.293 Y44.912 Z0.000 F1600
G1 X32.743 Y44.912 Z0.000 F1600
G1 X33.192 Y44.898 Z0.000 F1600
; --- FIX Y Backlash: -0.900mm ---
G0 X33.192 Y43.998 F200
G1 X33.636 Y43.947 Z0.000 F1600
G1 X33.703 Y43.855 Z0.000 F1600
G1 X33.712 Y43.776 Z0.000 F1600
G1 X33.676 Y43.711 Z0.000 F1600
; --- FIX X Backlash: -0.800mm ---
G0 X32.876 Y43.711 F200
G1 X32.806 Y43.658 Z0.000 F1600
G1 X32.613 Y43.585 Z0.000 F1600
G1 X32.430 Y43.553 Z0.000 F1600
G0 Z3.5 F1000
; --- FIX X Backlash: 0.800mm ---
G0 X33.230 Y43.553 F200
G0 X33.441 Y42.866 Z3.500
G1 Z0 F1000
; --- FIX Y Backlash: 0.900mm ---
G0 X33.441 Y43.766 F200
G1 X34.221 Y43.866 Z0.000 F1600
G1 X35.005 Y43.923 Z0.000 F1600
G1 X35.791 Y43.941 Z0.000 F1600
; --- FIX Y Backlash: -0.900mm ---
G0 X35.791 Y43.041 F200
G1 X37.364 Y42.988 Z0.000 F1600
G1 X38.930 Y42.853 Z0.000 F1600
G1 X42.050 Y42.734 Z0.000 F1600
G1 X48.299 Y42.632 Z0.000 F1600
G1 X51.418 Y42.508 Z0.000 F1600
G1 X54.118 Y42.445 Z0.000 F1600
G1 X56.821 Y42.401 Z0.000 F1600
; --- FIX Y Backlash: 0.900mm ---
G0 X56.821 Y43.301 F200
G1 X56.808 Y43.533 Z0.000 F1600
G1 X56.843 Y43.765 Z0.000 F1600
G1 X56.888 Y43.866 Z0.000 F1600
G1 X56.956 Y43.948 Z0.000 F1600
G1 X57.051 Y44.005 Z0.000 F1600
G1 X57.178 Y44.030 Z0.000 F1600
G1 X57.393 Y44.070 Z0.000 F1600
G1 X57.612 Y44.060 Z0.000 F1600
G1 X57.718 Y44.060 Z0.000 F1600
G1 X57.817 Y44.076 Z0.000 F1600
G1 X57.906 Y44.117 Z0.000 F1600
G1 X57.985 Y44.193 Z0.000 F1600
G1 X58.113 Y44.261 Z0.000 F1600
G1 X58.280 Y44.318 Z0.000 F1600
G1 X58.352 Y44.351 Z0.000 F1600
G1 X58.404 Y44.391 Z0.000 F1600
G1 X58.425 Y44.441 Z0.000 F1600
G1 X58.405 Y44.504 Z0.000 F1600
; --- FIX X Backlash: -0.800mm ---
G0 X57.605 Y44.504 F200
G1 X57.349 Y44.496 Z0.000 F1600
G1 X57.102 Y44.547 Z0.000 F1600
G1 X56.992 Y44.600 Z0.000 F1600
G1 X56.897 Y44.675 Z0.000 F1600
G1 X56.821 Y44.774 Z0.000 F1600
G1 X56.769 Y44.899 Z0.000 F1600
G1 X56.677 Y45.097 Z0.000 F1600
G1 X56.624 Y45.330 Z0.000 F1600
G1 X56.630 Y45.437 Z0.000 F1600
G1 X56.668 Y45.526 Z0.000 F1600
; --- FIX X Backlash: 0.800mm ---
G0 X57.468 Y45.526 F200
G1 X57.545 Y45.588 Z0.000 F1600
G1 X57.668 Y45.614 Z0.000 F1600
; --- FIX X Backlash: -0.800mm ---
G0 X56.868 Y45.614 F200
G1 X56.750 Y45.795 Z0.000 F1600
G1 X56.664 Y45.992 Z0.000 F1600
G1 X56.609 Y46.199 Z0.000 F1600
G1 X56.581 Y46.406 Z0.000 F1600
G1 X56.402 Y46.429 Z0.000 F1600
G1 X56.203 Y46.460 Z0.000 F1600
G1 X56.020 Y46.460 Z0.000 F1600
; --- FIX Y Backlash: -0.900mm ---
G0 X56.020 Y45.560 F200
G1 X55.886 Y45.500 Z0.000 F1600
G1 X55.857 Y45.347 Z0.000 F1600
G1 X55.798 Y45.210 Z0.000 F1600
G1 X55.713 Y45.091 Z0.000 F1600
G1 X55.606 Y44.993 Z0.000 F1600
G1 X55.482 Y44.920 Z0.000 F1600
G1 X55.343 Y44.873 Z0.000 F1600
G1 X55.194 Y44.857 Z0.000 F1600
G1 X55.040 Y44.874 Z0.000 F1600
G1 X54.943 Y44.712 Z0.000 F1600
G1 X54.808 Y44.558 Z0.000 F1600
G1 X54.687 Y44.400 Z0.000 F1600
G1 X54.628 Y44.231 Z0.000 F1600
; --- FIX X Backlash: 0.800mm ---
G0 X55.428 Y44.231 F200
; --- FIX Y Backlash: 0.900mm ---
G0 X55.428 Y45.131 F200
G1 X55.728 Y45.196 Z0.000 F1600
G1 X56.035 Y45.302 Z0.000 F1600
G1 X56.187 Y45.340 Z0.000 F1600
G1 X56.335 Y45.350 Z0.000 F1600
G1 X56.477 Y45.321 Z0.000 F1600
; --- FIX Y Backlash: -0.900mm ---
G0 X56.477 Y44.421 F200
G1 X56.612 Y44.339 Z0.000 F1600
G1 X56.749 Y44.100 Z0.000 F1600
G1 X56.873 Y43.845 Z0.000 F1600
G1 X56.954 Y43.580 Z0.000 F1600
G1 X56.965 Y43.307 Z0.000 F1600
; --- FIX X Backlash: -0.800mm ---
G0 X56.165 Y43.307 F200
G1 X56.059 Y43.234 Z0.000 F1600
G1 X55.940 Y43.192 Z0.000 F1600
G1 X55.811 Y43.173 Z0.000 F1600
G1 X55.675 Y43.170 Z0.000 F1600
G1 X55.398 Y43.181 Z0.000 F1600
G1 X55.136 Y43.166 Z0.000 F1600
G1 X53.282 Y43.159 Z0.000 F1600
G1 X51.428 Y43.178 Z0.000 F1600
; --- FIX Y Backlash: 0.900mm ---
G0 X51.428 Y44.078 F200
G1 X49.576 Y44.152 Z0.000 F1600
G1 X47.731 Y44.315 Z0.000 F1600
G1 X47.649 Y44.372 Z0.000 F1600
G1 X47.614 Y44.437 Z0.000 F1600
G1 X47.618 Y44.504 Z0.000 F1600
G1 X47.653 Y44.568 Z0.000 F1600
; --- FIX X Backlash: 0.800mm ---
G0 X48.453 Y44.568 F200
G1 X48.586 Y44.670 Z0.000 F1600
G1 X48.749 Y44.705 Z0.000 F1600
G1 X49.651 Y44.922 Z0.000 F1600
G1 X50.563 Y45.119 Z0.000 F1600
G1 X51.480 Y45.264 Z0.000 F1600
G1 X52.397 Y45.326 Z0.000 F1600
G1 X52.363 Y45.424 Z0.000 F1600
; --- FIX X Backlash: -0.800mm ---
G0 X51.563 Y45.424 F200
G1 X51.496 Y45.482 Z0.000 F1600
G1 X51.404 Y45.510 Z0.000 F1600
G1 X51.298 Y45.520 Z0.000 F1600
G1 X51.069 Y45.526 Z0.000 F1600
G1 X50.877 Y45.579 Z0.000 F1600
G1 X50.679 Y45.672 Z0.000 F1600
G1 X50.510 Y45.812 Z0.000 F1600
G1 X50.426 Y45.868 Z0.000 F1600
G1 X50.338 Y45.899 Z0.000 F1600
G1 X50.242 Y45.890 Z0.000 F1600
; --- FIX Y Backlash: -0.900mm ---
G0 X50.242 Y44.990 F200
G1 X50.134 Y44.930 Z0.000 F1600
G1 X49.876 Y44.836 Z0.000 F1600
G1 X49.610 Y44.809 Z0.000 F1600
G1 X49.342 Y44.832 Z0.000 F1600
G1 X49.075 Y44.882 Z0.000 F1600
G1 X48.658 Y44.839 Z0.000 F1600
G1 X48.238 Y44.784 Z0.000 F1600
G1 X47.820 Y44.740 Z0.000 F1600
G1 X47.407 Y44.729 Z0.000 F1600
G1 X47.395 Y44.590 Z0.000 F1600
G1 X47.336 Y44.490 Z0.000 F1600
G1 X47.241 Y44.421 Z0.000 F1600
G1 X47.120 Y44.375 Z0.000 F1600
G1 X46.597 Y44.280 Z0.000 F1600
G1 X45.788 Y44.162 Z0.000 F1600
G1 X44.977 Y44.080 Z0.000 F1600
G1 X44.166 Y44.029 Z0.000 F1600
G1 X43.355 Y44.007 Z0.000 F1600
G1 X41.730 Y44.034 Z0.000 F1600
; --- FIX Y Backlash: 0.900mm ---
G0 X41.730 Y44.934 F200
G1 X40.104 Y45.033 Z0.000 F1600
G1 X36.857 Y45.332 Z0.000 F1600
G1 X33.622 Y45.578 Z0.000 F1600
G1 X32.803 Y45.592 Z0.000 F1600
G1 X31.982 Y45.603 Z0.000 F1600
G1 X31.164 Y45.636 Z0.000 F1600
G1 X30.351 Y45.717 Z0.000 F1600
G1 X30.271 Y45.810 Z0.000 F1600
G1 X30.253 Y45.902 Z0.000 F1600
G1 X30.286 Y45.990 Z0.000 F1600
; --- FIX X Backlash: 0.800mm ---
G0 X31.086 Y45.990 F200
G1 X31.158 Y46.070 Z0.000 F1600
G1 X31.367 Y46.188 Z0.000 F1600
G1 X31.581 Y46.226 Z0.000 F1600
G1 X31.779 Y46.241 Z0.000 F1600
G1 X31.989 Y46.238 Z0.000 F1600
G1 X32.191 Y46.238 Z0.000 F1600
G1 X32.363 Y46.270 Z0.000 F1600
; --- FIX X Backlash: -0.800mm ---
G0 X31.563 Y46.270 F200
G1 X31.451 Y46.415 Z0.000 F1600
G1 X31.303 Y46.498 Z0.000 F1600
G1 X31.134 Y46.537 Z0.000 F1600
G1 X30.962 Y46.552 Z0.000 F1600
G1 X30.778 Y46.687 Z0.000 F1600
G1 X30.584 Y46.801 Z0.000 F1600
G1 X30.382 Y46.903 Z0.000 F1600
G1 X30.176 Y47.002 Z0.000 F1600
G1 X30.026 Y47.115 Z0.000 F1600
G1 X29.904 Y47.260 Z0.000 F1600
G1 X29.800 Y47.416 Z0.000 F1600
G1 X29.703 Y47.567 Z0.000 F1600
G1 X29.303 Y47.641 Z0.000 F1600
G1 X28.890 Y47.672 Z0.000 F1600
G1 X28.483 Y47.724 Z0.000 F1600
G1 X28.103 Y47.858 Z0.000 F1600
G1 X28.062 Y47.949 Z0.000 F1600
G1 X28.053 Y48.045 Z0.000 F1600
G1 X28.025 Y48.129 Z0.000 F1600
G1 X27.928 Y48.183 Z0.000 F1600
G1 X27.742 Y48.363 Z0.000 F1600
G1 X27.600 Y48.584 Z0.000 F1600
G1 X27.502 Y48.823 Z0.000 F1600
G1 X27.444 Y49.057 Z0.000 F1600
G1 X27.219 Y49.049 Z0.000 F1600
G1 X26.983 Y49.067 Z0.000 F1600
G1 X26.749 Y49.114 Z0.000 F1600
G1 X26.528 Y49.193 Z0.000 F1600
G1 X26.332 Y49.307 Z0.000 F1600
G1 X26.172 Y49.460 Z0.000 F1600
G1 X26.061 Y49.654 Z0.000 F1600
G1 X26.010 Y49.893 Z0.000 F1600
G1 X26.003 Y49.957 Z0.000 F1600
G1 X26.010 Y50.034 Z0.000 F1600
G1 X26.000 Y50.093 Z0.000 F1600
G1 X25.943 Y50.103 Z0.000 F1600
; --- FIX Y Backlash: -0.900mm ---
G0 X25.943 Y49.203 F200
G1 X25.821 Y49.152 Z0.000 F1600
G1 X25.750 Y49.069 Z0.000 F1600
G1 X25.717 Y48.964 Z0.000 F1600
G1 X25.708 Y48.843 Z0.000 F1600
G1 X25.713 Y48.587 Z0.000 F1600
G1 X25.659 Y48.364 Z0.000 F1600
G1 X25.541 Y48.231 Z0.000 F1600
G1 X25.425 Y48.092 Z0.000 F1600
G1 X25.290 Y47.975 Z0.000 F1600
G1 X25.120 Y47.908 Z0.000 F1600
G1 X25.055 Y47.814 Z0.000 F1600
G1 X25.018 Y47.712 Z0.000 F1600
G1 X25.006 Y47.606 Z0.000 F1600
G1 X25.018 Y47.501 Z0.000 F1600
; --- FIX X Backlash: 0.800mm ---
G0 X25.818 Y47.501 F200
G1 X25.910 Y47.311 Z0.000 F1600
G1 X26.081 Y47.179 Z0.000 F1600
G1 X26.088 Y47.055 Z0.000 F1600
G1 X26.043 Y46.977 Z0.000 F1600
; --- FIX X Backlash: -0.800mm ---
G0 X25.243 Y46.977 F200
G1 X25.161 Y46.933 Z0.000 F1600
G1 X25.053 Y46.914 Z0.000 F1600
G1 X24.806 Y46.906 Z0.000 F1600
G1 X24.598 Y46.866 Z0.000 F1600
G1 X24.498 Y46.818 Z0.000 F1600
G1 X24.426 Y46.745 Z0.000 F1600
G1 X24.375 Y46.654 Z0.000 F1600
G1 X24.337 Y46.551 Z0.000 F1600
G1 X24.272 Y46.334 Z0.000 F1600
G1 X24.170 Y46.143 Z0.000 F1600
G1 X24.105 Y46.038 Z0.000 F1600
G1 X24.064 Y45.919 Z0.000 F1600
G1 X24.049 Y45.795 Z0.000 F1600
G1 X24.062 Y45.675 Z0.000 F1600
G1 X24.103 Y45.568 Z0.000 F1600
; --- FIX X Backlash: 0.800mm ---
G0 X24.903 Y45.568 F200
G1 X24.974 Y45.482 Z0.000 F1600
G1 X25.078 Y45.427 Z0.000 F1600
G1 X25.214 Y45.410 Z0.000 F1600
G1 X25.493 Y45.386 Z0.000 F1600
G1 X25.779 Y45.400 Z0.000 F1600
G1 X26.059 Y45.395 Z0.000 F1600
G1 X26.320 Y45.313 Z0.000 F1600
G1 X26.346 Y45.190 Z0.000 F1600
G1 X26.314 Y45.098 Z0.000 F1600
; --- FIX X Backlash: -0.800mm ---
G0 X25.514 Y45.098 F200
G1 X25.439 Y45.033 Z0.000 F1600
G1 X25.332 Y44.987 Z0.000 F1600
G1 X25.078 Y44.934 Z0.000 F1600
G1 X24.857 Y44.892 Z0.000 F1600
G1 X24.670 Y44.843 Z0.000 F1600
G1 X24.460 Y44.792 Z0.000 F1600
G1 X24.275 Y44.711 Z0.000 F1600
G1 X24.165 Y44.569 Z0.000 F1600
; --- FIX X Backlash: 0.800mm ---
G0 X24.965 Y44.569 F200
G1 X25.040 Y44.352 Z0.000 F1600
G1 X25.184 Y44.185 Z0.000 F1600
G1 X25.276 Y44.132 Z0.000 F1600
G1 X25.379 Y44.104 Z0.000 F1600
G1 X25.491 Y44.108 Z0.000 F1600
G1 X25.609 Y44.146 Z0.000 F1600
G1 X25.877 Y44.177 Z0.000 F1600
G1 X26.140 Y44.151 Z0.000 F1600
G1 X26.398 Y44.090 Z0.000 F1600
G1 X26.652 Y44.015 Z0.000 F1600
G1 X27.111 Y43.973 Z0.000 F1600
G1 X27.578 Y43.965 Z0.000 F1600
G1 X28.039 Y43.947 Z0.000 F1600
G1 X28.479 Y43.879 Z0.000 F1600
G1 X28.521 Y43.773 Z0.000 F1600
G1 X28.511 Y43.670 Z0.000 F1600
; --- FIX X Backlash: -0.800mm ---
G0 X27.711 Y43.670 F200
G1 X27.661 Y43.573 Z0.000 F1600
G1 X27.582 Y43.480 Z0.000 F1600
G1 X27.377 Y43.313 Z0.000 F1600
G1 X27.183 Y43.175 Z0.000 F1600
G1 X26.995 Y43.089 Z0.000 F1600
G1 X26.795 Y43.063 Z0.000 F1600
G1 X26.593 Y43.082 Z0.000 F1600
G1 X26.399 Y43.128 Z0.000 F1600
G1 X26.352 Y42.930 Z0.000 F1600
G1 X26.272 Y42.750 Z0.000 F1600
G1 X26.165 Y42.585 Z0.000 F1600
G1 X26.038 Y42.432 Z0.000 F1600
G1 X25.980 Y42.247 Z0.000 F1600
G1 X25.962 Y42.034 Z0.000 F1600
G1 X25.983 Y41.944 Z0.000 F1600
G1 X26.031 Y41.880 Z0.000 F1600
; --- FIX X Backlash: 0.800mm ---
G0 X26.831 Y41.880 F200
G1 X26.912 Y41.853 Z0.000 F1600
G1 X27.032 Y41.873 Z0.000 F1600
; --- FIX Y Backlash: 0.900mm ---
G0 X27.032 Y42.773 F200
G1 X28.446 Y42.953 Z0.000 F1600
G1 X29.860 Y43.136 Z0.000 F1600
G1 X31.268 Y43.348 Z0.000 F1600
G1 X33.441 Y43.766 Z0.000 F1600
G0 Z3.5 F1000
; --- FIX Y Backlash: -0.900mm ---
G0 X33.441 Y42.866 F200
G0 X46.171 Y35.928 Z3.500
G1 Z0 F1000
; --- FIX Y Backlash: 0.900mm ---
G0 X46.171 Y36.828 F200
G1 X46.335 Y36.890 Z0.000 F1600
G1 X46.506 Y36.882 Z0.000 F1600
G1 X47.303 Y36.859 Z0.000 F1600
G1 X48.092 Y36.876 Z0.000 F1600
G1 X48.877 Y36.951 Z0.000 F1600
G1 X49.659 Y37.106 Z0.000 F1600
G1 X50.826 Y37.319 Z0.000 F1600
G1 X52.000 Y37.486 Z0.000 F1600
G1 X53.179 Y37.592 Z0.000 F1600
G1 X54.365 Y37.621 Z0.000 F1600
G1 X54.760 Y37.613 Z0.000 F1600
G1 X55.163 Y37.620 Z0.000 F1600
G1 X55.559 Y37.600 Z0.000 F1600
; --- FIX Y Backlash: -0.900mm ---
G0 X55.559 Y36.700 F200
G1 X55.938 Y36.609 Z0.000 F1600
G1 X55.968 Y36.491 Z0.000 F1600
G1 X55.942 Y36.406 Z0.000 F1600
; --- FIX X Backlash: -0.800mm ---
G0 X55.142 Y36.406 F200
G1 X55.072 Y36.349 Z0.000 F1600
G1 X54.972 Y36.314 Z0.000 F1600
G1 X54.732 Y36.286 Z0.000 F1600
G1 X54.524 Y36.274 Z0.000 F1600
G1 X53.244 Y36.215 Z0.000 F1600
G1 X51.972 Y36.104 Z0.000 F1600
G1 X50.708 Y35.931 Z0.000 F1600
G1 X49.452 Y35.685 Z0.000 F1600
G1 X48.436 Y35.532 Z0.000 F1600
G1 X47.408 Y35.448 Z0.000 F1600
G1 X46.894 Y35.448 Z0.000 F1600
G1 X46.382 Y35.477 Z0.000 F1600
; --- FIX Y Backlash: 0.900mm ---
G0 X46.382 Y36.377 F200
G1 X45.874 Y36.448 Z0.000 F1600
G1 X45.372 Y36.562 Z0.000 F1600
G1 X45.306 Y36.641 Z0.000 F1600
G1 X45.290 Y36.713 Z0.000 F1600
G1 X45.315 Y36.777 Z0.000 F1600
; --- FIX X Backlash: 0.800mm ---
G0 X46.115 Y36.777 F200
G1 X46.171 Y36.828 Z0.000 F1600
G0 Z3.5 F1000
; --- FIX X Backlash: -0.800mm ---
G0 X45.371 Y36.828 F200
; --- FIX Y Backlash: -0.900mm ---
G0 X45.371 Y35.928 F200
G0 X44.603 Y35.055 Z3.500
G1 Z0 F1000
; --- FIX X Backlash: 0.800mm ---
G0 X45.403 Y35.055 F200
G1 X45.480 Y35.021 Z0.000 F1600
G1 X45.542 Y34.966 Z0.000 F1600
G1 X45.583 Y34.899 Z0.000 F1600
G1 X45.599 Y34.828 Z0.000 F1600
G1 X45.584 Y34.761 Z0.000 F1600
; --- FIX X Backlash: -0.800mm ---
G0 X44.784 Y34.761 F200
G1 X44.733 Y34.708 Z0.000 F1600
G1 X44.642 Y34.678 Z0.000 F1600
G1 X43.439 Y34.522 Z0.000 F1600
G1 X42.247 Y34.331 Z0.000 F1600
G1 X42.235 Y34.112 Z0.000 F1600
G1 X42.262 Y33.865 Z0.000 F1600
G1 X42.303 Y33.761 Z0.000 F1600
; --- FIX X Backlash: 0.800mm ---
G0 X43.103 Y33.761 F200
G1 X43.168 Y33.688 Z0.000 F1600
G1 X43.264 Y33.658 Z0.000 F1600
G1 X43.395 Y33.683 Z0.000 F1600
; --- FIX Y Backlash: 0.900mm ---
G0 X43.395 Y34.583 F200
G1 X44.892 Y34.836 Z0.000 F1600
G1 X46.395 Y35.054 Z0.000 F1600
G1 X47.905 Y35.209 Z0.000 F1600
G1 X49.422 Y35.276 Z0.000 F1600
G1 X52.233 Y35.444 Z0.000 F1600
G1 X55.047 Y35.597 Z0.000 F1600
G1 X56.454 Y35.645 Z0.000 F1600
G1 X57.862 Y35.663 Z0.000 F1600
G1 X59.271 Y35.641 Z0.000 F1600
; --- FIX Y Backlash: -0.900mm ---
G0 X59.271 Y34.741 F200
G1 X60.679 Y34.671 Z0.000 F1600
G1 X61.348 Y34.630 Z0.000 F1600
G1 X62.021 Y34.609 Z0.000 F1600
G1 X62.691 Y34.571 Z0.000 F1600
G1 X63.354 Y34.478 Z0.000 F1600
G1 X63.435 Y34.411 Z0.000 F1600
G1 X63.485 Y34.322 Z0.000 F1600
G1 X63.547 Y34.252 Z0.000 F1600
G1 X63.662 Y34.242 Z0.000 F1600
G1 X64.128 Y34.250 Z0.000 F1600
; --- FIX Y Backlash: 0.900mm ---
G0 X64.128 Y35.150 F200
G1 X64.601 Y35.210 Z0.000 F1600
G1 X64.834 Y35.226 Z0.000 F1600
G1 X65.062 Y35.214 Z0.000 F1600
; --- FIX Y Backlash: -0.900mm ---
G0 X65.062 Y34.314 F200
G1 X65.284 Y34.262 Z0.000 F1600
G1 X65.497 Y34.156 Z0.000 F1600
; --- FIX Y Backlash: 0.900mm ---
G0 X65.497 Y35.056 F200
G1 X65.792 Y35.243 Z0.000 F1600
G1 X66.100 Y35.466 Z0.000 F1600
G1 X66.258 Y35.549 Z0.000 F1600
G1 X66.420 Y35.590 Z0.000 F1600
G1 X66.584 Y35.573 Z0.000 F1600
; --- FIX Y Backlash: -0.900mm ---
G0 X66.584 Y34.673 F200
G1 X66.751 Y34.581 Z0.000 F1600
G1 X66.843 Y34.514 Z0.000 F1600
G1 X66.937 Y34.499 Z0.000 F1600
G1 X67.032 Y34.522 Z0.000 F1600
G1 X67.129 Y34.569 Z0.000 F1600
; --- FIX Y Backlash: 0.900mm ---
G0 X67.129 Y35.469 F200
G1 X67.329 Y35.579 Z0.000 F1600
G1 X67.534 Y35.614 Z0.000 F1600
G1 X67.870 Y35.627 Z0.000 F1600
G1 X68.213 Y35.608 Z0.000 F1600
G1 X68.551 Y35.608 Z0.000 F1600
G1 X68.872 Y35.675 Z0.000 F1600
G1 X68.973 Y35.733 Z0.000 F1600
G1 X69.093 Y35.763 Z0.000 F1600
G1 X69.132 Y35.774 Z0.000 F1600
G1 X69.144 Y35.787 Z0.000 F1600
G1 X69.116 Y35.804 Z0.000 F1600
; --- FIX X Backlash: -0.800mm ---
G0 X68.316 Y35.804 F200
G1 X68.239 Y35.827 Z0.000 F1600
G1 X68.159 Y35.881 Z0.000 F1600
G1 X68.119 Y35.960 Z0.000 F1600
G1 X68.105 Y36.052 Z0.000 F1600
G1 X68.101 Y36.146 Z0.000 F1600
G1 X68.094 Y36.230 Z0.000 F1600
G1 X68.067 Y36.291 Z0.000 F1600
G1 X68.007 Y36.318 Z0.000 F1600
G1 X67.899 Y36.298 Z0.000 F1600
G1 X61.005 Y36.261 Z0.000 F1600
G1 X60.924 Y36.339 Z0.000 F1600
G1 X60.879 Y36.434 Z0.000 F1600
G1 X60.865 Y36.539 Z0.000 F1600
G1 X60.876 Y36.651 Z0.000 F1600
; --- FIX X Backlash: 0.800mm ---
G0 X61.676 Y36.651 F200
G1 X61.751 Y36.873 Z0.000 F1600
G1 X61.861 Y37.064 Z0.000 F1600
G1 X62.403 Y37.121 Z0.000 F1600
G1 X62.954 Y37.107 Z0.000 F1600
G1 X63.507 Y37.064 Z0.000 F1600
G1 X64.056 Y37.036 Z0.000 F1600
G1 X64.336 Y37.020 Z0.000 F1600
G1 X64.608 Y36.973 Z0.000 F1600
; --- FIX Y Backlash: -0.900mm ---
G0 X64.608 Y36.073 F200
G1 X64.866 Y35.983 Z0.000 F1600
G1 X65.100 Y35.835 Z0.000 F1600
G1 X65.207 Y35.812 Z0.000 F1600
G1 X65.311 Y35.817 Z0.000 F1600
; --- FIX Y Backlash: 0.900mm ---
G0 X65.311 Y36.717 F200
G1 X65.382 Y36.769 Z0.000 F1600
G1 X65.391 Y36.888 Z0.000 F1600
G1 X65.414 Y37.101 Z0.000 F1600
G1 X65.457 Y37.331 Z0.000 F1600
G1 X65.457 Y37.434 Z0.000 F1600
G1 X65.435 Y37.518 Z0.000 F1600
; --- FIX X Backlash: -0.800mm ---
G0 X64.635 Y37.518 F200
G1 X64.574 Y37.576 Z0.000 F1600
G1 X64.466 Y37.600 Z0.000 F1600
G1 X63.816 Y37.681 Z0.000 F1600
G1 X63.161 Y37.723 Z0.000 F1600
G1 X62.509 Y37.775 Z0.000 F1600
G1 X61.866 Y37.884 Z0.000 F1600
G1 X61.805 Y37.978 Z0.000 F1600
G1 X61.800 Y38.056 Z0.000 F1600
G1 X61.838 Y38.119 Z0.000 F1600
; --- FIX X Backlash: 0.800mm ---
G0 X62.638 Y38.119 F200
G1 X62.708 Y38.168 Z0.000 F1600
G1 X62.899 Y38.222 Z0.000 F1600
G1 X63.081 Y38.222 Z0.000 F1600
G1 X63.695 Y38.240 Z0.000 F1600
G1 X64.310 Y38.272 Z0.000 F1600
G1 X64.920 Y38.331 Z0.000 F1600
G1 X65.521 Y38.432 Z0.000 F1600
G1 X65.593 Y38.789 Z0.000 F1600
G1 X65.633 Y39.152 Z0.000 F1600
; --- FIX X Backlash: -0.800mm ---
G0 X64.833 Y39.152 F200
; --- FIX Y Backlash: -0.900mm ---
G0 X64.833 Y38.252 F200
G1 X63.461 Y38.090 Z0.000 F1600
G1 X62.081 Y38.024 Z0.000 F1600
G1 X60.697 Y38.003 Z0.000 F1600
G1 X59.316 Y37.975 Z0.000 F1600
G1 X52.206 Y37.889 Z0.000 F1600
G1 X45.098 Y37.748 Z0.000 F1600
G1 X42.513 Y37.728 Z0.000 F1600
G1 X41.222 Y37.728 Z0.000 F1600
G1 X39.936 Y37.758 Z0.000 F1600
; --- FIX Y Backlash: 0.900mm ---
G0 X39.936 Y38.658 F200
G1 X39.846 Y38.898 Z0.000 F1600
G1 X39.839 Y39.175 Z0.000 F1600
; --- FIX X Backlash: 0.800mm ---
G0 X40.639 Y39.175 F200
G1 X40.706 Y39.452 Z0.000 F1600
G1 X40.837 Y39.694 Z0.000 F1600
G1 X40.816 Y39.916 Z0.000 F1600
; --- FIX X Backlash: -0.800mm ---
G0 X40.016 Y39.916 F200
G1 X39.907 Y40.149 Z0.000 F1600
G1 X39.867 Y40.259 Z0.000 F1600
G1 X39.861 Y40.357 Z0.000 F1600
G1 X39.908 Y40.439 Z0.000 F1600
; --- FIX X Backlash: 0.800mm ---
G0 X40.708 Y40.439 F200
G1 X40.827 Y40.501 Z0.000 F1600
G1 X41.372 Y40.529 Z0.000 F1600
G1 X41.920 Y40.547 Z0.000 F1600
G1 X42.465 Y40.538 Z0.000 F1600
G1 X43.001 Y40.488 Z0.000 F1600
; --- FIX Y Backlash: -0.900mm ---
G0 X43.001 Y39.588 F200
G1 X43.035 Y39.405 Z0.000 F1600
G1 X43.046 Y39.200 Z0.000 F1600
G1 X43.067 Y39.109 Z0.000 F1600
G1 X43.109 Y39.037 Z0.000 F1600
G1 X43.184 Y38.991 Z0.000 F1600
G1 X43.300 Y38.980 Z0.000 F1600
G1 X44.260 Y38.844 Z0.000 F1600
G1 X45.225 Y38.740 Z0.000 F1600
G1 X46.192 Y38.661 Z0.000 F1600
G1 X47.163 Y38.600 Z0.000 F1600
G1 X49.107 Y38.509 Z0.000 F1600
G1 X51.050 Y38.415 Z0.000 F1600
G1 X51.888 Y38.369 Z0.000 F1600
G1 X52.715 Y38.334 Z0.000 F1600
; --- FIX Y Backlash: 0.900mm ---
G0 X52.715 Y39.234 F200
G1 X52.765 Y39.478 Z0.000 F1600
G1 X52.774 Y39.750 Z0.000 F1600
G1 X52.795 Y39.868 Z0.000 F1600
G1 X52.844 Y39.958 Z0.000 F1600
G1 X52.935 Y40.010 Z0.000 F1600
G1 X53.080 Y40.010 Z0.000 F1600
; --- FIX Y Backlash: -0.900mm ---
G0 X53.080 Y39.110 F200
G1 X56.285 Y38.951 Z0.000 F1600
G1 X59.490 Y38.772 Z0.000 F1600
; --- FIX Y Backlash: 0.900mm ---
G0 X59.490 Y39.672 F200
G1 X59.477 Y39.743 Z0.000 F1600
G1 X59.433 Y39.792 Z0.000 F1600
; --- FIX X Backlash: -0.800mm ---
G0 X58.633 Y39.792 F200
G1 X58.568 Y39.824 Z0.000 F1600
G1 X58.490 Y39.847 Z0.000 F1600
G1 X58.323 Y39.890 Z0.000 F1600
G1 X58.194 Y39.973 Z0.000 F1600
G1 X58.024 Y40.089 Z0.000 F1600
G1 X57.890 Y40.239 Z0.000 F1600
G1 X57.768 Y40.398 Z0.000 F1600
G1 X57.630 Y40.543 Z0.000 F1600
G1 X57.593 Y40.706 Z0.000 F1600
G1 X57.507 Y40.837 Z0.000 F1600
G1 X57.390 Y40.947 Z0.000 F1600
G1 X57.258 Y41.050 Z0.000 F1600
G1 X57.029 Y41.350 Z0.000 F1600
G1 X56.865 Y41.691 Z0.000 F1600
G1 X56.763 Y42.054 Z0.000 F1600
G1 X56.724 Y42.417 Z0.000 F1600
G1 X55.855 Y42.544 Z0.000 F1600
G1 X54.974 Y42.621 Z0.000 F1600
G1 X54.089 Y42.676 Z0.000 F1600
G1 X53.207 Y42.740 Z0.000 F1600
G1 X52.157 Y42.785 Z0.000 F1600
G1 X51.104 Y42.796 Z0.000 F1600
; --- FIX Y Backlash: -0.900mm ---
G0 X51.104 Y41.896 F200
G1 X48.783 Y41.804 Z0.000 F1600
G1 X46.460 Y41.676 Z0.000 F1600
G1 X44.137 Y41.554 Z0.000 F1600
G1 X41.811 Y41.478 Z0.000 F1600
G1 X37.697 Y41.399 Z0.000 F1600
G1 X29.466 Y41.316 Z0.000 F1600
G1 X25.353 Y41.234 Z0.000 F1600
G1 X25.063 Y41.210 Z0.000 F1600
G1 X24.755 Y41.199 Z0.000 F1600
G1 X24.605 Y41.182 Z0.000 F1600
G1 X24.462 Y41.147 Z0.000 F1600
G1 X24.331 Y41.089 Z0.000 F1600
G1 X24.216 Y41.000 Z0.000 F1600
G1 X24.148 Y40.795 Z0.000 F1600
G1 X24.133 Y40.568 Z0.000 F1600
G1 X24.158 Y40.467 Z0.000 F1600
; --- FIX X Backlash: 0.800mm ---
G0 X24.958 Y40.467 F200
G1 X25.010 Y40.385 Z0.000 F1600
G1 X25.094 Y40.330 Z0.000 F1600
G1 X25.215 Y40.310 Z0.000 F1600
G1 X25.759 Y40.266 Z0.000 F1600
G1 X26.307 Y40.237 Z0.000 F1600
G1 X26.851 Y40.182 Z0.000 F1600
G1 X27.382 Y40.064 Z0.000 F1600
G1 X27.435 Y39.960 Z0.000 F1600
G1 X27.431 Y39.880 Z0.000 F1600
G1 X27.383 Y39.822 Z0.000 F1600
; --- FIX X Backlash: -0.800mm ---
G0 X26.583 Y39.822 F200
G1 X26.502 Y39.782 Z0.000 F1600
G1 X26.292 Y39.747 Z0.000 F1600
G1 X26.102 Y39.747 Z0.000 F1600
G1 X25.656 Y39.736 Z0.000 F1600
G1 X25.208 Y39.736 Z0.000 F1600
G1 X24.765 Y39.718 Z0.000 F1600
G1 X24.335 Y39.660 Z0.000 F1600
G1 X24.305 Y39.457 Z0.000 F1600
G1 X24.312 Y39.248 Z0.000 F1600
G1 X24.341 Y39.159 Z0.000 F1600
; --- FIX X Backlash: 0.800mm ---
G0 X25.141 Y39.159 F200
G1 X25.196 Y39.091 Z0.000 F1600
G1 X25.280 Y39.051 Z0.000 F1600
G1 X25.400 Y39.046 Z0.000 F1600
G1 X25.506 Y39.001 Z0.000 F1600
G1 X25.574 Y38.921 Z0.000 F1600
G1 X25.617 Y38.820 Z0.000 F1600
G1 X25.649 Y38.712 Z0.000 F1600
G1 X25.683 Y38.611 Z0.000 F1600
G1 X25.732 Y38.530 Z0.000 F1600
G1 X25.811 Y38.485 Z0.000 F1600
G1 X25.931 Y38.488 Z0.000 F1600
G1 X28.441 Y38.384 Z0.000 F1600
G1 X30.957 Y38.310 Z0.000 F1600
G1 X33.475 Y38.213 Z0.000 F1600
G1 X35.986 Y38.040 Z0.000 F1600
G1 X36.088 Y38.040 Z0.000 F1600
G1 X36.174 Y38.004 Z0.000 F1600
G1 X36.238 Y37.940 Z0.000 F1600
G1 X36.277 Y37.861 Z0.000 F1600
G1 X36.287 Y37.778 Z0.000 F1600
G1 X36.263 Y37.701 Z0.000 F1600
; --- FIX X Backlash: -0.800mm ---
G0 X35.463 Y37.701 F200
G1 X35.402 Y37.641 Z0.000 F1600
G1 X35.298 Y37.609 Z0.000 F1600
G1 X32.844 Y37.617 Z0.000 F1600
; --- FIX Y Backlash: 0.900mm ---
G0 X32.844 Y38.517 F200
G1 X27.937 Y38.610 Z0.000 F1600
G1 X25.484 Y38.615 Z0.000 F1600
G1 X25.413 Y38.586 Z0.000 F1600
; --- FIX Y Backlash: -0.900mm ---
G0 X25.413 Y37.686 F200
G1 X25.371 Y37.634 Z0.000 F1600
G1 X25.353 Y37.564 Z0.000 F1600
G1 X25.353 Y37.484 Z0.000 F1600
G1 X25.393 Y37.317 Z0.000 F1600
G1 X25.443 Y37.182 Z0.000 F1600
G1 X25.481 Y37.099 Z0.000 F1600
G1 X25.488 Y37.011 Z0.000 F1600
G1 X25.469 Y36.926 Z0.000 F1600
G1 X25.429 Y36.855 Z0.000 F1600
G1 X25.372 Y36.804 Z0.000 F1600
G1 X25.303 Y36.784 Z0.000 F1600
G1 X25.227 Y36.802 Z0.000 F1600
; --- FIX Y Backlash: 0.900mm ---
G0 X25.227 Y37.702 F200
G1 X25.148 Y37.769 Z0.000 F1600
G1 X25.009 Y37.971 Z0.000 F1600
G1 X24.918 Y38.211 Z0.000 F1600
G1 X24.823 Y38.440 Z0.000 F1600
G1 X24.669 Y38.613 Z0.000 F1600
G1 X24.581 Y38.617 Z0.000 F1600
G1 X24.517 Y38.582 Z0.000 F1600
; --- FIX Y Backlash: -0.900mm ---
G0 X24.517 Y37.682 F200
G1 X24.470 Y37.618 Z0.000 F1600
G1 X24.436 Y37.535 Z0.000 F1600
G1 X24.385 Y37.349 Z0.000 F1600
G1 X24.322 Y37.203 Z0.000 F1600
G1 X24.211 Y36.820 Z0.000 F1600
G1 X24.104 Y36.428 Z0.000 F1600
G1 X24.035 Y36.034 Z0.000 F1600
G1 X24.041 Y35.643 Z0.000 F1600
; --- FIX X Backlash: 0.800mm ---
G0 X24.841 Y35.643 F200
G1 X25.066 Y35.571 Z0.000 F1600
G1 X25.295 Y35.593 Z0.000 F1600
G1 X25.396 Y35.639 Z0.000 F1600
; --- FIX Y Backlash: 0.900mm ---
G0 X25.396 Y36.539 F200
G1 X25.481 Y36.610 Z0.000 F1600
G1 X25.544 Y36.705 Z0.000 F1600
G1 X25.579 Y36.826 Z0.000 F1600
G1 X25.667 Y36.935 Z0.000 F1600
G1 X25.781 Y36.996 Z0.000 F1600
G1 X25.915 Y37.021 Z0.000 F1600
G1 X26.062 Y37.021 Z0.000 F1600
G1 X26.371 Y36.990 Z0.000 F1600
G1 X26.656 Y36.998 Z0.000 F1600
G1 X27.230 Y36.998 Z0.000 F1600
G1 X27.796 Y37.075 Z0.000 F1600
G1 X28.359 Y37.189 Z0.000 F1600
G1 X28.924 Y37.292 Z0.000 F1600
G1 X29.172 Y37.277 Z0.000 F1600
G1 X29.434 Y37.252 Z0.000 F1600
G1 X29.558 Y37.223 Z0.000 F1600
G1 X29.671 Y37.176 Z0.000 F1600
; --- FIX Y Backlash: -0.900mm ---
G0 X29.671 Y36.276 F200
G1 X29.769 Y36.207 Z0.000 F1600
G1 X29.847 Y36.111 Z0.000 F1600
G1 X29.816 Y35.895 Z0.000 F1600
G1 X29.786 Y35.657 Z0.000 F1600
G1 X29.752 Y35.554 Z0.000 F1600
; --- FIX X Backlash: -0.800mm ---
G0 X28.952 Y35.554 F200
G1 X28.894 Y35.473 Z0.000 F1600
G1 X28.806 Y35.424 Z0.000 F1600
G1 X28.680 Y35.417 Z0.000 F1600
G1 X28.317 Y35.467 Z0.000 F1600
G1 X27.952 Y35.481 Z0.000 F1600
G1 X27.772 Y35.465 Z0.000 F1600
G1 X27.595 Y35.428 Z0.000 F1600
G1 X27.422 Y35.367 Z0.000 F1600
G1 X27.256 Y35.277 Z0.000 F1600
G1 X26.999 Y35.172 Z0.000 F1600
G1 X26.725 Y35.108 Z0.000 F1600
G1 X26.456 Y35.042 Z0.000 F1600
G1 X26.211 Y34.932 Z0.000 F1600
G1 X26.105 Y34.814 Z0.000 F1600
G1 X25.881 Y34.735 Z0.000 F1600
G1 X25.822 Y34.696 Z0.000 F1600
G1 X25.784 Y34.634 Z0.000 F1600
G1 X25.756 Y34.363 Z0.000 F1600
G1 X25.760 Y34.175 Z0.000 F1600
G1 X25.785 Y34.096 Z0.000 F1600
G1 X25.833 Y34.038 Z0.000 F1600
; --- FIX X Backlash: 0.800mm ---
G0 X26.633 Y34.038 F200
G1 X26.708 Y34.008 Z0.000 F1600
G1 X26.818 Y34.014 Z0.000 F1600
G1 X28.123 Y34.064 Z0.000 F1600
; --- FIX Y Backlash: 0.900mm ---
G0 X28.123 Y34.964 F200
G1 X29.425 Y35.052 Z0.000 F1600
G1 X30.726 Y35.168 Z0.000 F1600
G1 X32.026 Y35.298 Z0.000 F1600
G1 X34.628 Y35.553 Z0.000 F1600
G1 X37.237 Y35.724 Z0.000 F1600
G1 X37.525 Y35.751 Z0.000 F1600
G1 X37.816 Y35.800 Z0.000 F1600
G1 X37.949 Y35.847 Z0.000 F1600
G1 X38.066 Y35.917 Z0.000 F1600
G1 X38.162 Y36.016 Z0.000 F1600
G1 X38.230 Y36.149 Z0.000 F1600
G1 X38.574 Y36.249 Z0.000 F1600
G1 X38.940 Y36.256 Z0.000 F1600
G1 X39.313 Y36.232 Z0.000 F1600
G1 X39.677 Y36.236 Z0.000 F1600
G1 X40.245 Y36.236 Z0.000 F1600
G1 X40.813 Y36.272 Z0.000 F1600
G1 X41.381 Y36.310 Z0.000 F1600
G1 X41.948 Y36.316 Z0.000 F1600
; --- FIX Y Backlash: -0.900mm ---
G0 X41.948 Y35.416 F200
G1 X42.288 Y35.185 Z0.000 F1600
G1 X42.473 Y35.095 Z0.000 F1600
G1 X42.683 Y35.057 Z0.000 F1600
G1 X42.941 Y35.007 Z0.000 F1600
G1 X43.204 Y34.990 Z0.000 F1600
G1 X43.332 Y35.005 Z0.000 F1600
G1 X43.452 Y35.042 Z0.000 F1600
; --- FIX Y Backlash: 0.900mm ---
G0 X43.452 Y35.942 F200
G1 X43.564 Y36.004 Z0.000 F1600
G1 X43.664 Y36.097 Z0.000 F1600
G1 X44.074 Y36.140 Z0.000 F1600
G1 X44.490 Y36.105 Z0.000 F1600
; --- FIX Y Backlash: -0.900mm ---
G0 X44.490 Y35.205 F200
G1 X45.316 Y35.059 Z0.000 F1600
G1 X45.403 Y35.055 Z0.000 F1600
G0 Z3.5 F1000
; --- FIX Y Backlash: 0.900mm ---
G0 X45.403 Y35.955 F200
G0 X71.300 Y37.022 Z3.500
G1 Z0 F1000
G1 X71.336 Y37.095 Z0.000 F1600
G1 X71.428 Y37.161 Z0.000 F1600
G1 X71.598 Y37.188 Z0.000 F1600
G1 X71.771 Y37.192 Z0.000 F1600
; --- FIX Y Backlash: -0.900mm ---
G0 X71.771 Y36.292 F200
G1 X74.322 Y36.193 Z0.000 F1600
G1 X75.596 Y36.122 Z0.000 F1600
G1 X76.866 Y36.009 Z0.000 F1600
G1 X76.947 Y35.922 Z0.000 F1600
G1 X76.966 Y35.835 Z0.000 F1600
G1 X76.937 Y35.750 Z0.000 F1600
; --- FIX X Backlash: -0.800mm ---
G0 X76.137 Y35.750 F200
G1 X76.072 Y35.668 Z0.000 F1600
G1 X75.885 Y35.523 Z0.000 F1600
G1 X75.704 Y35.419 Z0.000 F1600
G1 X75.522 Y35.334 Z0.000 F1600
G1 X75.331 Y35.282 Z0.000 F1600
G1 X75.136 Y35.261 Z0.000 F1600
G1 X74.941 Y35.272 Z0.000 F1600
G1 X74.749 Y35.313 Z0.000 F1600
; --- FIX Y Backlash: 0.900mm ---
G0 X74.749 Y36.213 F200
G1 X74.565 Y36.283 Z0.000 F1600
G1 X74.393 Y36.381 Z0.000 F1600
G1 X74.238 Y36.505 Z0.000 F1600
G1 X73.405 Y36.574 Z0.000 F1600
G1 X72.563 Y36.574 Z0.000 F1600
G1 X71.721 Y36.583 Z0.000 F1600
G1 X70.889 Y36.687 Z0.000 F1600
G1 X70.711 Y36.748 Z0.000 F1600
G1 X70.555 Y36.872 Z0.000 F1600
G1 X70.510 Y36.946 Z0.000 F1600
G1 X70.500 Y37.022 Z0.000 F1600
G0 Z3.5 F1000
; --- FIX X Backlash: 0.800mm ---
G0 X71.300 Y37.022 F200
G0 X71.467 Y37.794 Z3.500
G1 Z0 F1000
; --- FIX X Backlash: -0.800mm ---
G0 X70.667 Y37.794 F200
G1 X68.793 Y37.892 Z0.000 F1600
G1 X68.676 Y37.927 Z0.000 F1600
G1 X68.584 Y37.927 Z0.000 F1600
G1 X68.515 Y37.901 Z0.000 F1600
; --- FIX Y Backlash: -0.900mm ---
G0 X68.515 Y37.001 F200
G1 X68.465 Y36.949 Z0.000 F1600
G1 X68.412 Y36.788 Z0.000 F1600
G1 X68.400 Y36.579 Z0.000 F1600
G1 X68.340 Y36.065 Z0.000 F1600
G1 X68.305 Y35.550 Z0.000 F1600
; --- FIX X Backlash: 0.800mm ---
G0 X69.105 Y35.550 F200
G1 X69.541 Y35.446 Z0.000 F1600
G1 X69.985 Y35.394 Z0.000 F1600
G1 X70.429 Y35.345 Z0.000 F1600
G1 X70.862 Y35.247 Z0.000 F1600
G1 X70.927 Y35.170 Z0.000 F1600
G1 X70.943 Y35.095 Z0.000 F1600
G1 X70.920 Y35.027 Z0.000 F1600
; --- FIX X Backlash: -0.800mm ---
G0 X70.120 Y35.027 F200
G1 X70.067 Y34.968 Z0.000 F1600
G1 X69.906 Y34.895 Z0.000 F1600
G1 X69.733 Y34.903 Z0.000 F1600
G1 X69.435 Y34.919 Z0.000 F1600
; --- FIX Y Backlash: 0.900mm ---
G0 X69.435 Y35.819 F200
G1 X69.138 Y35.870 Z0.000 F1600
G1 X68.844 Y35.923 Z0.000 F1600
G1 X68.554 Y35.949 Z0.000 F1600
G1 X68.469 Y35.903 Z0.000 F1600
; --- FIX Y Backlash: -0.900mm ---
G0 X68.469 Y35.003 F200
G1 X68.420 Y34.940 Z0.000 F1600
G1 X68.401 Y34.864 Z0.000 F1600
G1 X68.406 Y34.780 Z0.000 F1600
; --- FIX X Backlash: 0.800mm ---
G0 X69.206 Y34.780 F200
G1 X69.265 Y34.604 Z0.000 F1600
G1 X69.349 Y34.446 Z0.000 F1600
G1 X69.626 Y34.329 Z0.000 F1600
G1 X69.915 Y34.254 Z0.000 F1600
G1 X70.212 Y34.216 Z0.000 F1600
G1 X70.514 Y34.213 Z0.000 F1600
; --- FIX Y Backlash: 0.900mm ---
G0 X70.514 Y35.113 F200
G1 X71.116 Y35.193 Z0.000 F1600
G1 X71.692 Y35.364 Z0.000 F1600
G1 X72.027 Y35.499 Z0.000 F1600
G1 X72.346 Y35.682 Z0.000 F1600
G1 X72.507 Y35.758 Z0.000 F1600
G1 X72.672 Y35.809 Z0.000 F1600
G1 X72.845 Y35.820 Z0.000 F1600
G1 X73.029 Y35.779 Z0.000 F1600
; --- FIX Y Backlash: -0.900mm ---
G0 X73.029 Y34.879 F200
G1 X73.924 Y34.759 Z0.000 F1600
G1 X74.829 Y34.643 Z0.000 F1600
G1 X75.282 Y34.610 Z0.000 F1600
G1 X75.734 Y34.610 Z0.000 F1600
G1 X76.184 Y34.646 Z0.000 F1600
; --- FIX Y Backlash: 0.900mm ---
G0 X76.184 Y35.546 F200
G1 X76.630 Y35.634 Z0.000 F1600
G1 X76.897 Y35.764 Z0.000 F1600
G1 X77.167 Y35.916 Z0.000 F1600
G1 X77.304 Y35.972 Z0.000 F1600
G1 X77.444 Y35.998 Z0.000 F1600
G1 X77.587 Y35.984 Z0.000 F1600
; --- FIX Y Backlash: -0.900mm ---
G0 X77.587 Y35.084 F200
G1 X77.735 Y35.018 Z0.000 F1600
G1 X78.314 Y34.810 Z0.000 F1600
G1 X78.911 Y34.683 Z0.000 F1600
G1 X79.213 Y34.659 Z0.000 F1600
G1 X79.516 Y34.665 Z0.000 F1600
G1 X79.819 Y34.705 Z0.000 F1600
; --- FIX Y Backlash: 0.900mm ---
G0 X79.819 Y35.605 F200
G1 X80.121 Y35.682 Z0.000 F1600
G1 X80.667 Y35.636 Z0.000 F1600
; --- FIX Y Backlash: -0.900mm ---
G0 X80.667 Y34.736 F200
G1 X81.202 Y34.603 Z0.000 F1600
G1 X81.470 Y34.534 Z0.000 F1600
G1 X81.740 Y34.480 Z0.000 F1600
G1 X82.014 Y34.452 Z0.000 F1600
G1 X82.294 Y34.463 Z0.000 F1600
G1 X82.525 Y34.463 Z0.000 F1600
; --- FIX Y Backlash: 0.900mm ---
G0 X82.525 Y35.363 F200
G1 X82.745 Y35.415 Z0.000 F1600
G1 X82.956 Y35.501 Z0.000 F1600
G1 X83.161 Y35.606 Z0.000 F1600
G1 X83.365 Y35.715 Z0.000 F1600
G1 X83.569 Y35.814 Z0.000 F1600
G1 X83.777 Y35.887 Z0.000 F1600
G1 X83.993 Y35.920 Z0.000 F1600
; --- FIX Y Backlash: -0.900mm ---
G0 X83.993 Y35.020 F200
G1 X84.374 Y34.922 Z0.000 F1600
G1 X84.761 Y34.865 Z0.000 F1600
G1 X85.151 Y34.837 Z0.000 F1600
G1 X85.545 Y34.827 Z0.000 F1600
G1 X86.334 Y34.822 Z0.000 F1600
G1 X87.121 Y34.763 Z0.000 F1600
G1 X88.548 Y34.618 Z0.000 F1600
G1 X89.969 Y34.463 Z0.000 F1600
G1 X90.679 Y34.401 Z0.000 F1600
G1 X91.392 Y34.360 Z0.000 F1600
G1 X92.106 Y34.347 Z0.000 F1600
G1 X92.823 Y34.372 Z0.000 F1600
G1 X93.886 Y34.400 Z0.000 F1600
; --- FIX Y Backlash: 0.900mm ---
G0 X93.886 Y35.300 F200
G1 X94.960 Y35.359 Z0.000 F1600
G1 X95.489 Y35.431 Z0.000 F1600
G1 X96.005 Y35.550 Z0.000 F1600
G1 X96.503 Y35.726 Z0.000 F1600
G1 X96.977 Y35.974 Z0.000 F1600
G1 X97.030 Y36.077 Z0.000 F1600
G1 X97.033 Y36.178 Z0.000 F1600
G1 X96.997 Y36.274 Z0.000 F1600
; --- FIX X Backlash: -0.800mm ---
G0 X96.197 Y36.274 F200
G1 X96.131 Y36.363 Z0.000 F1600
G1 X95.943 Y36.511 Z0.000 F1600
G1 X95.743 Y36.602 Z0.000 F1600
G1 X95.636 Y36.783 Z0.000 F1600
G1 X95.532 Y36.965 Z0.000 F1600
G1 X95.402 Y37.125 Z0.000 F1600
G1 X95.218 Y37.238 Z0.000 F1600
G1 X95.127 Y37.324 Z0.000 F1600
G1 X95.069 Y37.429 Z0.000 F1600
G1 X95.038 Y37.471 Z0.000 F1600
G1 X94.999 Y37.497 Z0.000 F1600
G1 X94.946 Y37.500 Z0.000 F1600
G1 X94.874 Y37.473 Z0.000 F1600
G1 X94.584 Y37.462 Z0.000 F1600
G1 X94.306 Y37.536 Z0.000 F1600
G1 X94.194 Y37.610 Z0.000 F1600
G1 X94.114 Y37.712 Z0.000 F1600
G1 X94.074 Y37.842 Z0.000 F1600
G1 X94.084 Y38.003 Z0.000 F1600
G1 X94.032 Y38.134 Z0.000 F1600
G1 X93.953 Y38.252 Z0.000 F1600
G1 X93.853 Y38.351 Z0.000 F1600
G1 X93.736 Y38.426 Z0.000 F1600
G1 X93.607 Y38.473 Z0.000 F1600
G1 X93.472 Y38.486 Z0.000 F1600
G1 X93.335 Y38.460 Z0.000 F1600
; --- FIX Y Backlash: -0.900mm ---
G0 X93.335 Y37.560 F200
G1 X93.202 Y37.492 Z0.000 F1600
G1 X92.849 Y37.492 Z0.000 F1600
G1 X92.501 Y37.534 Z0.000 F1600
; --- FIX Y Backlash: 0.900mm ---
G0 X92.501 Y38.434 F200
G1 X92.156 Y38.504 Z0.000 F1600
G1 X91.814 Y38.596 Z0.000 F1600
G1 X91.134 Y38.808 Z0.000 F1600
G1 X90.458 Y39.005 Z0.000 F1600
G1 X90.373 Y39.110 Z0.000 F1600
G1 X90.327 Y39.237 Z0.000 F1600
G1 X90.309 Y39.377 Z0.000 F1600
G1 X90.301 Y39.673 Z0.000 F1600
G1 X90.285 Y39.816 Z0.000 F1600
G1 X90.244 Y39.945 Z0.000 F1600
G1 X90.166 Y40.056 Z0.000 F1600
G1 X89.986 Y40.098 Z0.000 F1600
G1 X89.802 Y40.113 Z0.000 F1600
G1 X89.431 Y40.113 Z0.000 F1600
G1 X88.419 Y40.080 Z0.000 F1600
G1 X87.404 Y40.056 Z0.000 F1600
; --- FIX Y Backlash: -0.900mm ---
G0 X87.404 Y39.156 F200
G1 X86.392 Y39.095 Z0.000 F1600
G1 X85.391 Y38.954 Z0.000 F1600
G1 X85.277 Y38.927 Z0.000 F1600
G1 X85.198 Y38.854 Z0.000 F1600
G1 X85.153 Y38.753 Z0.000 F1600
G1 X85.142 Y38.641 Z0.000 F1600
G1 X85.164 Y38.534 Z0.000 F1600
; --- FIX X Backlash: 0.800mm ---
G0 X85.964 Y38.534 F200
G1 X86.019 Y38.448 Z0.000 F1600
G1 X86.107 Y38.401 Z0.000 F1600
G1 X86.227 Y38.409 Z0.000 F1600
G1 X87.232 Y38.409 Z0.000 F1600
G1 X88.239 Y38.440 Z0.000 F1600
G1 X89.244 Y38.457 Z0.000 F1600
G1 X90.247 Y38.418 Z0.000 F1600
G1 X90.350 Y38.349 Z0.000 F1600
G1 X90.422 Y38.254 Z0.000 F1600
G1 X90.475 Y38.142 Z0.000 F1600
G1 X90.565 Y37.901 Z0.000 F1600
G1 X90.623 Y37.789 Z0.000 F1600
G1 X90.703 Y37.695 Z0.000 F1600
G1 X90.817 Y37.626 Z0.000 F1600
G1 X91.274 Y37.405 Z0.000 F1600
G1 X91.764 Y37.256 Z0.000 F1600
G1 X92.253 Y37.110 Z0.000 F1600
G1 X92.709 Y36.899 Z0.000 F1600
G1 X92.729 Y36.782 Z0.000 F1600
G1 X92.701 Y36.703 Z0.000 F1600
; --- FIX X Backlash: -0.800mm ---
G0 X91.901 Y36.703 F200
G1 X91.836 Y36.655 Z0.000 F1600
G1 X91.745 Y36.633 Z0.000 F1600
G1 X91.528 Y36.638 Z0.000 F1600
G1 X91.335 Y36.666 Z0.000 F1600
; --- FIX Y Backlash: 0.900mm ---
G0 X91.335 Y37.566 F200
G1 X89.967 Y37.692 Z0.000 F1600
G1 X88.599 Y37.823 Z0.000 F1600
G1 X87.232 Y37.943 Z0.000 F1600
G1 X85.865 Y38.038 Z0.000 F1600
; --- FIX Y Backlash: -0.900mm ---
G0 X85.865 Y37.138 F200
G1 X85.113 Y36.881 Z0.000 F1600
G1 X84.372 Y36.581 Z0.000 F1600
G1 X83.623 Y36.308 Z0.000 F1600
G1 X82.849 Y36.131 Z0.000 F1600
G1 X82.754 Y36.149 Z0.000 F1600
G1 X82.694 Y36.191 Z0.000 F1600
; --- FIX Y Backlash: 0.900mm ---
G0 X82.694 Y37.091 F200
G1 X82.663 Y37.151 Z0.000 F1600
G1 X82.657 Y37.224 Z0.000 F1600
G1 X82.701 Y37.382 Z0.000 F1600
; --- FIX X Backlash: 0.800mm ---
G0 X83.501 Y37.382 F200
G1 X83.588 Y37.518 Z0.000 F1600
G1 X83.624 Y37.625 Z0.000 F1600
G1 X83.627 Y37.728 Z0.000 F1600
G1 X83.602 Y37.823 Z0.000 F1600
G1 X83.552 Y37.904 Z0.000 F1600
; --- FIX X Backlash: -0.800mm ---
G0 X82.752 Y37.904 F200
G1 X82.680 Y37.968 Z0.000 F1600
G1 X82.592 Y38.007 Z0.000 F1600
G1 X82.489 Y38.019 Z0.000 F1600
G1 X82.376 Y37.997 Z0.000 F1600
; --- FIX Y Backlash: -0.900mm ---
G0 X82.376 Y37.097 F200
G1 X81.550 Y36.884 Z0.000 F1600
G1 X80.713 Y36.694 Z0.000 F1600
G1 X80.291 Y36.630 Z0.000 F1600
G1 X79.867 Y36.598 Z0.000 F1600
G1 X79.441 Y36.607 Z0.000 F1600
; --- FIX Y Backlash: 0.900mm ---
G0 X79.441 Y37.507 F200
G1 X79.013 Y37.564 Z0.000 F1600
G1 X78.790 Y37.585 Z0.000 F1600
G1 X78.569 Y37.645 Z0.000 F1600
G1 X78.477 Y37.699 Z0.000 F1600
G1 X78.407 Y37.772 Z0.000 F1600
G1 X78.365 Y37.869 Z0.000 F1600
G1 X78.360 Y37.994 Z0.000 F1600
G1 X78.294 Y38.115 Z0.000 F1600
G1 X78.200 Y38.201 Z0.000 F1600
G1 X78.089 Y38.252 Z0.000 F1600
G1 X77.967 Y38.268 Z0.000 F1600
G1 X77.844 Y38.250 Z0.000 F1600
; --- FIX Y Backlash: -0.900mm ---
G0 X77.844 Y37.350 F200
G1 X77.729 Y37.299 Z0.000 F1600
G1 X77.629 Y37.216 Z0.000 F1600
G1 X77.554 Y37.100 Z0.000 F1600
G1 X77.448 Y36.962 Z0.000 F1600
G1 X77.314 Y36.875 Z0.000 F1600
G1 X77.158 Y36.827 Z0.000 F1600
G1 X76.988 Y36.808 Z0.000 F1600
G1 X76.631 Y36.813 Z0.000 F1600
G1 X76.298 Y36.801 Z0.000 F1600
G1 X74.421 Y36.816 Z0.000 F1600
G1 X72.543 Y36.841 Z0.000 F1600
; --- FIX Y Backlash: 0.900mm ---
G0 X72.543 Y37.741 F200
G1 X70.667 Y37.794 Z0.000 F1600
;Offset @ 900 mm/min, 80% power

M8

; Washing sequence (no color)
G1 Z10 F1000;        ; Raise brush to safe height
; --- FIX Y Backlash: -0.900mm ---
G0 X70.667 Y36.894 F200
G0 X4.200 Y4.100
G1 Z-1 F800;         ; Lower brush for cleaning - controlled movement
; --- FIX X Backlash: 0.800mm ---
G0 X5.000 Y4.100 F200
; --- FIX Y Backlash: 0.900mm ---
G0 X5.000 Y5.000 F200
G1 X10.000 Y12.000 Z8.000 F1200
G1 Z-1 F800;         ; Lower brush for cleaning - controlled movement
G1 X25.000 Y14.000 Z6.000 F800
G1 Z8 F800;         ; Maintain brush height - controlled movement
; --- FIX X Backlash: -0.800mm ---
G0 X24.200 Y14.000 F200
; --- FIX Y Backlash: -0.900mm ---
G0 X24.200 Y13.100 F200
G0 X4.200 Y4.100
G1 Z-1 F800;         ; Lower brush for cleaning - controlled movement
; --- FIX X Backlash: 0.800mm ---
G0 X5.000 Y4.100 F200
; --- FIX Y Backlash: 0.900mm ---
G0 X5.000 Y5.000 F200
G1 X15.000 Y12.000 Z8.000 F1200
G1 Z-1 F800;         ; Lower brush for cleaning - controlled movement
G1 X25.000 Y14.000 Z6.000 F800
G1 Z10 F800;         ; Maintain brush height - controlled movement
G1 F1200;           ; Set feed rate to 1000

; Color picking sequence
G1 Z10 F1000;         ; Raise brush to safe height
; --- FIX Y Backlash: -0.900mm ---
G0 X25.000 Y13.100 F200
G0 X131.000 Y4.100
G1 Z0 F1000;         ; Lower into color - controlled movement
; --- FIX X Backlash: -0.800mm ---
G0 X130.200 Y4.100 F200
; --- FIX Y Backlash: 0.900mm ---
G0 X130.200 Y5.000 F200
G1 X129.302 Y7.295 Z0.000 F1200
G1 X129.226 Y7.642 Z0.000 F1200
G1 X129.200 Y8.000 Z0.000 F1200
G1 X129.226 Y8.358 Z0.000 F1200
; --- FIX X Backlash: 0.800mm ---
G0 X130.026 Y8.358 F200
G1 X130.102 Y8.705 Z0.000 F1200
G1 X130.225 Y9.041 Z0.000 F1200
G1 X130.393 Y9.362 Z0.000 F1200
G1 X130.603 Y9.668 Z0.000 F1200
G1 X130.854 Y9.957 Z0.000 F1200
G1 X131.142 Y10.226 Z0.000 F1200
G1 X131.464 Y10.475 Z0.000 F1200
G1 X131.820 Y10.701 Z0.000 F1200
G1 X132.204 Y10.902 Z0.000 F1200
G1 X132.617 Y11.078 Z0.000 F1200
G1 X133.054 Y11.225 Z0.000 F1200
G1 X133.513 Y11.343 Z0.000 F1200
G1 X133.992 Y11.429 Z0.000 F1200
G1 X134.489 Y11.482 Z0.000 F1200
G1 X135.000 Y11.500 Z0.000 F1200
G1 X135.511 Y11.482 Z0.000 F1200
; --- FIX Y Backlash: -0.900mm ---
G0 X135.511 Y10.582 F200
G1 X136.008 Y10.529 Z0.000 F1200
G1 X136.487 Y10.443 Z0.000 F1200
G1 X136.946 Y10.325 Z0.000 F1200
G1 X137.383 Y10.178 Z0.000 F1200
G1 X137.796 Y10.002 Z0.000 F1200
G1 X138.180 Y9.801 Z0.000 F1200
G1 X138.536 Y9.575 Z0.000 F1200
G1 X138.858 Y9.326 Z0.000 F1200
G1 X139.146 Y9.057 Z0.000 F1200
G1 X139.397 Y8.768 Z0.000 F1200
G1 X139.607 Y8.462 Z0.000 F1200
G1 X139.775 Y8.141 Z0.000 F1200
G1 X139.898 Y7.805 Z0.000 F1200
G1 X139.974 Y7.458 Z0.000 F1200
G1 X140.000 Y7.100 Z0.000 F1200
G1 X139.974 Y6.742 Z0.000 F1200
; --- FIX X Backlash: -0.800mm ---
G0 X139.174 Y6.742 F200
G1 X139.098 Y6.395 Z0.000 F1200
G1 X138.975 Y6.059 Z0.000 F1200
G1 X138.807 Y5.738 Z0.000 F1200
G1 X138.597 Y5.432 Z0.000 F1200
G1 X138.346 Y5.143 Z0.000 F1200
G1 X138.058 Y4.874 Z0.000 F1200
G1 X137.736 Y4.625 Z0.000 F1200
G1 X137.380 Y4.399 Z0.000 F1200
G1 X136.996 Y4.198 Z0.000 F1200
G1 X136.583 Y4.022 Z0.000 F1200
G1 X136.146 Y3.875 Z0.000 F1200
G1 X135.687 Y3.757 Z0.000 F1200
G1 X135.208 Y3.671 Z0.000 F1200
G1 X134.711 Y3.618 Z0.000 F1200
G1 X134.200 Y3.600 Z0.000 F1200
G1 X133.689 Y3.618 Z0.000 F1200
; --- FIX Y Backlash: 0.900mm ---
G0 X133.689 Y4.518 F200
G1 X133.192 Y4.571 Z0.000 F1200
G1 X132.713 Y4.657 Z0.000 F1200
G1 X132.254 Y4.775 Z0.000 F1200
G1 X131.817 Y4.922 Z0.000 F1200
G1 X131.404 Y5.098 Z0.000 F1200
G1 X131.020 Y5.299 Z0.000 F1200
G1 X130.664 Y5.525 Z0.000 F1200
G1 X130.342 Y5.774 Z0.000 F1200
G1 X130.054 Y6.043 Z0.000 F1200
G1 X129.803 Y6.332 Z0.000 F1200
G1 X129.593 Y6.638 Z0.000 F1200
G1 X129.425 Y6.959 Z0.000 F1200
G1 Z7 F800;         ; Raise from color - controlled movement
G1 X123.200 Y8.000 Z1.000 F1200
G1 X113.200 Y18.000 Z8.000 F500
G1 F1200;           ; Set feed rate to 1000
G0 Z3.5 F1000
G0 X85.245 Y49.898 Z3.500
G1 Z0 F1000
;Layer Red
G1 X85.261 Y49.902 Z0.000 F1600
G1 X85.299 Y49.913 Z0.000 F1600
G1 X85.310 Y49.917 Z0.000 F1600
; --- FIX X Backlash: 0.800mm ---
G0 X86.110 Y49.917 F200
G1 X86.764 Y50.256 Z0.000 F1600
G1 X86.936 Y50.995 Z0.000 F1600
G1 X87.231 Y51.589 Z0.000 F1600
; --- FIX X Backlash: -0.800mm ---
G0 X86.431 Y51.589 F200
; --- FIX Y Backlash: -0.900mm ---
G0 X86.431 Y50.689 F200
G1 X85.973 Y50.454 Z0.000 F1600
G1 X84.301 Y50.486 Z0.000 F1600
G1 X84.184 Y50.535 Z0.000 F1600
; --- FIX X Backlash: 0.800mm ---
G0 X84.984 Y50.535 F200
G1 X85.247 Y49.611 Z0.000 F1600
G1 X85.275 Y49.040 Z0.000 F1600
G1 X85.516 Y49.014 Z0.000 F1600
G1 X85.674 Y48.972 Z0.000 F1600
G1 X85.745 Y48.972 Z0.000 F1600
G1 X86.045 Y48.998 Z0.000 F1600
G0 Z3.5 F1000
; --- FIX Y Backlash: 0.900mm ---
G0 X86.045 Y49.898 F200
G0 X87.624 Y49.982 Z3.500
G1 Z0 F1000
G1 X87.789 Y50.688 Z0.000 F1600
G1 X88.172 Y51.460 Z0.000 F1600
G1 X88.948 Y52.233 Z0.000 F1600
G1 X89.886 Y52.693 Z0.000 F1600
G1 X90.987 Y52.893 Z0.000 F1600
G1 X91.667 Y52.887 Z0.000 F1600
G1 X92.131 Y52.887 Z0.000 F1600
G1 X92.879 Y52.863 Z0.000 F1600
; --- FIX Y Backlash: -0.900mm ---
G0 X92.879 Y51.963 F200
G1 X93.657 Y51.787 Z0.000 F1600
G1 X93.704 Y51.764 Z0.000 F1600
; --- FIX Y Backlash: 0.900mm ---
G0 X93.704 Y52.664 F200
G1 X93.794 Y52.719 Z0.000 F1600
G1 X94.464 Y52.860 Z0.000 F1600
G1 X94.464 Y53.038 Z0.000 F1600
G1 X94.455 Y53.821 Z0.000 F1600
G1 X94.426 Y55.496 Z0.000 F1600
G1 X94.452 Y57.123 Z0.000 F1600
G1 X94.449 Y58.507 Z0.000 F1600
G1 X94.452 Y59.196 Z0.000 F1600
; --- FIX X Backlash: -0.800mm ---
G0 X93.652 Y59.196 F200
G1 X92.898 Y60.073 Z0.000 F1600
; --- FIX Y Backlash: -0.900mm ---
G0 X92.898 Y59.173 F200
G1 X92.855 Y59.098 Z0.000 F1600
G1 X92.849 Y58.952 Z0.000 F1600
G1 X92.543 Y58.071 Z0.000 F1600
G1 X92.510 Y58.027 Z0.000 F1600
; --- FIX X Backlash: 0.800mm ---
G0 X93.310 Y58.027 F200
G1 X93.423 Y57.855 Z0.000 F1600
G1 X93.660 Y57.392 Z0.000 F1600
G1 X93.906 Y56.727 Z0.000 F1600
G1 X94.378 Y54.928 Z0.000 F1600
; --- FIX X Backlash: -0.800mm ---
G0 X93.578 Y54.928 F200
G1 X92.176 Y53.126 Z0.000 F1600
G1 X90.579 Y52.529 Z0.000 F1600
; --- FIX Y Backlash: 0.900mm ---
G0 X90.579 Y53.429 F200
G1 X89.170 Y53.746 Z0.000 F1600
G1 X88.301 Y54.326 Z0.000 F1600
G1 X87.926 Y54.770 Z0.000 F1600
; --- FIX Y Backlash: -0.900mm ---
G0 X87.926 Y53.870 F200
G1 X87.871 Y53.346 Z0.000 F1600
G1 X87.159 Y52.072 Z0.000 F1600
G1 X85.764 Y51.359 Z0.000 F1600
G1 X84.491 Y51.382 Z0.000 F1600
; --- FIX Y Backlash: 0.900mm ---
G0 X84.491 Y52.282 F200
G1 X83.960 Y52.505 Z0.000 F1600
G1 X83.137 Y52.685 Z0.000 F1600
G1 X82.844 Y52.834 Z0.000 F1600
; --- FIX X Backlash: 0.800mm ---
G0 X83.644 Y52.834 F200
; --- FIX Y Backlash: -0.900mm ---
G0 X83.644 Y51.934 F200
G1 X83.738 Y51.321 Z0.000 F1600
G1 X83.717 Y50.936 Z0.000 F1600
G1 X84.099 Y50.358 Z0.000 F1600
G1 X84.353 Y49.463 Z0.000 F1600
G1 X84.391 Y48.698 Z0.000 F1600
; --- FIX X Backlash: -0.800mm ---
G0 X83.591 Y48.698 F200
G1 X83.526 Y48.195 Z0.000 F1600
; --- FIX X Backlash: 0.800mm ---
G0 X84.326 Y48.195 F200
G1 X84.679 Y48.199 Z0.000 F1600
G1 X85.351 Y48.126 Z0.000 F1600
G1 X85.546 Y48.074 Z0.000 F1600
G1 X85.777 Y48.068 Z0.000 F1600
G1 X86.182 Y48.107 Z0.000 F1600
G1 X86.278 Y48.127 Z0.000 F1600
G1 X86.393 Y48.162 Z0.000 F1600
G1 X86.485 Y48.198 Z0.000 F1600
; --- FIX Y Backlash: 0.900mm ---
G0 X86.485 Y49.098 F200
G1 X87.227 Y49.482 Z0.000 F1600
G1 X87.621 Y49.494 Z0.000 F1600
G1 X87.624 Y49.982 Z0.000 F1600
G0 Z3.5 F1000
; --- FIX X Backlash: -0.800mm ---
G0 X86.824 Y49.982 F200
G0 X81.334 Y57.694 Z3.500
G1 Z0 F1000
G1 X81.093 Y57.779 Z0.000 F1600
G1 X80.578 Y58.080 Z0.000 F1600
G1 X80.164 Y58.407 Z0.000 F1600
G1 X79.863 Y58.721 Z0.000 F1600
G1 X79.688 Y58.731 Z0.000 F1600
G1 X79.092 Y58.912 Z0.000 F1600
; --- FIX X Backlash: 0.800mm ---
G0 X79.892 Y58.912 F200
; --- FIX Y Backlash: -0.900mm ---
G0 X79.892 Y58.012 F200
G1 X80.030 Y57.758 Z0.000 F1600
G1 X80.473 Y56.456 Z0.000 F1600
; --- FIX X Backlash: -0.800mm ---
G0 X79.673 Y56.456 F200
G1 X79.226 Y55.307 Z0.000 F1600
G1 X79.273 Y55.283 Z0.000 F1600
; --- FIX X Backlash: 0.800mm ---
G0 X80.073 Y55.283 F200
G1 X80.534 Y55.234 Z0.000 F1600
G1 X81.243 Y55.033 Z0.000 F1600
G1 X81.725 Y54.778 Z0.000 F1600
; --- FIX Y Backlash: 0.900mm ---
G0 X81.725 Y55.678 F200
G1 X81.714 Y55.731 Z0.000 F1600
G1 X81.701 Y56.351 Z0.000 F1600
G1 X81.837 Y57.119 Z0.000 F1600
G1 X82.134 Y57.694 Z0.000 F1600
G0 Z3.5 F1000
G0 X82.761 Y58.428 Z3.500
G1 Z0 F1000
; --- FIX X Backlash: -0.800mm ---
G0 X81.961 Y58.428 F200
G1 X81.473 Y58.599 Z0.000 F1600
G1 X81.087 Y58.825 Z0.000 F1600
G1 X80.771 Y59.075 Z0.000 F1600
G1 X80.416 Y59.446 Z0.000 F1600
G1 X80.289 Y59.599 Z0.000 F1600
G1 X79.846 Y59.624 Z0.000 F1600
G1 X79.295 Y59.791 Z0.000 F1600
G1 X78.712 Y60.180 Z0.000 F1600
G1 X78.305 Y60.647 Z0.000 F1600
G1 X78.088 Y61.016 Z0.000 F1600
G1 X77.879 Y60.970 Z0.000 F1600
; --- FIX Y Backlash: -0.900mm ---
G0 X77.879 Y60.070 F200
G1 X77.408 Y60.017 Z0.000 F1600
G1 X77.050 Y59.992 Z0.000 F1600
G1 X76.777 Y59.969 Z0.000 F1600
G1 X76.756 Y59.950 Z0.000 F1600
G1 X76.642 Y59.815 Z0.000 F1600
G1 X76.558 Y59.698 Z0.000 F1600
G1 X76.356 Y59.331 Z0.000 F1600
G1 X76.247 Y59.045 Z0.000 F1600
G1 X76.250 Y59.045 Z0.000 F1600
; --- FIX X Backlash: 0.800mm ---
G0 X77.050 Y59.045 F200
G1 X77.721 Y58.848 Z0.000 F1600
G1 X78.339 Y58.490 Z0.000 F1600
G1 X78.702 Y58.158 Z0.000 F1600
G1 X78.982 Y57.804 Z0.000 F1600
G1 X79.202 Y57.397 Z0.000 F1600
G1 X79.516 Y56.476 Z0.000 F1600
; --- FIX X Backlash: -0.800mm ---
G0 X78.716 Y56.476 F200
G1 X78.155 Y55.035 Z0.000 F1600
G1 X78.123 Y54.943 Z0.000 F1600
; --- FIX X Backlash: 0.800mm ---
G0 X78.923 Y54.943 F200
G1 X79.344 Y54.672 Z0.000 F1600
G1 X79.459 Y54.553 Z0.000 F1600
G1 X79.589 Y54.519 Z0.000 F1600
G1 X79.825 Y54.401 Z0.000 F1600
G1 X79.853 Y54.401 Z0.000 F1600
G1 X80.362 Y54.347 Z0.000 F1600
G1 X80.906 Y54.193 Z0.000 F1600
G1 X81.481 Y53.888 Z0.000 F1600
G1 X82.026 Y53.370 Z0.000 F1600
G1 X82.406 Y52.642 Z0.000 F1600
G1 X82.417 Y52.562 Z0.000 F1600
G1 X82.454 Y52.514 Z0.000 F1600
G1 X82.749 Y51.830 Z0.000 F1600
G1 X82.834 Y51.276 Z0.000 F1600
G1 X82.805 Y50.732 Z0.000 F1600
G1 X82.789 Y50.680 Z0.000 F1600
G1 X82.825 Y50.654 Z0.000 F1600
G1 X83.271 Y49.978 Z0.000 F1600
G1 X83.459 Y49.316 Z0.000 F1600
G1 X83.488 Y48.733 Z0.000 F1600
; --- FIX X Backlash: -0.800mm ---
G0 X82.688 Y48.733 F200
G1 X82.621 Y48.214 Z0.000 F1600
G1 X82.485 Y47.743 Z0.000 F1600
G1 X82.283 Y47.292 Z0.000 F1600
G1 X82.185 Y47.146 Z0.000 F1600
; --- FIX X Backlash: 0.800mm ---
G0 X82.985 Y47.146 F200
G1 X83.108 Y47.159 Z0.000 F1600
; --- FIX Y Backlash: 0.900mm ---
G0 X83.108 Y48.059 F200
G1 X83.721 Y48.151 Z0.000 F1600
G1 X84.147 Y48.192 Z0.000 F1600
G1 X84.636 Y48.199 Z0.000 F1600
; --- FIX Y Backlash: -0.900mm ---
G0 X84.636 Y47.299 F200
G1 X85.185 Y47.239 Z0.000 F1600
G1 X85.417 Y47.177 Z0.000 F1600
G1 X85.810 Y47.167 Z0.000 F1600
G1 X86.314 Y47.216 Z0.000 F1600
G1 X86.496 Y47.254 Z0.000 F1600
; --- FIX Y Backlash: 0.900mm ---
G0 X86.496 Y48.154 F200
G1 X86.688 Y48.210 Z0.000 F1600
G1 X86.858 Y48.278 Z0.000 F1600
G1 X87.458 Y48.589 Z0.000 F1600
G1 X88.656 Y48.624 Z0.000 F1600
; --- FIX X Backlash: -0.800mm ---
G0 X87.856 Y48.624 F200
G1 X87.720 Y49.386 Z0.000 F1600
G1 X87.723 Y49.875 Z0.000 F1600
; --- FIX X Backlash: 0.800mm ---
G0 X88.523 Y49.875 F200
G1 X88.641 Y50.382 Z0.000 F1600
G1 X88.913 Y50.927 Z0.000 F1600
G1 X89.478 Y51.491 Z0.000 F1600
G1 X90.169 Y51.830 Z0.000 F1600
G1 X91.064 Y51.992 Z0.000 F1600
G1 X91.685 Y51.986 Z0.000 F1600
G1 X92.118 Y51.986 Z0.000 F1600
G1 X92.763 Y51.967 Z0.000 F1600
; --- FIX Y Backlash: -0.900mm ---
G0 X92.763 Y51.067 F200
G1 X93.349 Y50.934 Z0.000 F1600
G1 X93.744 Y50.733 Z0.000 F1600
; --- FIX Y Backlash: 0.900mm ---
G0 X93.744 Y51.633 F200
G1 X94.131 Y51.871 Z0.000 F1600
G1 X95.049 Y52.063 Z0.000 F1600
; --- FIX Y Backlash: -0.900mm ---
G0 X95.049 Y51.163 F200
G1 X95.349 Y51.109 Z0.000 F1600
; --- FIX Y Backlash: 0.900mm ---
G0 X95.349 Y52.009 F200
G1 X95.360 Y52.288 Z0.000 F1600
G1 X95.365 Y53.043 Z0.000 F1600
G1 X95.355 Y53.836 Z0.000 F1600
G1 X95.326 Y55.497 Z0.000 F1600
G1 X95.352 Y57.154 Z0.000 F1600
G1 X95.349 Y58.506 Z0.000 F1600
G1 X95.355 Y59.859 Z0.000 F1600
G1 X95.350 Y60.180 Z0.000 F1600
; --- FIX X Backlash: -0.800mm ---
G0 X94.550 Y60.180 F200
; --- FIX Y Backlash: -0.900mm ---
G0 X94.550 Y59.280 F200
G1 X94.248 Y58.982 Z0.000 F1600
; --- FIX Y Backlash: 0.900mm ---
G0 X94.248 Y59.882 F200
G1 X92.707 Y61.676 Z0.000 F1600
G1 X92.441 Y62.142 Z0.000 F1600
G1 X92.245 Y62.560 Z0.000 F1600
G1 X92.184 Y62.567 Z0.000 F1600
G1 X92.177 Y62.552 Z0.000 F1600
; --- FIX X Backlash: 0.800mm ---
G0 X92.977 Y62.552 F200
; --- FIX Y Backlash: -0.900mm ---
G0 X92.977 Y61.652 F200
G1 X93.230 Y60.970 Z0.000 F1600
G1 X93.192 Y60.108 Z0.000 F1600
; --- FIX X Backlash: -0.800mm ---
G0 X92.392 Y60.108 F200
G1 X91.987 Y59.391 Z0.000 F1600
G1 X91.966 Y59.370 Z0.000 F1600
G1 X91.955 Y59.122 Z0.000 F1600
G1 X91.740 Y58.501 Z0.000 F1600
G1 X91.374 Y58.020 Z0.000 F1600
; --- FIX X Backlash: 0.800mm ---
G0 X92.174 Y58.020 F200
G1 X92.406 Y57.761 Z0.000 F1600
G1 X92.645 Y57.400 Z0.000 F1600
G1 X92.834 Y57.030 Z0.000 F1600
G1 X93.046 Y56.456 Z0.000 F1600
G1 X93.395 Y55.129 Z0.000 F1600
; --- FIX X Backlash: -0.800mm ---
G0 X92.595 Y55.129 F200
G1 X91.622 Y53.880 Z0.000 F1600
G1 X90.515 Y53.466 Z0.000 F1600
; --- FIX Y Backlash: 0.900mm ---
G0 X90.515 Y54.366 F200
G1 X89.531 Y54.587 Z0.000 F1600
G1 X88.907 Y55.004 Z0.000 F1600
G1 X88.491 Y55.496 Z0.000 F1600
G1 X88.244 Y55.661 Z0.000 F1600
G1 X87.777 Y56.261 Z0.000 F1600
G1 X87.575 Y57.147 Z0.000 F1600
; --- FIX X Backlash: 0.800mm ---
G0 X88.375 Y57.147 F200
G1 X88.509 Y57.899 Z0.000 F1600
G1 X88.765 Y58.449 Z0.000 F1600
G1 X89.118 Y58.916 Z0.000 F1600
G1 X89.193 Y58.978 Z0.000 F1600
; --- FIX X Backlash: -0.800mm ---
G0 X88.393 Y58.978 F200
; --- FIX Y Backlash: -0.900mm ---
G0 X88.393 Y58.078 F200
G1 X87.691 Y57.985 Z0.000 F1600
; --- FIX Y Backlash: 0.900mm ---
G0 X87.691 Y58.885 F200
G1 X86.835 Y59.972 Z0.000 F1600
G1 X86.596 Y60.564 Z0.000 F1600
G1 X86.559 Y61.209 Z0.000 F1600
; --- FIX X Backlash: 0.800mm ---
G0 X87.359 Y61.209 F200
G1 X87.505 Y61.800 Z0.000 F1600
G1 X87.656 Y62.059 Z0.000 F1600
; --- FIX X Backlash: -0.800mm ---
G0 X86.856 Y62.059 F200
G1 X86.738 Y62.542 Z0.000 F1600
; --- FIX Y Backlash: -0.900mm ---
G0 X86.738 Y61.642 F200
G1 X86.721 Y61.363 Z0.000 F1600
G1 X86.600 Y60.843 Z0.000 F1600
G1 X86.466 Y60.450 Z0.000 F1600
G1 X86.359 Y60.171 Z0.000 F1600
G1 X86.298 Y59.997 Z0.000 F1600
G1 X86.293 Y59.975 Z0.000 F1600
; --- FIX X Backlash: 0.800mm ---
G0 X87.093 Y59.975 F200
G1 X87.155 Y59.532 Z0.000 F1600
; --- FIX X Backlash: -0.800mm ---
G0 X86.355 Y59.532 F200
G1 X86.168 Y58.814 Z0.000 F1600
G1 X85.847 Y58.264 Z0.000 F1600
G1 X85.385 Y57.840 Z0.000 F1600
G1 X85.252 Y57.771 Z0.000 F1600
; --- FIX X Backlash: 0.800mm ---
G0 X86.052 Y57.771 F200
G1 X86.939 Y57.208 Z0.000 F1600
G1 X87.415 Y56.596 Z0.000 F1600
G1 X87.653 Y56.010 Z0.000 F1600
G1 X87.759 Y55.508 Z0.000 F1600
G1 X87.807 Y54.922 Z0.000 F1600
G1 X87.865 Y54.293 Z0.000 F1600
; --- FIX X Backlash: -0.800mm ---
G0 X87.065 Y54.293 F200
G1 X86.995 Y53.623 Z0.000 F1600
G1 X86.507 Y52.749 Z0.000 F1600
G1 X85.555 Y52.263 Z0.000 F1600
G1 X84.680 Y52.279 Z0.000 F1600
; --- FIX Y Backlash: 0.900mm ---
G0 X84.680 Y53.179 F200
G1 X84.197 Y53.382 Z0.000 F1600
G1 X84.155 Y53.382 Z0.000 F1600
G1 X83.442 Y53.539 Z0.000 F1600
G1 X82.867 Y53.833 Z0.000 F1600
G1 X82.347 Y54.315 Z0.000 F1600
G1 X81.989 Y54.988 Z0.000 F1600
G1 X81.935 Y55.309 Z0.000 F1600
G1 X81.895 Y55.417 Z0.000 F1600
G1 X81.812 Y55.831 Z0.000 F1600
G1 X81.803 Y56.281 Z0.000 F1600
; --- FIX X Backlash: 0.800mm ---
G0 X82.603 Y56.281 F200
G1 X82.699 Y56.827 Z0.000 F1600
G1 X83.057 Y57.520 Z0.000 F1600
G1 X83.631 Y58.058 Z0.000 F1600
G1 X84.241 Y58.354 Z0.000 F1600
; --- FIX X Backlash: -0.800mm ---
G0 X83.441 Y58.354 F200
G1 X82.931 Y58.408 Z0.000 F1600
G1 X82.876 Y58.408 Z0.000 F1600
G1 X82.550 Y58.359 Z0.000 F1600
G1 X81.961 Y58.428 Z0.000 F1600
G0 Z3.5 F1000
; --- FIX X Backlash: 0.800mm ---
G0 X82.761 Y58.428 F200
; --- FIX Y Backlash: -0.900mm ---
G0 X82.761 Y57.528 F200
G0 X90.211 Y56.291 Z3.500
G1 Z0 F1000
; --- FIX Y Backlash: 0.900mm ---
G0 X90.211 Y57.191 F200
G1 X90.240 Y57.352 Z0.000 F1600
G1 X90.316 Y57.516 Z0.000 F1600
G1 X90.426 Y57.662 Z0.000 F1600
G1 X90.557 Y57.770 Z0.000 F1600
G1 X90.695 Y57.820 Z0.000 F1600
; --- FIX Y Backlash: -0.900mm ---
G0 X90.695 Y56.920 F200
G1 X90.847 Y56.803 Z0.000 F1600
G1 X90.978 Y56.658 Z0.000 F1600
G1 X91.089 Y56.490 Z0.000 F1600
G1 X91.183 Y56.306 Z0.000 F1600
G1 X91.328 Y55.914 Z0.000 F1600
G1 X91.428 Y55.533 Z0.000 F1600
; --- FIX X Backlash: -0.800mm ---
G0 X90.628 Y55.533 F200
G1 X90.514 Y55.388 Z0.000 F1600
G1 X90.387 Y55.340 Z0.000 F1600
G1 X90.252 Y55.370 Z0.000 F1600
; --- FIX Y Backlash: 0.900mm ---
G0 X90.252 Y56.270 F200
G1 X90.118 Y56.359 Z0.000 F1600
G1 X89.883 Y56.638 Z0.000 F1600
G1 X89.742 Y56.919 Z0.000 F1600
G1 X89.634 Y56.928 Z0.000 F1600
G1 X89.549 Y56.955 Z0.000 F1600
G1 X89.486 Y56.997 Z0.000 F1600
G1 X89.443 Y57.052 Z0.000 F1600
G1 X89.411 Y57.191 Z0.000 F1600
G0 Z3.5 F1000
G0 X88.972 Y58.289 Z3.500
G1 Z0 F1000
; --- FIX X Backlash: 0.800mm ---
G0 X89.772 Y58.289 F200
G1 X90.104 Y58.563 Z0.000 F1600
G1 X90.852 Y58.834 Z0.000 F1600
; --- FIX Y Backlash: -0.900mm ---
G0 X90.852 Y57.934 F200
G1 X91.462 Y57.466 Z0.000 F1600
G1 X91.691 Y57.209 Z0.000 F1600
G1 X91.867 Y56.945 Z0.000 F1600
G1 X92.009 Y56.668 Z0.000 F1600
G1 X92.187 Y56.185 Z0.000 F1600
G1 X92.411 Y55.331 Z0.000 F1600
; --- FIX X Backlash: -0.800mm ---
G0 X91.611 Y55.331 F200
G1 X91.068 Y54.634 Z0.000 F1600
G1 X90.451 Y54.403 Z0.000 F1600
; --- FIX Y Backlash: 0.900mm ---
G0 X90.451 Y55.303 F200
G1 X89.891 Y55.429 Z0.000 F1600
G1 X89.512 Y55.682 Z0.000 F1600
G1 X89.126 Y56.139 Z0.000 F1600
G1 X89.115 Y56.162 Z0.000 F1600
G1 X88.865 Y56.329 Z0.000 F1600
G1 X88.610 Y56.657 Z0.000 F1600
G1 X88.493 Y57.169 Z0.000 F1600
; --- FIX X Backlash: 0.800mm ---
G0 X89.293 Y57.169 F200
G1 X89.375 Y57.626 Z0.000 F1600
G1 X89.541 Y57.982 Z0.000 F1600
G1 X89.772 Y58.289 Z0.000 F1600
G0 Z3.5 F1000
; --- FIX X Backlash: -0.800mm ---
G0 X88.972 Y58.289 F200
; --- FIX Y Backlash: -0.900mm ---
G0 X88.972 Y57.389 F200
G0 X85.041 Y55.687 Z3.500
G1 Z0 F1000
; --- FIX X Backlash: 0.800mm ---
G0 X85.841 Y55.687 F200
G1 X85.925 Y55.480 Z0.000 F1600
G1 X85.974 Y55.248 Z0.000 F1600
G1 X86.015 Y54.755 Z0.000 F1600
G1 X86.057 Y54.304 Z0.000 F1600
G1 X86.043 Y54.179 Z0.000 F1600
G1 X86.001 Y54.103 Z0.000 F1600
; --- FIX X Backlash: -0.800mm ---
G0 X85.201 Y54.103 F200
G1 X85.138 Y54.071 Z0.000 F1600
G1 X85.059 Y54.071 Z0.000 F1600
; --- FIX Y Backlash: 0.900mm ---
G0 X85.059 Y54.971 F200
G1 X84.885 Y55.045 Z0.000 F1600
G1 X84.732 Y55.159 Z0.000 F1600
G1 X84.390 Y55.175 Z0.000 F1600
G1 X84.054 Y55.248 Z0.000 F1600
G1 X83.909 Y55.322 Z0.000 F1600
G1 X83.794 Y55.429 Z0.000 F1600
G1 X83.715 Y55.577 Z0.000 F1600
G1 X83.682 Y55.771 Z0.000 F1600
G1 X83.633 Y55.906 Z0.000 F1600
G1 X83.608 Y56.029 Z0.000 F1600
G1 X83.608 Y56.142 Z0.000 F1600
G1 X83.624 Y56.243 Z0.000 F1600
; --- FIX X Backlash: 0.800mm ---
G0 X84.424 Y56.243 F200
G1 X84.514 Y56.418 Z0.000 F1600
G1 X84.663 Y56.558 Z0.000 F1600
G1 X85.071 Y56.755 Z0.000 F1600
G1 X85.520 Y56.877 Z0.000 F1600
; --- FIX Y Backlash: -0.900mm ---
G0 X85.520 Y55.977 F200
G1 X85.709 Y55.857 Z0.000 F1600
G1 X85.841 Y55.687 Z0.000 F1600
G0 Z3.5 F1000
G0 X86.961 Y54.299 Z3.500
G1 Z0 F1000
G1 X86.919 Y53.901 Z0.000 F1600
; --- FIX X Backlash: -0.800mm ---
G0 X86.119 Y53.901 F200
G1 X85.854 Y53.426 Z0.000 F1600
G1 X85.346 Y53.167 Z0.000 F1600
G1 X84.869 Y53.176 Z0.000 F1600
; --- FIX Y Backlash: 0.900mm ---
G0 X84.869 Y54.076 F200
G1 X84.435 Y54.258 Z0.000 F1600
G1 X84.415 Y54.272 Z0.000 F1600
G1 X84.273 Y54.279 Z0.000 F1600
G1 X83.748 Y54.394 Z0.000 F1600
G1 X83.388 Y54.578 Z0.000 F1600
G1 X83.071 Y54.873 Z0.000 F1600
G1 X82.852 Y55.283 Z0.000 F1600
G1 X82.809 Y55.539 Z0.000 F1600
G1 X82.764 Y55.661 Z0.000 F1600
G1 X82.710 Y55.930 Z0.000 F1600
G1 X82.704 Y56.211 Z0.000 F1600
; --- FIX X Backlash: 0.800mm ---
G0 X83.504 Y56.211 F200
G1 X83.562 Y56.535 Z0.000 F1600
G1 X83.786 Y56.969 Z0.000 F1600
G1 X84.147 Y57.308 Z0.000 F1600
G1 X84.753 Y57.602 Z0.000 F1600
G1 X85.667 Y57.850 Z0.000 F1600
; --- FIX Y Backlash: -0.900mm ---
G0 X85.667 Y56.950 F200
G1 X86.325 Y56.533 Z0.000 F1600
G1 X86.627 Y56.142 Z0.000 F1600
G1 X86.790 Y55.745 Z0.000 F1600
G1 X86.867 Y55.378 Z0.000 F1600
G1 X86.911 Y54.838 Z0.000 F1600
G1 X86.961 Y54.299 Z0.000 F1600
G0 Z3.5 F1000
G0 X87.690 Y46.795 Z3.500
G1 Z0 F1000
G1 X88.678 Y46.825 Z0.000 F1600
G1 X89.498 Y46.810 Z0.000 F1600
G1 X89.932 Y46.776 Z0.000 F1600
G1 X90.365 Y46.719 Z0.000 F1600
G1 X90.801 Y46.631 Z0.000 F1600
G1 X91.497 Y46.433 Z0.000 F1600
G1 X91.650 Y46.223 Z0.000 F1600
G1 X92.134 Y46.261 Z0.000 F1600
G1 X92.703 Y46.226 Z0.000 F1600
G1 X93.121 Y46.131 Z0.000 F1600
G1 X93.491 Y45.969 Z0.000 F1600
G1 X93.782 Y45.804 Z0.000 F1600
G1 X94.009 Y45.667 Z0.000 F1600
G1 X94.171 Y45.581 Z0.000 F1600
G1 X94.249 Y45.554 Z0.000 F1600
; --- FIX Y Backlash: 0.900mm ---
G0 X94.249 Y46.454 F200
G1 X94.500 Y46.672 Z0.000 F1600
G1 X94.970 Y47.145 Z0.000 F1600
G1 X95.269 Y47.413 Z0.000 F1600
G1 X95.622 Y47.673 Z0.000 F1600
G1 X96.043 Y47.899 Z0.000 F1600
G1 X96.249 Y47.966 Z0.000 F1600
G1 X96.254 Y47.987 Z0.000 F1600
G1 X96.263 Y48.124 Z0.000 F1600
G1 X96.226 Y48.596 Z0.000 F1600
; --- FIX X Backlash: -0.800mm ---
G0 X95.426 Y48.596 F200
; --- FIX Y Backlash: -0.900mm ---
G0 X95.426 Y47.696 F200
G1 X95.325 Y47.635 Z0.000 F1600
G1 X95.042 Y47.448 Z0.000 F1600
G1 X94.656 Y47.070 Z0.000 F1600
G1 X94.228 Y46.899 Z0.000 F1600
G1 X93.894 Y46.829 Z0.000 F1600
G1 X93.572 Y46.815 Z0.000 F1600
G1 X93.252 Y46.847 Z0.000 F1600
; --- FIX Y Backlash: 0.900mm ---
G0 X93.252 Y47.747 F200
G1 X92.766 Y47.877 Z0.000 F1600
G1 X92.344 Y48.049 Z0.000 F1600
G1 X91.997 Y48.200 Z0.000 F1600
G1 X91.709 Y48.305 Z0.000 F1600
G1 X91.624 Y48.325 Z0.000 F1600
G1 X91.544 Y48.335 Z0.000 F1600
G1 X91.487 Y48.335 Z0.000 F1600
G1 X91.290 Y48.302 Z0.000 F1600
G1 X90.844 Y48.302 Z0.000 F1600
; --- FIX Y Backlash: -0.900mm ---
G0 X90.844 Y47.402 F200
G1 X90.390 Y47.349 Z0.000 F1600
G1 X90.049 Y47.337 Z0.000 F1600
; --- FIX Y Backlash: 0.900mm ---
G0 X90.049 Y48.237 F200
G1 X89.638 Y48.292 Z0.000 F1600
G1 X89.180 Y48.492 Z0.000 F1600
G1 X88.710 Y48.963 Z0.000 F1600
G1 X88.620 Y49.462 Z0.000 F1600
G1 X88.620 Y49.769 Z0.000 F1600
; --- FIX X Backlash: 0.800mm ---
G0 X89.420 Y49.769 F200
G1 X89.494 Y50.075 Z0.000 F1600
G1 X89.652 Y50.394 Z0.000 F1600
G1 X90.008 Y50.748 Z0.000 F1600
G1 X90.453 Y50.966 Z0.000 F1600
G1 X91.142 Y51.091 Z0.000 F1600
G1 X91.682 Y51.086 Z0.000 F1600
G1 X92.104 Y51.086 Z0.000 F1600
G1 X92.648 Y51.070 Z0.000 F1600
; --- FIX Y Backlash: -0.900mm ---
G0 X92.648 Y50.170 F200
G1 X93.041 Y50.081 Z0.000 F1600
G1 X93.457 Y49.869 Z0.000 F1600
G1 X93.718 Y49.584 Z0.000 F1600
G1 X93.733 Y49.597 Z0.000 F1600
; --- FIX Y Backlash: 0.900mm ---
G0 X93.733 Y50.497 F200
G1 X94.028 Y50.751 Z0.000 F1600
G1 X94.469 Y51.021 Z0.000 F1600
G1 X95.062 Y51.146 Z0.000 F1600
; --- FIX Y Backlash: -0.900mm ---
G0 X95.062 Y50.246 F200
G1 X95.578 Y50.153 Z0.000 F1600
G1 X95.978 Y50.089 Z0.000 F1600
G1 X96.185 Y50.037 Z0.000 F1600
; --- FIX Y Backlash: 0.900mm ---
G0 X96.185 Y50.937 F200
G1 X96.229 Y51.479 Z0.000 F1600
G1 X96.259 Y52.264 Z0.000 F1600
G1 X96.265 Y53.042 Z0.000 F1600
G1 X96.255 Y53.852 Z0.000 F1600
G1 X96.227 Y55.498 Z0.000 F1600
G1 X96.252 Y57.141 Z0.000 F1600
G1 X96.249 Y58.505 Z0.000 F1600
G1 X96.255 Y59.872 Z0.000 F1600
G1 X96.235 Y61.229 Z0.000 F1600
; --- FIX X Backlash: -0.800mm ---
G0 X95.435 Y61.229 F200
G1 X95.382 Y62.134 Z0.000 F1600
G1 X95.313 Y62.199 Z0.000 F1600
G1 X95.299 Y62.182 Z0.000 F1600
; --- FIX Y Backlash: -0.900mm ---
G0 X95.299 Y61.282 F200
G1 X94.303 Y60.300 Z0.000 F1600
; --- FIX Y Backlash: 0.900mm ---
G0 X94.303 Y61.200 F200
G1 X93.446 Y62.197 Z0.000 F1600
G1 X93.240 Y62.557 Z0.000 F1600
G1 X92.974 Y63.126 Z0.000 F1600
G1 X92.875 Y63.300 Z0.000 F1600
G1 X92.793 Y63.399 Z0.000 F1600
G1 X92.740 Y63.409 Z0.000 F1600
G1 X92.211 Y63.470 Z0.000 F1600
G1 X91.735 Y63.459 Z0.000 F1600
G1 X91.645 Y63.437 Z0.000 F1600
G1 X91.584 Y63.404 Z0.000 F1600
G1 X91.575 Y63.390 Z0.000 F1600
; --- FIX Y Backlash: -0.900mm ---
G0 X91.575 Y62.490 F200
G1 X91.521 Y62.356 Z0.000 F1600
G1 X91.284 Y61.876 Z0.000 F1600
G1 X91.103 Y61.522 Z0.000 F1600
; --- FIX X Backlash: 0.800mm ---
G0 X91.903 Y61.522 F200
G1 X91.959 Y61.479 Z0.000 F1600
G1 X92.181 Y61.212 Z0.000 F1600
G1 X92.323 Y60.828 Z0.000 F1600
G1 X92.303 Y60.363 Z0.000 F1600
; --- FIX X Backlash: -0.800mm ---
G0 X91.503 Y60.363 F200
G1 X91.263 Y59.939 Z0.000 F1600
G1 X91.062 Y59.737 Z0.000 F1600
G1 X91.078 Y59.677 Z0.000 F1600
G1 X91.062 Y59.293 Z0.000 F1600
G1 X90.936 Y58.932 Z0.000 F1600
G1 X90.689 Y58.606 Z0.000 F1600
G1 X90.294 Y58.362 Z0.000 F1600
G1 X89.781 Y58.307 Z0.000 F1600
; --- FIX Y Backlash: 0.900mm ---
G0 X89.781 Y59.207 F200
G1 X89.314 Y59.389 Z0.000 F1600
G1 X89.092 Y59.601 Z0.000 F1600
G1 X88.881 Y59.793 Z0.000 F1600
G1 X88.708 Y59.911 Z0.000 F1600
G1 X88.688 Y59.920 Z0.000 F1600
G1 X88.678 Y59.923 Z0.000 F1600
; --- FIX Y Backlash: -0.900mm ---
G0 X88.678 Y59.023 F200
G1 X88.081 Y58.944 Z0.000 F1600
; --- FIX Y Backlash: 0.900mm ---
G0 X88.081 Y59.844 F200
G1 X87.621 Y60.428 Z0.000 F1600
G1 X87.486 Y60.763 Z0.000 F1600
G1 X87.466 Y61.125 Z0.000 F1600
; --- FIX X Backlash: 0.800mm ---
G0 X88.266 Y61.125 F200
G1 X88.348 Y61.459 Z0.000 F1600
G1 X88.541 Y61.789 Z0.000 F1600
G1 X88.675 Y61.950 Z0.000 F1600
; --- FIX X Backlash: -0.800mm ---
G0 X87.875 Y61.950 F200
G1 X87.718 Y62.324 Z0.000 F1600
G1 X87.623 Y62.711 Z0.000 F1600
G1 X87.586 Y63.096 Z0.000 F1600
G1 X87.599 Y63.475 Z0.000 F1600
; --- FIX X Backlash: 0.800mm ---
G0 X88.399 Y63.475 F200
G1 X88.458 Y63.844 Z0.000 F1600
G1 X88.558 Y64.199 Z0.000 F1600
G1 X88.562 Y64.208 Z0.000 F1600
G1 X88.535 Y64.271 Z0.000 F1600
; --- FIX X Backlash: -0.800mm ---
G0 X87.735 Y64.271 F200
G1 X87.641 Y64.423 Z0.000 F1600
G1 X87.514 Y64.581 Z0.000 F1600
G1 X87.367 Y64.724 Z0.000 F1600
G1 X87.267 Y64.799 Z0.000 F1600
; --- FIX Y Backlash: -0.900mm ---
G0 X87.267 Y63.899 F200
G1 X87.020 Y63.732 Z0.000 F1600
G1 X86.643 Y63.482 Z0.000 F1600
G1 X86.493 Y63.399 Z0.000 F1600
G1 X86.407 Y63.232 Z0.000 F1600
G1 X86.087 Y62.803 Z0.000 F1600
G1 X85.708 Y62.444 Z0.000 F1600
; --- FIX X Backlash: 0.800mm ---
G0 X86.508 Y62.444 F200
G1 X86.675 Y62.295 Z0.000 F1600
G1 X86.627 Y61.493 Z0.000 F1600
; --- FIX X Backlash: -0.800mm ---
G0 X85.827 Y61.493 F200
G1 X85.734 Y61.092 Z0.000 F1600
G1 X85.619 Y60.757 Z0.000 F1600
G1 X85.509 Y60.467 Z0.000 F1600
G1 X85.436 Y60.259 Z0.000 F1600
G1 X85.394 Y60.088 Z0.000 F1600
G1 X85.385 Y59.968 Z0.000 F1600
; --- FIX X Backlash: 0.800mm ---
G0 X86.185 Y59.968 F200
G1 X86.239 Y59.585 Z0.000 F1600
; --- FIX X Backlash: -0.800mm ---
G0 X85.439 Y59.585 F200
G1 X85.328 Y59.161 Z0.000 F1600
G1 X85.138 Y58.835 Z0.000 F1600
G1 X84.866 Y58.585 Z0.000 F1600
G1 X84.542 Y58.418 Z0.000 F1600
G1 X84.071 Y58.329 Z0.000 F1600
G1 X83.642 Y58.337 Z0.000 F1600
; --- FIX Y Backlash: 0.900mm ---
G0 X83.642 Y59.237 F200
G1 X82.996 Y59.306 Z0.000 F1600
G1 X82.820 Y59.312 Z0.000 F1600
G1 X82.533 Y59.267 Z0.000 F1600
G1 X82.165 Y59.310 Z0.000 F1600
G1 X81.852 Y59.420 Z0.000 F1600
G1 X81.596 Y59.569 Z0.000 F1600
G1 X81.379 Y59.742 Z0.000 F1600
G1 X81.088 Y60.045 Z0.000 F1600
G1 X80.863 Y60.317 Z0.000 F1600
G1 X80.692 Y60.510 Z0.000 F1600
G1 X80.632 Y60.560 Z0.000 F1600
G1 X80.613 Y60.552 Z0.000 F1600
; --- FIX Y Backlash: -0.900mm ---
G0 X80.613 Y59.652 F200
G1 X80.314 Y59.599 Z0.000 F1600
G1 X80.005 Y59.616 Z0.000 F1600
; --- FIX Y Backlash: 0.900mm ---
G0 X80.005 Y60.516 F200
G1 X79.684 Y60.614 Z0.000 F1600
G1 X79.312 Y60.862 Z0.000 F1600
G1 X79.039 Y61.176 Z0.000 F1600
G1 X78.758 Y61.651 Z0.000 F1600
G1 X78.531 Y62.047 Z0.000 F1600
G1 X78.509 Y62.093 Z0.000 F1600
; --- FIX Y Backlash: -0.900mm ---
G0 X78.509 Y61.193 F200
G1 X78.178 Y61.058 Z0.000 F1600
G1 X77.731 Y60.958 Z0.000 F1600
G1 X77.326 Y60.913 Z0.000 F1600
G1 X76.966 Y60.888 Z0.000 F1600
G1 X76.673 Y60.864 Z0.000 F1600
G1 X76.433 Y60.826 Z0.000 F1600
G1 X76.350 Y60.801 Z0.000 F1600
G1 X76.264 Y60.730 Z0.000 F1600
G1 X76.095 Y60.562 Z0.000 F1600
G1 X75.931 Y60.369 Z0.000 F1600
G1 X75.797 Y60.181 Z0.000 F1600
G1 X75.538 Y59.711 Z0.000 F1600
G1 X75.171 Y58.746 Z0.000 F1600
G1 X74.403 Y58.515 Z0.000 F1600
; --- FIX Y Backlash: 0.900mm ---
G0 X74.403 Y59.415 F200
G1 X73.917 Y59.495 Z0.000 F1600
G1 X73.595 Y59.663 Z0.000 F1600
G1 X73.395 Y59.810 Z0.000 F1600
G1 X73.276 Y59.904 Z0.000 F1600
G1 X73.269 Y59.908 Z0.000 F1600
G1 X73.163 Y59.918 Z0.000 F1600
G1 X72.903 Y60.019 Z0.000 F1600
G1 X72.850 Y60.033 Z0.000 F1600
; --- FIX Y Backlash: -0.900mm ---
G0 X72.850 Y59.133 F200
G1 X72.804 Y59.049 Z0.000 F1600
; --- FIX X Backlash: 0.800mm ---
G0 X73.604 Y59.049 F200
G1 X73.704 Y59.021 Z0.000 F1600
G1 X74.045 Y58.867 Z0.000 F1600
G1 X74.370 Y58.647 Z0.000 F1600
G1 X74.658 Y58.353 Z0.000 F1600
G1 X74.884 Y57.985 Z0.000 F1600
G1 X74.928 Y57.846 Z0.000 F1600
; --- FIX Y Backlash: 0.900mm ---
G0 X74.928 Y58.746 F200
G1 X75.055 Y58.826 Z0.000 F1600
G1 X75.489 Y58.986 Z0.000 F1600
G1 X75.934 Y59.078 Z0.000 F1600
G1 X76.398 Y59.104 Z0.000 F1600
G1 X76.877 Y59.057 Z0.000 F1600
; --- FIX Y Backlash: -0.900mm ---
G0 X76.877 Y58.157 F200
G1 X77.364 Y58.014 Z0.000 F1600
G1 X77.804 Y57.760 Z0.000 F1600
G1 X78.041 Y57.543 Z0.000 F1600
G1 X78.227 Y57.307 Z0.000 F1600
G1 X78.375 Y57.035 Z0.000 F1600
G1 X78.558 Y56.496 Z0.000 F1600
; --- FIX X Backlash: -0.800mm ---
G0 X77.758 Y56.496 F200
G1 X77.311 Y55.348 Z0.000 F1600
G1 X76.981 Y54.414 Z0.000 F1600
; --- FIX X Backlash: 0.800mm ---
G0 X77.781 Y54.414 F200
G1 X78.092 Y54.333 Z0.000 F1600
G1 X78.431 Y54.189 Z0.000 F1600
G1 X78.769 Y53.972 Z0.000 F1600
G1 X78.988 Y53.744 Z0.000 F1600
G1 X79.271 Y53.671 Z0.000 F1600
G1 X79.627 Y53.493 Z0.000 F1600
G1 X79.822 Y53.500 Z0.000 F1600
G1 X80.190 Y53.460 Z0.000 F1600
G1 X80.569 Y53.353 Z0.000 F1600
G1 X80.951 Y53.151 Z0.000 F1600
G1 X81.298 Y52.821 Z0.000 F1600
G1 X81.536 Y52.363 Z0.000 F1600
G1 X81.558 Y52.206 Z0.000 F1600
G1 X81.670 Y52.058 Z0.000 F1600
G1 X81.877 Y51.579 Z0.000 F1600
G1 X81.931 Y51.231 Z0.000 F1600
G1 X81.912 Y50.887 Z0.000 F1600
; --- FIX X Backlash: -0.800mm ---
G0 X81.112 Y50.887 F200
G1 X81.009 Y50.540 Z0.000 F1600
G1 X80.962 Y50.458 Z0.000 F1600
G1 X80.943 Y50.320 Z0.000 F1600
; --- FIX X Backlash: 0.800mm ---
G0 X81.743 Y50.320 F200
G1 X82.166 Y50.018 Z0.000 F1600
G1 X82.443 Y49.598 Z0.000 F1600
G1 X82.565 Y49.168 Z0.000 F1600
G1 X82.585 Y48.769 Z0.000 F1600
G1 X82.538 Y48.398 Z0.000 F1600
; --- FIX X Backlash: -0.800mm ---
G0 X81.738 Y48.398 F200
G1 X81.638 Y48.054 Z0.000 F1600
G1 X81.492 Y47.730 Z0.000 F1600
G1 X81.228 Y47.334 Z0.000 F1600
G1 X80.753 Y47.052 Z0.000 F1600
G1 X80.331 Y46.955 Z0.000 F1600
G1 X79.994 Y46.950 Z0.000 F1600
G1 X79.597 Y46.979 Z0.000 F1600
G1 X79.590 Y46.979 Z0.000 F1600
G1 X79.455 Y46.886 Z0.000 F1600
G1 X79.034 Y46.751 Z0.000 F1600
G1 X78.827 Y46.740 Z0.000 F1600
; --- FIX X Backlash: 0.800mm ---
G0 X79.627 Y46.740 F200
G1 X79.712 Y46.596 Z0.000 F1600
G1 X79.865 Y46.220 Z0.000 F1600
G1 X79.943 Y46.204 Z0.000 F1600
G1 X80.211 Y46.089 Z0.000 F1600
G1 X80.442 Y45.963 Z0.000 F1600
; --- FIX Y Backlash: 0.900mm ---
G0 X80.442 Y46.863 F200
G1 X80.922 Y46.988 Z0.000 F1600
G1 X81.546 Y47.076 Z0.000 F1600
G1 X82.153 Y47.111 Z0.000 F1600
G1 X82.676 Y47.111 Z0.000 F1600
G1 X83.218 Y47.165 Z0.000 F1600
G1 X83.832 Y47.258 Z0.000 F1600
G1 X84.196 Y47.293 Z0.000 F1600
G1 X84.592 Y47.298 Z0.000 F1600
G1 X85.020 Y47.251 Z0.000 F1600
; --- FIX Y Backlash: -0.900mm ---
G0 X85.020 Y46.351 F200
G1 X85.288 Y46.280 Z0.000 F1600
G1 X85.842 Y46.267 Z0.000 F1600
; --- FIX Y Backlash: 0.900mm ---
G0 X85.842 Y47.167 F200
G1 X86.455 Y47.226 Z0.000 F1600
G1 X86.712 Y47.279 Z0.000 F1600
G1 X86.983 Y47.359 Z0.000 F1600
G1 X87.233 Y47.458 Z0.000 F1600
G1 X87.690 Y47.695 Z0.000 F1600
G0 Z3.5 F1000
G0 X90.497 Y49.249 Z3.500
G1 Z0 F1000
; --- FIX X Backlash: -0.800mm ---
G0 X89.697 Y49.249 F200
G1 X89.546 Y49.399 Z0.000 F1600
G1 X89.521 Y49.539 Z0.000 F1600
G1 X89.521 Y49.662 Z0.000 F1600
G1 X89.547 Y49.769 Z0.000 F1600
G1 X89.593 Y49.861 Z0.000 F1600
; --- FIX X Backlash: 0.800mm ---
G0 X90.393 Y49.861 F200
G1 X90.538 Y50.005 Z0.000 F1600
G1 X90.737 Y50.103 Z0.000 F1600
G1 X91.219 Y50.190 Z0.000 F1600
G1 X91.677 Y50.187 Z0.000 F1600
G1 X92.091 Y50.187 Z0.000 F1600
G1 X92.532 Y50.173 Z0.000 F1600
G1 X92.732 Y50.128 Z0.000 F1600
; --- FIX Y Backlash: -0.900mm ---
G0 X92.732 Y49.228 F200
G1 X92.903 Y49.141 Z0.000 F1600
G1 X93.033 Y48.999 Z0.000 F1600
G1 X93.108 Y48.790 Z0.000 F1600
G1 X93.250 Y48.643 Z0.000 F1600
G1 X93.385 Y48.547 Z0.000 F1600
G1 X93.514 Y48.496 Z0.000 F1600
G1 X93.638 Y48.485 Z0.000 F1600
; --- FIX Y Backlash: 0.900mm ---
G0 X93.638 Y49.385 F200
G1 X93.874 Y49.458 Z0.000 F1600
G1 X94.102 Y49.618 Z0.000 F1600
G1 X94.328 Y49.822 Z0.000 F1600
G1 X94.560 Y50.022 Z0.000 F1600
G1 X94.806 Y50.173 Z0.000 F1600
G1 X95.074 Y50.229 Z0.000 F1600
; --- FIX Y Backlash: -0.900mm ---
G0 X95.074 Y49.329 F200
G1 X95.424 Y49.266 Z0.000 F1600
G1 X95.796 Y49.207 Z0.000 F1600
G1 X95.972 Y49.162 Z0.000 F1600
G1 X96.132 Y49.098 Z0.000 F1600
G1 X96.267 Y49.007 Z0.000 F1600
G1 X96.372 Y48.882 Z0.000 F1600
; --- FIX X Backlash: -0.800mm ---
G0 X95.572 Y48.882 F200
G1 X95.231 Y48.628 Z0.000 F1600
G1 X94.849 Y48.399 Z0.000 F1600
G1 X94.474 Y48.151 Z0.000 F1600
G1 X94.155 Y47.839 Z0.000 F1600
G1 X93.967 Y47.764 Z0.000 F1600
G1 X93.781 Y47.725 Z0.000 F1600
G1 X93.596 Y47.717 Z0.000 F1600
G1 X93.414 Y47.735 Z0.000 F1600
; --- FIX Y Backlash: 0.900mm ---
G0 X93.414 Y48.635 F200
G1 X93.053 Y48.732 Z0.000 F1600
G1 X92.694 Y48.878 Z0.000 F1600
G1 X92.333 Y49.036 Z0.000 F1600
G1 X91.970 Y49.167 Z0.000 F1600
G1 X91.785 Y49.212 Z0.000 F1600
G1 X91.598 Y49.235 Z0.000 F1600
G1 X91.409 Y49.235 Z0.000 F1600
G1 X91.218 Y49.202 Z0.000 F1600
G1 X90.791 Y49.202 Z0.000 F1600
; --- FIX Y Backlash: -0.900mm ---
G0 X90.791 Y48.302 F200
G1 X90.322 Y48.247 Z0.000 F1600
G1 X90.094 Y48.239 Z0.000 F1600
G1 X89.882 Y48.267 Z0.000 F1600
; --- FIX Y Backlash: 0.900mm ---
G0 X89.882 Y49.167 F200
G1 X89.697 Y49.249 Z0.000 F1600
G0 Z3.5 F1000
G0 X79.769 Y53.172 Z3.500
G1 Z0 F1000
; --- FIX X Backlash: 0.800mm ---
G0 X80.569 Y53.172 F200
; --- FIX Y Backlash: -0.900mm ---
G0 X80.569 Y52.272 F200
G1 X80.666 Y52.085 Z0.000 F1600
G1 X80.699 Y51.850 Z0.000 F1600
G1 X80.887 Y51.601 Z0.000 F1600
G1 X81.005 Y51.328 Z0.000 F1600
G1 X81.027 Y51.186 Z0.000 F1600
G1 X81.019 Y51.042 Z0.000 F1600
G1 X80.976 Y50.897 Z0.000 F1600
; --- FIX X Backlash: -0.800mm ---
G0 X80.176 Y50.897 F200
G1 X80.094 Y50.754 Z0.000 F1600
G1 X80.042 Y50.371 Z0.000 F1600
G1 X80.035 Y49.951 Z0.000 F1600
G1 X80.079 Y49.766 Z0.000 F1600
; --- FIX X Backlash: 0.800mm ---
G0 X80.879 Y49.766 F200
G1 X80.970 Y49.620 Z0.000 F1600
G1 X81.119 Y49.527 Z0.000 F1600
G1 X81.339 Y49.503 Z0.000 F1600
G1 X81.507 Y49.383 Z0.000 F1600
G1 X81.616 Y49.218 Z0.000 F1600
G1 X81.672 Y49.021 Z0.000 F1600
G1 X81.683 Y48.805 Z0.000 F1600
G1 X81.654 Y48.581 Z0.000 F1600
; --- FIX X Backlash: -0.800mm ---
G0 X80.854 Y48.581 F200
G1 X80.791 Y48.365 Z0.000 F1600
G1 X80.702 Y48.168 Z0.000 F1600
G1 X80.593 Y48.003 Z0.000 F1600
G1 X80.414 Y47.897 Z0.000 F1600
G1 X80.222 Y47.853 Z0.000 F1600
G1 X80.020 Y47.850 Z0.000 F1600
G1 X79.611 Y47.881 Z0.000 F1600
G1 X79.412 Y47.872 Z0.000 F1600
G1 X79.225 Y47.820 Z0.000 F1600
G1 X79.054 Y47.703 Z0.000 F1600
G1 X78.869 Y47.643 Z0.000 F1600
G1 X78.651 Y47.631 Z0.000 F1600
G1 X78.196 Y47.655 Z0.000 F1600
G1 X77.999 Y47.643 Z0.000 F1600
G1 X77.850 Y47.585 Z0.000 F1600
G1 X77.801 Y47.530 Z0.000 F1600
G1 X77.770 Y47.455 Z0.000 F1600
G1 X77.762 Y47.356 Z0.000 F1600
G1 X77.778 Y47.231 Z0.000 F1600
G1 X77.751 Y47.032 Z0.000 F1600
G1 X77.774 Y46.850 Z0.000 F1600
; --- FIX X Backlash: 0.800mm ---
G0 X78.574 Y46.850 F200
G1 X78.632 Y46.679 Z0.000 F1600
G1 X78.715 Y46.516 Z0.000 F1600
G1 X78.903 Y46.196 Z0.000 F1600
G1 X79.041 Y45.857 Z0.000 F1600
G1 X79.019 Y45.609 Z0.000 F1600
G1 X79.006 Y45.404 Z0.000 F1600
G1 X79.029 Y45.335 Z0.000 F1600
G1 X79.087 Y45.300 Z0.000 F1600
G1 X79.191 Y45.304 Z0.000 F1600
; --- FIX Y Backlash: 0.900mm ---
G0 X79.191 Y46.204 F200
G1 X79.350 Y46.256 Z0.000 F1600
G1 X79.520 Y46.271 Z0.000 F1600
G1 X79.673 Y46.241 Z0.000 F1600
; --- FIX Y Backlash: -0.900mm ---
G0 X79.673 Y45.341 F200
G1 X79.817 Y45.279 Z0.000 F1600
G1 X80.097 Y45.126 Z0.000 F1600
G1 X80.244 Y45.069 Z0.000 F1600
G1 X80.403 Y45.044 Z0.000 F1600
G1 X80.581 Y45.069 Z0.000 F1600
; --- FIX Y Backlash: 0.900mm ---
G0 X80.581 Y45.969 F200
G1 X81.099 Y46.104 Z0.000 F1600
G1 X81.635 Y46.180 Z0.000 F1600
G1 X82.179 Y46.211 Z0.000 F1600
G1 X82.722 Y46.211 Z0.000 F1600
G1 X83.334 Y46.272 Z0.000 F1600
G1 X83.942 Y46.364 Z0.000 F1600
G1 X84.246 Y46.394 Z0.000 F1600
G1 X84.549 Y46.397 Z0.000 F1600
G1 X84.854 Y46.364 Z0.000 F1600
; --- FIX Y Backlash: -0.900mm ---
G0 X84.854 Y45.464 F200
G1 X85.160 Y45.383 Z0.000 F1600
G1 X85.874 Y45.365 Z0.000 F1600
; --- FIX Y Backlash: 0.900mm ---
G0 X85.874 Y46.265 F200
G1 X86.587 Y46.334 Z0.000 F1600
G1 X86.936 Y46.407 Z0.000 F1600
G1 X87.277 Y46.507 Z0.000 F1600
G1 X87.606 Y46.638 Z0.000 F1600
G1 X87.922 Y46.802 Z0.000 F1600
G1 X88.684 Y46.824 Z0.000 F1600
G1 X89.455 Y46.811 Z0.000 F1600
G1 X89.838 Y46.781 Z0.000 F1600
; --- FIX Y Backlash: -0.900mm ---
G0 X89.838 Y45.881 F200
G1 X90.217 Y45.830 Z0.000 F1600
G1 X90.589 Y45.755 Z0.000 F1600
G1 X90.953 Y45.652 Z0.000 F1600
G1 X91.083 Y45.473 Z0.000 F1600
G1 X91.254 Y45.371 Z0.000 F1600
G1 X91.455 Y45.327 Z0.000 F1600
G1 X91.676 Y45.322 Z0.000 F1600
G1 X92.142 Y45.359 Z0.000 F1600
G1 X92.574 Y45.332 Z0.000 F1600
G1 X92.838 Y45.272 Z0.000 F1600
G1 X93.087 Y45.163 Z0.000 F1600
G1 X93.328 Y45.027 Z0.000 F1600
G1 X93.566 Y44.884 Z0.000 F1600
G1 X93.808 Y44.756 Z0.000 F1600
G1 X94.059 Y44.664 Z0.000 F1600
G1 X94.326 Y44.632 Z0.000 F1600
G1 X94.614 Y44.679 Z0.000 F1600
; --- FIX Y Backlash: 0.900mm ---
G0 X94.614 Y45.579 F200
G1 X95.118 Y46.017 Z0.000 F1600
G1 X95.591 Y46.492 Z0.000 F1600
G1 X95.838 Y46.714 Z0.000 F1600
G1 X96.104 Y46.910 Z0.000 F1600
G1 X96.397 Y47.068 Z0.000 F1600
G1 X96.728 Y47.175 Z0.000 F1600
G1 X96.948 Y47.360 Z0.000 F1600
G1 X97.082 Y47.588 Z0.000 F1600
G1 X97.148 Y47.850 Z0.000 F1600
G1 X97.165 Y48.133 Z0.000 F1600
G1 X97.119 Y48.723 Z0.000 F1600
G1 X97.088 Y49.270 Z0.000 F1600
; --- FIX X Backlash: -0.800mm ---
G0 X96.288 Y49.270 F200
G1 X96.217 Y49.610 Z0.000 F1600
G1 X96.140 Y49.943 Z0.000 F1600
G1 X96.123 Y50.110 Z0.000 F1600
G1 X96.132 Y50.277 Z0.000 F1600
G1 X96.176 Y50.446 Z0.000 F1600
; --- FIX X Backlash: 0.800mm ---
G0 X96.976 Y50.446 F200
G1 X97.062 Y50.617 Z0.000 F1600
G1 X97.128 Y51.427 Z0.000 F1600
G1 X97.159 Y52.239 Z0.000 F1600
G1 X97.165 Y53.053 Z0.000 F1600
G1 X97.155 Y53.868 Z0.000 F1600
G1 X97.126 Y55.499 Z0.000 F1600
G1 X97.152 Y57.126 Z0.000 F1600
G1 X97.149 Y58.504 Z0.000 F1600
G1 X97.155 Y59.885 Z0.000 F1600
G1 X97.135 Y61.263 Z0.000 F1600
; --- FIX X Backlash: -0.800mm ---
G0 X96.335 Y61.263 F200
G1 X96.254 Y62.632 Z0.000 F1600
G1 X96.050 Y62.741 Z0.000 F1600
G1 X95.892 Y62.891 Z0.000 F1600
G1 X95.773 Y63.074 Z0.000 F1600
G1 X95.686 Y63.281 Z0.000 F1600
G1 X95.573 Y63.351 Z0.000 F1600
G1 X95.466 Y63.390 Z0.000 F1600
G1 X95.364 Y63.400 Z0.000 F1600
G1 X95.268 Y63.386 Z0.000 F1600
; --- FIX Y Backlash: -0.900mm ---
G0 X95.268 Y62.486 F200
G1 X95.089 Y62.397 Z0.000 F1600
G1 X94.926 Y62.249 Z0.000 F1600
G1 X94.632 Y61.888 Z0.000 F1600
G1 X94.357 Y61.618 Z0.000 F1600
; --- FIX Y Backlash: 0.900mm ---
G0 X94.357 Y62.518 F200
G1 X94.184 Y62.719 Z0.000 F1600
G1 X94.040 Y62.972 Z0.000 F1600
G1 X93.772 Y63.543 Z0.000 F1600
G1 X93.617 Y63.816 Z0.000 F1600
G1 X93.425 Y64.048 Z0.000 F1600
G1 X93.311 Y64.142 Z0.000 F1600
G1 X93.181 Y64.217 Z0.000 F1600
G1 X93.035 Y64.271 Z0.000 F1600
G1 X92.870 Y64.300 Z0.000 F1600
G1 X92.252 Y64.371 Z0.000 F1600
G1 X91.614 Y64.357 Z0.000 F1600
; --- FIX Y Backlash: -0.900mm ---
G0 X91.614 Y63.457 F200
G1 X91.321 Y63.383 Z0.000 F1600
G1 X91.061 Y63.246 Z0.000 F1600
G1 X90.949 Y63.149 Z0.000 F1600
G1 X90.850 Y63.031 Z0.000 F1600
G1 X90.766 Y62.891 Z0.000 F1600
G1 X90.700 Y62.725 Z0.000 F1600
G1 X90.480 Y62.280 Z0.000 F1600
G1 X90.229 Y61.789 Z0.000 F1600
G1 X90.153 Y61.545 Z0.000 F1600
G1 X90.145 Y61.311 Z0.000 F1600
G1 X90.174 Y61.201 Z0.000 F1600
; --- FIX X Backlash: 0.800mm ---
G0 X90.974 Y61.201 F200
G1 X91.029 Y61.095 Z0.000 F1600
G1 X91.113 Y60.996 Z0.000 F1600
G1 X91.330 Y60.828 Z0.000 F1600
G1 X91.390 Y60.755 Z0.000 F1600
G1 X91.416 Y60.685 Z0.000 F1600
G1 X91.413 Y60.618 Z0.000 F1600
; --- FIX X Backlash: -0.800mm ---
G0 X90.613 Y60.618 F200
G1 X90.539 Y60.488 Z0.000 F1600
G1 X90.409 Y60.357 Z0.000 F1600
G1 X90.264 Y60.219 Z0.000 F1600
G1 X90.143 Y60.068 Z0.000 F1600
G1 X90.106 Y59.985 Z0.000 F1600
G1 X90.089 Y59.896 Z0.000 F1600
G1 X90.099 Y59.801 Z0.000 F1600
G1 X90.141 Y59.698 Z0.000 F1600
G1 X90.173 Y59.578 Z0.000 F1600
G1 X90.168 Y59.463 Z0.000 F1600
G1 X90.133 Y59.362 Z0.000 F1600
G1 X90.073 Y59.283 Z0.000 F1600
G1 X89.995 Y59.235 Z0.000 F1600
G1 X89.904 Y59.225 Z0.000 F1600
G1 X89.806 Y59.263 Z0.000 F1600
; --- FIX Y Backlash: 0.900mm ---
G0 X89.806 Y60.163 F200
G1 X89.707 Y60.257 Z0.000 F1600
G1 X89.441 Y60.500 Z0.000 F1600
G1 X89.149 Y60.700 Z0.000 F1600
G1 X88.992 Y60.771 Z0.000 F1600
G1 X88.827 Y60.814 Z0.000 F1600
G1 X88.654 Y60.827 Z0.000 F1600
G1 X88.471 Y60.803 Z0.000 F1600
G1 X88.408 Y60.884 Z0.000 F1600
G1 X88.376 Y60.962 Z0.000 F1600
G1 X88.372 Y61.041 Z0.000 F1600
G1 X88.391 Y61.118 Z0.000 F1600
; --- FIX X Backlash: 0.800mm ---
G0 X89.191 Y61.118 F200
G1 X89.280 Y61.271 Z0.000 F1600
G1 X89.543 Y61.587 Z0.000 F1600
G1 X89.647 Y61.755 Z0.000 F1600
G1 X89.677 Y61.844 Z0.000 F1600
G1 X89.686 Y61.936 Z0.000 F1600
G1 X89.669 Y62.031 Z0.000 F1600
G1 X89.624 Y62.130 Z0.000 F1600
; --- FIX X Backlash: -0.800mm ---
G0 X88.824 Y62.130 F200
G1 X88.678 Y62.361 Z0.000 F1600
G1 X88.575 Y62.606 Z0.000 F1600
G1 X88.513 Y62.862 Z0.000 F1600
G1 X88.487 Y63.124 Z0.000 F1600
G1 X88.496 Y63.388 Z0.000 F1600
G1 X88.538 Y63.651 Z0.000 F1600
; --- FIX X Backlash: 0.800mm ---
G0 X89.338 Y63.651 F200
G1 X89.411 Y63.908 Z0.000 F1600
G1 X89.510 Y64.155 Z0.000 F1600
; --- FIX X Backlash: -0.800mm ---
G0 X88.710 Y64.155 F200
G1 X88.651 Y64.418 Z0.000 F1600
G1 X88.536 Y64.685 Z0.000 F1600
G1 X88.377 Y64.945 Z0.000 F1600
G1 X88.180 Y65.189 Z0.000 F1600
G1 X87.955 Y65.407 Z0.000 F1600
G1 X87.712 Y65.590 Z0.000 F1600
G1 X87.459 Y65.729 Z0.000 F1600
G1 X87.205 Y65.812 Z0.000 F1600
; --- FIX Y Backlash: -0.900mm ---
G0 X87.205 Y64.912 F200
G1 X86.858 Y64.709 Z0.000 F1600
G1 X86.519 Y64.480 Z0.000 F1600
G1 X86.177 Y64.252 Z0.000 F1600
G1 X85.820 Y64.056 Z0.000 F1600
G1 X85.641 Y63.710 Z0.000 F1600
G1 X85.412 Y63.404 Z0.000 F1600
G1 X85.134 Y63.140 Z0.000 F1600
G1 X84.805 Y62.924 Z0.000 F1600
G1 X84.721 Y62.797 Z0.000 F1600
G1 X84.671 Y62.662 Z0.000 F1600
G1 X84.652 Y62.521 Z0.000 F1600
G1 X84.661 Y62.382 Z0.000 F1600
G1 X84.699 Y62.246 Z0.000 F1600
; --- FIX X Backlash: 0.800mm ---
G0 X85.499 Y62.246 F200
G1 X85.561 Y62.121 Z0.000 F1600
G1 X85.646 Y62.008 Z0.000 F1600
G1 X85.751 Y61.914 Z0.000 F1600
G1 X85.733 Y61.622 Z0.000 F1600
; --- FIX X Backlash: -0.800mm ---
G0 X84.933 Y61.622 F200
G1 X84.868 Y61.340 Z0.000 F1600
G1 X84.773 Y61.063 Z0.000 F1600
G1 X84.668 Y60.789 Z0.000 F1600
G1 X84.572 Y60.513 Z0.000 F1600
G1 X84.502 Y60.232 Z0.000 F1600
G1 X84.480 Y59.941 Z0.000 F1600
G1 X84.522 Y59.638 Z0.000 F1600
G1 X84.488 Y59.507 Z0.000 F1600
G1 X84.429 Y59.406 Z0.000 F1600
G1 X84.347 Y59.330 Z0.000 F1600
G1 X84.245 Y59.278 Z0.000 F1600
G1 X83.994 Y59.230 Z0.000 F1600
G1 X83.699 Y59.236 Z0.000 F1600
; --- FIX Y Backlash: 0.900mm ---
G0 X83.699 Y60.136 F200
G1 X83.061 Y60.204 Z0.000 F1600
G1 X82.766 Y60.214 Z0.000 F1600
G1 X82.515 Y60.175 Z0.000 F1600
G1 X82.368 Y60.192 Z0.000 F1600
G1 X82.232 Y60.240 Z0.000 F1600
G1 X82.105 Y60.314 Z0.000 F1600
G1 X81.986 Y60.409 Z0.000 F1600
G1 X81.761 Y60.644 Z0.000 F1600
G1 X81.544 Y60.906 Z0.000 F1600
G1 X81.321 Y61.157 Z0.000 F1600
G1 X81.078 Y61.360 Z0.000 F1600
G1 X80.945 Y61.431 Z0.000 F1600
G1 X80.801 Y61.476 Z0.000 F1600
G1 X80.646 Y61.489 Z0.000 F1600
G1 X80.476 Y61.467 Z0.000 F1600
G1 X80.364 Y61.422 Z0.000 F1600
G1 X80.260 Y61.403 Z0.000 F1600
G1 X80.163 Y61.409 Z0.000 F1600
G1 X80.073 Y61.436 Z0.000 F1600
G1 X79.912 Y61.543 Z0.000 F1600
G1 X79.772 Y61.705 Z0.000 F1600
G1 X79.536 Y62.104 Z0.000 F1600
G1 X79.329 Y62.464 Z0.000 F1600
G1 X79.042 Y63.070 Z0.000 F1600
G1 X78.949 Y63.185 Z0.000 F1600
G1 X78.833 Y63.248 Z0.000 F1600
G1 X78.688 Y63.241 Z0.000 F1600
; --- FIX Y Backlash: -0.900mm ---
G0 X78.688 Y62.341 F200
G1 X78.505 Y62.246 Z0.000 F1600
G1 X78.219 Y62.046 Z0.000 F1600
G1 X77.908 Y61.920 Z0.000 F1600
G1 X77.582 Y61.848 Z0.000 F1600
G1 X77.244 Y61.809 Z0.000 F1600
G1 X76.903 Y61.786 Z0.000 F1600
G1 X76.564 Y61.758 Z0.000 F1600
G1 X76.233 Y61.705 Z0.000 F1600
G1 X75.917 Y61.610 Z0.000 F1600
G1 X75.663 Y61.401 Z0.000 F1600
G1 X75.431 Y61.171 Z0.000 F1600
G1 X75.221 Y60.923 Z0.000 F1600
G1 X75.033 Y60.659 Z0.000 F1600
G1 X74.719 Y60.090 Z0.000 F1600
G1 X74.487 Y59.480 Z0.000 F1600
G1 X74.343 Y59.437 Z0.000 F1600
G1 X74.205 Y59.459 Z0.000 F1600
; --- FIX Y Backlash: 0.900mm ---
G0 X74.205 Y60.359 F200
G1 X74.073 Y60.429 Z0.000 F1600
G1 X73.941 Y60.525 Z0.000 F1600
G1 X73.808 Y60.630 Z0.000 F1600
G1 X73.671 Y60.724 Z0.000 F1600
G1 X73.527 Y60.788 Z0.000 F1600
G1 X73.371 Y60.803 Z0.000 F1600
G1 X73.185 Y60.875 Z0.000 F1600
G1 X72.989 Y60.928 Z0.000 F1600
G1 X72.789 Y60.957 Z0.000 F1600
G1 X72.596 Y60.952 Z0.000 F1600
G1 X72.418 Y60.907 Z0.000 F1600
; --- FIX Y Backlash: -0.900mm ---
G0 X72.418 Y60.007 F200
G1 X72.263 Y59.915 Z0.000 F1600
G1 X72.139 Y59.767 Z0.000 F1600
G1 X72.056 Y59.557 Z0.000 F1600
G1 X71.945 Y59.353 Z0.000 F1600
G1 X71.775 Y59.206 Z0.000 F1600
G1 X71.578 Y59.101 Z0.000 F1600
G1 X71.383 Y59.027 Z0.000 F1600
G1 X71.349 Y58.843 Z0.000 F1600
G1 X71.367 Y58.684 Z0.000 F1600
; --- FIX X Backlash: 0.800mm ---
G0 X72.167 Y58.684 F200
G1 X72.229 Y58.550 Z0.000 F1600
G1 X72.328 Y58.441 Z0.000 F1600
G1 X72.455 Y58.359 Z0.000 F1600
G1 X72.603 Y58.303 Z0.000 F1600
G1 X72.764 Y58.273 Z0.000 F1600
G1 X72.931 Y58.270 Z0.000 F1600
G1 X73.167 Y58.238 Z0.000 F1600
G1 X73.394 Y58.174 Z0.000 F1600
G1 X73.604 Y58.079 Z0.000 F1600
G1 X73.790 Y57.953 Z0.000 F1600
G1 X73.944 Y57.795 Z0.000 F1600
G1 X74.060 Y57.607 Z0.000 F1600
G1 X74.129 Y57.389 Z0.000 F1600
G1 X74.145 Y57.139 Z0.000 F1600
G1 X74.179 Y57.016 Z0.000 F1600
G1 X74.228 Y56.917 Z0.000 F1600
G1 X74.288 Y56.842 Z0.000 F1600
G1 X74.358 Y56.788 Z0.000 F1600
G1 X74.524 Y56.738 Z0.000 F1600
G1 X74.713 Y56.749 Z0.000 F1600
; --- FIX Y Backlash: 0.900mm ---
G0 X74.713 Y57.649 F200
G1 X75.111 Y57.798 Z0.000 F1600
G1 X75.455 Y58.014 Z0.000 F1600
G1 X75.737 Y58.118 Z0.000 F1600
G1 X76.052 Y58.183 Z0.000 F1600
G1 X76.380 Y58.202 Z0.000 F1600
G1 X76.705 Y58.170 Z0.000 F1600
; --- FIX Y Backlash: -0.900mm ---
G0 X76.705 Y57.270 F200
G1 X77.007 Y57.181 Z0.000 F1600
G1 X77.269 Y57.030 Z0.000 F1600
G1 X77.379 Y56.929 Z0.000 F1600
G1 X77.473 Y56.810 Z0.000 F1600
G1 X77.547 Y56.673 Z0.000 F1600
G1 X77.600 Y56.517 Z0.000 F1600
; --- FIX X Backlash: -0.800mm ---
G0 X76.800 Y56.517 F200
G1 X76.468 Y55.662 Z0.000 F1600
G1 X76.161 Y54.795 Z0.000 F1600
G1 X75.950 Y54.511 Z0.000 F1600
G1 X75.781 Y54.163 Z0.000 F1600
G1 X75.753 Y53.997 Z0.000 F1600
G1 X75.787 Y53.855 Z0.000 F1600
G1 X75.832 Y53.797 Z0.000 F1600
; --- FIX X Backlash: 0.800mm ---
G0 X76.632 Y53.797 F200
G1 X76.698 Y53.749 Z0.000 F1600
G1 X76.789 Y53.715 Z0.000 F1600
G1 X76.904 Y53.694 Z0.000 F1600
G1 X77.350 Y53.597 Z0.000 F1600
G1 X77.801 Y53.479 Z0.000 F1600
G1 X78.009 Y53.391 Z0.000 F1600
G1 X78.193 Y53.272 Z0.000 F1600
G1 X78.345 Y53.114 Z0.000 F1600
G1 X78.458 Y52.908 Z0.000 F1600
G1 X78.711 Y52.886 Z0.000 F1600
G1 X78.954 Y52.824 Z0.000 F1600
G1 X79.171 Y52.714 Z0.000 F1600
G1 X79.350 Y52.550 Z0.000 F1600
G1 X79.564 Y52.589 Z0.000 F1600
G1 X79.791 Y52.598 Z0.000 F1600
G1 X80.018 Y52.574 Z0.000 F1600
G1 X80.232 Y52.513 Z0.000 F1600
G1 X80.420 Y52.413 Z0.000 F1600
G1 X80.569 Y52.272 Z0.000 F1600
G0 Z3.5 F1000
; --- FIX X Backlash: -0.800mm ---
G0 X79.769 Y52.272 F200
; --- FIX Y Backlash: 0.900mm ---
G0 X79.769 Y53.172 F200
G0 X50.549 Y54.566 Z3.500
G1 Z0 F1000
; --- FIX X Backlash: 0.800mm ---
G0 X51.349 Y54.566 F200
G1 X51.704 Y54.833 Z0.000 F1600
G1 X52.030 Y55.407 Z0.000 F1600
G1 X52.381 Y55.798 Z0.000 F1600
; --- FIX X Backlash: -0.800mm ---
G0 X51.581 Y55.798 F200
; --- FIX Y Backlash: -0.900mm ---
G0 X51.581 Y54.898 F200
G1 X50.824 Y54.779 Z0.000 F1600
G1 X50.327 Y53.380 Z0.000 F1600
; --- FIX X Backlash: 0.800mm ---
G0 X51.127 Y53.380 F200
; --- FIX Y Backlash: 0.900mm ---
G0 X51.127 Y54.280 F200
G1 X51.349 Y54.566 Z0.000 F1600
G0 Z3.5 F1000
; --- FIX X Backlash: -0.800mm ---
G0 X50.549 Y54.566 F200
; --- FIX Y Backlash: -0.900mm ---
G0 X50.549 Y53.666 F200
G0 X49.412 Y51.962 Z3.500
G1 Z0 F1000
G1 X48.621 Y51.187 Z0.000 F1600
G1 X48.415 Y51.091 Z0.000 F1600
G1 X48.290 Y50.825 Z0.000 F1600
G1 X47.990 Y49.896 Z0.000 F1600
; --- FIX X Backlash: 0.800mm ---
G0 X48.790 Y49.896 F200
G1 X49.140 Y49.896 Z0.000 F1600
; --- FIX Y Backlash: 0.900mm ---
G0 X49.140 Y50.796 F200
G1 X49.833 Y50.856 Z0.000 F1600
; --- FIX X Backlash: -0.800mm ---
G0 X49.033 Y50.856 F200
G1 X48.970 Y51.241 Z0.000 F1600
; --- FIX X Backlash: 0.800mm ---
G0 X49.770 Y51.241 F200
G1 X50.212 Y52.862 Z0.000 F1600
G0 Z3.5 F1000
G0 X50.708 Y55.790 Z3.500
G1 Z0 F1000
; --- FIX X Backlash: -0.800mm ---
G0 X49.908 Y55.790 F200
; --- FIX Y Backlash: -0.900mm ---
G0 X49.908 Y54.890 F200
G1 X49.264 Y53.078 Z0.000 F1600
G1 X48.101 Y51.937 Z0.000 F1600
G1 X47.763 Y51.780 Z0.000 F1600
G1 X47.613 Y51.500 Z0.000 F1600
G1 X47.451 Y51.157 Z0.000 F1600
G1 X47.002 Y49.766 Z0.000 F1600
G1 X46.521 Y49.343 Z0.000 F1600
; --- FIX X Backlash: 0.800mm ---
G0 X47.321 Y49.343 F200
G1 X47.747 Y49.297 Z0.000 F1600
G1 X47.884 Y49.114 Z0.000 F1600
G1 X48.012 Y49.106 Z0.000 F1600
G1 X48.537 Y49.008 Z0.000 F1600
G1 X48.663 Y48.996 Z0.000 F1600
G1 X49.179 Y48.996 Z0.000 F1600
; --- FIX Y Backlash: 0.900mm ---
G0 X49.179 Y49.896 F200
G1 X49.920 Y49.960 Z0.000 F1600
G1 X50.522 Y49.995 Z0.000 F1600
G1 X50.752 Y49.992 Z0.000 F1600
G1 X50.806 Y50.482 Z0.000 F1600
; --- FIX X Backlash: -0.800mm ---
G0 X50.006 Y50.482 F200
G1 X49.889 Y51.192 Z0.000 F1600
; --- FIX X Backlash: 0.800mm ---
G0 X50.689 Y51.192 F200
G1 X51.135 Y52.825 Z0.000 F1600
G1 X51.986 Y53.920 Z0.000 F1600
G1 X52.394 Y54.227 Z0.000 F1600
G1 X52.764 Y54.878 Z0.000 F1600
G1 X53.520 Y55.718 Z0.000 F1600
G1 X53.737 Y55.871 Z0.000 F1600
G1 X53.693 Y55.899 Z0.000 F1600
; --- FIX X Backlash: -0.800mm ---
G0 X52.893 Y55.899 F200
G1 X52.324 Y56.329 Z0.000 F1600
G1 X51.968 Y56.789 Z0.000 F1600
G1 X51.914 Y56.762 Z0.000 F1600
; --- FIX Y Backlash: -0.900mm ---
G0 X51.914 Y55.862 F200
G1 X50.580 Y55.652 Z0.000 F1600
; --- FIX Y Backlash: 0.900mm ---
G0 X50.580 Y56.552 F200
G1 X49.785 Y56.665 Z0.000 F1600
; --- FIX X Backlash: 0.800mm ---
G0 X50.585 Y56.665 F200
; --- FIX Y Backlash: -0.900mm ---
G0 X50.585 Y55.765 F200
G1 X50.708 Y54.890 Z0.000 F1600
G0 Z3.5 F1000
; --- FIX X Backlash: -0.800mm ---
G0 X49.908 Y54.890 F200
G0 X28.929 Y53.589 Z3.500
G1 Z0 F1000
; --- FIX Y Backlash: 0.900mm ---
G0 X28.929 Y54.489 F200
G1 X28.858 Y54.801 Z0.000 F1600
; --- FIX X Backlash: 0.800mm ---
G0 X29.658 Y54.801 F200
G1 X29.831 Y55.703 Z0.000 F1600
; --- FIX X Backlash: -0.800mm ---
G0 X29.031 Y55.703 F200
G1 X28.731 Y56.034 Z0.000 F1600
G1 X28.447 Y56.552 Z0.000 F1600
G1 X28.267 Y56.863 Z0.000 F1600
; --- FIX Y Backlash: -0.900mm ---
G0 X28.267 Y55.963 F200
G1 X28.267 Y54.707 Z0.000 F1600
G1 X28.275 Y54.102 Z0.000 F1600
; --- FIX X Backlash: 0.800mm ---
G0 X29.075 Y54.102 F200
G1 X29.438 Y53.771 Z0.000 F1600
G1 X29.729 Y53.589 Z0.000 F1600
G0 Z3.5 F1000
G0 X30.909 Y52.475 Z3.500
G1 Z0 F1000
; --- FIX X Backlash: -0.800mm ---
G0 X30.109 Y52.475 F200
; --- FIX Y Backlash: 0.900mm ---
G0 X30.109 Y53.375 F200
G1 X29.778 Y54.817 Z0.000 F1600
; --- FIX X Backlash: 0.800mm ---
G0 X30.578 Y54.817 F200
G1 X30.771 Y55.825 Z0.000 F1600
G1 X30.824 Y55.952 Z0.000 F1600
G1 X30.815 Y55.958 Z0.000 F1600
; --- FIX X Backlash: -0.800mm ---
G0 X30.015 Y55.958 F200
G1 X29.469 Y56.560 Z0.000 F1600
G1 X29.229 Y56.998 Z0.000 F1600
G1 X29.033 Y57.337 Z0.000 F1600
G1 X28.821 Y57.975 Z0.000 F1600
G1 X28.743 Y58.609 Z0.000 F1600
G1 X28.782 Y59.243 Z0.000 F1600
; --- FIX X Backlash: 0.800mm ---
G0 X29.582 Y59.243 F200
G1 X29.668 Y59.569 Z0.000 F1600
; --- FIX X Backlash: -0.800mm ---
G0 X28.868 Y59.569 F200
G1 X27.427 Y59.645 Z0.000 F1600
; --- FIX Y Backlash: -0.900mm ---
G0 X27.427 Y58.745 F200
G1 X27.430 Y58.453 Z0.000 F1600
G1 X27.386 Y57.842 Z0.000 F1600
G1 X27.368 Y56.325 Z0.000 F1600
G1 X27.368 Y54.688 Z0.000 F1600
G1 X27.382 Y53.596 Z0.000 F1600
; --- FIX X Backlash: 0.800mm ---
G0 X28.182 Y53.596 F200
G1 X28.408 Y53.493 Z0.000 F1600
G1 X28.948 Y53.000 Z0.000 F1600
G1 X29.021 Y52.971 Z0.000 F1600
G1 X29.728 Y52.531 Z0.000 F1600
G1 X30.558 Y51.519 Z0.000 F1600
G1 X30.686 Y50.738 Z0.000 F1600
; --- FIX Y Backlash: 0.900mm ---
G0 X30.686 Y51.638 F200
G1 X32.151 Y52.014 Z0.000 F1600
; --- FIX Y Backlash: -0.900mm ---
G0 X32.151 Y51.114 F200
G1 X32.431 Y50.886 Z0.000 F1600
; --- FIX X Backlash: -0.800mm ---
G0 X31.631 Y50.886 F200
; --- FIX Y Backlash: 0.900mm ---
G0 X31.631 Y51.786 F200
G1 X30.109 Y53.375 Z0.000 F1600
G0 Z3.5 F1000
; --- FIX X Backlash: 0.800mm ---
G0 X30.909 Y53.375 F200
; --- FIX Y Backlash: -0.900mm ---
G0 X30.909 Y52.475 F200
G0 X38.997 Y49.346 Z3.500
G1 Z0 F1000
G1 X39.152 Y49.360 Z0.000 F1600
; --- FIX Y Backlash: 0.900mm ---
G0 X39.152 Y50.260 F200
G1 X39.107 Y50.319 Z0.000 F1600
; --- FIX X Backlash: -0.800mm ---
G0 X38.307 Y50.319 F200
; --- FIX Y Backlash: -0.900mm ---
G0 X38.307 Y49.419 F200
G1 X38.197 Y49.346 Z0.000 F1600
G0 Z3.5 F1000
G0 X37.137 Y48.751 Z3.500
G1 Z0 F1000
; --- FIX X Backlash: 0.800mm ---
G0 X37.937 Y48.751 F200
G1 X38.598 Y48.382 Z0.000 F1600
; --- FIX Y Backlash: 0.900mm ---
G0 X38.598 Y49.282 F200
G1 X38.919 Y49.335 Z0.000 F1600
G1 X39.803 Y49.415 Z0.000 F1600
G1 X40.721 Y49.420 Z0.000 F1600
; --- FIX Y Backlash: -0.900mm ---
G0 X40.721 Y48.520 F200
G1 X41.344 Y48.461 Z0.000 F1600
G1 X42.229 Y48.492 Z0.000 F1600
; --- FIX Y Backlash: 0.900mm ---
G0 X42.229 Y49.392 F200
G1 X43.318 Y49.488 Z0.000 F1600
G1 X43.959 Y49.535 Z0.000 F1600
G1 X44.660 Y49.561 Z0.000 F1600
G1 X45.420 Y49.542 Z0.000 F1600
; --- FIX Y Backlash: -0.900mm ---
G0 X45.420 Y48.642 F200
G1 X47.261 Y48.444 Z0.000 F1600
G1 X47.415 Y48.240 Z0.000 F1600
G1 X47.901 Y48.211 Z0.000 F1600
G1 X48.418 Y48.115 Z0.000 F1600
G1 X48.620 Y48.097 Z0.000 F1600
G1 X49.217 Y48.097 Z0.000 F1600
; --- FIX Y Backlash: 0.900mm ---
G0 X49.217 Y48.997 F200
G1 X49.986 Y49.063 Z0.000 F1600
G1 X50.542 Y49.094 Z0.000 F1600
G1 X51.207 Y49.087 Z0.000 F1600
G1 X51.458 Y49.056 Z0.000 F1600
G1 X51.530 Y49.090 Z0.000 F1600
G1 X51.678 Y49.267 Z0.000 F1600
G1 X51.652 Y49.423 Z0.000 F1600
G1 X51.662 Y49.549 Z0.000 F1600
G1 X51.629 Y49.734 Z0.000 F1600
G1 X51.713 Y50.502 Z0.000 F1600
G1 X51.713 Y50.505 Z0.000 F1600
; --- FIX X Backlash: -0.800mm ---
G0 X50.913 Y50.505 F200
G1 X50.809 Y51.145 Z0.000 F1600
; --- FIX X Backlash: 0.800mm ---
G0 X51.609 Y51.145 F200
G1 X51.956 Y52.415 Z0.000 F1600
G1 X52.624 Y53.273 Z0.000 F1600
G1 X53.084 Y53.621 Z0.000 F1600
G1 X53.499 Y54.349 Z0.000 F1600
G1 X54.121 Y55.041 Z0.000 F1600
G1 X54.934 Y55.611 Z0.000 F1600
G1 X55.302 Y55.744 Z0.000 F1600
G1 X55.302 Y56.024 Z0.000 F1600
; --- FIX X Backlash: -0.800mm ---
G0 X54.502 Y56.024 F200
G1 X53.981 Y56.256 Z0.000 F1600
G1 X53.414 Y56.634 Z0.000 F1600
G1 X52.962 Y56.975 Z0.000 F1600
G1 X52.430 Y57.663 Z0.000 F1600
G1 X52.311 Y57.975 Z0.000 F1600
; --- FIX Y Backlash: -0.900mm ---
G0 X52.311 Y57.075 F200
G1 X51.633 Y56.728 Z0.000 F1600
G1 X50.574 Y56.562 Z0.000 F1600
; --- FIX Y Backlash: 0.900mm ---
G0 X50.574 Y57.462 F200
G1 X49.764 Y57.576 Z0.000 F1600
G1 X49.115 Y57.819 Z0.000 F1600
G1 X49.097 Y57.809 Z0.000 F1600
G1 X48.695 Y57.870 Z0.000 F1600
; --- FIX X Backlash: 0.800mm ---
G0 X49.495 Y57.870 F200
; --- FIX Y Backlash: -0.900mm ---
G0 X49.495 Y56.970 F200
G1 X49.573 Y56.496 Z0.000 F1600
G1 X49.786 Y54.983 Z0.000 F1600
; --- FIX X Backlash: -0.800mm ---
G0 X48.986 Y54.983 F200
G1 X48.485 Y53.575 Z0.000 F1600
G1 X47.582 Y52.688 Z0.000 F1600
G1 X47.111 Y52.469 Z0.000 F1600
G1 X46.810 Y51.908 Z0.000 F1600
G1 X46.613 Y51.488 Z0.000 F1600
G1 X46.222 Y50.279 Z0.000 F1600
G1 X45.101 Y49.294 Z0.000 F1600
G1 X44.106 Y48.871 Z0.000 F1600
G1 X43.229 Y48.743 Z0.000 F1600
G1 X42.509 Y48.763 Z0.000 F1600
; --- FIX Y Backlash: 0.900mm ---
G0 X42.509 Y49.663 F200
G1 X41.704 Y49.788 Z0.000 F1600
G1 X41.183 Y49.859 Z0.000 F1600
G1 X40.856 Y49.892 Z0.000 F1600
G1 X40.263 Y50.057 Z0.000 F1600
G1 X39.661 Y50.348 Z0.000 F1600
G1 X39.055 Y50.821 Z0.000 F1600
G1 X38.513 Y51.536 Z0.000 F1600
G1 X38.367 Y51.947 Z0.000 F1600
; --- FIX Y Backlash: -0.900mm ---
G0 X38.367 Y51.047 F200
G1 X37.678 Y50.082 Z0.000 F1600
G1 X36.759 Y49.478 Z0.000 F1600
G1 X35.893 Y49.217 Z0.000 F1600
G1 X35.108 Y49.159 Z0.000 F1600
; --- FIX Y Backlash: 0.900mm ---
G0 X35.108 Y50.059 F200
G1 X34.353 Y50.151 Z0.000 F1600
G1 X33.580 Y50.409 Z0.000 F1600
G1 X32.423 Y51.143 Z0.000 F1600
; --- FIX X Backlash: 0.800mm ---
G0 X33.223 Y51.143 F200
; --- FIX Y Backlash: -0.900mm ---
G0 X33.223 Y50.243 F200
G1 X33.568 Y49.963 Z0.000 F1600
G1 X34.094 Y49.240 Z0.000 F1600
G1 X34.102 Y49.215 Z0.000 F1600
G1 X34.335 Y49.228 Z0.000 F1600
G1 X34.722 Y49.180 Z0.000 F1600
G1 X35.235 Y49.145 Z0.000 F1600
G1 X35.940 Y49.145 Z0.000 F1600
G1 X36.504 Y49.107 Z0.000 F1600
G1 X37.171 Y48.997 Z0.000 F1600
G1 X37.937 Y48.751 Z0.000 F1600
G0 Z3.5 F1000
G0 X40.682 Y47.620 Z3.500
G1 Z0 F1000
G1 X41.316 Y47.560 Z0.000 F1600
G1 X42.284 Y47.594 Z0.000 F1600
; --- FIX Y Backlash: 0.900mm ---
G0 X42.284 Y48.494 F200
G1 X43.391 Y48.591 Z0.000 F1600
G1 X44.008 Y48.637 Z0.000 F1600
G1 X44.666 Y48.660 Z0.000 F1600
G1 X45.361 Y48.644 Z0.000 F1600
; --- FIX Y Backlash: -0.900mm ---
G0 X45.361 Y47.744 F200
G1 X46.776 Y47.591 Z0.000 F1600
G1 X46.990 Y47.307 Z0.000 F1600
G1 X47.265 Y47.348 Z0.000 F1600
G1 X47.792 Y47.316 Z0.000 F1600
G1 X48.290 Y47.223 Z0.000 F1600
G1 X48.588 Y47.196 Z0.000 F1600
G1 X49.256 Y47.196 Z0.000 F1600
; --- FIX Y Backlash: 0.900mm ---
G0 X49.256 Y48.096 F200
G1 X50.051 Y48.165 Z0.000 F1600
G1 X50.563 Y48.194 Z0.000 F1600
G1 X51.146 Y48.188 Z0.000 F1600
; --- FIX Y Backlash: -0.900mm ---
G0 X51.146 Y47.288 F200
G1 X51.676 Y47.222 Z0.000 F1600
; --- FIX Y Backlash: 0.900mm ---
G0 X51.676 Y48.122 F200
G1 X51.803 Y48.222 Z0.000 F1600
G1 X52.183 Y48.405 Z0.000 F1600
G1 X52.271 Y48.573 Z0.000 F1600
G1 X52.628 Y48.997 Z0.000 F1600
G1 X52.636 Y49.003 Z0.000 F1600
; --- FIX X Backlash: -0.800mm ---
G0 X51.836 Y49.003 F200
G1 X51.758 Y49.461 Z0.000 F1600
G1 X51.769 Y49.594 Z0.000 F1600
G1 X51.738 Y49.766 Z0.000 F1600
; --- FIX X Backlash: 0.800mm ---
G0 X52.538 Y49.766 F200
G1 X52.599 Y50.325 Z0.000 F1600
G1 X52.635 Y50.448 Z0.000 F1600
; --- FIX X Backlash: -0.800mm ---
G0 X51.835 Y50.448 F200
G1 X51.729 Y51.097 Z0.000 F1600
; --- FIX X Backlash: 0.800mm ---
G0 X52.529 Y51.097 F200
G1 X52.776 Y52.004 Z0.000 F1600
G1 X53.260 Y52.626 Z0.000 F1600
G1 X53.742 Y52.989 Z0.000 F1600
G1 X53.825 Y53.031 Z0.000 F1600
G1 X53.874 Y53.188 Z0.000 F1600
G1 X54.232 Y53.819 Z0.000 F1600
G1 X54.721 Y54.363 Z0.000 F1600
G1 X55.352 Y54.805 Z0.000 F1600
G1 X56.071 Y55.063 Z0.000 F1600
G1 X56.317 Y55.092 Z0.000 F1600
; --- FIX X Backlash: -0.800mm ---
G0 X55.517 Y55.092 F200
