G90 ; Absolute positioning
G21 ; Millimeters
;LightBurn 1.6.04
;Custom GCode device profile, absolute coords
;Bounds: X39.55 Y31.7 to X90.45 Y89.68
G00 G17 G40 G21 G54
G90
M3
G1 Z10 F500
;Scan @ 1600.002 mm/min, 80% power

M8
G0 Z4.8F800
G0 X55.849 Y43.780 Z4.800
G1 Z0F800
;Layer C1
G91
; --- FIX X Backlash: -0.700mm ---
G0 X55.149 Y43.780 F600
G1 X0.000 Y43.780 Z0.000 F1200
; --- FIX X Backlash: 0.700mm ---
G0 X0.667 Y43.780 F600
G1 X1.159 Y43.780 Z0.000 F1200
G1 X14.680 Y43.780 Z0.000 F1200
; --- FIX X Backlash: -0.700mm ---
G0 X13.980 Y43.780 F600
G1 X0.421 Y43.780 Z0.000 F1200
G1 X0.000 Y43.780 Z0.000 F1200
; --- FIX X Backlash: 0.700mm ---
G0 X0.666 Y43.780 F600
; --- FIX Y Backlash: -0.900mm ---
G0 X0.666 Y42.880 F600
G1 X1.272 Y0.000 Z0.000 F1200
; --- FIX X Backlash: -0.700mm ---
G0 X0.572 Y0.000 F600
G1 X0.000 Y0.000 Z0.000 F1200
G1 X0.000 Y0.000 Z0.000 F1200
G1 X0.000 Y0.000 Z0.000 F1200
; --- FIX X Backlash: 0.700mm ---
G0 X0.000 Y0.000 F600
G1 X0.000 Y0.000 Z0.000 F1200
G1 X0.000 Y0.000 Z0.000 F1200
; --- FIX X Backlash: -0.700mm ---
G0 X0.000 Y0.000 F600
G1 X0.000 Y0.000 Z0.000 F1200
; --- FIX X Backlash: 0.700mm ---
G0 X0.000 Y0.000 F600
G1 X0.667 Y0.000 Z0.000 F1200
G1 X5.405 Y0.000 Z0.000 F1200
G1 X12.320 Y0.000 Z0.000 F1200
; --- FIX X Backlash: -0.700mm ---
G0 X11.620 Y0.000 F600
G1 X4.674 Y0.000 Z0.000 F1200
G1 X0.000 Y0.000 Z0.000 F1200
G1 X0.000 Y0.000 Z0.000 F1200
G1 X0.000 Y0.000 Z0.000 F1200
G1 X0.000 Y0.000 Z0.000 F1200
G1 X0.000 Y0.000 Z0.000 F1200
; --- FIX X Backlash: 0.700mm ---
G0 X0.000 Y0.000 F600
G1 X0.000 Y0.000 Z0.000 F1200
G1 X0.000 Y0.000 Z0.000 F1200
G1 X0.496 Y0.000 Z0.000 F1200
G1 X0.667 Y0.000 Z0.000 F1200
G1 X5.575 Y0.000 Z0.000 F1200
G1 X9.911 Y0.000 Z0.000 F1200
; --- FIX X Backlash: -0.700mm ---
G0 X9.211 Y0.000 F600
G1 X4.871 Y0.000 Z0.000 F1200
G1 X0.000 Y0.000 Z0.000 F1200
G1 X0.000 Y0.000 Z0.000 F1200
G1 X0.000 Y0.000 Z0.000 F1200
G1 X0.000 Y0.000 Z0.000 F1200
G1 X0.000 Y0.000 Z0.000 F1200
; --- FIX X Backlash: 0.700mm ---
G0 X0.000 Y0.000 F600
G1 X0.000 Y0.000 Z0.000 F1200
G1 X0.000 Y0.000 Z0.000 F1200
G1 X0.476 Y0.000 Z0.000 F1200
G1 X0.666 Y0.000 Z0.000 F1200
G1 X5.858 Y0.000 Z0.000 F1200
G1 X7.379 Y0.000 Z0.000 F1200
; --- FIX X Backlash: -0.700mm ---
G0 X6.679 Y0.000 F600
G1 X5.159 Y0.000 Z0.000 F1200
G1 X0.000 Y0.000 Z0.000 F1200
G1 X0.000 Y0.000 Z0.000 F1200
G1 X0.000 Y0.000 Z0.000 F1200
G1 X0.000 Y0.000 Z0.000 F1200
G1 X0.000 Y0.000 Z0.000 F1200
; --- FIX X Backlash: 0.700mm ---
G0 X0.000 Y0.000 F600
G1 X0.000 Y0.000 Z0.000 F1200
G1 X0.000 Y0.000 Z0.000 F1200
G1 X0.435 Y0.000 Z0.000 F1200
G1 X0.666 Y0.000 Z0.000 F1200
G1 X3.732 Y0.000 Z0.000 F1200
; --- FIX X Backlash: -0.700mm ---
G0 X3.032 Y0.000 F600
G1 X1.493 Y0.000 Z0.000 F1200
G1 X0.047 Y0.000 Z0.000 F1200
; --- FIX X Backlash: 0.700mm ---
G0 X0.747 Y0.000 F600
G1 X3.978 Y0.000 Z0.000 F1200
; --- FIX X Backlash: -0.700mm ---
G0 X3.278 Y0.000 F600
G1 X0.001 Y0.000 Z0.000 F1200
; --- FIX X Backlash: 0.700mm ---
G0 X0.701 Y0.000 F600
G1 X2.146 Y0.000 Z0.000 F1200
G1 X3.795 Y0.000 Z0.000 F1200
; --- FIX X Backlash: -0.700mm ---
G0 X3.095 Y0.000 F600
G1 X0.000 Y0.000 Z0.000 F1200
G1 X0.000 Y0.000 Z0.000 F1200
G1 X0.000 Y0.000 Z0.000 F1200
G1 X0.000 Y0.000 Z0.000 F1200
G1 X0.000 Y0.000 Z0.000 F1200
G1 X0.000 Y0.000 Z0.000 F1200
; --- FIX X Backlash: 0.700mm ---
G0 X0.000 Y0.000 F600
G1 X0.000 Y0.000 Z0.000 F1200
; --- FIX X Backlash: -0.700mm ---
G0 X0.000 Y0.000 F600
G1 X0.000 Y0.000 Z0.000 F1200
; --- FIX X Backlash: 0.700mm ---
G0 X0.000 Y0.000 F600
G1 X0.000 Y0.000 Z0.000 F1200
G1 X0.000 Y0.000 Z0.000 F1200
G1 X0.000 Y0.000 Z0.000 F1200
G1 X2.511 Y0.000 Z0.000 F1200
; --- FIX X Backlash: -0.700mm ---
G0 X1.811 Y0.000 F600
G1 X0.000 Y0.000 Z0.000 F1200
; --- FIX X Backlash: 0.700mm ---
G0 X0.667 Y0.000 F600
G1 X5.398 Y0.000 Z0.000 F1200
; --- FIX X Backlash: -0.700mm ---
G0 X4.698 Y0.000 F600
G1 X0.662 Y0.000 Z0.000 F1200
; --- FIX X Backlash: 0.700mm ---
G0 X1.362 Y0.000 F600
G1 X4.623 Y0.000 Z0.000 F1200
; --- FIX X Backlash: -0.700mm ---
G0 X3.923 Y0.000 F600
G1 X0.000 Y0.000 Z0.000 F1200
; --- FIX X Backlash: 0.700mm ---
G0 X0.667 Y0.000 F600
G1 X1.442 Y0.000 Z0.000 F1200
; --- FIX X Backlash: -0.700mm ---
G0 X0.742 Y0.000 F600
G1 X0.000 Y0.000 Z0.000 F1200
G1 X0.000 Y0.000 Z0.000 F1200
; --- FIX X Backlash: 0.700mm ---
G0 X0.000 Y0.000 F600
G1 X0.000 Y0.000 Z0.000 F1200
; --- FIX X Backlash: -0.700mm ---
G0 X0.000 Y0.000 F600
G1 X0.000 Y0.000 Z0.000 F1200
; --- FIX X Backlash: 0.700mm ---
G0 X0.000 Y0.000 F600
G1 X0.000 Y0.000 Z0.000 F1200
G1 X0.048 Y0.000 Z0.000 F1200
G1 X0.667 Y0.000 Z0.000 F1200
G1 X8.255 Y0.000 Z0.000 F1200
; --- FIX X Backlash: -0.700mm ---
G0 X7.555 Y0.000 F600
G1 X0.572 Y0.000 Z0.000 F1200
; --- FIX X Backlash: 0.700mm ---
G0 X1.272 Y0.000 F600
G1 X4.879 Y0.000 Z0.000 F1200
; --- FIX X Backlash: -0.700mm ---
G0 X4.179 Y0.000 F600
G1 X0.000 Y0.000 Z0.000 F1200
G1 X0.000 Y0.000 Z0.000 F1200
G1 X0.000 Y0.000 Z0.000 F1200
G1 X0.000 Y0.000 Z0.000 F1200
; --- FIX X Backlash: 0.700mm ---
G0 X0.000 Y0.000 F600
G1 X0.000 Y0.000 Z0.000 F1200
; --- FIX X Backlash: -0.700mm ---
G0 X0.000 Y0.000 F600
G1 X0.000 Y0.000 Z0.000 F1200
; --- FIX X Backlash: 0.700mm ---
G0 X0.000 Y0.000 F600
G1 X0.000 Y0.000 Z0.000 F1200
G1 X0.311 Y0.000 Z0.000 F1200
G1 X0.667 Y0.000 Z0.000 F1200
G1 X8.793 Y0.000 Z0.000 F1200
; --- FIX X Backlash: -0.700mm ---
G0 X8.093 Y0.000 F600
G1 X0.544 Y0.000 Z0.000 F1200
; --- FIX X Backlash: 0.700mm ---
G0 X1.244 Y0.000 F600
G1 X3.159 Y0.000 Z0.000 F1200
; --- FIX X Backlash: -0.700mm ---
G0 X2.459 Y0.000 F600
G1 X0.000 Y0.000 Z0.000 F1200
G1 X0.000 Y0.000 Z0.000 F1200
G1 X0.000 Y0.000 Z0.000 F1200
G1 X0.000 Y0.000 Z0.000 F1200
; --- FIX X Backlash: 0.700mm ---
G0 X0.000 Y0.000 F600
G1 X0.000 Y0.000 Z0.000 F1200
; --- FIX X Backlash: -0.700mm ---
G0 X0.000 Y0.000 F600
G1 X0.000 Y0.000 Z0.000 F1200
; --- FIX X Backlash: 0.700mm ---
G0 X0.000 Y0.000 F600
G1 X0.000 Y0.000 Z0.000 F1200
G1 X0.392 Y0.000 Z0.000 F1200
G1 X0.667 Y0.000 Z0.000 F1200
G1 X9.037 Y0.000 Z0.000 F1200
; --- FIX X Backlash: -0.700mm ---
G0 X8.337 Y0.000 F600
G1 X0.510 Y0.000 Z0.000 F1200
; --- FIX X Backlash: 0.700mm ---
G0 X1.210 Y0.000 F600
G1 X1.502 Y0.000 Z0.000 F1200
; --- FIX X Backlash: -0.700mm ---
G0 X0.802 Y0.000 F600
G1 X0.000 Y0.000 Z0.000 F1200
G1 X0.000 Y0.000 Z0.000 F1200
G1 X0.000 Y0.000 Z0.000 F1200
G1 X0.000 Y0.000 Z0.000 F1200
G1 X0.000 Y0.000 Z0.000 F1200
G1 X0.000 Y0.000 Z0.000 F1200
; --- FIX X Backlash: 0.700mm ---
G0 X0.000 Y0.000 F600
G1 X0.000 Y0.000 Z0.000 F1200
G1 X0.492 Y0.000 Z0.000 F1200
G1 X0.667 Y0.000 Z0.000 F1200
G1 X8.994 Y0.000 Z0.000 F1200
; --- FIX X Backlash: -0.700mm ---
G0 X8.294 Y0.000 F600
G1 X0.000 Y0.000 Z0.000 F1200
G1 X0.000 Y0.000 Z0.000 F1200
G1 X0.000 Y0.000 Z0.000 F1200
G1 X0.000 Y0.000 Z0.000 F1200
; --- FIX X Backlash: 0.700mm ---
G0 X0.000 Y0.000 F600
G1 X0.000 Y0.000 Z0.000 F1200
G1 X0.575 Y0.000 Z0.000 F1200
G1 X0.667 Y0.000 Z0.000 F1200
G1 X8.721 Y0.000 Z0.000 F1200
; --- FIX X Backlash: -0.700mm ---
G0 X8.021 Y0.000 F600
G1 X0.000 Y0.000 Z0.000 F1200
G1 X0.000 Y0.000 Z0.000 F1200
G1 X0.000 Y0.000 Z0.000 F1200
G1 X0.000 Y0.000 Z0.000 F1200
; --- FIX X Backlash: 0.700mm ---
G0 X0.000 Y0.000 F600
G1 X0.000 Y0.000 Z0.000 F1200
G1 X0.000 Y0.000 Z0.000 F1200
G1 X0.000 Y0.000 Z0.000 F1200
G1 X0.000 Y0.000 Z0.000 F1200
G1 X0.667 Y0.000 Z0.000 F1200
G1 X1.787 Y0.000 Z0.000 F1200
; --- FIX X Backlash: -0.700mm ---
G0 X1.087 Y0.000 F600
G1 X0.623 Y0.000 Z0.000 F1200
; --- FIX X Backlash: 0.700mm ---
G0 X1.323 Y0.000 F600
G1 X8.308 Y0.000 Z0.000 F1200
; --- FIX X Backlash: -0.700mm ---
G0 X7.608 Y0.000 F600
G1 X0.000 Y0.000 Z0.000 F1200
G1 X0.000 Y0.000 Z0.000 F1200
G1 X0.000 Y0.000 Z0.000 F1200
G1 X0.000 Y0.000 Z0.000 F1200
; --- FIX X Backlash: 0.700mm ---
G0 X0.000 Y0.000 F600
G1 X0.000 Y0.000 Z0.000 F1200
; --- FIX X Backlash: -0.700mm ---
G0 X0.000 Y0.000 F600
G1 X0.000 Y0.000 Z0.000 F1200
; --- FIX X Backlash: 0.700mm ---
G0 X0.000 Y0.000 F600
G1 X0.000 Y0.000 Z0.000 F1200
G1 X0.000 Y0.000 Z0.000 F1200
G1 X0.667 Y0.000 Z0.000 F1200
G1 X3.830 Y0.000 Z0.000 F1200
; --- FIX X Backlash: -0.700mm ---
G0 X3.130 Y0.000 F600
G1 X0.645 Y0.000 Z0.000 F1200
; --- FIX X Backlash: 0.700mm ---
G0 X1.345 Y0.000 F600
G1 X7.842 Y0.000 Z0.000 F1200
; --- FIX X Backlash: -0.700mm ---
G0 X7.142 Y0.000 F600
G1 X0.000 Y0.000 Z0.000 F1200
G1 X0.000 Y0.000 Z0.000 F1200
G1 X0.000 Y0.000 Z0.000 F1200
G1 X0.000 Y0.000 Z0.000 F1200
; --- FIX X Backlash: 0.700mm ---
G0 X0.000 Y0.000 F600
G1 X0.000 Y0.000 Z0.000 F1200
; --- FIX X Backlash: -0.700mm ---
G0 X0.000 Y0.000 F600
G1 X0.000 Y0.000 Z0.000 F1200
; --- FIX X Backlash: 0.700mm ---
G0 X0.000 Y0.000 F600
G1 X0.000 Y0.000 Z0.000 F1200
G1 X0.000 Y0.000 Z0.000 F1200
G1 X0.667 Y0.000 Z0.000 F1200
G1 X5.881 Y0.000 Z0.000 F1200
; --- FIX X Backlash: -0.700mm ---
G0 X5.181 Y0.000 F600
G1 X0.642 Y0.000 Z0.000 F1200
; --- FIX X Backlash: 0.700mm ---
G0 X1.342 Y0.000 F600
G1 X7.380 Y0.000 Z0.000 F1200
; --- FIX X Backlash: -0.700mm ---
G0 X6.680 Y0.000 F600
G1 X0.000 Y0.000 Z0.000 F1200
G1 X0.000 Y0.000 Z0.000 F1200
G1 X0.000 Y0.000 Z0.000 F1200
G1 X0.000 Y0.000 Z0.000 F1200
; --- FIX X Backlash: 0.700mm ---
G0 X0.000 Y0.000 F600
G1 X0.000 Y0.000 Z0.000 F1200
; --- FIX X Backlash: -0.700mm ---
G0 X0.000 Y0.000 F600
G1 X0.000 Y0.000 Z0.000 F1200
; --- FIX X Backlash: 0.700mm ---
G0 X0.000 Y0.000 F600
G1 X0.000 Y0.000 Z0.000 F1200
G1 X0.000 Y0.000 Z0.000 F1200
G1 X0.667 Y0.000 Z0.000 F1200
G1 X6.830 Y0.000 Z0.000 F1200
; --- FIX X Backlash: -0.700mm ---
G0 X6.130 Y0.000 F600
G1 X1.768 Y0.000 Z0.000 F1200
; --- FIX X Backlash: 0.700mm ---
G0 X2.468 Y0.000 F600
G1 X6.892 Y0.000 Z0.000 F1200
; --- FIX X Backlash: -0.700mm ---
G0 X6.192 Y0.000 F600
G1 X0.000 Y0.000 Z0.000 F1200
G1 X0.000 Y0.000 Z0.000 F1200
G1 X0.000 Y0.000 Z0.000 F1200
G1 X0.000 Y0.000 Z0.000 F1200
; --- FIX X Backlash: 0.700mm ---
G0 X0.000 Y0.000 F600
G1 X0.000 Y0.000 Z0.000 F1200
; --- FIX X Backlash: -0.700mm ---
G0 X0.000 Y0.000 F600
G1 X0.000 Y0.000 Z0.000 F1200
; --- FIX X Backlash: 0.700mm ---
G0 X0.000 Y0.000 F600
G1 X0.000 Y0.000 Z0.000 F1200
G1 X0.000 Y0.000 Z0.000 F1200
G1 X0.667 Y0.000 Z0.000 F1200
G1 X6.331 Y0.000 Z0.000 F1200
; --- FIX X Backlash: -0.700mm ---
G0 X5.631 Y0.000 F600
G1 X4.364 Y0.000 Z0.000 F1200
; --- FIX X Backlash: 0.700mm ---
G0 X5.064 Y0.000 F600
G1 X6.377 Y0.000 Z0.000 F1200
; --- FIX X Backlash: -0.700mm ---
G0 X5.677 Y0.000 F600
G1 X0.000 Y0.000 Z0.000 F1200
G1 X0.000 Y0.000 Z0.000 F1200
G1 X0.000 Y0.000 Z0.000 F1200
G1 X0.000 Y0.000 Z0.000 F1200
G1 X0.000 Y0.000 Z0.000 F1200
; --- FIX X Backlash: 0.700mm ---
G0 X0.000 Y0.000 F600
G1 X0.000 Y0.000 Z0.000 F1200
G1 X0.000 Y0.000 Z0.000 F1200
G1 X0.000 Y0.000 Z0.000 F1200
G1 X0.667 Y0.000 Z0.000 F1200
G1 X5.848 Y0.000 Z0.000 F1200
G1 X7.635 Y0.000 Z0.000 F1200
; --- FIX X Backlash: -0.700mm ---
G0 X6.935 Y0.000 F600
G1 X5.175 Y0.000 Z0.000 F1200
G1 X0.000 Y0.000 Z0.000 F1200
G1 X0.000 Y0.000 Z0.000 F1200
G1 X0.000 Y0.000 Z0.000 F1200
G1 X0.000 Y0.000 Z0.000 F1200
G1 X0.000 Y0.000 Z0.000 F1200
; --- FIX X Backlash: 0.700mm ---
G0 X0.000 Y0.000 F600
G1 X0.000 Y0.000 Z0.000 F1200
G1 X0.000 Y0.000 Z0.000 F1200
G1 X0.000 Y0.000 Z0.000 F1200
G1 X0.667 Y0.000 Z0.000 F1200
G1 X5.358 Y0.000 Z0.000 F1200
G1 X10.210 Y0.000 Z0.000 F1200
; --- FIX X Backlash: -0.700mm ---
G0 X9.510 Y0.000 F600
G1 X4.672 Y0.000 Z0.000 F1200
G1 X0.000 Y0.000 Z0.000 F1200
G1 X0.000 Y0.000 Z0.000 F1200
G1 X0.000 Y0.000 Z0.000 F1200
G1 X0.000 Y0.000 Z0.000 F1200
G1 X0.000 Y0.000 Z0.000 F1200
; --- FIX X Backlash: 0.700mm ---
G0 X0.000 Y0.000 F600
G1 X0.000 Y0.000 Z0.000 F1200
G1 X0.000 Y0.000 Z0.000 F1200
G1 X0.000 Y0.000 Z0.000 F1200
G1 X0.666 Y0.000 Z0.000 F1200
G1 X4.868 Y0.000 Z0.000 F1200
G1 X12.776 Y0.000 Z0.000 F1200
; --- FIX X Backlash: -0.700mm ---
G0 X12.076 Y0.000 F600
G1 X4.173 Y0.000 Z0.000 F1200
G1 X0.000 Y0.000 Z0.000 F1200
G1 X0.000 Y0.000 Z0.000 F1200
G1 X0.000 Y0.000 Z0.000 F1200
G1 X0.000 Y0.000 Z0.000 F1200
G1 X0.000 Y0.000 Z0.000 F1200
; --- FIX X Backlash: 0.700mm ---
G0 X0.000 Y0.000 F600
G1 X0.000 Y0.000 Z0.000 F1200
G1 X0.000 Y0.000 Z0.000 F1200
G1 X0.000 Y0.000 Z0.000 F1200
G1 X0.667 Y0.000 Z0.000 F1200
G1 X4.393 Y0.000 Z0.000 F1200
G1 X15.336 Y0.000 Z0.000 F1200
; --- FIX X Backlash: -0.700mm ---
G0 X14.636 Y0.000 F600
G1 X3.674 Y0.000 Z0.000 F1200
G1 X0.000 Y0.000 Z0.000 F1200
G1 X0.000 Y0.000 Z0.000 F1200
G1 X0.000 Y0.000 Z0.000 F1200
G1 X0.000 Y0.000 Z0.000 F1200
G1 X0.000 Y0.000 Z0.000 F1200
; --- FIX X Backlash: 0.700mm ---
G0 X0.000 Y0.000 F600
G1 X0.000 Y0.000 Z0.000 F1200
G1 X0.000 Y0.000 Z0.000 F1200
G1 X0.000 Y0.000 Z0.000 F1200
G1 X0.667 Y0.000 Z0.000 F1200
G1 X3.906 Y0.000 Z0.000 F1200
G1 X17.895 Y0.000 Z0.000 F1200
; --- FIX X Backlash: -0.700mm ---
G0 X17.195 Y0.000 F600
G1 X3.176 Y0.000 Z0.000 F1200
G1 X0.000 Y0.000 Z0.000 F1200
G1 X0.000 Y0.000 Z0.000 F1200
G1 X0.000 Y0.000 Z0.000 F1200
G1 X0.000 Y0.000 Z0.000 F1200
G1 X0.000 Y0.000 Z0.000 F1200
; --- FIX X Backlash: 0.700mm ---
G0 X0.000 Y0.000 F600
G1 X0.000 Y0.000 Z0.000 F1200
G1 X0.000 Y0.000 Z0.000 F1200
G1 X0.000 Y0.000 Z0.000 F1200
G1 X0.667 Y0.000 Z0.000 F1200
G1 X3.418 Y0.000 Z0.000 F1200
G1 X20.425 Y0.000 Z0.000 F1200
; --- FIX X Backlash: -0.700mm ---
G0 X19.725 Y0.000 F600
G1 X2.704 Y0.000 Z0.000 F1200
G1 X0.000 Y0.000 Z0.000 F1200
G1 X0.000 Y0.000 Z0.000 F1200
G1 X0.000 Y0.000 Z0.000 F1200
G1 X0.000 Y0.000 Z0.000 F1200
G1 X0.000 Y0.000 Z0.000 F1200
; --- FIX X Backlash: 0.700mm ---
G0 X0.000 Y0.000 F600
G1 X0.000 Y0.000 Z0.000 F1200
G1 X0.000 Y0.000 Z0.000 F1200
G1 X0.000 Y0.000 Z0.000 F1200
G1 X0.667 Y0.000 Z0.000 F1200
G1 X2.938 Y0.000 Z0.000 F1200
G1 X22.943 Y0.000 Z0.000 F1200
; --- FIX X Backlash: -0.700mm ---
G0 X22.243 Y0.000 F600
G1 X2.224 Y0.000 Z0.000 F1200
G1 X0.000 Y0.000 Z0.000 F1200
G1 X0.000 Y0.000 Z0.000 F1200
G1 X0.000 Y0.000 Z0.000 F1200
G1 X0.000 Y0.000 Z0.000 F1200
G1 X0.000 Y0.000 Z0.000 F1200
; --- FIX X Backlash: 0.700mm ---
G0 X0.000 Y0.000 F600
G1 X0.000 Y0.000 Z0.000 F1200
G1 X0.000 Y0.000 Z0.000 F1200
G1 X0.000 Y0.000 Z0.000 F1200
G1 X0.667 Y0.000 Z0.000 F1200
G1 X2.449 Y0.000 Z0.000 F1200
G1 X25.458 Y0.000 Z0.000 F1200
; --- FIX X Backlash: -0.700mm ---
G0 X24.758 Y0.000 F600
G1 X1.743 Y0.000 Z0.000 F1200
G1 X0.000 Y0.000 Z0.000 F1200
G1 X0.000 Y0.000 Z0.000 F1200
G1 X0.000 Y0.000 Z0.000 F1200
G1 X0.000 Y0.000 Z0.000 F1200
G1 X0.000 Y0.000 Z0.000 F1200
; --- FIX X Backlash: 0.700mm ---
G0 X0.000 Y0.000 F600
G1 X0.000 Y0.000 Z0.000 F1200
G1 X0.000 Y0.000 Z0.000 F1200
G1 X0.000 Y0.000 Z0.000 F1200
G1 X0.667 Y0.000 Z0.000 F1200
G1 X1.967 Y0.000 Z0.000 F1200
G1 X27.956 Y0.000 Z0.000 F1200
; --- FIX X Backlash: -0.700mm ---
G0 X27.256 Y0.000 F600
G1 X1.265 Y0.000 Z0.000 F1200
G1 X0.000 Y0.000 Z0.000 F1200
G1 X0.000 Y0.000 Z0.000 F1200
G1 X0.000 Y0.000 Z0.000 F1200
G1 X0.000 Y0.000 Z0.000 F1200
G1 X0.000 Y0.000 Z0.000 F1200
; --- FIX X Backlash: 0.700mm ---
G0 X0.000 Y0.000 F600
G1 X0.000 Y0.000 Z0.000 F1200
G1 X0.000 Y0.000 Z0.000 F1200
G1 X0.000 Y0.000 Z0.000 F1200
G1 X0.666 Y0.000 Z0.000 F1200
G1 X1.478 Y0.000 Z0.000 F1200
G1 X30.459 Y0.000 Z0.000 F1200
; --- FIX X Backlash: -0.700mm ---
G0 X29.759 Y0.000 F600
G1 X0.765 Y0.000 Z0.000 F1200
G1 X0.000 Y0.000 Z0.000 F1200
G1 X0.000 Y0.000 Z0.000 F1200
G1 X0.000 Y0.000 Z0.000 F1200
G1 X0.000 Y0.000 Z0.000 F1200
G1 X0.000 Y0.000 Z0.000 F1200
; --- FIX X Backlash: 0.700mm ---
G0 X0.000 Y0.000 F600
G1 X0.000 Y0.000 Z0.000 F1200
G1 X0.000 Y0.000 Z0.000 F1200
G90
;Offset @ 1200 mm/min, 80% power

M8
G0 Z4.8F800
; --- FIX Y Backlash: 0.900mm ---
G0 X0.000 Y0.900 F600
G0 X48.320 Y37.146 Z4.800
G1 Z0F800
;Layer C3
G1 X48.543 Y37.974 Z0.000 F1200
G1 X48.793 Y38.765 Z0.000 F1200
G1 X49.076 Y39.531 Z0.000 F1200
G1 X49.393 Y40.274 Z0.000 F1200
G1 X49.744 Y41.000 Z0.000 F1200
G1 X50.133 Y41.708 Z0.000 F1200
G1 X50.559 Y42.405 Z0.000 F1200
G1 X51.023 Y43.092 Z0.000 F1200
G1 X51.062 Y43.144 Z0.000 F1200
; --- FIX X Backlash: -0.700mm ---
G0 X50.362 Y43.144 F600
; --- FIX Y Backlash: -0.900mm ---
G0 X50.362 Y42.244 F600
G1 X50.164 Y42.083 Z0.000 F1200
G1 X49.924 Y41.861 Z0.000 F1200
G1 X49.670 Y41.602 Z0.000 F1200
G1 X49.402 Y41.308 Z0.000 F1200
G1 X49.334 Y41.221 Z0.000 F1200
G1 X49.232 Y41.077 Z0.000 F1200
G1 X49.109 Y40.888 Z0.000 F1200
G1 X48.980 Y40.681 Z0.000 F1200
G1 X48.703 Y40.204 Z0.000 F1200
G1 X48.472 Y39.763 Z0.000 F1200
G1 X48.328 Y39.447 Z0.000 F1200
G1 X48.206 Y39.138 Z0.000 F1200
G1 X48.086 Y38.784 Z0.000 F1200
G1 X47.977 Y38.401 Z0.000 F1200
G1 X47.882 Y38.001 Z0.000 F1200
G1 X47.788 Y37.538 Z0.000 F1200
G1 X47.700 Y37.021 Z0.000 F1200
G1 X47.622 Y36.478 Z0.000 F1200
G1 X47.612 Y36.380 Z0.000 F1200
G1 X47.599 Y36.197 Z0.000 F1200
G1 X47.595 Y36.129 Z0.000 F1200
; --- FIX Y Backlash: 0.900mm ---
G0 X47.595 Y37.029 F600
G1 X47.620 Y37.146 Z0.000 F1200
G0 Z4.8F800
; --- FIX X Backlash: 0.700mm ---
G0 X48.320 Y37.146 F600
G0 X52.267 Y39.796 Z4.800
G1 Z0F800
; --- FIX X Backlash: -0.700mm ---
G0 X51.567 Y39.796 F600
; --- FIX Y Backlash: -0.900mm ---
G0 X51.567 Y38.896 F600
G1 X51.329 Y38.488 Z0.000 F1200
G1 X50.872 Y37.633 Z0.000 F1200
G1 X50.419 Y36.728 Z0.000 F1200
G1 X49.975 Y35.783 Z0.000 F1200
G1 X49.937 Y35.696 Z0.000 F1200
; --- FIX X Backlash: 0.700mm ---
G0 X50.637 Y35.696 F600
; --- FIX Y Backlash: 0.900mm ---
G0 X50.637 Y36.596 F600
G1 X50.700 Y36.662 Z0.000 F1200
G1 X50.895 Y36.872 Z0.000 F1200
G1 X51.057 Y37.051 Z0.000 F1200
G1 X51.237 Y37.259 Z0.000 F1200
G1 X51.447 Y37.506 Z0.000 F1200
G1 X51.687 Y37.791 Z0.000 F1200
G1 X52.371 Y38.654 Z0.000 F1200
G1 X52.974 Y39.507 Z0.000 F1200
G1 X53.509 Y40.369 Z0.000 F1200
G1 X53.994 Y41.266 Z0.000 F1200
G1 X54.261 Y41.834 Z0.000 F1200
G1 X54.514 Y42.435 Z0.000 F1200
G1 X54.599 Y42.655 Z0.000 F1200
; --- FIX X Backlash: -0.700mm ---
G0 X53.899 Y42.655 F600
G1 X53.660 Y42.814 Z0.000 F1200
G1 X53.622 Y42.768 Z0.000 F1200
; --- FIX Y Backlash: -0.900mm ---
G0 X53.622 Y41.868 F600
G1 X53.303 Y41.454 Z0.000 F1200
G1 X52.940 Y40.957 Z0.000 F1200
G1 X52.580 Y40.446 Z0.000 F1200
G1 X52.208 Y39.898 Z0.000 F1200
G1 X51.869 Y39.380 Z0.000 F1200
G1 X51.567 Y38.896 Z0.000 F1200
G0 Z4.8F800
G0 X50.897 Y33.515 Z4.800
G1 Z0F800
; --- FIX X Backlash: 0.700mm ---
G0 X51.597 Y33.515 F600
; --- FIX Y Backlash: 0.900mm ---
G0 X51.597 Y34.415 F600
G1 X51.717 Y34.479 Z0.000 F1200
G1 X52.277 Y34.800 Z0.000 F1200
G1 X52.752 Y35.099 Z0.000 F1200
G1 X53.184 Y35.399 Z0.000 F1200
G1 X53.587 Y35.703 Z0.000 F1200
G1 X53.980 Y36.026 Z0.000 F1200
G1 X54.331 Y36.340 Z0.000 F1200
G1 X54.663 Y36.666 Z0.000 F1200
G1 X54.951 Y36.979 Z0.000 F1200
G1 X55.225 Y37.309 Z0.000 F1200
G1 X55.465 Y37.633 Z0.000 F1200
G1 X55.668 Y37.943 Z0.000 F1200
G1 X55.854 Y38.272 Z0.000 F1200
G1 X56.003 Y38.583 Z0.000 F1200
G1 X56.128 Y38.898 Z0.000 F1200
G1 X56.222 Y39.200 Z0.000 F1200
G1 X56.288 Y39.497 Z0.000 F1200
G1 X56.300 Y39.585 Z0.000 F1200
; --- FIX X Backlash: -0.700mm ---
G0 X55.600 Y39.585 F600
; --- FIX Y Backlash: -0.900mm ---
G0 X55.600 Y38.685 F600
G1 X55.033 Y37.725 Z0.000 F1200
G1 X54.413 Y36.829 Z0.000 F1200
G1 X53.954 Y36.257 Z0.000 F1200
G1 X53.475 Y35.714 Z0.000 F1200
G1 X52.973 Y35.198 Z0.000 F1200
G1 X52.451 Y34.710 Z0.000 F1200
G1 X51.912 Y34.254 Z0.000 F1200
G1 X51.357 Y33.829 Z0.000 F1200
G1 X50.897 Y33.515 Z0.000 F1200
G0 Z4.8F800
G0 X49.177 Y32.660 Z4.800
G1 Z0F800
; --- FIX Y Backlash: 0.900mm ---
G0 X49.177 Y33.560 F600
G1 X48.318 Y34.055 Z0.000 F1200
; --- FIX Y Backlash: -0.900mm ---
G0 X48.318 Y33.155 F600
G1 X47.579 Y33.081 Z0.000 F1200
; --- FIX Y Backlash: 0.900mm ---
G0 X47.579 Y33.981 F600
G1 X47.555 Y34.057 Z0.000 F1200
; --- FIX Y Backlash: -0.900mm ---
G0 X47.555 Y33.157 F600
G1 X47.559 Y32.922 Z0.000 F1200
G1 X47.567 Y32.709 Z0.000 F1200
G1 X47.576 Y32.533 Z0.000 F1200
G1 X47.584 Y32.438 Z0.000 F1200
; --- FIX X Backlash: 0.700mm ---
G0 X48.284 Y32.438 F600
G1 X48.338 Y32.017 Z0.000 F1200
G1 X48.457 Y32.060 Z0.000 F1200
; --- FIX Y Backlash: 0.900mm ---
G0 X48.457 Y32.960 F600
G1 X49.099 Y33.219 Z0.000 F1200
G1 X49.785 Y33.517 Z0.000 F1200
G1 X49.877 Y33.560 Z0.000 F1200
G0 Z4.8F800
G0 X54.563 Y35.339 Z4.800
G1 Z0F800
G1 X54.948 Y35.684 Z0.000 F1200
G1 X55.305 Y36.035 Z0.000 F1200
G1 X55.633 Y36.391 Z0.000 F1200
G1 X55.932 Y36.751 Z0.000 F1200
G1 X56.202 Y37.116 Z0.000 F1200
G1 X56.442 Y37.483 Z0.000 F1200
G1 X56.651 Y37.853 Z0.000 F1200
G1 X56.830 Y38.224 Z0.000 F1200
G1 X56.977 Y38.596 Z0.000 F1200
G1 X57.092 Y38.969 Z0.000 F1200
G1 X57.175 Y39.341 Z0.000 F1200
G1 X57.226 Y39.713 Z0.000 F1200
G1 X57.242 Y40.082 Z0.000 F1200
G1 X57.233 Y40.372 Z0.000 F1200
G1 X57.207 Y40.633 Z0.000 F1200
G1 X57.160 Y40.875 Z0.000 F1200
; --- FIX X Backlash: -0.700mm ---
G0 X56.460 Y40.875 F600
G1 X56.392 Y41.109 Z0.000 F1200
G1 X56.253 Y41.459 Z0.000 F1200
G1 X56.071 Y41.848 Z0.000 F1200
G1 X55.981 Y42.021 Z0.000 F1200
G1 X55.902 Y42.162 Z0.000 F1200
G1 X55.840 Y42.256 Z0.000 F1200
G1 X55.801 Y42.291 Z0.000 F1200
G1 X55.780 Y42.253 Z0.000 F1200
; --- FIX Y Backlash: -0.900mm ---
G0 X55.780 Y41.353 F600
G1 X55.739 Y41.251 Z0.000 F1200
G1 X55.684 Y41.100 Z0.000 F1200
G1 X55.622 Y40.915 Z0.000 F1200
G1 X55.475 Y40.510 Z0.000 F1200
G1 X55.289 Y40.073 Z0.000 F1200
G1 X55.070 Y39.612 Z0.000 F1200
G1 X54.824 Y39.141 Z0.000 F1200
G1 X54.275 Y38.210 Z0.000 F1200
G1 X53.692 Y37.368 Z0.000 F1200
G1 X53.265 Y36.836 Z0.000 F1200
G1 X52.815 Y36.326 Z0.000 F1200
G1 X52.343 Y35.841 Z0.000 F1200
G1 X51.853 Y35.383 Z0.000 F1200
G1 X51.347 Y34.955 Z0.000 F1200
G1 X50.829 Y34.559 Z0.000 F1200
G1 X50.301 Y34.198 Z0.000 F1200
G1 X49.767 Y33.875 Z0.000 F1200
G1 X49.541 Y33.750 Z0.000 F1200
G1 X49.381 Y33.670 Z0.000 F1200
G1 X49.286 Y33.636 Z0.000 F1200
G1 X49.258 Y33.653 Z0.000 F1200
; --- FIX Y Backlash: 0.900mm ---
G0 X49.258 Y34.553 F600
G1 X49.296 Y34.622 Z0.000 F1200
; --- FIX X Backlash: 0.700mm ---
G0 X49.996 Y34.622 F600
G1 X50.100 Y34.748 Z0.000 F1200
G1 X50.272 Y34.932 Z0.000 F1200
G1 X51.132 Y35.812 Z0.000 F1200
G1 X51.359 Y36.049 Z0.000 F1200
G1 X51.554 Y36.259 Z0.000 F1200
G1 X51.736 Y36.461 Z0.000 F1200
G1 X51.923 Y36.676 Z0.000 F1200
G1 X52.133 Y36.923 Z0.000 F1200
G1 X52.384 Y37.223 Z0.000 F1200
G1 X53.092 Y38.116 Z0.000 F1200
G1 X53.725 Y39.010 Z0.000 F1200
G1 X54.290 Y39.919 Z0.000 F1200
G1 X54.796 Y40.858 Z0.000 F1200
G1 X55.083 Y41.469 Z0.000 F1200
G1 X55.349 Y42.097 Z0.000 F1200
G1 X55.458 Y42.380 Z0.000 F1200
G1 X55.543 Y42.621 Z0.000 F1200
G1 X55.599 Y42.806 Z0.000 F1200
G1 X55.619 Y42.920 Z0.000 F1200
G1 X55.583 Y42.993 Z0.000 F1200
; --- FIX X Backlash: -0.700mm ---
G0 X54.883 Y42.993 F600
G1 X54.786 Y43.098 Z0.000 F1200
G1 X54.641 Y43.224 Z0.000 F1200
G1 X54.461 Y43.362 Z0.000 F1200
G1 X54.050 Y43.636 Z0.000 F1200
G1 X53.662 Y43.838 Z0.000 F1200
G1 X53.526 Y43.888 Z0.000 F1200
G1 X53.432 Y43.888 Z0.000 F1200
; --- FIX Y Backlash: -0.900mm ---
G0 X53.432 Y42.988 F600
G1 X53.343 Y42.929 Z0.000 F1200
G1 X53.221 Y42.795 Z0.000 F1200
G1 X52.923 Y42.434 Z0.000 F1200
G1 X52.582 Y41.991 Z0.000 F1200
G1 X52.214 Y41.489 Z0.000 F1200
G1 X51.836 Y40.953 Z0.000 F1200
G1 X51.463 Y40.404 Z0.000 F1200
G1 X51.112 Y39.867 Z0.000 F1200
G1 X50.799 Y39.365 Z0.000 F1200
G1 X50.540 Y38.921 Z0.000 F1200
G1 X50.078 Y38.058 Z0.000 F1200
G1 X49.609 Y37.119 Z0.000 F1200
G1 X49.155 Y36.155 Z0.000 F1200
G1 X48.743 Y35.216 Z0.000 F1200
G1 X48.555 Y34.774 Z0.000 F1200
G1 X48.333 Y34.264 Z0.000 F1200
G1 X48.248 Y34.081 Z0.000 F1200
G1 X48.231 Y34.051 Z0.000 F1200
G1 X48.216 Y34.051 Z0.000 F1200
G1 X48.207 Y34.079 Z0.000 F1200
; --- FIX Y Backlash: 0.900mm ---
G0 X48.207 Y34.979 F600
G1 X48.204 Y35.036 Z0.000 F1200
G1 X48.204 Y35.118 Z0.000 F1200
G1 X48.224 Y35.344 Z0.000 F1200
G1 X48.258 Y35.632 Z0.000 F1200
; --- FIX X Backlash: 0.700mm ---
G0 X48.958 Y35.632 F600
G1 X49.064 Y36.302 Z0.000 F1200
G1 X49.196 Y36.938 Z0.000 F1200
G1 X49.407 Y37.721 Z0.000 F1200
G1 X49.645 Y38.473 Z0.000 F1200
G1 X49.913 Y39.199 Z0.000 F1200
G1 X50.212 Y39.902 Z0.000 F1200
G1 X50.544 Y40.586 Z0.000 F1200
G1 X50.912 Y41.257 Z0.000 F1200
G1 X51.316 Y41.918 Z0.000 F1200
G1 X51.760 Y42.574 Z0.000 F1200
G1 X52.149 Y43.107 Z0.000 F1200
G1 X52.543 Y43.621 Z0.000 F1200
G1 X52.717 Y43.839 Z0.000 F1200
G1 X52.861 Y44.014 Z0.000 F1200
G1 X52.968 Y44.133 Z0.000 F1200
G1 X53.025 Y44.185 Z0.000 F1200
G1 X53.063 Y44.231 Z0.000 F1200
G1 X53.078 Y44.309 Z0.000 F1200
G1 X53.031 Y44.350 Z0.000 F1200
; --- FIX X Backlash: -0.700mm ---
G0 X52.331 Y44.350 F600
G1 X52.202 Y44.381 Z0.000 F1200
G1 X52.009 Y44.402 Z0.000 F1200
G1 X51.773 Y44.411 Z0.000 F1200
G1 X51.243 Y44.396 Z0.000 F1200
; --- FIX Y Backlash: -0.900mm ---
G0 X51.243 Y43.496 F600
G1 X50.761 Y43.433 Z0.000 F1200
G1 X50.536 Y43.369 Z0.000 F1200
G1 X50.307 Y43.271 Z0.000 F1200
G1 X50.072 Y43.139 Z0.000 F1200
G1 X49.827 Y42.970 Z0.000 F1200
G1 X49.571 Y42.761 Z0.000 F1200
G1 X49.302 Y42.512 Z0.000 F1200
G1 X49.016 Y42.221 Z0.000 F1200
G1 X48.711 Y41.885 Z0.000 F1200
G1 X48.613 Y41.761 Z0.000 F1200
G1 X48.491 Y41.589 Z0.000 F1200
G1 X48.355 Y41.380 Z0.000 F1200
G1 X48.209 Y41.146 Z0.000 F1200
G1 X47.916 Y40.640 Z0.000 F1200
G1 X47.662 Y40.156 Z0.000 F1200
G1 X47.502 Y39.806 Z0.000 F1200
G1 X47.358 Y39.440 Z0.000 F1200
G1 X47.227 Y39.052 Z0.000 F1200
G1 X47.109 Y38.637 Z0.000 F1200
G1 X47.001 Y38.189 Z0.000 F1200
G1 X46.903 Y37.703 Z0.000 F1200
G1 X46.813 Y37.172 Z0.000 F1200
G1 X46.729 Y36.592 Z0.000 F1200
G1 X46.714 Y36.451 Z0.000 F1200
G1 X46.701 Y36.258 Z0.000 F1200
G1 X46.689 Y36.023 Z0.000 F1200
G1 X46.678 Y35.751 Z0.000 F1200
G1 X46.662 Y35.129 Z0.000 F1200
G1 X46.653 Y34.451 Z0.000 F1200
G1 X46.650 Y33.774 Z0.000 F1200
G1 X46.654 Y33.159 Z0.000 F1200
G1 X46.660 Y32.892 Z0.000 F1200
G1 X46.668 Y32.662 Z0.000 F1200
G1 X46.677 Y32.476 Z0.000 F1200
G1 X46.689 Y32.343 Z0.000 F1200
; --- FIX X Backlash: 0.700mm ---
G0 X47.389 Y32.343 F600
G1 X47.507 Y31.422 Z0.000 F1200
G1 X47.540 Y31.182 Z0.000 F1200
G1 X47.568 Y30.986 Z0.000 F1200
G1 X47.591 Y30.853 Z0.000 F1200
G1 X47.603 Y30.804 Z0.000 F1200
; --- FIX Y Backlash: 0.900mm ---
G0 X47.603 Y31.704 F600
G1 X47.758 Y31.754 Z0.000 F1200
G1 X48.107 Y31.874 Z0.000 F1200
G1 X48.767 Y32.115 Z0.000 F1200
G1 X49.454 Y32.392 Z0.000 F1200
G1 X50.153 Y32.696 Z0.000 F1200
G1 X50.847 Y33.019 Z0.000 F1200
G1 X51.521 Y33.354 Z0.000 F1200
G1 X52.155 Y33.692 Z0.000 F1200
G1 X52.736 Y34.026 Z0.000 F1200
G1 X53.246 Y34.347 Z0.000 F1200
G1 X53.711 Y34.670 Z0.000 F1200
G1 X54.151 Y35.001 Z0.000 F1200
G1 X54.563 Y35.339 Z0.000 F1200
G0 Z4.8F800
G0 X81.639 Y37.555 Z4.800
G1 Z0F800
; --- FIX X Backlash: -0.700mm ---
G0 X80.939 Y37.555 F600
G1 X80.825 Y38.366 Z0.000 F1200
G1 X80.649 Y39.153 Z0.000 F1200
G1 X80.434 Y39.850 Z0.000 F1200
G1 X80.161 Y40.523 Z0.000 F1200
G1 X79.835 Y41.168 Z0.000 F1200
G1 X79.472 Y41.761 Z0.000 F1200
G1 X79.079 Y42.289 Z0.000 F1200
G1 X78.672 Y42.736 Z0.000 F1200
G1 X78.478 Y42.916 Z0.000 F1200
G1 X78.284 Y43.072 Z0.000 F1200
G1 X78.254 Y43.093 Z0.000 F1200
; --- FIX X Backlash: 0.700mm ---
G0 X78.954 Y43.093 F600
; --- FIX Y Backlash: -0.900mm ---
G0 X78.954 Y42.193 F600
G1 X79.166 Y41.896 Z0.000 F1200
G1 X79.384 Y41.581 Z0.000 F1200
G1 X79.569 Y41.303 Z0.000 F1200
G1 X80.114 Y40.370 Z0.000 F1200
G1 X80.623 Y39.341 Z0.000 F1200
G1 X81.075 Y38.257 Z0.000 F1200
G1 X81.458 Y37.145 Z0.000 F1200
G1 X81.657 Y36.395 Z0.000 F1200
G1 X81.660 Y36.384 Z0.000 F1200
; --- FIX Y Backlash: 0.900mm ---
G0 X81.660 Y37.284 F600
G1 X81.639 Y37.555 Z0.000 F1200
G0 Z4.8F800
; --- FIX X Backlash: -0.700mm ---
G0 X80.939 Y37.555 F600
G0 X77.199 Y39.493 Z4.800
G1 Z0F800
G1 X76.701 Y40.315 Z0.000 F1200
G1 X76.193 Y41.088 Z0.000 F1200
G1 X75.640 Y41.867 Z0.000 F1200
G1 X75.042 Y42.652 Z0.000 F1200
G1 X74.920 Y42.807 Z0.000 F1200
G1 X74.854 Y42.768 Z0.000 F1200
; --- FIX Y Backlash: -0.900mm ---
G0 X74.854 Y41.868 F600
G1 X74.648 Y41.730 Z0.000 F1200
; --- FIX X Backlash: 0.700mm ---
G0 X75.348 Y41.730 F600
G1 X75.407 Y41.584 Z0.000 F1200
G1 X75.530 Y41.298 Z0.000 F1200
G1 X75.682 Y40.965 Z0.000 F1200
G1 X75.835 Y40.641 Z0.000 F1200
G1 X76.009 Y40.293 Z0.000 F1200
G1 X76.376 Y39.607 Z0.000 F1200
G1 X76.774 Y38.940 Z0.000 F1200
G1 X77.204 Y38.293 Z0.000 F1200
G1 X77.684 Y37.635 Z0.000 F1200
G1 X78.210 Y36.975 Z0.000 F1200
G1 X78.812 Y36.277 Z0.000 F1200
G1 X79.382 Y35.659 Z0.000 F1200
; --- FIX X Backlash: -0.700mm ---
G0 X78.682 Y35.659 F600
; --- FIX Y Backlash: 0.900mm ---
G0 X78.682 Y36.559 F600
G1 X78.568 Y36.820 Z0.000 F1200
G1 X78.122 Y37.763 Z0.000 F1200
G1 X77.666 Y38.653 Z0.000 F1200
G1 X77.199 Y39.493 Z0.000 F1200
G0 Z4.8F800
G0 X73.023 Y39.473 Z4.800
G1 Z0F800
; --- FIX Y Backlash: -0.900mm ---
G0 X73.023 Y38.573 F600
G1 X73.029 Y38.513 Z0.000 F1200
G1 X73.063 Y38.324 Z0.000 F1200
; --- FIX X Backlash: 0.700mm ---
G0 X73.763 Y38.324 F600
G1 X73.824 Y38.120 Z0.000 F1200
G1 X73.977 Y37.720 Z0.000 F1200
G1 X74.159 Y37.334 Z0.000 F1200
G1 X74.374 Y36.959 Z0.000 F1200
G1 X74.628 Y36.582 Z0.000 F1200
G1 X74.924 Y36.204 Z0.000 F1200
G1 X75.273 Y35.813 Z0.000 F1200
G1 X75.668 Y35.414 Z0.000 F1200
G1 X76.124 Y34.996 Z0.000 F1200
G1 X76.357 Y34.797 Z0.000 F1200
G1 X76.561 Y34.641 Z0.000 F1200
G1 X76.680 Y34.556 Z0.000 F1200
G1 X76.848 Y34.442 Z0.000 F1200
G1 X77.832 Y33.802 Z0.000 F1200
G1 X78.023 Y33.674 Z0.000 F1200
G1 X78.173 Y33.571 Z0.000 F1200
G1 X78.262 Y33.521 Z0.000 F1200
G1 X78.445 Y33.424 Z0.000 F1200
G1 X78.653 Y33.320 Z0.000 F1200
G1 X78.842 Y33.230 Z0.000 F1200
; --- FIX X Backlash: -0.700mm ---
G0 X78.142 Y33.230 F600
; --- FIX Y Backlash: 0.900mm ---
G0 X78.142 Y34.130 F600
G1 X77.604 Y34.465 Z0.000 F1200
G1 X77.044 Y34.854 Z0.000 F1200
G1 X76.708 Y35.121 Z0.000 F1200
G1 X76.347 Y35.431 Z0.000 F1200
G1 X75.977 Y35.767 Z0.000 F1200
G1 X75.619 Y36.106 Z0.000 F1200
G1 X75.294 Y36.429 Z0.000 F1200
G1 X75.026 Y36.714 Z0.000 F1200
G1 X74.907 Y36.851 Z0.000 F1200
G1 X74.798 Y36.991 Z0.000 F1200
G1 X74.741 Y37.081 Z0.000 F1200
G1 X74.670 Y37.143 Z0.000 F1200
G1 X74.496 Y37.322 Z0.000 F1200
G1 X74.318 Y37.529 Z0.000 F1200
G1 X73.682 Y38.385 Z0.000 F1200
G1 X73.098 Y39.328 Z0.000 F1200
G1 X73.023 Y39.473 Z0.000 F1200
G0 Z4.8F800
; --- FIX X Backlash: 0.700mm ---
G0 X73.723 Y39.473 F600
; --- FIX Y Backlash: -0.900mm ---
G0 X73.723 Y38.573 F600
G0 X79.843 Y32.767 Z4.800
G1 Z0F800
G1 X80.495 Y32.480 Z0.000 F1200
G1 X81.130 Y32.212 Z0.000 F1200
G1 X81.436 Y32.088 Z0.000 F1200
G1 X81.644 Y32.005 Z0.000 F1200
; --- FIX Y Backlash: 0.900mm ---
G0 X81.644 Y32.905 F600
G1 X81.672 Y33.406 Z0.000 F1200
G1 X81.694 Y34.001 Z0.000 F1200
G1 X81.704 Y34.438 Z0.000 F1200
; --- FIX X Backlash: -0.700mm ---
G0 X81.004 Y34.438 F600
; --- FIX Y Backlash: -0.900mm ---
G0 X81.004 Y33.538 F600
G1 X80.620 Y32.957 Z0.000 F1200
; --- FIX Y Backlash: 0.900mm ---
G0 X80.620 Y33.857 F600
G1 X80.271 Y34.078 Z0.000 F1200
; --- FIX X Backlash: 0.700mm ---
G0 X80.971 Y34.078 F600
; --- FIX Y Backlash: -0.900mm ---
G0 X80.971 Y33.178 F600
G1 X81.029 Y32.628 Z0.000 F1200
; --- FIX X Backlash: -0.700mm ---
G0 X80.329 Y32.628 F600
; --- FIX Y Backlash: 0.900mm ---
G0 X80.329 Y33.528 F600
G1 X79.143 Y33.667 Z0.000 F1200
G0 Z4.8F800
G0 X76.818 Y33.830 Z4.800
G1 Z0F800
; --- FIX X Backlash: 0.700mm ---
G0 X77.518 Y33.830 F600
; --- FIX Y Backlash: -0.900mm ---
G0 X77.518 Y32.930 F600
G1 X77.693 Y32.809 Z0.000 F1200
G1 X77.835 Y32.728 Z0.000 F1200
G1 X78.025 Y32.628 Z0.000 F1200
G1 X78.256 Y32.512 Z0.000 F1200
G1 X78.814 Y32.246 Z0.000 F1200
G1 X79.457 Y31.953 Z0.000 F1200
G1 X80.133 Y31.656 Z0.000 F1200
G1 X80.791 Y31.379 Z0.000 F1200
G1 X81.096 Y31.254 Z0.000 F1200
G1 X81.376 Y31.144 Z0.000 F1200
G1 X81.626 Y31.050 Z0.000 F1200
G1 X81.839 Y30.975 Z0.000 F1200
G1 X82.201 Y30.858 Z0.000 F1200
G1 X82.321 Y30.822 Z0.000 F1200
G1 X82.377 Y30.808 Z0.000 F1200
G1 X82.400 Y30.827 Z0.000 F1200
; --- FIX Y Backlash: 0.900mm ---
G0 X82.400 Y31.727 F600
G1 X82.422 Y31.786 Z0.000 F1200
G1 X82.444 Y31.882 Z0.000 F1200
G1 X82.465 Y32.013 Z0.000 F1200
G1 X82.485 Y32.175 Z0.000 F1200
G1 X82.505 Y32.367 Z0.000 F1200
G1 X82.523 Y32.585 Z0.000 F1200
G1 X82.541 Y32.828 Z0.000 F1200
G1 X82.571 Y33.373 Z0.000 F1200
G1 X82.594 Y33.981 Z0.000 F1200
G1 X82.609 Y34.632 Z0.000 F1200
G1 X82.614 Y35.304 Z0.000 F1200
G1 X82.609 Y36.015 Z0.000 F1200
G1 X82.596 Y36.631 Z0.000 F1200
G1 X82.571 Y37.171 Z0.000 F1200
G1 X82.534 Y37.654 Z0.000 F1200
; --- FIX X Backlash: -0.700mm ---
G0 X81.834 Y37.654 F600
G1 X81.713 Y38.522 Z0.000 F1200
G1 X81.518 Y39.386 Z0.000 F1200
G1 X81.283 Y40.152 Z0.000 F1200
G1 X80.981 Y40.897 Z0.000 F1200
G1 X80.622 Y41.606 Z0.000 F1200
G1 X80.218 Y42.266 Z0.000 F1200
G1 X79.777 Y42.859 Z0.000 F1200
G1 X79.309 Y43.374 Z0.000 F1200
G1 X79.068 Y43.596 Z0.000 F1200
G1 X78.824 Y43.793 Z0.000 F1200
G1 X78.579 Y43.963 Z0.000 F1200
G1 X78.333 Y44.104 Z0.000 F1200
G1 X78.032 Y44.249 Z0.000 F1200
G1 X77.784 Y44.331 Z0.000 F1200
G1 X77.649 Y44.355 Z0.000 F1200
G1 X77.491 Y44.373 Z0.000 F1200
G1 X77.298 Y44.385 Z0.000 F1200
G1 X77.057 Y44.395 Z0.000 F1200
G1 X76.755 Y44.402 Z0.000 F1200
G1 X76.499 Y44.398 Z0.000 F1200
G1 X76.396 Y44.393 Z0.000 F1200
G1 X76.315 Y44.385 Z0.000 F1200
G1 X76.259 Y44.375 Z0.000 F1200
G1 X76.231 Y44.363 Z0.000 F1200
G1 X76.223 Y44.320 Z0.000 F1200
; --- FIX Y Backlash: -0.900mm ---
G0 X76.223 Y43.420 F600
G1 X76.250 Y43.349 Z0.000 F1200
; --- FIX X Backlash: 0.700mm ---
G0 X76.950 Y43.349 F600
G1 X77.006 Y43.257 Z0.000 F1200
G1 X77.087 Y43.156 Z0.000 F1200
G1 X77.246 Y42.966 Z0.000 F1200
G1 X77.450 Y42.706 Z0.000 F1200
G1 X77.686 Y42.397 Z0.000 F1200
G1 X77.938 Y42.059 Z0.000 F1200
G1 X78.191 Y41.713 Z0.000 F1200
G1 X78.430 Y41.378 Z0.000 F1200
G1 X78.640 Y41.076 Z0.000 F1200
G1 X78.805 Y40.827 Z0.000 F1200
G1 X79.321 Y39.943 Z0.000 F1200
G1 X79.803 Y38.968 Z0.000 F1200
G1 X80.233 Y37.936 Z0.000 F1200
G1 X80.596 Y36.882 Z0.000 F1200
G1 X80.782 Y36.186 Z0.000 F1200
G1 X80.945 Y35.414 Z0.000 F1200
G1 X81.009 Y35.050 Z0.000 F1200
G1 X81.056 Y34.726 Z0.000 F1200
G1 X81.082 Y34.465 Z0.000 F1200
G1 X81.082 Y34.284 Z0.000 F1200
G1 X81.074 Y34.218 Z0.000 F1200
G1 X81.056 Y34.190 Z0.000 F1200
G1 X81.025 Y34.210 Z0.000 F1200
; --- FIX Y Backlash: 0.900mm ---
G0 X81.025 Y35.110 F600
G1 X80.978 Y35.183 Z0.000 F1200
; --- FIX X Backlash: -0.700mm ---
G0 X80.278 Y35.183 F600
G1 X80.210 Y35.316 Z0.000 F1200
G1 X80.117 Y35.519 Z0.000 F1200
G1 X79.996 Y35.797 Z0.000 F1200
G1 X79.842 Y36.159 Z0.000 F1200
G1 X79.387 Y37.192 Z0.000 F1200
G1 X78.929 Y38.162 Z0.000 F1200
G1 X78.461 Y39.076 Z0.000 F1200
G1 X77.976 Y39.947 Z0.000 F1200
G1 X77.468 Y40.786 Z0.000 F1200
G1 X76.932 Y41.602 Z0.000 F1200
G1 X76.362 Y42.406 Z0.000 F1200
G1 X75.749 Y43.208 Z0.000 F1200
G1 X75.200 Y43.907 Z0.000 F1200
G1 X75.165 Y43.919 Z0.000 F1200
G1 X75.103 Y43.910 Z0.000 F1200
G1 X75.016 Y43.880 Z0.000 F1200
G1 X74.910 Y43.833 Z0.000 F1200
; --- FIX Y Backlash: -0.900mm ---
G0 X74.910 Y42.933 F600
G1 X74.656 Y42.799 Z0.000 F1200
G1 X74.373 Y42.628 Z0.000 F1200
G1 X74.094 Y42.442 Z0.000 F1200
G1 X73.855 Y42.263 Z0.000 F1200
G1 X73.759 Y42.181 Z0.000 F1200
G1 X73.686 Y42.109 Z0.000 F1200
G1 X73.639 Y42.050 Z0.000 F1200
G1 X73.622 Y42.005 Z0.000 F1200
G1 X73.640 Y41.892 Z0.000 F1200
; --- FIX X Backlash: 0.700mm ---
G0 X74.340 Y41.892 F600
G1 X74.391 Y41.721 Z0.000 F1200
G1 X74.472 Y41.496 Z0.000 F1200
G1 X74.580 Y41.228 Z0.000 F1200
G1 X74.711 Y40.925 Z0.000 F1200
G1 X74.862 Y40.592 Z0.000 F1200
G1 X75.030 Y40.240 Z0.000 F1200
G1 X75.211 Y39.876 Z0.000 F1200
G1 X75.593 Y39.163 Z0.000 F1200
G1 X76.010 Y38.466 Z0.000 F1200
G1 X76.466 Y37.777 Z0.000 F1200
G1 X76.968 Y37.089 Z0.000 F1200
G1 X77.521 Y36.395 Z0.000 F1200
G1 X78.130 Y35.689 Z0.000 F1200
G1 X78.800 Y34.964 Z0.000 F1200
G1 X79.736 Y34.007 Z0.000 F1200
G1 X79.893 Y33.833 Z0.000 F1200
G1 X79.951 Y33.764 Z0.000 F1200
G1 X79.992 Y33.709 Z0.000 F1200
G1 X80.015 Y33.671 Z0.000 F1200
G1 X80.015 Y33.652 Z0.000 F1200
; --- FIX X Backlash: -0.700mm ---
G0 X79.315 Y33.652 F600
G1 X79.250 Y33.660 Z0.000 F1200
; --- FIX Y Backlash: 0.900mm ---
G0 X79.250 Y34.560 F600
G1 X79.105 Y34.623 Z0.000 F1200
G1 X78.900 Y34.730 Z0.000 F1200
G1 X78.653 Y34.872 Z0.000 F1200
G1 X78.098 Y35.217 Z0.000 F1200
G1 X77.582 Y35.576 Z0.000 F1200
G1 X77.282 Y35.814 Z0.000 F1200
G1 X76.943 Y36.106 Z0.000 F1200
G1 X76.589 Y36.427 Z0.000 F1200
G1 X76.246 Y36.752 Z0.000 F1200
G1 X75.939 Y37.057 Z0.000 F1200
G1 X75.694 Y37.318 Z0.000 F1200
G1 X75.602 Y37.424 Z0.000 F1200
G1 X75.534 Y37.510 Z0.000 F1200
G1 X75.495 Y37.572 Z0.000 F1200
G1 X75.487 Y37.608 Z0.000 F1200
G1 X75.487 Y37.669 Z0.000 F1200
G1 X75.445 Y37.685 Z0.000 F1200
G1 X75.387 Y37.712 Z0.000 F1200
G1 X75.288 Y37.797 Z0.000 F1200
G1 X75.161 Y37.929 Z0.000 F1200
G1 X75.021 Y38.092 Z0.000 F1200
G1 X74.427 Y38.892 Z0.000 F1200
G1 X73.881 Y39.772 Z0.000 F1200
G1 X73.406 Y40.692 Z0.000 F1200
G1 X73.024 Y41.611 Z0.000 F1200
G1 X72.798 Y42.238 Z0.000 F1200
; --- FIX Y Backlash: -0.900mm ---
G0 X72.798 Y41.338 F600
G1 X72.643 Y41.121 Z0.000 F1200
G1 X72.478 Y40.848 Z0.000 F1200
G1 X72.297 Y40.495 Z0.000 F1200
G1 X72.192 Y40.248 Z0.000 F1200
G1 X72.134 Y40.012 Z0.000 F1200
G1 X72.119 Y39.870 Z0.000 F1200
G1 X72.110 Y39.695 Z0.000 F1200
G1 X72.106 Y39.476 Z0.000 F1200
G1 X72.106 Y39.203 Z0.000 F1200
G1 X72.106 Y38.948 Z0.000 F1200
G1 X72.111 Y38.733 Z0.000 F1200
G1 X72.121 Y38.551 Z0.000 F1200
G1 X72.136 Y38.392 Z0.000 F1200
; --- FIX X Backlash: 0.700mm ---
G0 X72.836 Y38.392 F600
G1 X72.887 Y38.113 Z0.000 F1200
G1 X72.972 Y37.827 Z0.000 F1200
G1 X73.148 Y37.366 Z0.000 F1200
G1 X73.359 Y36.919 Z0.000 F1200
G1 X73.609 Y36.483 Z0.000 F1200
G1 X73.899 Y36.054 Z0.000 F1200
G1 X74.234 Y35.626 Z0.000 F1200
G1 X74.616 Y35.198 Z0.000 F1200
G1 X75.047 Y34.763 Z0.000 F1200
G1 X75.531 Y34.320 Z0.000 F1200
G1 X75.787 Y34.101 Z0.000 F1200
G1 X76.032 Y33.912 Z0.000 F1200
G1 X76.174 Y33.811 Z0.000 F1200
G1 X76.342 Y33.698 Z0.000 F1200
G1 X77.336 Y33.051 Z0.000 F1200
G1 X77.518 Y32.930 Z0.000 F1200
;Cut @ 1600.002 mm/min, 90% power

M8
G0 Z4.8F800
; --- FIX X Backlash: -0.700mm ---
G0 X76.818 Y32.930 F600
; --- FIX Y Backlash: 0.900mm ---
G0 X76.818 Y33.830 F600
G0 X67.112 Y38.397 Z4.800
G1 Z0F800
;Layer C2
G1 X67.046 Y38.386 Z0.000 F1200
G1 X66.890 Y38.375 Z0.000 F1200
G1 X66.656 Y38.366 Z0.000 F1200
G1 X66.352 Y38.357 Z0.000 F1200
G1 X65.990 Y38.350 Z0.000 F1200
G1 X65.578 Y38.345 Z0.000 F1200
G1 X65.128 Y38.341 Z0.000 F1200
G1 X64.324 Y38.341 Z0.000 F1200
G1 X63.755 Y38.341 Z0.000 F1200
G1 X63.093 Y38.349 Z0.000 F1200
G1 X62.767 Y38.358 Z0.000 F1200
G1 X62.524 Y38.370 Z0.000 F1200
G1 X62.354 Y38.385 Z0.000 F1200
G1 X62.250 Y38.404 Z0.000 F1200
G1 X62.203 Y38.427 Z0.000 F1200
G1 X62.185 Y38.464 Z0.000 F1200
G1 X62.160 Y38.536 Z0.000 F1200
G1 X62.130 Y38.640 Z0.000 F1200
G1 X62.097 Y38.769 Z0.000 F1200
G1 X62.021 Y39.091 Z0.000 F1200
G1 X61.943 Y39.468 Z0.000 F1200
G1 X61.859 Y39.885 Z0.000 F1200
G1 X61.689 Y40.713 Z0.000 F1200
G1 X61.569 Y41.280 Z0.000 F1200
G1 X61.516 Y41.542 Z0.000 F1200
G1 X61.473 Y41.777 Z0.000 F1200
G1 X61.444 Y41.954 Z0.000 F1200
G1 X61.429 Y42.075 Z0.000 F1200
G1 X61.413 Y42.164 Z0.000 F1200
G1 X61.381 Y42.229 Z0.000 F1200
G1 X61.315 Y42.277 Z0.000 F1200
G1 X61.201 Y42.316 Z0.000 F1200
G1 X61.023 Y42.355 Z0.000 F1200
G1 X60.764 Y42.400 Z0.000 F1200
G1 X60.244 Y42.487 Z0.000 F1200
G1 X60.114 Y42.506 Z0.000 F1200
G1 X60.013 Y42.516 Z0.000 F1200
G1 X59.936 Y42.519 Z0.000 F1200
G1 X59.834 Y42.497 Z0.000 F1200
; --- FIX Y Backlash: -0.900mm ---
G0 X59.834 Y41.597 F600
G1 X59.765 Y41.540 Z0.000 F1200
G1 X59.735 Y41.501 Z0.000 F1200
G1 X59.625 Y41.347 Z0.000 F1200
G1 X59.361 Y40.961 Z0.000 F1200
G1 X59.140 Y40.631 Z0.000 F1200
G1 X58.653 Y39.894 Z0.000 F1200
G1 X58.061 Y38.979 Z0.000 F1200
G1 X57.941 Y38.802 Z0.000 F1200
G1 X57.854 Y38.683 Z0.000 F1200
G1 X57.813 Y38.639 Z0.000 F1200
G1 X57.805 Y38.657 Z0.000 F1200
; --- FIX Y Backlash: 0.900mm ---
G0 X57.805 Y39.557 F600
G1 X57.799 Y39.610 Z0.000 F1200
G1 X57.793 Y39.693 Z0.000 F1200
G1 X57.787 Y39.803 Z0.000 F1200
G1 X57.779 Y40.089 Z0.000 F1200
G1 X57.773 Y40.712 Z0.000 F1200
G1 X57.768 Y40.935 Z0.000 F1200
G1 X57.758 Y41.121 Z0.000 F1200
G1 X57.741 Y41.281 Z0.000 F1200
G1 X57.681 Y41.568 Z0.000 F1200
G1 X57.575 Y41.890 Z0.000 F1200
G1 X57.378 Y42.441 Z0.000 F1200
; --- FIX X Backlash: 0.700mm ---
G0 X58.078 Y42.441 F600
G1 X59.397 Y44.414 Z0.000 F1200
G1 X59.913 Y45.182 Z0.000 F1200
G1 X60.343 Y45.816 Z0.000 F1200
G1 X60.641 Y46.249 Z0.000 F1200
G1 X60.728 Y46.370 Z0.000 F1200
G1 X60.764 Y46.416 Z0.000 F1200
G1 X60.818 Y46.416 Z0.000 F1200
G1 X60.931 Y46.399 Z0.000 F1200
G1 X61.087 Y46.365 Z0.000 F1200
G1 X61.268 Y46.319 Z0.000 F1200
; --- FIX Y Backlash: -0.900mm ---
G0 X61.268 Y45.419 F600
G1 X61.634 Y45.329 Z0.000 F1200
G1 X62.037 Y45.251 Z0.000 F1200
G1 X62.472 Y45.185 Z0.000 F1200
G1 X62.933 Y45.130 Z0.000 F1200
G1 X63.912 Y45.058 Z0.000 F1200
G1 X64.932 Y45.034 Z0.000 F1200
G1 X65.952 Y45.057 Z0.000 F1200
; --- FIX Y Backlash: 0.900mm ---
G0 X65.952 Y45.957 F600
G1 X66.930 Y46.028 Z0.000 F1200
G1 X67.389 Y46.082 Z0.000 F1200
G1 X67.823 Y46.147 Z0.000 F1200
G1 X68.225 Y46.225 Z0.000 F1200
G1 X68.590 Y46.315 Z0.000 F1200
G1 X68.799 Y46.372 Z0.000 F1200
G1 X68.961 Y46.413 Z0.000 F1200
G1 X69.083 Y46.437 Z0.000 F1200
G1 X69.172 Y46.445 Z0.000 F1200
G1 X69.281 Y46.414 Z0.000 F1200
; --- FIX Y Backlash: -0.900mm ---
G0 X69.281 Y45.514 F600
G1 X69.347 Y45.417 Z0.000 F1200
G1 X69.378 Y45.365 Z0.000 F1200
G1 X69.525 Y45.138 Z0.000 F1200
G1 X69.908 Y44.569 Z0.000 F1200
G1 X70.229 Y44.100 Z0.000 F1200
G1 X71.308 Y42.533 Z0.000 F1200
G1 X71.407 Y42.378 Z0.000 F1200
G1 X71.480 Y42.243 Z0.000 F1200
G1 X71.520 Y42.142 Z0.000 F1200
G1 X71.520 Y42.090 Z0.000 F1200
G1 X71.493 Y42.077 Z0.000 F1200
; --- FIX X Backlash: -0.700mm ---
G0 X70.793 Y42.077 F600
G1 X70.735 Y42.056 Z0.000 F1200
G1 X70.538 Y41.995 Z0.000 F1200
G1 X70.253 Y41.915 Z0.000 F1200
G1 X69.905 Y41.822 Z0.000 F1200
G1 X69.117 Y41.622 Z0.000 F1200
G1 X68.370 Y41.448 Z0.000 F1200
G1 X67.952 Y41.356 Z0.000 F1200
G1 X67.416 Y38.643 Z0.000 F1200
G1 X67.326 Y38.216 Z0.000 F1200
G1 X67.238 Y37.857 Z0.000 F1200
G1 X67.199 Y37.716 Z0.000 F1200
G1 X67.164 Y37.605 Z0.000 F1200
G1 X67.134 Y37.531 Z0.000 F1200
G1 X67.112 Y37.497 Z0.000 F1200
G0 Z4.8F800
; --- FIX X Backlash: 0.700mm ---
G0 X67.812 Y37.497 F600
; --- FIX Y Backlash: 0.900mm ---
G0 X67.812 Y38.397 F600
G0 X77.418 Y46.323 Z4.800
G1 Z0F800
; --- FIX X Backlash: -0.700mm ---
G0 X76.718 Y46.323 F600
G1 X75.705 Y48.314 Z0.000 F1200
G1 X75.453 Y48.802 Z0.000 F1200
G1 X75.265 Y49.160 Z0.000 F1200
G1 X75.169 Y49.336 Z0.000 F1200
G1 X75.126 Y49.439 Z0.000 F1200
G1 X75.167 Y49.552 Z0.000 F1200
; --- FIX X Backlash: 0.700mm ---
G0 X75.867 Y49.552 F600
G1 X75.932 Y49.630 Z0.000 F1200
G1 X76.034 Y49.732 Z0.000 F1200
G1 X76.178 Y49.866 Z0.000 F1200
G1 X76.369 Y50.038 Z0.000 F1200
G1 X77.172 Y50.787 Z0.000 F1200
G1 X77.913 Y51.538 Z0.000 F1200
G1 X78.593 Y52.292 Z0.000 F1200
G1 X79.215 Y53.053 Z0.000 F1200
G1 X79.781 Y53.824 Z0.000 F1200
G1 X80.294 Y54.609 Z0.000 F1200
G1 X80.757 Y55.410 Z0.000 F1200
G1 X81.172 Y56.231 Z0.000 F1200
G1 X81.337 Y56.604 Z0.000 F1200
G1 X81.511 Y57.031 Z0.000 F1200
G1 X81.686 Y57.497 Z0.000 F1200
G1 X81.857 Y57.984 Z0.000 F1200
G1 X82.020 Y58.478 Z0.000 F1200
G1 X82.167 Y58.961 Z0.000 F1200
G1 X82.295 Y59.417 Z0.000 F1200
G1 X82.397 Y59.830 Z0.000 F1200
G1 X82.582 Y60.787 Z0.000 F1200
G1 X82.716 Y61.774 Z0.000 F1200
G1 X82.798 Y62.780 Z0.000 F1200
G1 X82.828 Y63.792 Z0.000 F1200
G1 X82.806 Y64.798 Z0.000 F1200
; --- FIX X Backlash: -0.700mm ---
G0 X82.106 Y64.798 F600
G1 X82.031 Y65.787 Z0.000 F1200
G1 X81.905 Y66.747 Z0.000 F1200
G1 X81.727 Y67.664 Z0.000 F1200
G1 X81.657 Y67.953 Z0.000 F1200
G1 X81.569 Y68.284 Z0.000 F1200
G1 X81.471 Y68.637 Z0.000 F1200
G1 X81.365 Y68.997 Z0.000 F1200
G1 X81.259 Y69.344 Z0.000 F1200
G1 X81.158 Y69.661 Z0.000 F1200
G1 X81.066 Y69.931 Z0.000 F1200
G1 X80.989 Y70.135 Z0.000 F1200
G1 X80.770 Y70.664 Z0.000 F1200
G1 X80.677 Y70.873 Z0.000 F1200
G1 X80.538 Y71.162 Z0.000 F1200
G1 X80.370 Y71.502 Z0.000 F1200
G1 X80.186 Y71.865 Z0.000 F1200
G1 X80.002 Y72.222 Z0.000 F1200
G1 X79.832 Y72.543 Z0.000 F1200
G1 X79.757 Y72.681 Z0.000 F1200
G1 X79.636 Y72.896 Z0.000 F1200
G1 X79.593 Y72.964 Z0.000 F1200
G1 X79.466 Y73.155 Z0.000 F1200
G1 X79.294 Y73.407 Z0.000 F1200
G1 X78.886 Y73.993 Z0.000 F1200
G1 X78.513 Y74.521 Z0.000 F1200
G1 X78.383 Y74.699 Z0.000 F1200
G1 X78.316 Y74.786 Z0.000 F1200
G1 X78.172 Y74.954 Z0.000 F1200
G1 X77.927 Y75.249 Z0.000 F1200
G1 X77.610 Y75.622 Z0.000 F1200
G1 X77.292 Y75.979 Z0.000 F1200
G1 X77.166 Y76.119 Z0.000 F1200
G1 X77.055 Y76.247 Z0.000 F1200
G1 X76.972 Y76.347 Z0.000 F1200
G1 X76.929 Y76.405 Z0.000 F1200
G1 X76.929 Y76.454 Z0.000 F1200
G1 X76.949 Y76.547 Z0.000 F1200
G1 X76.995 Y76.687 Z0.000 F1200
; --- FIX X Backlash: 0.700mm ---
G0 X77.695 Y76.687 F600
G1 X77.768 Y76.876 Z0.000 F1200
G1 X77.866 Y77.114 Z0.000 F1200
G1 X77.991 Y77.403 Z0.000 F1200
G1 X78.143 Y77.744 Z0.000 F1200
G1 X78.323 Y78.139 Z0.000 F1200
G1 X78.458 Y78.445 Z0.000 F1200
G1 X78.750 Y79.131 Z0.000 F1200
G1 X78.861 Y79.384 Z0.000 F1200
G1 X78.961 Y79.602 Z0.000 F1200
G1 X79.049 Y79.785 Z0.000 F1200
G1 X79.123 Y79.930 Z0.000 F1200
G1 X79.184 Y80.035 Z0.000 F1200
G1 X79.231 Y80.100 Z0.000 F1200
G1 X79.262 Y80.122 Z0.000 F1200
G1 X79.317 Y80.091 Z0.000 F1200
; --- FIX Y Backlash: -0.900mm ---
G0 X79.317 Y79.191 F600
G1 X79.424 Y79.107 Z0.000 F1200
G1 X79.568 Y78.982 Z0.000 F1200
G1 X79.733 Y78.830 Z0.000 F1200
G1 X80.441 Y78.159 Z0.000 F1200
; --- FIX Y Backlash: 0.900mm ---
G0 X80.441 Y79.059 F600
G1 X81.696 Y79.642 Z0.000 F1200
G1 X82.792 Y80.139 Z0.000 F1200
G1 X83.135 Y80.291 Z0.000 F1200
G1 X83.421 Y80.404 Z0.000 F1200
G1 X83.656 Y80.480 Z0.000 F1200
G1 X83.846 Y80.520 Z0.000 F1200
G1 X83.997 Y80.524 Z0.000 F1200
G1 X84.115 Y80.493 Z0.000 F1200
; --- FIX Y Backlash: -0.900mm ---
G0 X84.115 Y79.593 F600
G1 X84.206 Y79.528 Z0.000 F1200
G1 X84.276 Y79.430 Z0.000 F1200
G1 X84.304 Y79.384 Z0.000 F1200
G1 X84.441 Y79.183 Z0.000 F1200
G1 X84.807 Y78.662 Z0.000 F1200
G1 X85.128 Y78.210 Z0.000 F1200
G1 X85.866 Y77.183 Z0.000 F1200
G1 X86.594 Y76.182 Z0.000 F1200
G1 X86.762 Y75.942 Z0.000 F1200
G1 X86.900 Y75.727 Z0.000 F1200
G1 X86.992 Y75.558 Z0.000 F1200
G1 X87.027 Y75.460 Z0.000 F1200
G1 X86.992 Y75.372 Z0.000 F1200
; --- FIX X Backlash: -0.700mm ---
G0 X86.292 Y75.372 F600
G1 X86.197 Y75.229 Z0.000 F1200
G1 X86.057 Y75.052 Z0.000 F1200
G1 X85.885 Y74.861 Z0.000 F1200
G1 X84.844 Y73.759 Z0.000 F1200
G1 X84.385 Y73.268 Z0.000 F1200
G1 X84.215 Y73.082 Z0.000 F1200
G1 X84.080 Y72.929 Z0.000 F1200
G1 X83.976 Y72.807 Z0.000 F1200
G1 X83.900 Y72.709 Z0.000 F1200
G1 X83.848 Y72.632 Z0.000 F1200
G1 X83.816 Y72.571 Z0.000 F1200
G1 X83.801 Y72.522 Z0.000 F1200
G1 X83.808 Y72.442 Z0.000 F1200
; --- FIX X Backlash: 0.700mm ---
G0 X84.508 Y72.442 F600
G1 X84.588 Y72.220 Z0.000 F1200
G1 X84.667 Y72.019 Z0.000 F1200
G1 X84.765 Y71.779 Z0.000 F1200
G1 X85.117 Y70.939 Z0.000 F1200
G1 X85.440 Y70.138 Z0.000 F1200
G1 X85.527 Y69.938 Z0.000 F1200
G1 X85.600 Y69.788 Z0.000 F1200
G1 X85.650 Y69.708 Z0.000 F1200
G1 X85.693 Y69.684 Z0.000 F1200
G1 X85.783 Y69.663 Z0.000 F1200
G1 X85.922 Y69.644 Z0.000 F1200
G1 X86.118 Y69.628 Z0.000 F1200
G1 X86.373 Y69.613 Z0.000 F1200
G1 X86.695 Y69.599 Z0.000 F1200
G1 X87.087 Y69.586 Z0.000 F1200
G1 X88.091 Y69.560 Z0.000 F1200
G1 X88.514 Y69.546 Z0.000 F1200
G1 X88.841 Y69.532 Z0.000 F1200
G1 X89.084 Y69.516 Z0.000 F1200
G1 X89.257 Y69.497 Z0.000 F1200
G1 X89.375 Y69.473 Z0.000 F1200
G1 X89.451 Y69.444 Z0.000 F1200
G1 X89.499 Y69.409 Z0.000 F1200
G1 X89.557 Y69.312 Z0.000 F1200
G1 X89.619 Y69.139 Z0.000 F1200
G1 X89.681 Y68.906 Z0.000 F1200
G1 X89.738 Y68.626 Z0.000 F1200
G1 X89.835 Y68.095 Z0.000 F1200
G1 X89.951 Y67.470 Z0.000 F1200
G1 X90.308 Y65.597 Z0.000 F1200
G1 X90.376 Y65.216 Z0.000 F1200
G1 X90.425 Y64.888 Z0.000 F1200
G1 X90.441 Y64.754 Z0.000 F1200
G1 X90.450 Y64.646 Z0.000 F1200
G1 X90.453 Y64.568 Z0.000 F1200
G1 X90.447 Y64.526 Z0.000 F1200
G1 X90.406 Y64.446 Z0.000 F1200
; --- FIX X Backlash: -0.700mm ---
G0 X89.706 Y64.446 F600
G1 X89.585 Y64.371 Z0.000 F1200
G1 X89.459 Y64.319 Z0.000 F1200
G1 X89.271 Y64.250 Z0.000 F1200
G1 X88.179 Y63.866 Z0.000 F1200
G1 X87.722 Y63.702 Z0.000 F1200
G1 X87.297 Y63.547 Z0.000 F1200
G1 X86.916 Y63.405 Z0.000 F1200
G1 X86.593 Y63.281 Z0.000 F1200
G1 X86.340 Y63.180 Z0.000 F1200
G1 X86.169 Y63.107 Z0.000 F1200
G1 X86.119 Y63.082 Z0.000 F1200
G1 X86.094 Y63.066 Z0.000 F1200
G1 X86.082 Y63.029 Z0.000 F1200
G1 X86.067 Y62.942 Z0.000 F1200
G1 X86.052 Y62.813 Z0.000 F1200
G1 X86.035 Y62.646 Z0.000 F1200
G1 X86.002 Y62.221 Z0.000 F1200
G1 X85.972 Y61.712 Z0.000 F1200
G1 X85.943 Y61.187 Z0.000 F1200
G1 X85.916 Y60.719 Z0.000 F1200
G1 X85.893 Y60.359 Z0.000 F1200
G1 X85.877 Y60.158 Z0.000 F1200
G1 X85.869 Y60.012 Z0.000 F1200
G1 X85.904 Y59.914 Z0.000 F1200
G1 X85.946 Y59.872 Z0.000 F1200
; --- FIX X Backlash: 0.700mm ---
G0 X86.646 Y59.872 F600
G1 X86.709 Y59.829 Z0.000 F1200
G1 X86.796 Y59.780 Z0.000 F1200
G1 X87.818 Y59.242 Z0.000 F1200
G1 X88.741 Y58.732 Z0.000 F1200
G1 X89.143 Y58.501 Z0.000 F1200
G1 X89.470 Y58.307 Z0.000 F1200
G1 X89.598 Y58.229 Z0.000 F1200
G1 X89.697 Y58.164 Z0.000 F1200
G1 X89.764 Y58.117 Z0.000 F1200
G1 X89.796 Y58.088 Z0.000 F1200
G1 X89.842 Y57.948 Z0.000 F1200
G1 X89.833 Y57.729 Z0.000 F1200
G1 X89.807 Y57.584 Z0.000 F1200
G1 X89.767 Y57.413 Z0.000 F1200
; --- FIX X Backlash: -0.700mm ---
G0 X89.067 Y57.413 F600
G1 X89.011 Y57.212 Z0.000 F1200
G1 X88.169 Y54.507 Z0.000 F1200
G1 X88.072 Y54.210 Z0.000 F1200
G1 X87.983 Y53.949 Z0.000 F1200
G1 X87.903 Y53.727 Z0.000 F1200
G1 X87.833 Y53.545 Z0.000 F1200
G1 X87.774 Y53.405 Z0.000 F1200
G1 X87.726 Y53.312 Z0.000 F1200
G1 X87.690 Y53.266 Z0.000 F1200
G1 X87.643 Y53.234 Z0.000 F1200
G1 X87.584 Y53.212 Z0.000 F1200
G1 X87.487 Y53.203 Z0.000 F1200
G1 X87.325 Y53.208 Z0.000 F1200
G1 X87.212 Y53.216 Z0.000 F1200
G1 X86.903 Y53.244 Z0.000 F1200
G1 X86.463 Y53.290 Z0.000 F1200
; --- FIX Y Backlash: 0.900mm ---
G0 X86.463 Y54.190 F600
G1 X84.668 Y54.389 Z0.000 F1200
G1 X84.467 Y54.408 Z0.000 F1200
G1 X84.299 Y54.420 Z0.000 F1200
G1 X84.159 Y54.424 Z0.000 F1200
G1 X84.043 Y54.420 Z0.000 F1200
G1 X83.949 Y54.406 Z0.000 F1200
; --- FIX Y Backlash: -0.900mm ---
G0 X83.949 Y53.506 F600
G1 X83.808 Y53.445 Z0.000 F1200
G1 X83.706 Y53.337 Z0.000 F1200
G1 X83.613 Y53.174 Z0.000 F1200
G1 X83.502 Y52.949 Z0.000 F1200
G1 X83.170 Y52.338 Z0.000 F1200
G1 X82.790 Y51.688 Z0.000 F1200
G1 X82.628 Y51.419 Z0.000 F1200
G1 X82.496 Y51.188 Z0.000 F1200
G1 X82.445 Y51.094 Z0.000 F1200
G1 X82.407 Y51.018 Z0.000 F1200
G1 X82.383 Y50.965 Z0.000 F1200
G1 X82.374 Y50.936 Z0.000 F1200
G1 X82.395 Y50.889 Z0.000 F1200
; --- FIX X Backlash: 0.700mm ---
G0 X83.095 Y50.889 F600
G1 X83.155 Y50.785 Z0.000 F1200
G1 X83.250 Y50.630 Z0.000 F1200
G1 X83.375 Y50.431 Z0.000 F1200
G1 X83.526 Y50.194 Z0.000 F1200
G1 X83.892 Y49.633 Z0.000 F1200
G1 X84.310 Y49.001 Z0.000 F1200
G1 X84.504 Y48.699 Z0.000 F1200
G1 X84.679 Y48.422 Z0.000 F1200
G1 X84.829 Y48.177 Z0.000 F1200
G1 X84.951 Y47.968 Z0.000 F1200
G1 X85.043 Y47.802 Z0.000 F1200
G1 X85.101 Y47.684 Z0.000 F1200
G1 X85.121 Y47.620 Z0.000 F1200
G1 X85.108 Y47.566 Z0.000 F1200
G1 X85.067 Y47.490 Z0.000 F1200
; --- FIX X Backlash: -0.700mm ---
G0 X84.367 Y47.490 F600
G1 X84.298 Y47.390 Z0.000 F1200
G1 X84.200 Y47.265 Z0.000 F1200
G1 X84.070 Y47.114 Z0.000 F1200
G1 X83.909 Y46.935 Z0.000 F1200
G1 X83.716 Y46.726 Z0.000 F1200
G1 X83.488 Y46.488 Z0.000 F1200
G1 X82.859 Y45.838 Z0.000 F1200
G1 X82.337 Y45.301 Z0.000 F1200
G1 X81.912 Y44.870 Z0.000 F1200
G1 X81.576 Y44.535 Z0.000 F1200
G1 X81.321 Y44.290 Z0.000 F1200
G1 X81.221 Y44.198 Z0.000 F1200
G1 X81.138 Y44.125 Z0.000 F1200
G1 X81.019 Y44.032 Z0.000 F1200
G1 X80.955 Y44.003 Z0.000 F1200
G1 X80.902 Y44.024 Z0.000 F1200
; --- FIX Y Backlash: 0.900mm ---
G0 X80.902 Y44.924 F600
G1 X80.788 Y44.987 Z0.000 F1200
G1 X80.623 Y45.085 Z0.000 F1200
G1 X80.412 Y45.216 Z0.000 F1200
G1 X80.163 Y45.373 Z0.000 F1200
G1 X79.882 Y45.554 Z0.000 F1200
G1 X79.576 Y45.754 Z0.000 F1200
G1 X79.253 Y45.968 Z0.000 F1200
G1 X77.657 Y47.033 Z0.000 F1200
; --- FIX Y Backlash: -0.900mm ---
G0 X77.657 Y46.133 F600
G1 X76.718 Y45.423 Z0.000 F1200
G0 Z4.8F800
; --- FIX Y Backlash: 0.900mm ---
G0 X76.718 Y46.323 F600
G0 X53.507 Y49.490 Z4.800
G1 Z0F800
; --- FIX Y Backlash: -0.900mm ---
G0 X53.507 Y48.590 F600
G1 X53.483 Y48.525 Z0.000 F1200
G1 X53.416 Y48.388 Z0.000 F1200
G1 X53.318 Y48.199 Z0.000 F1200
G1 X52.937 Y47.496 Z0.000 F1200
G1 X52.599 Y46.860 Z0.000 F1200
G1 X52.007 Y45.730 Z0.000 F1200
G1 X51.890 Y45.510 Z0.000 F1200
G1 X51.840 Y45.422 Z0.000 F1200
G1 X51.802 Y45.436 Z0.000 F1200
; --- FIX Y Backlash: 0.900mm ---
G0 X51.802 Y46.336 F600
G1 X51.714 Y46.395 Z0.000 F1200
G1 X51.591 Y46.489 Z0.000 F1200
G1 X51.293 Y46.736 Z0.000 F1200
G1 X51.155 Y46.847 Z0.000 F1200
G1 X51.047 Y46.931 Z0.000 F1200
G1 X50.983 Y46.977 Z0.000 F1200
G1 X50.948 Y46.973 Z0.000 F1200
G1 X50.877 Y46.943 Z0.000 F1200
; --- FIX Y Backlash: -0.900mm ---
G0 X50.877 Y46.043 F600
G1 X50.775 Y45.991 Z0.000 F1200
G1 X50.644 Y45.919 Z0.000 F1200
G1 X50.312 Y45.723 Z0.000 F1200
G1 X49.913 Y45.474 Z0.000 F1200
G1 X49.477 Y45.193 Z0.000 F1200
G1 X49.036 Y44.898 Z0.000 F1200
G1 X48.618 Y44.609 Z0.000 F1200
G1 X48.083 Y44.221 Z0.000 F1200
G1 X47.938 Y44.131 Z0.000 F1200
G1 X47.813 Y44.076 Z0.000 F1200
G1 X47.702 Y44.055 Z0.000 F1200
G1 X47.596 Y44.068 Z0.000 F1200
G1 X47.489 Y44.115 Z0.000 F1200
; --- FIX Y Backlash: 0.900mm ---
G0 X47.489 Y45.015 F600
G1 X47.373 Y45.096 Z0.000 F1200
G1 X47.241 Y45.210 Z0.000 F1200
G1 X47.149 Y45.299 Z0.000 F1200
G1 X47.007 Y45.439 Z0.000 F1200
G1 X46.604 Y45.847 Z0.000 F1200
G1 X46.088 Y46.375 Z0.000 F1200
G1 X45.517 Y46.967 Z0.000 F1200
G1 X45.113 Y47.389 Z0.000 F1200
G1 X44.794 Y47.728 Z0.000 F1200
G1 X44.550 Y47.993 Z0.000 F1200
G1 X44.373 Y48.195 Z0.000 F1200
G1 X44.255 Y48.345 Z0.000 F1200
G1 X44.186 Y48.453 Z0.000 F1200
G1 X44.157 Y48.530 Z0.000 F1200
G1 X44.160 Y48.587 Z0.000 F1200
G1 X44.180 Y48.633 Z0.000 F1200
G1 X44.217 Y48.705 Z0.000 F1200
; --- FIX X Backlash: 0.700mm ---
G0 X44.917 Y48.705 F600
G1 X44.971 Y48.800 Z0.000 F1200
G1 X45.037 Y48.913 Z0.000 F1200
G1 X45.202 Y49.181 Z0.000 F1200
G1 X45.394 Y49.479 Z0.000 F1200
G1 X45.582 Y49.767 Z0.000 F1200
G1 X45.796 Y50.099 Z0.000 F1200
G1 X45.869 Y50.218 Z0.000 F1200
G1 X45.890 Y50.257 Z0.000 F1200
G1 X45.969 Y50.382 Z0.000 F1200
G1 X46.202 Y50.732 Z0.000 F1200
G1 X46.934 Y51.812 Z0.000 F1200
; --- FIX X Backlash: -0.700mm ---
G0 X46.234 Y51.812 F600
G1 X45.936 Y52.268 Z0.000 F1200
G1 X45.784 Y52.512 Z0.000 F1200
G1 X45.590 Y52.840 Z0.000 F1200
G1 X45.381 Y53.209 Z0.000 F1200
G1 X45.057 Y53.799 Z0.000 F1200
G1 X44.953 Y53.983 Z0.000 F1200
G1 X44.864 Y54.132 Z0.000 F1200
G1 X44.788 Y54.246 Z0.000 F1200
G1 X44.724 Y54.331 Z0.000 F1200
G1 X44.669 Y54.387 Z0.000 F1200
G1 X44.621 Y54.419 Z0.000 F1200
G1 X44.579 Y54.430 Z0.000 F1200
G1 X44.516 Y54.426 Z0.000 F1200
G1 X44.206 Y54.400 Z0.000 F1200
G1 X43.703 Y54.353 Z0.000 F1200
; --- FIX Y Backlash: -0.900mm ---
G0 X43.703 Y53.453 F600
G1 X42.347 Y53.317 Z0.000 F1200
G1 X42.007 Y53.286 Z0.000 F1200
G1 X41.704 Y53.261 Z0.000 F1200
G1 X41.443 Y53.243 Z0.000 F1200
G1 X41.227 Y53.231 Z0.000 F1200
G1 X41.061 Y53.226 Z0.000 F1200
G1 X40.948 Y53.229 Z0.000 F1200
G1 X40.893 Y53.239 Z0.000 F1200
G1 X40.848 Y53.287 Z0.000 F1200
; --- FIX Y Backlash: 0.900mm ---
G0 X40.848 Y54.187 F600
G1 X40.791 Y54.291 Z0.000 F1200
G1 X40.721 Y54.454 Z0.000 F1200
G1 X40.636 Y54.684 Z0.000 F1200
G1 X40.533 Y54.985 Z0.000 F1200
G1 X40.411 Y55.363 Z0.000 F1200
G1 X40.268 Y55.824 Z0.000 F1200
G1 X40.002 Y56.704 Z0.000 F1200
G1 X39.810 Y57.324 Z0.000 F1200
G1 X39.658 Y57.797 Z0.000 F1200
G1 X39.585 Y58.039 Z0.000 F1200
G1 X39.523 Y58.258 Z0.000 F1200
G1 X39.474 Y58.451 Z0.000 F1200
G1 X39.438 Y58.616 Z0.000 F1200
G1 X39.415 Y58.748 Z0.000 F1200
G1 X39.407 Y58.846 Z0.000 F1200
G1 X39.414 Y58.905 Z0.000 F1200
; --- FIX X Backlash: 0.700mm ---
G0 X40.114 Y58.905 F600
G1 X40.181 Y58.990 Z0.000 F1200
G1 X40.329 Y59.109 Z0.000 F1200
G1 X40.555 Y59.261 Z0.000 F1200
G1 X40.857 Y59.445 Z0.000 F1200
G1 X41.231 Y59.659 Z0.000 F1200
G1 X41.676 Y59.902 Z0.000 F1200
G1 X42.189 Y60.171 Z0.000 F1200
G1 X42.766 Y60.466 Z0.000 F1200
G1 X43.429 Y60.801 Z0.000 F1200
; --- FIX X Backlash: -0.700mm ---
G0 X42.729 Y60.801 F600
G1 X42.643 Y62.265 Z0.000 F1200
G1 X42.586 Y63.136 Z0.000 F1200
G1 X42.564 Y63.445 Z0.000 F1200
G1 X42.544 Y63.679 Z0.000 F1200
G1 X42.526 Y63.842 Z0.000 F1200
G1 X42.511 Y63.941 Z0.000 F1200
G1 X42.497 Y63.981 Z0.000 F1200
G1 X42.466 Y63.998 Z0.000 F1200
G1 X42.398 Y64.028 Z0.000 F1200
G1 X42.165 Y64.122 Z0.000 F1200
G1 X41.829 Y64.250 Z0.000 F1200
G1 X41.425 Y64.401 Z0.000 F1200
G1 X40.984 Y64.562 Z0.000 F1200
G1 X40.538 Y64.722 Z0.000 F1200
G1 X40.121 Y64.868 Z0.000 F1200
G1 X39.765 Y64.989 Z0.000 F1200
G1 X39.462 Y65.096 Z0.000 F1200
G1 X39.200 Y65.202 Z0.000 F1200
G1 X39.092 Y65.250 Z0.000 F1200
G1 X39.006 Y65.293 Z0.000 F1200
G1 X38.944 Y65.330 Z0.000 F1200
G1 X38.910 Y65.359 Z0.000 F1200
G1 X38.876 Y65.416 Z0.000 F1200
G1 X38.855 Y65.495 Z0.000 F1200
G1 X38.847 Y65.605 Z0.000 F1200
G1 X38.854 Y65.756 Z0.000 F1200
G1 X38.876 Y65.957 Z0.000 F1200
G1 X38.913 Y66.218 Z0.000 F1200
; --- FIX X Backlash: 0.700mm ---
G0 X39.613 Y66.218 F600
G1 X39.667 Y66.549 Z0.000 F1200
G1 X39.853 Y67.604 Z0.000 F1200
G1 X40.148 Y69.267 Z0.000 F1200
G1 X40.198 Y69.525 Z0.000 F1200
G1 X40.245 Y69.747 Z0.000 F1200
G1 X40.288 Y69.932 Z0.000 F1200
G1 X40.328 Y70.081 Z0.000 F1200
G1 X40.365 Y70.195 Z0.000 F1200
G1 X40.399 Y70.274 Z0.000 F1200
G1 X40.431 Y70.321 Z0.000 F1200
G1 X40.479 Y70.354 Z0.000 F1200
G1 X40.552 Y70.381 Z0.000 F1200
G1 X40.663 Y70.404 Z0.000 F1200
G1 X40.822 Y70.422 Z0.000 F1200
G1 X41.038 Y70.438 Z0.000 F1200
G1 X41.323 Y70.452 Z0.000 F1200
G1 X41.686 Y70.465 Z0.000 F1200
G1 X42.138 Y70.479 Z0.000 F1200
G1 X43.346 Y70.509 Z0.000 F1200
G1 X44.021 Y70.522 Z0.000 F1200
G1 X44.194 Y70.529 Z0.000 F1200
G1 X44.298 Y70.574 Z0.000 F1200
G1 X44.337 Y70.622 Z0.000 F1200
G1 X44.375 Y70.694 Z0.000 F1200
G1 X44.417 Y70.795 Z0.000 F1200
G1 X44.602 Y71.278 Z0.000 F1200
G1 X44.713 Y71.546 Z0.000 F1200
G1 X44.828 Y71.813 Z0.000 F1200
G1 X45.537 Y73.487 Z0.000 F1200
; --- FIX X Backlash: -0.700mm ---
G0 X44.837 Y73.487 F600
G1 X43.967 Y74.420 Z0.000 F1200
G1 X43.243 Y75.193 Z0.000 F1200
G1 X42.723 Y75.743 Z0.000 F1200
G1 X42.575 Y75.906 Z0.000 F1200
G1 X42.448 Y76.064 Z0.000 F1200
G1 X42.355 Y76.198 Z0.000 F1200
G1 X42.310 Y76.291 Z0.000 F1200
G1 X42.297 Y76.358 Z0.000 F1200
G1 X42.304 Y76.433 Z0.000 F1200
G1 X42.346 Y76.541 Z0.000 F1200
; --- FIX X Backlash: 0.700mm ---
G0 X43.046 Y76.541 F600
G1 X43.141 Y76.706 Z0.000 F1200
G1 X43.213 Y76.819 Z0.000 F1200
G1 X43.305 Y76.956 Z0.000 F1200
G1 X43.552 Y77.316 Z0.000 F1200
G1 X43.899 Y77.811 Z0.000 F1200
G1 X45.206 Y79.666 Z0.000 F1200
G1 X45.499 Y80.086 Z0.000 F1200
G1 X45.651 Y80.305 Z0.000 F1200
G1 X45.735 Y80.418 Z0.000 F1200
G1 X45.822 Y80.496 Z0.000 F1200
G1 X45.922 Y80.540 Z0.000 F1200
G1 X46.045 Y80.549 Z0.000 F1200
G1 X46.202 Y80.523 Z0.000 F1200
; --- FIX Y Backlash: -0.900mm ---
G0 X46.202 Y79.623 F600
G1 X46.402 Y79.560 Z0.000 F1200
G1 X46.656 Y79.461 Z0.000 F1200
G1 X46.973 Y79.324 Z0.000 F1200
G1 X47.349 Y79.157 Z0.000 F1200
G1 X48.229 Y78.759 Z0.000 F1200
G1 X49.552 Y78.151 Z0.000 F1200
; --- FIX Y Backlash: 0.900mm ---
G0 X49.552 Y79.051 F600
G1 X49.815 Y79.279 Z0.000 F1200
G1 X50.094 Y79.530 Z0.000 F1200
G1 X50.521 Y79.934 Z0.000 F1200
G1 X50.633 Y80.031 Z0.000 F1200
G1 X50.719 Y80.097 Z0.000 F1200
G1 X50.766 Y80.122 Z0.000 F1200
; --- FIX Y Backlash: -0.900mm ---
G0 X50.766 Y79.222 F600
G1 X50.828 Y79.165 Z0.000 F1200
G1 X50.896 Y79.028 Z0.000 F1200
G1 X50.996 Y78.787 Z0.000 F1200
G1 X51.134 Y78.481 Z0.000 F1200
G1 X51.522 Y77.640 Z0.000 F1200
G1 X51.917 Y76.769 Z0.000 F1200
G1 X52.244 Y76.036 Z0.000 F1200
G1 X52.325 Y75.845 Z0.000 F1200
G1 X52.366 Y75.696 Z0.000 F1200
G1 X52.366 Y75.570 Z0.000 F1200
; --- FIX X Backlash: -0.700mm ---
G0 X51.666 Y75.570 F600
G1 X51.612 Y75.445 Z0.000 F1200
G1 X51.508 Y75.299 Z0.000 F1200
G1 X51.347 Y75.113 Z0.000 F1200
G1 X51.123 Y74.864 Z0.000 F1200
G1 X50.630 Y74.294 Z0.000 F1200
G1 X50.167 Y73.721 Z0.000 F1200
G1 X49.732 Y73.145 Z0.000 F1200
G1 X49.327 Y72.563 Z0.000 F1200
G1 X48.949 Y71.975 Z0.000 F1200
G1 X48.600 Y71.381 Z0.000 F1200
G1 X48.277 Y70.778 Z0.000 F1200
G1 X47.981 Y70.166 Z0.000 F1200
G1 X47.712 Y69.543 Z0.000 F1200
G1 X47.468 Y68.909 Z0.000 F1200
G1 X47.249 Y68.263 Z0.000 F1200
G1 X47.055 Y67.602 Z0.000 F1200
G1 X46.885 Y66.928 Z0.000 F1200
G1 X46.739 Y66.237 Z0.000 F1200
G1 X46.616 Y65.529 Z0.000 F1200
G1 X46.515 Y64.804 Z0.000 F1200
G1 X46.494 Y64.588 Z0.000 F1200
G1 X46.477 Y64.340 Z0.000 F1200
G1 X46.464 Y64.065 Z0.000 F1200
G1 X46.456 Y63.767 Z0.000 F1200
G1 X46.453 Y63.119 Z0.000 F1200
G1 X46.466 Y62.433 Z0.000 F1200
G1 X46.494 Y61.744 Z0.000 F1200
G1 X46.536 Y61.089 Z0.000 F1200
G1 X46.562 Y60.786 Z0.000 F1200
G1 X46.591 Y60.504 Z0.000 F1200
G1 X46.623 Y60.249 Z0.000 F1200
G1 X46.658 Y60.024 Z0.000 F1200
; --- FIX X Backlash: 0.700mm ---
G0 X47.358 Y60.024 F600
G1 X47.578 Y58.932 Z0.000 F1200
G1 X47.852 Y57.884 Z0.000 F1200
G1 X48.180 Y56.873 Z0.000 F1200
G1 X48.566 Y55.895 Z0.000 F1200
G1 X49.012 Y54.944 Z0.000 F1200
G1 X49.520 Y54.016 Z0.000 F1200
G1 X50.091 Y53.105 Z0.000 F1200
G1 X50.730 Y52.205 Z0.000 F1200
G1 X50.857 Y52.043 Z0.000 F1200
G1 X51.010 Y51.856 Z0.000 F1200
G1 X51.185 Y51.651 Z0.000 F1200
G1 X51.379 Y51.429 Z0.000 F1200
G1 X51.810 Y50.954 Z0.000 F1200
G1 X52.273 Y50.460 Z0.000 F1200
G1 X52.739 Y49.979 Z0.000 F1200
G1 X53.180 Y49.541 Z0.000 F1200
G1 X53.382 Y49.347 Z0.000 F1200
G1 X53.568 Y49.175 Z0.000 F1200
G1 X53.732 Y49.028 Z0.000 F1200
G1 X54.002 Y48.803 Z0.000 F1200
G1 X54.109 Y48.707 Z0.000 F1200
G1 X54.181 Y48.632 Z0.000 F1200
G1 X54.207 Y48.590 Z0.000 F1200
G0 Z4.8F800
; --- FIX Y Backlash: 0.900mm ---
G0 X54.207 Y49.490 F600
G0 X57.395 Y79.839 Z4.800
G1 Z0F800
G1 X57.375 Y79.853 Z0.000 F1200
G1 X57.339 Y79.891 Z0.000 F1200
G1 X57.289 Y79.951 Z0.000 F1200
; --- FIX X Backlash: -0.700mm ---
G0 X56.589 Y79.951 F600
G1 X56.527 Y80.031 Z0.000 F1200
G1 X56.375 Y80.239 Z0.000 F1200
G1 X56.199 Y80.492 Z0.000 F1200
G1 X56.018 Y80.760 Z0.000 F1200
G1 X55.713 Y81.201 Z0.000 F1200
G1 X55.583 Y81.385 Z0.000 F1200
G1 X55.396 Y81.656 Z0.000 F1200
G1 X54.936 Y82.326 Z0.000 F1200
G1 X54.148 Y83.480 Z0.000 F1200
G1 X53.506 Y84.414 Z0.000 F1200
G1 X52.749 Y85.506 Z0.000 F1200
G1 X52.554 Y85.798 Z0.000 F1200
G1 X52.480 Y85.911 Z0.000 F1200
G1 X52.426 Y85.999 Z0.000 F1200
G1 X52.394 Y86.056 Z0.000 F1200
G1 X52.387 Y86.079 Z0.000 F1200
; --- FIX X Backlash: 0.700mm ---
G0 X53.087 Y86.079 F600
G1 X53.144 Y86.118 Z0.000 F1200
G1 X53.249 Y86.177 Z0.000 F1200
G1 X53.393 Y86.254 Z0.000 F1200
G1 X53.571 Y86.346 Z0.000 F1200
G1 X53.999 Y86.558 Z0.000 F1200
G1 X54.480 Y86.790 Z0.000 F1200
G1 X54.959 Y87.015 Z0.000 F1200
G1 X55.383 Y87.207 Z0.000 F1200
G1 X55.557 Y87.283 Z0.000 F1200
G1 X55.697 Y87.341 Z0.000 F1200
G1 X55.796 Y87.378 Z0.000 F1200
G1 X55.848 Y87.391 Z0.000 F1200
G1 X55.954 Y87.371 Z0.000 F1200
; --- FIX Y Backlash: -0.900mm ---
G0 X55.954 Y86.471 F600
G1 X56.065 Y86.400 Z0.000 F1200
G1 X56.198 Y86.264 Z0.000 F1200
G1 X56.370 Y86.050 Z0.000 F1200
G1 X56.693 Y85.635 Z0.000 F1200
G1 X57.316 Y84.862 Z0.000 F1200
G1 X57.823 Y84.210 Z0.000 F1200
G1 X57.962 Y84.033 Z0.000 F1200
G1 X58.072 Y83.898 Z0.000 F1200
G1 X58.231 Y83.715 Z0.000 F1200
G1 X58.331 Y83.584 Z0.000 F1200
G1 X58.392 Y83.509 Z0.000 F1200
G1 X58.451 Y83.476 Z0.000 F1200
G1 X58.525 Y83.479 Z0.000 F1200
; --- FIX Y Backlash: 0.900mm ---
G0 X58.525 Y84.379 F600
G1 X58.824 Y84.480 Z0.000 F1200
G1 X59.093 Y84.558 Z0.000 F1200
G1 X59.415 Y84.643 Z0.000 F1200
G1 X59.765 Y84.729 Z0.000 F1200
G1 X60.119 Y84.810 Z0.000 F1200
G1 X60.451 Y84.880 Z0.000 F1200
G1 X60.736 Y84.934 Z0.000 F1200
G1 X60.951 Y84.964 Z0.000 F1200
G1 X61.170 Y84.993 Z0.000 F1200
G1 X61.324 Y85.030 Z0.000 F1200
G1 X61.424 Y85.077 Z0.000 F1200
G1 X61.480 Y85.139 Z0.000 F1200
G1 X61.501 Y85.200 Z0.000 F1200
G1 X61.534 Y85.326 Z0.000 F1200
G1 X61.578 Y85.509 Z0.000 F1200
G1 X61.630 Y85.741 Z0.000 F1200
G1 X61.690 Y86.015 Z0.000 F1200
G1 X61.824 Y86.656 Z0.000 F1200
G1 X61.971 Y87.386 Z0.000 F1200
G1 X62.043 Y87.728 Z0.000 F1200
G1 X62.110 Y88.030 Z0.000 F1200
G1 X62.171 Y88.290 Z0.000 F1200
G1 X62.225 Y88.501 Z0.000 F1200
G1 X62.271 Y88.662 Z0.000 F1200
G1 X62.308 Y88.766 Z0.000 F1200
G1 X62.335 Y88.811 Z0.000 F1200
G1 X62.406 Y88.823 Z0.000 F1200
G1 X62.574 Y88.835 Z0.000 F1200
G1 X62.826 Y88.845 Z0.000 F1200
G1 X63.153 Y88.854 Z0.000 F1200
G1 X63.543 Y88.861 Z0.000 F1200
G1 X63.986 Y88.867 Z0.000 F1200
G1 X64.471 Y88.871 Z0.000 F1200
G1 X64.987 Y88.871 Z0.000 F1200
G1 X67.543 Y88.871 Z0.000 F1200
; --- FIX Y Backlash: -0.900mm ---
G0 X67.543 Y87.971 F600
G1 X67.647 Y87.815 Z0.000 F1200
G1 X67.696 Y87.703 Z0.000 F1200
G1 X67.755 Y87.516 Z0.000 F1200
G1 X67.815 Y87.280 Z0.000 F1200
G1 X67.869 Y87.021 Z0.000 F1200
G1 X68.116 Y85.746 Z0.000 F1200
G1 X68.438 Y84.130 Z0.000 F1200
G1 X69.069 Y84.042 Z0.000 F1200
G1 X69.386 Y83.989 Z0.000 F1200
G1 X69.783 Y83.910 Z0.000 F1200
G1 X70.209 Y83.815 Z0.000 F1200
G1 X70.614 Y83.715 Z0.000 F1200
G1 X71.528 Y83.475 Z0.000 F1200
; --- FIX Y Backlash: 0.900mm ---
G0 X71.528 Y84.375 F600
G1 X71.673 Y84.559 Z0.000 F1200
G1 X72.276 Y85.321 Z0.000 F1200
G1 X72.714 Y85.878 Z0.000 F1200
G1 X73.344 Y86.697 Z0.000 F1200
G1 X73.523 Y86.924 Z0.000 F1200
G1 X73.666 Y87.096 Z0.000 F1200
G1 X73.780 Y87.222 Z0.000 F1200
G1 X73.873 Y87.307 Z0.000 F1200
G1 X73.952 Y87.358 Z0.000 F1200
G1 X74.023 Y87.384 Z0.000 F1200
G1 X74.093 Y87.391 Z0.000 F1200
G1 X74.158 Y87.377 Z0.000 F1200
G1 X74.271 Y87.337 Z0.000 F1200
; --- FIX Y Backlash: -0.900mm ---
G0 X74.271 Y86.437 F600
G1 X74.425 Y86.374 Z0.000 F1200
G1 X74.612 Y86.291 Z0.000 F1200
G1 X75.060 Y86.085 Z0.000 F1200
G1 X75.555 Y85.844 Z0.000 F1200
G1 X76.041 Y85.599 Z0.000 F1200
G1 X76.459 Y85.378 Z0.000 F1200
G1 X76.625 Y85.285 Z0.000 F1200
G1 X76.753 Y85.209 Z0.000 F1200
G1 X76.834 Y85.154 Z0.000 F1200
G1 X76.863 Y85.121 Z0.000 F1200
G1 X76.835 Y85.042 Z0.000 F1200
; --- FIX X Backlash: -0.700mm ---
G0 X76.135 Y85.042 F600
G1 X76.066 Y84.944 Z0.000 F1200
G1 X76.035 Y84.904 Z0.000 F1200
G1 X75.907 Y84.730 Z0.000 F1200
G1 X75.594 Y84.293 Z0.000 F1200
G1 X75.074 Y83.555 Z0.000 F1200
G1 X74.707 Y83.027 Z0.000 F1200
G1 X74.226 Y82.320 Z0.000 F1200
G1 X73.696 Y81.558 Z0.000 F1200
G1 X73.316 Y81.003 Z0.000 F1200
G1 X72.821 Y80.275 Z0.000 F1200
G1 X72.215 Y79.380 Z0.000 F1200
G1 X72.094 Y79.209 Z0.000 F1200
G1 X71.984 Y79.069 Z0.000 F1200
G1 X71.897 Y78.974 Z0.000 F1200
G1 X71.846 Y78.939 Z0.000 F1200
G1 X71.780 Y78.957 Z0.000 F1200
G1 X71.650 Y79.003 Z0.000 F1200
; --- FIX Y Backlash: 0.900mm ---
G0 X71.650 Y79.903 F600
G1 X71.477 Y79.973 Z0.000 F1200
G1 X71.278 Y80.058 Z0.000 F1200
G1 X70.761 Y80.267 Z0.000 F1200
G1 X70.180 Y80.471 Z0.000 F1200
G1 X69.553 Y80.665 Z0.000 F1200
G1 X68.900 Y80.844 Z0.000 F1200
G1 X68.238 Y81.004 Z0.000 F1200
G1 X67.587 Y81.139 Z0.000 F1200
G1 X66.966 Y81.245 Z0.000 F1200
G1 X66.393 Y81.317 Z0.000 F1200
G1 X65.941 Y81.351 Z0.000 F1200
G1 X65.424 Y81.375 Z0.000 F1200
G1 X64.863 Y81.387 Z0.000 F1200
G1 X64.281 Y81.387 Z0.000 F1200
G1 X63.696 Y81.378 Z0.000 F1200
G1 X63.131 Y81.358 Z0.000 F1200
G1 X62.606 Y81.327 Z0.000 F1200
G1 X62.142 Y81.285 Z0.000 F1200
; --- FIX Y Backlash: -0.900mm ---
G0 X62.142 Y80.385 F600
G1 X60.817 Y80.189 Z0.000 F1200
G1 X59.491 Y79.899 Z0.000 F1200
G1 X58.853 Y79.726 Z0.000 F1200
G1 X58.245 Y79.537 Z0.000 F1200
G1 X57.676 Y79.334 Z0.000 F1200
G1 X57.158 Y79.121 Z0.000 F1200
G1 X56.995 Y79.050 Z0.000 F1200
G1 X56.854 Y78.993 Z0.000 F1200
G1 X56.749 Y78.954 Z0.000 F1200
G1 X56.695 Y78.939 Z0.000 F1200
M9
M5
G1 Z10 F500
G90
G1 Z10 F800

M2 ; End of G-code