;LightBurn 1.6.04
;Custom GCode device profile, absolute coords
;Bounds: X26.33 Y27.83 to X123.7 Y62.17
G00 G17 G40 G21 G54
G90
M3
G1 Z10 F500
;Scan @ 1500 mm/min, 80% power

M8
G0 Z3.5 F500
G0 X26.326 Y37.389 Z3.5 
G1 Z0 F500
;Layer C1
G91
G1 X0.625 Z0 S0 F800
G1 X0.175 Z0 S800 F800
G1 X1.406 Z0 S0 F800
G1 X1.289 Z0 S800 F800
G1 X9.395 Z0 S0 F800
G1 X0.725 Z0 S800 F800
G1 X6.278 Z0 S0 F800
G1 X2.861 Z0 S800 F800
G1 X2.519 Z0 S0 F800
G1 X2.221 Z0 S800 F800
G1 X2.772 Z0 S0 F800
G1 X2.924 Z0 S800 F800
G1 X4.885 Z0 S0 F800
G1 X3.186 Z0 S800 F800
G1 X2.246 Z0 S0 F800
G1 X2.537 Z0 S800 F800
G1 X21.862 Z0 S0 F800
G1 X1.384 Z0 S800 F800
G1 X7.636 Z0 S0 F800
G1 X1.995 Z0 S800 F800
G1 X8.445 Z0 S0 F800
G1 X3.213 Z0 S800 F800
G1 X0.625 Z0 S0 F800
G1 X2.111 Y0.9 Z0 F800
G1 X-0.625 Z0 F800
G1 X-7.756 Z0 S800 F800
G1 X-5.179 Z0 S0 F800
G1 X-3.479 Z0 S800 F800
G1 X-5.759 Z0 S0 F800
G1 X-3.305 Z0 S800 F800
G1 X-20.35 Z0 S0 F800
G1 X-3.673 Z0 S800 F800
G1 X-0.773 Z0 S0 F800
G1 X-5.409 Z0 S800 F800
G1 X-3.239 Z0 S0 F800
G1 X-3.355 Z0 S800 F800
G1 X-2.041 Z0 S0 F800
G1 X-3.287 Z0 S800 F800
G1 X-0.826 Z0 S0 F800
G1 X-5.563 Z0 S800 F800
G1 X-3.044 Z0 S0 F800
G1 X-3.285 Z0 S800 F800
G1 X-8.353 Z0 S0 F800
G1 X-3.298 Z0 S800 F800
G1 X-0.625 Z0 S0 F800
G1 X0.142 Y0.9 Z0 F800
G1 X0.625 Z0 F800
G1 X3.251 Z0 S800 F800
G1 X8.399 Z0 S0 F800
G1 X3.274 Z0 S800 F800
G1 X2.517 Z0 S0 F800
G1 X10.39 Z0 S800 F800
G1 X1.871 Z0 S0 F800
G1 X3.489 Z0 S800 F800
G1 X2.376 Z0 S0 F800
G1 X10.522 Z0 S800 F800
G1 X20.269 Z0 S0 F800
G1 X3.697 Z0 S800 F800
G1 X4.894 Z0 S0 F800
G1 X4.223 Z0 S800 F800
G1 X3.957 Z0 S0 F800
G1 X9.891 Z0 S800 F800
G1 X0.625 Z0 S0 F800
G1 X0.86 Y0.9 Z0 F800
G1 X-0.625 Z0 F800
G1 X-11.351 Z0 S800 F800
G1 X-3.215 Z0 S0 F800
G1 X-4.831 Z0 S800 F800
G1 X-4.229 Z0 S0 F800
G1 X-3.732 Z0 S800 F800
G1 X-20.421 Z0 S0 F800
G1 X-4.372 Z0 S800 F800
G1 X-2.102 Z0 S0 F800
G1 X-4.397 Z0 S800 F800
G1 X-1.869 Z0 S0 F800
G1 X-3.512 Z0 S800 F800
G1 X-1.869 Z0 S0 F800
G1 X-4.722 Z0 S800 F800
G1 X-1.481 Z0 S0 F800
G1 X-4.454 Z0 S800 F800
G1 X-2.269 Z0 S0 F800
G1 X-3.263 Z0 S800 F800
G1 X-8.448 Z0 S0 F800
G1 X-3.201 Z0 S800 F800
G1 X-0.625 Z0 S0 F800
G1 X0.142 Y0.9 Z0 F800
G1 X0.625 Z0 F800
G1 X3.196 Z0 S800 F800
G1 X8.452 Z0 S0 F800
G1 X3.262 Z0 S800 F800
G1 X2.11 Z0 S0 F800
G1 X3.58 Z0 S800 F800
G1 X3.515 Z0 S0 F800
G1 X3.657 Z0 S800 F800
G1 X1.941 Z0 S0 F800
G1 X3.489 Z0 S800 F800
G1 X1.644 Z0 S0 F800
G1 X3.688 Z0 S800 F800
G1 X3.643 Z0 S0 F800
G1 X3.762 Z0 S800 F800
G1 X20.502 Z0 S0 F800
G1 X3.641 Z0 S800 F800
G1 X3.659 Z0 S0 F800
G1 X5.431 Z0 S800 F800
G1 X2.686 Z0 S0 F800
G1 X4.033 Z0 S800 F800
G1 X4.128 Z0 S0 F800
G1 X4.204 Z0 S800 F800
G1 X0.625 Z0 S0 F800
G1 X0.349 Y0.9 Z0 F800
G1 X-0.625 Z0 F800
G1 X-3.443 Z0 S800 F800
G1 X-5.837 Z0 S0 F800
G1 X-3.657 Z0 S800 F800
G1 X-2.338 Z0 S0 F800
G1 X-5.994 Z0 S800 F800
G1 X-3.149 Z0 S0 F800
G1 X-3.489 Z0 S800 F800
G1 X-20.599 Z0 S0 F800
G1 X-3.432 Z0 S800 F800
G1 X-4.238 Z0 S0 F800
G1 X-3.52 Z0 S800 F800
G1 X-1.552 Z0 S0 F800
G1 X-3.464 Z0 S800 F800
G1 X-2.022 Z0 S0 F800
G1 X-3.457 Z0 S800 F800
G1 X-3.769 Z0 S0 F800
G1 X-3.525 Z0 S800 F800
G1 X-2.031 Z0 S0 F800
G1 X-3.263 Z0 S800 F800
G1 X-8.372 Z0 S0 F800
G1 X-3.279 Z0 S800 F800
G1 X-0.625 Z0 S0 F800
G1 X0.142 Y0.9 Z0 F800
G1 X0.625 Z0 F800
G1 X3.562 Z0 S800 F800
G1 X8.096 Z0 S0 F800
G1 X3.259 Z0 S800 F800
G1 X2 Z0 S0 F800
G1 X3.461 Z0 S800 F800
G1 X3.966 Z0 S0 F800
G1 X3.279 Z0 S800 F800
G1 X2.1 Z0 S0 F800
G1 X3.301 Z0 S800 F800
G1 X1.672 Z0 S0 F800
G1 X3.636 Z0 S800 F800
G1 X4.261 Z0 S0 F800
G1 X3.35 Z0 S800 F800
G1 X20.62 Z0 S0 F800
G1 X3.376 Z0 S800 F800
G1 X2.496 Z0 S0 F800
G1 X6.702 Z0 S800 F800
G1 X2.124 Z0 S0 F800
G1 X3.455 Z0 S800 F800
G1 X7.684 Z0 S0 F800
G1 X1.15 Z0 S800 F800
G1 X0.625 Z0 S0 F800
G1 X-8.894 Y0.9 Z0 F800
G1 X-0.625 Z0 F800
G1 X-3.41 Z0 S800 F800
G1 X-1.966 Z0 S0 F800
G1 X-7.263 Z0 S800 F800
G1 X-1.993 Z0 S0 F800
G1 X-3.387 Z0 S800 F800
G1 X-20.533 Z0 S0 F800
G1 X-3.433 Z0 S800 F800
G1 X-4.202 Z0 S0 F800
G1 X-3.583 Z0 S800 F800
G1 X-1.711 Z0 S0 F800
G1 X-3.3 Z0 S800 F800
G1 X-2.128 Z0 S0 F800
G1 X-3.276 Z0 S800 F800
G1 X-3.956 Z0 S0 F800
G1 X-3.442 Z0 S800 F800
G1 X-2.008 Z0 S0 F800
G1 X-3.258 Z0 S800 F800
G1 X-2.503 Z0 S0 F800
G1 X-3.579 Z0 S800 F800
G1 X-0.738 Z0 S0 F800
G1 X-4.845 Z0 S800 F800
G1 X-0.625 Z0 S0 F800
G1 X0.142 Y0.9 Z0 F800
G1 X0.625 Z0 F800
G1 X9.474 Z0 S800 F800
G1 X2.198 Z0 S0 F800
G1 X3.26 Z0 S800 F800
G1 X2.048 Z0 S0 F800
G1 X3.464 Z0 S800 F800
G1 X3.828 Z0 S0 F800
G1 X3.45 Z0 S800 F800
G1 X2.021 Z0 S0 F800
G1 X3.395 Z0 S800 F800
G1 X1.753 Z0 S0 F800
G1 X3.677 Z0 S800 F800
G1 X3.693 Z0 S0 F800
G1 X3.721 Z0 S800 F800
G1 X20.456 Z0 S0 F800
G1 X3.458 Z0 S800 F800
G1 X1.443 Z0 S0 F800
G1 X3.392 Z0 S800 F800
G1 X0.95 Z0 S0 F800
G1 X3.475 Z0 S800 F800
G1 X1.872 Z0 S0 F800
G1 X3.525 Z0 S800 F800
G1 X0.625 Z0 S0 F800
G1 X0.194 Y0.9 Z0 F800
G1 X-0.625 Z0 F800
G1 X-3.572 Z0 S800 F800
G1 X-1.858 Z0 S0 F800
G1 X-3.417 Z0 S800 F800
G1 X-1.526 Z0 S0 F800
G1 X-3.51 Z0 S800 F800
G1 X-0.682 Z0 S0 F800
G1 X-3.567 Z0 S800 F800
G1 X-20.471 Z0 S0 F800
G1 X-4.427 Z0 S800 F800
G1 X-2.394 Z0 S0 F800
G1 X-4.026 Z0 S800 F800
G1 X-1.899 Z0 S0 F800
G1 X-3.504 Z0 S800 F800
G1 X-1.885 Z0 S0 F800
G1 X-3.661 Z0 S800 F800
G1 X-3.678 Z0 S0 F800
G1 X-3.491 Z0 S800 F800
G1 X-2.096 Z0 S0 F800
G1 X-3.264 Z0 S800 F800
G1 X-2.44 Z0 S0 F800
G1 X-9.233 Z0 S800 F800
G1 X-0.625 Z0 S0 F800
G1 X0.149 Y0.9 Z0 F800
G1 X0.625 Z0 F800
G1 X3.616 Z0 S800 F800
G1 X8.054 Z0 S0 F800
G1 X3.268 Z0 S800 F800
G1 X2.139 Z0 S0 F800
G1 X3.485 Z0 S800 F800
G1 X3.608 Z0 S0 F800
G1 X3.742 Z0 S800 F800
G1 X1.839 Z0 S0 F800
G1 X3.584 Z0 S800 F800
G1 X2.236 Z0 S0 F800
G1 X10.431 Z0 S800 F800
G1 X20.486 Z0 S0 F800
G1 X7.124 Z0 S800 F800
G1 X2.133 Z0 S0 F800
G1 X3.438 Z0 S800 F800
G1 X1.925 Z0 S0 F800
G1 X3.62 Z0 S800 F800
G1 X0.625 Z0 S0 F800
G1 X9.686 Y0.9 Z0 F800
G1 X-0.625 Z0 F800
G1 X-2.716 Z0 S800 F800
G1 X-6.516 Z0 S0 F800
G1 X-3.754 Z0 S800 F800
G1 X-2.084 Z0 S0 F800
G1 X-3.486 Z0 S800 F800
G1 X-2.75 Z0 S0 F800
G1 X-6.466 Z0 S800 F800
G1 X-20.509 Z0 S0 F800
G1 X-3.472 Z0 S800 F800
G1 X-0.628 Z0 S0 F800
G1 X-5.63 Z0 S800 F800
G1 X-2.971 Z0 S0 F800
G1 X-3.529 Z0 S800 F800
G1 X-1.952 Z0 S0 F800
G1 X-3.55 Z0 S800 F800
G1 X-3.749 Z0 S0 F800
G1 X-3.4 Z0 S800 F800
G1 X-2.169 Z0 S0 F800
G1 X-3.267 Z0 S800 F800
G1 X-8.346 Z0 S0 F800
G1 X-3.321 Z0 S800 F800
G1 X-0.625 Z0 S0 F800
G1 X0.149 Y0.9 Z0 F800
G1 X0.625 Z0 F800
G1 X3.249 Z0 S800 F800
G1 X8.415 Z0 S0 F800
G1 X3.267 Z0 S800 F800
G1 X2.157 Z0 S0 F800
G1 X3.026 Z0 S800 F800
G1 X4.529 Z0 S0 F800
G1 X2.69 Z0 S800 F800
G1 X2.424 Z0 S0 F800
G1 X2.982 Z0 S800 F800
G1 X4.719 Z0 S0 F800
G1 X3.338 Z0 S800 F800
G1 X1.775 Z0 S0 F800
G1 X3.373 Z0 S800 F800
G1 X20.552 Z0 S0 F800
G1 X5.86 Z0 S800 F800
G1 X3.303 Z0 S0 F800
G1 X3.546 Z0 S800 F800
G1 X2.357 Z0 S0 F800
G1 X4.008 Z0 S800 F800
G1 X5.191 Z0 S0 F800
G1 X3.685 Z0 S800 F800
G1 X0.625 Z0 S0 F800
G1 X-0.138 Y0.9 Z0 F800
G1 X-0.625 Z0 F800
G1 X-4.287 Z0 S800 F800
G1 X-3.305 Z0 S0 F800
G1 X-4.64 Z0 S800 F800
G1 X-2.713 Z0 S0 F800
G1 X-3.593 Z0 S800 F800
G1 X-3.866 Z0 S0 F800
G1 X-5.273 Z0 S800 F800
G1 X-20.51 Z0 S0 F800
G1 X-3.44 Z0 S800 F800
G1 X-27.604 Z0 S0 F800
G1 X-3.279 Z0 S800 F800
G1 X-8 Z0 S0 F800
G1 X-3.639 Z0 S800 F800
G1 X-0.625 Z0 S0 F800
G1 X0.164 Y0.9 Z0 F800
G1 X0.625 Z0 F800
G1 X9.929 Z0 S800 F800
G1 X1.679 Z0 S0 F800
G1 X3.522 Z0 S800 F800
G1 X15.894 Z0 S0 F800
G1 X1.196 Z0 S800 F800
G1 X10.231 Z0 S0 F800
G1 X3.594 Z0 S800 F800
G1 X20.397 Z0 S0 F800
G1 X4.691 Z0 S800 F800
G1 X4.277 Z0 S0 F800
G1 X3.789 Z0 S800 F800
G1 X3.225 Z0 S0 F800
G1 X11.168 Z0 S800 F800
G1 X0.625 Z0 S0 F800
G1 X-0.644 Y0.9 Z0 F800
G1 X-0.625 Z0 F800
G1 X-9.565 Z0 S800 F800
G1 X-4.026 Z0 S0 F800
G1 X-3.757 Z0 S800 F800
G1 X-4.929 Z0 S0 F800
G1 X-4.107 Z0 S800 F800
G1 X-20.376 Z0 S0 F800
G1 X-3.628 Z0 S800 F800
G1 X-9.355 Z0 S0 F800
G1 X-2.971 Z0 S800 F800
G1 X-14.971 Z0 S0 F800
G1 X-3.522 Z0 S800 F800
G1 X-1.446 Z0 S0 F800
G1 X-10.131 Z0 S800 F800
G1 X-0.625 Z0 S0 F800
G1 X0.163 Y0.9 Z0 F800
G1 X0.625 Z0 F800
G1 X9.951 Z0 S800 F800
G1 X1.78 Z0 S0 F800
G1 X2.887 Z0 S800 F800
G1 X15.133 Z0 S0 F800
G1 X3.355 Z0 S800 F800
G1 X9.305 Z0 S0 F800
G1 X3.321 Z0 S800 F800
G1 X20.624 Z0 S0 F800
G1 X3.5 Z0 S800 F800
G1 X5.978 Z0 S0 F800
G1 X3.355 Z0 S800 F800
G1 X5.316 Z0 S0 F800
G1 X7.025 Z0 S800 F800
G1 X0.625 Z0 S0 F800
G1 X-58.744 Y0.9 Z0 F800
G1 X-0.625 Z0 F800
G1 X-2.666 Z0 S800 F800
G1 X-0.625 Z0 S0 F800
G90
;Cut @ 1500 mm/min, 80% power

M8
G0 Z3.5 F500
G0 X79.343 Y51.751 Z3.5 F1500
G1 Z0 F500
;Layer C3
G1 Y50.763 Z0 S800 F800
G1 X79.534 Y49.512 Z0 F800
G1 X79.807 Y48.284 Z0 F800
G1 X80.162 Y47.082 Z0 F800
G1 X80.596 Y45.908 Z0 F800
G1 X81.106 Y44.765 Z0 F800
G1 X81.69 Y43.658 Z0 F800
G1 X82.346 Y42.587 Z0 F800
G1 X83.071 Y41.557 Z0 F800
G1 X84.124 Y39.773 Z0 F800
G1 X85.109 Y37.927 Z0 F800
G1 X85.521 Y36.974 Z0 F800
G1 X85.851 Y35.997 Z0 F800
G1 X85.977 Y35.498 Z0 F800
G1 X86.075 Y34.993 Z0 F800
G1 X86.141 Y34.48 Z0 F800
G1 X86.173 Y33.959 Z0 F800
G1 X86.2 Y33.257 Z0 F800
G1 X86.283 Y32.531 Z0 F800
G1 X86.346 Y32.185 Z0 F800
G1 X86.423 Y31.863 Z0 F800
G1 X86.515 Y31.576 Z0 F800
G1 X86.622 Y31.335 Z0 F800
G1 X86.744 Y31.15 Z0 F800
G1 X86.881 Y31.03 Z0 F800
G1 X87.033 Y30.986 Z0 F800
G1 X87.201 Y31.029 Z0 F800
G1 X87.291 Y31.086 Z0 F800
G1 X87.384 Y31.168 Z0 F800
G1 X87.481 Y31.277 Z0 F800
G1 X87.583 Y31.414 Z0 F800
G1 X87.688 Y31.58 Z0 F800
G1 X87.797 Y31.777 Z0 F800
G1 X87.91 Y32.006 Z0 F800
G1 X88.027 Y32.268 Z0 F800
G1 X88.37 Y33.113 Z0 F800
G1 X88.65 Y33.981 Z0 F800
G1 X88.867 Y34.867 Z0 F800
G1 X89.021 Y35.766 Z0 F800
G1 X89.112 Y36.675 Z0 F800
G1 X89.142 Y37.589 Z0 F800
G1 X89.111 Y38.504 Z0 F800
G1 X89.018 Y39.415 Z0 F800
G1 X88.865 Y40.317 Z0 F800
G1 X88.651 Y41.207 Z0 F800
G1 X88.378 Y42.081 Z0 F800
G1 X88.045 Y42.932 Z0 F800
G1 X87.652 Y43.758 Z0 F800
G1 X87.201 Y44.554 Z0 F800
G1 X86.692 Y45.316 Z0 F800
G1 X86.124 Y46.038 Z0 F800
G1 X85.687 Y46.655 Z0 F800
G1 X85.271 Y47.285 Z0 F800
G1 X84.879 Y47.929 Z0 F800
G1 X84.51 Y48.584 Z0 F800
G1 X84.168 Y49.252 Z0 F800
G1 X83.853 Y49.932 Z0 F800
G1 X83.567 Y50.623 Z0 F800
G1 X83.311 Y51.324 Z0 F800
G1 X83.087 Y52.036 Z0 F800
G1 X82.895 Y52.758 Z0 F800
G1 X82.738 Y53.489 Z0 F800
G1 X82.617 Y54.229 Z0 F800
G1 X82.533 Y54.978 Z0 F800
G1 X82.487 Y55.734 Z0 F800
G1 X82.482 Y56.498 Z0 F800
G1 X82.518 Y57.269 Z0 F800
G1 X82.458 Y58.027 Z0 F800
G1 X82.103 Y58.061 Z0 F800
G1 X81.699 Y57.766 Z0 F800
G1 X81.332 Y57.432 Z0 F800
G1 X81.002 Y57.063 Z0 F800
G1 X80.706 Y56.663 Z0 F800
G1 X80.443 Y56.235 Z0 F800
G1 X80.213 Y55.784 Z0 F800
G1 X80.012 Y55.312 Z0 F800
G1 X79.841 Y54.823 Z0 F800
G1 X79.697 Y54.322 Z0 F800
G1 X79.58 Y53.811 Z0 F800
G1 X79.487 Y53.295 Z0 F800
G1 X79.417 Y52.778 Z0 F800
G1 X79.343 Y51.751 Z0 F800
G0 Z3.5 F500
G0 X87.556 Y52.9 Z3.5 
G1 Z0 F500
G1 X88.408 Y51.193 Z0 F800
G1 X88.768 Y50.316 Z0 F800
G1 X89.057 Y49.415 Z0 F800
G1 X89.169 Y48.954 Z0 F800
G1 X89.256 Y48.485 Z0 F800
G1 X89.315 Y48.007 Z0 F800
G1 X89.344 Y47.519 Z0 F800
G1 X89.546 Y47.448 Z0 F800
G1 X89.739 Y47.409 Z0 F800
G1 X89.924 Y47.399 Z0 F800
G1 X90.101 Y47.417 Z0 F800
G1 X90.431 Y47.531 Z0 F800
G1 X90.726 Y47.739 Z0 F800
G1 X90.986 Y48.027 Z0 F800
G1 X91.21 Y48.383 Z0 F800
G1 X91.397 Y48.796 Z0 F800
G1 X91.546 Y49.252 Z0 F800
G1 X91.656 Y49.738 Z0 F800
G1 X91.726 Y50.243 Z0 F800
G1 X91.756 Y50.754 Z0 F800
G1 X91.743 Y51.258 Z0 F800
G1 X91.687 Y51.743 Z0 F800
G1 X91.587 Y52.196 Z0 F800
G1 X91.442 Y52.605 Z0 F800
G1 X91.252 Y52.958 Z0 F800
G1 X90.239 Y55.208 Z0 F800
G1 X89.195 Y57.439 Z0 F800
G1 X88.703 Y58.561 Z0 F800
G1 X88.252 Y59.693 Z0 F800
G1 X87.858 Y60.841 Z0 F800
G1 X87.538 Y62.011 Z0 F800
G1 X87.382 Y62.117 Z0 F800
G1 X86.991 Y62.172 Z0 F800
G1 X86.6 Y61.824 Z0 F800
G1 X86.266 Y61.434 Z0 F800
G1 X85.987 Y61.008 Z0 F800
G1 X85.763 Y60.552 Z0 F800
G1 X85.59 Y60.071 Z0 F800
G1 X85.468 Y59.569 Z0 F800
G1 X85.395 Y59.052 Z0 F800
G1 X85.369 Y58.526 Z0 F800
G1 X85.388 Y57.995 Z0 F800
G1 X85.452 Y57.464 Z0 F800
G1 X85.557 Y56.94 Z0 F800
G1 X85.703 Y56.426 Z0 F800
G1 X85.888 Y55.929 Z0 F800
G1 X86.11 Y55.453 Z0 F800
G1 X86.368 Y55.003 Z0 F800
G1 X86.66 Y54.586 Z0 F800
G1 X87.556 Y52.9 Z0 F800
G0 Z3.5 F500
G0 X78.765 Y42.74 Z3.5 
G1 Z0 F500
G1 X78.449 Y42.773 Z0 F800
G1 X78.024 Y42.411 Z0 F800
G1 X77.671 Y42.006 Z0 F800
G1 X77.385 Y41.564 Z0 F800
G1 X77.164 Y41.091 Z0 F800
G1 X77.004 Y40.591 Z0 F800
G1 X76.902 Y40.071 Z0 F800
G1 X76.855 Y39.535 Z0 F800
G1 X76.86 Y38.99 Z0 F800
G1 X76.914 Y38.44 Z0 F800
G1 X77.013 Y37.891 Z0 F800
G1 X77.155 Y37.348 Z0 F800
G1 X77.336 Y36.817 Z0 F800
G1 X77.554 Y36.304 Z0 F800
G1 X77.804 Y35.813 Z0 F800
G1 X78.084 Y35.35 Z0 F800
G1 X78.391 Y34.921 Z0 F800
G1 X78.715 Y34.53 Z0 F800
G1 X79.01 Y34.114 Z0 F800
G1 X79.281 Y33.677 Z0 F800
G1 X79.53 Y33.221 Z0 F800
G1 X79.974 Y32.274 Z0 F800
G1 X80.366 Y31.304 Z0 F800
G1 X80.731 Y30.343 Z0 F800
G1 X81.094 Y29.422 Z0 F800
G1 X81.281 Y28.987 Z0 F800
G1 X81.477 Y28.573 Z0 F800
G1 X81.685 Y28.185 Z0 F800
G1 X81.907 Y27.828 Z0 F800
G1 X82.187 Y28.024 Z0 F800
G1 X82.439 Y28.232 Z0 F800
G1 X82.663 Y28.451 Z0 F800
G1 X82.862 Y28.68 Z0 F800
G1 X83.183 Y29.165 Z0 F800
G1 X83.41 Y29.683 Z0 F800
G1 X83.552 Y30.229 Z0 F800
G1 X83.616 Y30.796 Z0 F800
G1 X83.611 Y31.38 Z0 F800
G1 X83.543 Y31.976 Z0 F800
G1 X83.421 Y32.577 Z0 F800
G1 X83.253 Y33.179 Z0 F800
G1 X83.046 Y33.776 Z0 F800
G1 X82.809 Y34.364 Z0 F800
G1 X82.55 Y34.936 Z0 F800
G1 X82.276 Y35.487 Z0 F800
G1 X81.994 Y36.013 Z0 F800
G1 X81.714 Y36.507 Z0 F800
G1 X81.246 Y37.237 Z0 F800
G1 X80.82 Y37.994 Z0 F800
G1 X80.429 Y38.773 Z0 F800
G1 X80.067 Y39.566 Z0 F800
G1 X79.401 Y41.166 Z0 F800
G1 X78.765 Y42.74 Z0 F800
M9
M5
G1 Z10 F500
G90
G1 Z10 F800
