;LightBurn 1.6.04
;Custom GCode device profile, absolute coords
;Bounds: X26.33 Y27.83 to X123.7 Y62.17
G00 G17 G40 G21 G54
G90
M3
G1 Z10 F1000
;Scan @ 1500 mm/min, 80% power

M8
G0 Z4.8F800
G0 X26.326Y37.389Z4.8F1500
G1 Z0F1500
;Layer C1
G91
G1 X0.625Z0S0F1500
G1 X0.175Z0S800F1500
G1 X1.406Z0S0F1500
G1 X1.289Z0S800F1500
G1 X9.395Z0S0F1500
G1 X0.725Z0S800F1500
G1 X6.278Z0S0F1500
G1 X2.861Z0S800F1500
G1 X2.519Z0S0F1500
G1 X2.221Z0S800F1500
G1 X2.772Z0S0F1500
G1 X2.924Z0S800F1500
G1 X4.885Z0S0F1500
G1 X3.186Z0S800F1500
G1 X2.246Z0S0F1500
G1 X2.537Z0S800F1500
G1 X21.862Z0S0F1500
G1 X1.384Z0S800F1500
G1 X7.636Z0S0F1500
G1 X1.995Z0S800F1500
G1 X8.445Z0S0F1500
G1 X3.213Z0S800F1500
G1 X0.625Z0S0F1500
G1 X2.111Y0.9Z0F1500
G1 X-0.625Z0F1500
G1 X-7.756Z0S800F1500
G1 X-5.179Z0S0F1500
G1 X-3.479Z0S800F1500
G1 X-5.759Z0S0F1500
G1 X-3.305Z0S800F1500
G1 X-20.35Z0S0F1500
G1 X-3.673Z0S800F1500
G1 X-0.773Z0S0F1500
G1 X-5.409Z0S800F1500
G1 X-3.239Z0S0F1500
G1 X-3.355Z0S800F1500
G1 X-2.041Z0S0F1500
G1 X-3.287Z0S800F1500
G1 X-0.826Z0S0F1500
G1 X-5.563Z0S800F1500
G1 X-3.044Z0S0F1500
G1 X-3.285Z0S800F1500
G1 X-8.353Z0S0F1500
G1 X-3.298Z0S800F1500
G1 X-0.625Z0S0F1500
G1 X0.142Y0.9Z0F1500
G1 X0.625Z0F1500
G1 X3.251Z0S800F1500
G1 X8.399Z0S0F1500
G1 X3.274Z0S800F1500
G1 X2.517Z0S0F1500
G1 X10.39Z0S800F1500
G1 X1.871Z0S0F1500
G1 X3.489Z0S800F1500
G1 X2.376Z0S0F1500
G1 X10.522Z0S800F1500
G1 X20.269Z0S0F1500
G1 X3.697Z0S800F1500
G1 X4.894Z0S0F1500
G1 X4.223Z0S800F1500
G1 X3.957Z0S0F1500
G1 X9.891Z0S800F1500
G1 X0.625Z0S0F1500
G1 X0.86Y0.9Z0F1500
G1 X-0.625Z0F1500
G1 X-11.351Z0S800F1500
G1 X-3.215Z0S0F1500
G1 X-4.831Z0S800F1500
G1 X-4.229Z0S0F1500
G1 X-3.732Z0S800F1500
G1 X-20.421Z0S0F1500
G1 X-4.372Z0S800F1500
G1 X-2.102Z0S0F1500
G1 X-4.397Z0S800F1500
G1 X-1.869Z0S0F1500
G1 X-3.512Z0S800F1500
G1 X-1.869Z0S0F1500
G1 X-4.722Z0S800F1500
G1 X-1.481Z0S0F1500
G1 X-4.454Z0S800F1500
G1 X-2.269Z0S0F1500
G1 X-3.263Z0S800F1500
G1 X-8.448Z0S0F1500
G1 X-3.201Z0S800F1500
G1 X-0.625Z0S0F1500
G1 X0.142Y0.9Z0F1500
G1 X0.625Z0F1500
G1 X3.196Z0S800F1500
G1 X8.452Z0S0F1500
G1 X3.262Z0S800F1500
G1 X2.11Z0S0F1500
G1 X3.58Z0S800F1500
G1 X3.515Z0S0F1500
G1 X3.657Z0S800F1500
G1 X1.941Z0S0F1500
G1 X3.489Z0S800F1500
G1 X1.644Z0S0F1500
G1 X3.688Z0S800F1500
G1 X3.643Z0S0F1500
G1 X3.762Z0S800F1500
G1 X20.502Z0S0F1500
G1 X3.641Z0S800F1500
G1 X3.659Z0S0F1500
G1 X5.431Z0S800F1500
G1 X2.686Z0S0F1500
G1 X4.033Z0S800F1500
G1 X4.128Z0S0F1500
G1 X4.204Z0S800F1500
G1 X0.625Z0S0F1500
G1 X0.349Y0.9Z0F1500
G1 X-0.625Z0F1500
G1 X-3.443Z0S800F1500
G1 X-5.837Z0S0F1500
G1 X-3.657Z0S800F1500
G1 X-2.338Z0S0F1500
G1 X-5.994Z0S800F1500
G1 X-3.149Z0S0F1500
G1 X-3.489Z0S800F1500
G1 X-20.599Z0S0F1500
G1 X-3.432Z0S800F1500
G1 X-4.238Z0S0F1500
G1 X-3.52Z0S800F1500
G1 X-1.552Z0S0F1500
G1 X-3.464Z0S800F1500
G1 X-2.022Z0S0F1500
G1 X-3.457Z0S800F1500
G1 X-3.769Z0S0F1500
G1 X-3.525Z0S800F1500
G1 X-2.031Z0S0F1500
G1 X-3.263Z0S800F1500
G1 X-8.372Z0S0F1500
G1 X-3.279Z0S800F1500
G1 X-0.625Z0S0F1500
G1 X0.142Y0.9Z0F1500
G1 X0.625Z0F1500
G1 X3.562Z0S800F1500
G1 X8.096Z0S0F1500
G1 X3.259Z0S800F1500
G1 X2Z0S0F1500
G1 X3.461Z0S800F1500
G1 X3.966Z0S0F1500
G1 X3.279Z0S800F1500
G1 X2.1Z0S0F1500
G1 X3.301Z0S800F1500
G1 X1.672Z0S0F1500
G1 X3.636Z0S800F1500
G1 X4.261Z0S0F1500
G1 X3.35Z0S800F1500
G1 X20.62Z0S0F1500
G1 X3.376Z0S800F1500
G1 X2.496Z0S0F1500
G1 X6.702Z0S800F1500
G1 X2.124Z0S0F1500
G1 X3.455Z0S800F1500
G1 X7.684Z0S0F1500
G1 X1.15Z0S800F1500
G1 X0.625Z0S0F1500
G1 X-8.894Y0.9Z0F1500
G1 X-0.625Z0F1500
G1 X-3.41Z0S800F1500
G1 X-1.966Z0S0F1500
G1 X-7.263Z0S800F1500
G1 X-1.993Z0S0F1500
G1 X-3.387Z0S800F1500
G1 X-20.533Z0S0F1500
G1 X-3.433Z0S800F1500
G1 X-4.202Z0S0F1500
G1 X-3.583Z0S800F1500
G1 X-1.711Z0S0F1500
G1 X-3.3Z0S800F1500
G1 X-2.128Z0S0F1500
G1 X-3.276Z0S800F1500
G1 X-3.956Z0S0F1500
G1 X-3.442Z0S800F1500
G1 X-2.008Z0S0F1500
G1 X-3.258Z0S800F1500
G1 X-2.503Z0S0F1500
G1 X-3.579Z0S800F1500
G1 X-0.738Z0S0F1500
G1 X-4.845Z0S800F1500
G1 X-0.625Z0S0F1500
G1 X0.142Y0.9Z0F1500
G1 X0.625Z0F1500
G1 X9.474Z0S800F1500
G1 X2.198Z0S0F1500
G1 X3.26Z0S800F1500
G1 X2.048Z0S0F1500
G1 X3.464Z0S800F1500
G1 X3.828Z0S0F1500
G1 X3.45Z0S800F1500
G1 X2.021Z0S0F1500
G1 X3.395Z0S800F1500
G1 X1.753Z0S0F1500
G1 X3.677Z0S800F1500
G1 X3.693Z0S0F1500
G1 X3.721Z0S800F1500
G1 X20.456Z0S0F1500
G1 X3.458Z0S800F1500
G1 X1.443Z0S0F1500
G1 X3.392Z0S800F1500
G1 X0.95Z0S0F1500
G1 X3.475Z0S800F1500
G1 X1.872Z0S0F1500
G1 X3.525Z0S800F1500
G1 X0.625Z0S0F1500
G1 X0.194Y0.9Z0F1500
G1 X-0.625Z0F1500
G1 X-3.572Z0S800F1500
G1 X-1.858Z0S0F1500
G1 X-3.417Z0S800F1500
G1 X-1.526Z0S0F1500
G1 X-3.51Z0S800F1500
G1 X-0.682Z0S0F1500
G1 X-3.567Z0S800F1500
G1 X-20.471Z0S0F1500
G1 X-4.427Z0S800F1500
G1 X-2.394Z0S0F1500
G1 X-4.026Z0S800F1500
G1 X-1.899Z0S0F1500
G1 X-3.504Z0S800F1500
G1 X-1.885Z0S0F1500
G1 X-3.661Z0S800F1500
G1 X-3.678Z0S0F1500
G1 X-3.491Z0S800F1500
G1 X-2.096Z0S0F1500
G1 X-3.264Z0S800F1500
G1 X-2.44Z0S0F1500
G1 X-9.233Z0S800F1500
G1 X-0.625Z0S0F1500
G1 X0.149Y0.9Z0F1500
G1 X0.625Z0F1500
G1 X3.616Z0S800F1500
G1 X8.054Z0S0F1500
G1 X3.268Z0S800F1500
G1 X2.139Z0S0F1500
G1 X3.485Z0S800F1500
G1 X3.608Z0S0F1500
G1 X3.742Z0S800F1500
G1 X1.839Z0S0F1500
G1 X3.584Z0S800F1500
G1 X2.236Z0S0F1500
G1 X10.431Z0S800F1500
G1 X20.486Z0S0F1500
G1 X7.124Z0S800F1500
G1 X2.133Z0S0F1500
G1 X3.438Z0S800F1500
G1 X1.925Z0S0F1500
G1 X3.62Z0S800F1500
G1 X0.625Z0S0F1500
G1 X9.686Y0.9Z0F1500
G1 X-0.625Z0F1500
G1 X-2.716Z0S800F1500
G1 X-6.516Z0S0F1500
G1 X-3.754Z0S800F1500
G1 X-2.084Z0S0F1500
G1 X-3.486Z0S800F1500
G1 X-2.75Z0S0F1500
G1 X-6.466Z0S800F1500
G1 X-20.509Z0S0F1500
G1 X-3.472Z0S800F1500
G1 X-0.628Z0S0F1500
G1 X-5.63Z0S800F1500
G1 X-2.971Z0S0F1500
G1 X-3.529Z0S800F1500
G1 X-1.952Z0S0F1500
G1 X-3.55Z0S800F1500
G1 X-3.749Z0S0F1500
G1 X-3.4Z0S800F1500
G1 X-2.169Z0S0F1500
G1 X-3.267Z0S800F1500
G1 X-8.346Z0S0F1500
G1 X-3.321Z0S800F1500
G1 X-0.625Z0S0F1500
G1 X0.149Y0.9Z0F1500
G1 X0.625Z0F1500
G1 X3.249Z0S800F1500
G1 X8.415Z0S0F1500
G1 X3.267Z0S800F1500
G1 X2.157Z0S0F1500
G1 X3.026Z0S800F1500
G1 X4.529Z0S0F1500
G1 X2.69Z0S800F1500
G1 X2.424Z0S0F1500
G1 X2.982Z0S800F1500
G1 X4.719Z0S0F1500
G1 X3.338Z0S800F1500
G1 X1.775Z0S0F1500
G1 X3.373Z0S800F1500
G1 X20.552Z0S0F1500
G1 X5.86Z0S800F1500
G1 X3.303Z0S0F1500
G1 X3.546Z0S800F1500
G1 X2.357Z0S0F1500
G1 X4.008Z0S800F1500
G1 X5.191Z0S0F1500
G1 X3.685Z0S800F1500
G1 X0.625Z0S0F1500
G1 X-0.138Y0.9Z0F1500
G1 X-0.625Z0F1500
G1 X-4.287Z0S800F1500
G1 X-3.305Z0S0F1500
G1 X-4.64Z0S800F1500
G1 X-2.713Z0S0F1500
G1 X-3.593Z0S800F1500
G1 X-3.866Z0S0F1500
G1 X-5.273Z0S800F1500
G1 X-20.51Z0S0F1500
G1 X-3.44Z0S800F1500
G1 X-27.604Z0S0F1500
G1 X-3.279Z0S800F1500
G1 X-8Z0S0F1500
G1 X-3.639Z0S800F1500
G1 X-0.625Z0S0F1500
G1 X0.164Y0.9Z0F1500
G1 X0.625Z0F1500
G1 X9.929Z0S800F1500
G1 X1.679Z0S0F1500
G1 X3.522Z0S800F1500
G1 X15.894Z0S0F1500
G1 X1.196Z0S800F1500
G1 X10.231Z0S0F1500
G1 X3.594Z0S800F1500
G1 X20.397Z0S0F1500
G1 X4.691Z0S800F1500
G1 X4.277Z0S0F1500
G1 X3.789Z0S800F1500
G1 X3.225Z0S0F1500
G1 X11.168Z0S800F1500
G1 X0.625Z0S0F1500
G1 X-0.644Y0.9Z0F1500
G1 X-0.625Z0F1500
G1 X-9.565Z0S800F1500
G1 X-4.026Z0S0F1500
G1 X-3.757Z0S800F1500
G1 X-4.929Z0S0F1500
G1 X-4.107Z0S800F1500
G1 X-20.376Z0S0F1500
G1 X-3.628Z0S800F1500
G1 X-9.355Z0S0F1500
G1 X-2.971Z0S800F1500
G1 X-14.971Z0S0F1500
G1 X-3.522Z0S800F1500
G1 X-1.446Z0S0F1500
G1 X-10.131Z0S800F1500
G1 X-0.625Z0S0F1500
G1 X0.163Y0.9Z0F1500
G1 X0.625Z0F1500
G1 X9.951Z0S800F1500
G1 X1.78Z0S0F1500
G1 X2.887Z0S800F1500
G1 X15.133Z0S0F1500
G1 X3.355Z0S800F1500
G1 X9.305Z0S0F1500
G1 X3.321Z0S800F1500
G1 X20.624Z0S0F1500
G1 X3.5Z0S800F1500
G1 X5.978Z0S0F1500
G1 X3.355Z0S800F1500
G1 X5.316Z0S0F1500
G1 X7.025Z0S800F1500
G1 X0.625Z0S0F1500
G1 X-58.744Y0.9Z0F1500
G1 X-0.625Z0F1500
G1 X-2.666Z0S800F1500
G1 X-0.625Z0S0F1500
G90
;Cut @ 1500 mm/min, 80% power

M8
G0 Z4.8F800
G0 X79.343Y51.751Z4.8F1500
G1 Z0F1500
;Layer C3
G1 Y50.763Z0S800F1500
G1 X79.534Y49.512Z0F1500
G1 X79.807Y48.284Z0F1500
G1 X80.162Y47.082Z0F1500
G1 X80.596Y45.908Z0F1500
G1 X81.106Y44.765Z0F1500
G1 X81.69Y43.658Z0F1500
G1 X82.346Y42.587Z0F1500
G1 X83.071Y41.557Z0F1500
G1 X84.124Y39.773Z0F1500
G1 X85.109Y37.927Z0F1500
G1 X85.521Y36.974Z0F1500
G1 X85.851Y35.997Z0F1500
G1 X85.977Y35.498Z0F1500
G1 X86.075Y34.993Z0F1500
G1 X86.141Y34.48Z0F1500
G1 X86.173Y33.959Z0F1500
G1 X86.2Y33.257Z0F1500
G1 X86.283Y32.531Z0F1500
G1 X86.346Y32.185Z0F1500
G1 X86.423Y31.863Z0F1500
G1 X86.515Y31.576Z0F1500
G1 X86.622Y31.335Z0F1500
G1 X86.744Y31.15Z0F1500
G1 X86.881Y31.03Z0F1500
G1 X87.033Y30.986Z0F1500
G1 X87.201Y31.029Z0F1500
G1 X87.291Y31.086Z0F1500
G1 X87.384Y31.168Z0F1500
G1 X87.481Y31.277Z0F1500
G1 X87.583Y31.414Z0F1500
G1 X87.688Y31.58Z0F1500
G1 X87.797Y31.777Z0F1500
G1 X87.91Y32.006Z0F1500
G1 X88.027Y32.268Z0F1500
G1 X88.37Y33.113Z0F1500
G1 X88.65Y33.981Z0F1500
G1 X88.867Y34.867Z0F1500
G1 X89.021Y35.766Z0F1500
G1 X89.112Y36.675Z0F1500
G1 X89.142Y37.589Z0F1500
G1 X89.111Y38.504Z0F1500
G1 X89.018Y39.415Z0F1500
G1 X88.865Y40.317Z0F1500
G1 X88.651Y41.207Z0F1500
G1 X88.378Y42.081Z0F1500
G1 X88.045Y42.932Z0F1500
G1 X87.652Y43.758Z0F1500
G1 X87.201Y44.554Z0F1500
G1 X86.692Y45.316Z0F1500
G1 X86.124Y46.038Z0F1500
G1 X85.687Y46.655Z0F1500
G1 X85.271Y47.285Z0F1500
G1 X84.879Y47.929Z0F1500
G1 X84.51Y48.584Z0F1500
G1 X84.168Y49.252Z0F1500
G1 X83.853Y49.932Z0F1500
G1 X83.567Y50.623Z0F1500
G1 X83.311Y51.324Z0F1500
G1 X83.087Y52.036Z0F1500
G1 X82.895Y52.758Z0F1500
G1 X82.738Y53.489Z0F1500
G1 X82.617Y54.229Z0F1500
G1 X82.533Y54.978Z0F1500
G1 X82.487Y55.734Z0F1500
G1 X82.482Y56.498Z0F1500
G1 X82.518Y57.269Z0F1500
G1 X82.458Y58.027Z0F1500
G1 X82.103Y58.061Z0F1500
G1 X81.699Y57.766Z0F1500
G1 X81.332Y57.432Z0F1500
G1 X81.002Y57.063Z0F1500
G1 X80.706Y56.663Z0F1500
G1 X80.443Y56.235Z0F1500
G1 X80.213Y55.784Z0F1500
G1 X80.012Y55.312Z0F1500
G1 X79.841Y54.823Z0F1500
G1 X79.697Y54.322Z0F1500
G1 X79.58Y53.811Z0F1500
G1 X79.487Y53.295Z0F1500
G1 X79.417Y52.778Z0F1500
G1 X79.343Y51.751Z0F1500
G0 Z4.8F800
G0 X87.556Y52.9Z4.8F1500
G1 Z0F1500
G1 X88.408Y51.193Z0F1500
G1 X88.768Y50.316Z0F1500
G1 X89.057Y49.415Z0F1500
G1 X89.169Y48.954Z0F1500
G1 X89.256Y48.485Z0F1500
G1 X89.315Y48.007Z0F1500
G1 X89.344Y47.519Z0F1500
G1 X89.546Y47.448Z0F1500
G1 X89.739Y47.409Z0F1500
G1 X89.924Y47.399Z0F1500
G1 X90.101Y47.417Z0F1500
G1 X90.431Y47.531Z0F1500
G1 X90.726Y47.739Z0F1500
G1 X90.986Y48.027Z0F1500
G1 X91.21Y48.383Z0F1500
G1 X91.397Y48.796Z0F1500
G1 X91.546Y49.252Z0F1500
G1 X91.656Y49.738Z0F1500
G1 X91.726Y50.243Z0F1500
G1 X91.756Y50.754Z0F1500
G1 X91.743Y51.258Z0F1500
G1 X91.687Y51.743Z0F1500
G1 X91.587Y52.196Z0F1500
G1 X91.442Y52.605Z0F1500
G1 X91.252Y52.958Z0F1500
G1 X90.239Y55.208Z0F1500
G1 X89.195Y57.439Z0F1500
G1 X88.703Y58.561Z0F1500
G1 X88.252Y59.693Z0F1500
G1 X87.858Y60.841Z0F1500
G1 X87.538Y62.011Z0F1500
G1 X87.382Y62.117Z0F1500
G1 X86.991Y62.172Z0F1500
G1 X86.6Y61.824Z0F1500
G1 X86.266Y61.434Z0F1500
G1 X85.987Y61.008Z0F1500
G1 X85.763Y60.552Z0F1500
G1 X85.59Y60.071Z0F1500
G1 X85.468Y59.569Z0F1500
G1 X85.395Y59.052Z0F1500
G1 X85.369Y58.526Z0F1500
G1 X85.388Y57.995Z0F1500
G1 X85.452Y57.464Z0F1500
G1 X85.557Y56.94Z0F1500
G1 X85.703Y56.426Z0F1500
G1 X85.888Y55.929Z0F1500
G1 X86.11Y55.453Z0F1500
G1 X86.368Y55.003Z0F1500
G1 X86.66Y54.586Z0F1500
G1 X87.556Y52.9Z0F1500
G0 Z4.8F800
G0 X78.765Y42.74Z4.8F1500
G1 Z0F1500
G1 X78.449Y42.773Z0F1500
G1 X78.024Y42.411Z0F1500
G1 X77.671Y42.006Z0F1500
G1 X77.385Y41.564Z0F1500
G1 X77.164Y41.091Z0F1500
G1 X77.004Y40.591Z0F1500
G1 X76.902Y40.071Z0F1500
G1 X76.855Y39.535Z0F1500
G1 X76.86Y38.99Z0F1500
G1 X76.914Y38.44Z0F1500
G1 X77.013Y37.891Z0F1500
G1 X77.155Y37.348Z0F1500
G1 X77.336Y36.817Z0F1500
G1 X77.554Y36.304Z0F1500
G1 X77.804Y35.813Z0F1500
G1 X78.084Y35.35Z0F1500
G1 X78.391Y34.921Z0F1500
G1 X78.715Y34.53Z0F1500
G1 X79.01Y34.114Z0F1500
G1 X79.281Y33.677Z0F1500
G1 X79.53Y33.221Z0F1500
G1 X79.974Y32.274Z0F1500
G1 X80.366Y31.304Z0F1500
G1 X80.731Y30.343Z0F1500
G1 X81.094Y29.422Z0F1500
G1 X81.281Y28.987Z0F1500
G1 X81.477Y28.573Z0F1500
G1 X81.685Y28.185Z0F1500
G1 X81.907Y27.828Z0F1500
G1 X82.187Y28.024Z0F1500
G1 X82.439Y28.232Z0F1500
G1 X82.663Y28.451Z0F1500
G1 X82.862Y28.68Z0F1500
G1 X83.183Y29.165Z0F1500
G1 X83.41Y29.683Z0F1500
G1 X83.552Y30.229Z0F1500
G1 X83.616Y30.796Z0F1500
G1 X83.611Y31.38Z0F1500
G1 X83.543Y31.976Z0F1500
G1 X83.421Y32.577Z0F1500
G1 X83.253Y33.179Z0F1500
G1 X83.046Y33.776Z0F1500
G1 X82.809Y34.364Z0F1500
G1 X82.55Y34.936Z0F1500
G1 X82.276Y35.487Z0F1500
G1 X81.994Y36.013Z0F1500
G1 X81.714Y36.507Z0F1500
G1 X81.246Y37.237Z0F1500
G1 X80.82Y37.994Z0F1500
G1 X80.429Y38.773Z0F1500
G1 X80.067Y39.566Z0F1500
G1 X79.401Y41.166Z0F1500
G1 X78.765Y42.74Z0F1500
M9
M5
G1 Z10 F1000
G90
G1 Z10 F800
G1 X120 F1500
