
G0 Z10 F500;      ; Move to clearance level - Z motion limited to 500
; G0 X-10 Y-10 F1200; Homing
; G0 X-5 Y-5 F1200; go in
; G10 P0 L20 X0 Y0; set to zero
G1 F1000;           ; Set feed rate to 1000
;LightBurn 1.6.04
;Custom GCode device profile, absolute coords
;Bounds: X4.28 Y13.03 to X111.95 Y70.48
G00 G17 G40 G21 G54
G90
M3
G1 Z10 F500
;Cut @ 15 mm/sec, 90% power

M8

; Color 1 picking sequence
G1 Z10 F500;         ; Raise brush to safe height
G0 X2 Y0 F1000;     ; Rapid move to brush cleaning position
G1 Z0 F500;         ; Lower brush for cleaning - controlled movement
G1 Z2 F500;         ; Raise brush slightly - controlled movement
G1 X22 Y0 Z8 F500;     ; Move across cleaning area - controlled movement
G1 Z8 F500;         ; Maintain brush height - controlled movement
G0 X41 Y0 F1200;    ; Rapid move to color 1 position
G1 Z0 F500;         ; Lower into color - controlled movement
G1 X35 Y1 F500;     ; Small movement in paint - controlled movement
G1 Z7 F500;         ; Raise from color - controlled movement
G1 X38 Y1 F500;     ; Movement in paint - controlled movement
G1 Z1 F500;         ; Lower slightly - controlled movement
G1 X27 Y10 Z8 F500;     ; Move in paint - controlled movement
G1 Z8 F500;         ; Raise brush - controlled movement
G1 F1000;           ; Set feed rate to 1000
G0 Z2.8F500
G0 X10.715Y19.884Z2.8F1000
G1 Z0F500
;Layer C00
G1 X11.093Y19.849Z0S900F800
G1 X11.409Y19.865Z0F800
G1 X11.649Y19.94Z0F800
G1 X11.763Y20.01Z0F800
G1 X11.885Y20.108Z0F800
G1 X12.023Y20.239Z0F800
G1 X12.188Y20.407Z0F800
G1 X12.436Y20.657Z0F800
G1 X12.651Y20.847Z0F800
G1 X12.845Y20.981Z0F800
G1 X13.033Y21.062Z0F800
G1 X13.227Y21.095Z0F800
G1 X13.442Y21.085Z0F800
G1 X13.691Y21.034Z0F800
G1 X13.988Y20.947Z0F800
G1 X14.195Y20.884Z0F800
G1 X14.37Y20.837Z0F800
G1 X14.52Y20.805Z0F800
G1 X14.652Y20.79Z0F800
G1 X14.892Y20.802Z0F800
G1 X15.147Y20.87Z0F800
G1 X15.346Y20.952Z0F800
G1 X15.524Y21.059Z0F800
G1 X15.682Y21.188Z0F800
G1 X15.817Y21.341Z0F800
G1 X15.931Y21.516Z0F800
G1 X16.022Y21.713Z0F800
G1 X16.09Y21.93Z0F800
G1 X16.136Y22.169Z0F800
G1 X16.154Y22.45Z0F800
G1 X16.12Y22.715Z0F800
G1 X16.024Y23.007Z0F800
G1 X15.856Y23.367Z0F800
G1 X15.669Y23.701Z0F800
G1 X15.458Y24.006Z0F800
G1 X15.227Y24.284Z0F800
G1 X14.977Y24.533Z0F800
G1 X14.71Y24.752Z0F800
G1 X14.427Y24.94Z0F800
G1 X14.131Y25.098Z0F800
G1 X13.822Y25.225Z0F800
G1 X13.504Y25.319Z0F800
G1 X13.178Y25.381Z0F800
G1 X12.846Y25.409Z0F800
G1 X12.509Y25.403Z0F800
G1 X12.169Y25.362Z0F800
G1 X11.829Y25.286Z0F800
G1 X11.489Y25.174Z0F800
G1 X11.152Y25.025Z0F800
G1 X10.743Y24.791Z0F800
G1 X10.395Y24.526Z0F800
G1 X10.107Y24.227Z0F800
G1 X9.876Y23.89Z0F800
G1 X9.7Y23.51Z0F800
G1 X9.577Y23.082Z0F800
G1 X9.503Y22.603Z0F800
G1 X9.477Y22.068Z0F800
G1 X9.5Y21.552Z0F800
G1 X9.575Y21.103Z0F800
G1 X9.702Y20.722Z0F800
G1 X9.879Y20.409Z0F800
G1 X10.108Y20.164Z0F800
G1 X10.386Y19.989Z0F800
G1 X10.715Y19.884Z0F800
G0 Z2.8F500
G0 X10.481Y19.69Z2.8F1000
G1 Z0F500
G1 X10.187Y19.832Z0F800
G1 X10.005Y19.956Z0F800
G1 X9.845Y20.096Z0F800
G1 X9.705Y20.254Z0F800
G1 X9.584Y20.432Z0F800
G1 X9.48Y20.633Z0F800
G1 X9.391Y20.859Z0F800
G1 X9.317Y21.114Z0F800
G1 X9.256Y21.399Z0F800
G1 X9.2Y21.878Z0F800
G1 X9.206Y22.359Z0F800
G1 X9.27Y22.833Z0F800
G1 X9.392Y23.293Z0F800
G1 X9.567Y23.73Z0F800
G1 X9.793Y24.136Z0F800
G1 X10.068Y24.503Z0F800
G1 X10.388Y24.822Z0F800
G1 X10.739Y25.087Z0F800
G1 X11.108Y25.301Z0F800
G1 X11.492Y25.464Z0F800
G1 X11.886Y25.577Z0F800
G1 X12.288Y25.641Z0F800
G1 X12.693Y25.658Z0F800
G1 X13.097Y25.627Z0F800
G1 X13.498Y25.551Z0F800
G1 X13.89Y25.429Z0F800
G1 X14.271Y25.263Z0F800
G1 X14.637Y25.054Z0F800
G1 X14.983Y24.803Z0F800
G1 X15.307Y24.51Z0F800
G1 X15.604Y24.177Z0F800
G1 X15.87Y23.804Z0F800
G1 X16.103Y23.393Z0F800
G1 X16.26Y23.026Z0F800
G1 X16.357Y22.677Z0F800
G1 X16.395Y22.344Z0F800
G1 X16.373Y22.027Z0F800
G1 X16.291Y21.727Z0F800
G1 X16.149Y21.443Z0F800
G1 X15.948Y21.174Z0F800
G1 X15.686Y20.922Z0F800
G1 X15.5Y20.791Z0F800
G1 X15.293Y20.691Z0F800
G1 X15.068Y20.624Z0F800
G1 X14.827Y20.59Z0F800
G1 X14.575Z0F800
G1 X14.313Y20.618Z0F800
G1 X14.045Y20.682Z0F800
G1 X13.774Y20.779Z0F800
G1 X13.573Y20.853Z0F800
G1 X13.395Y20.895Z0F800
G1 X13.234Y20.903Z0F800
G1 X13.086Y20.877Z0F800
G1 X12.945Y20.814Z0F800
G1 X12.807Y20.712Z0F800
G1 X12.665Y20.571Z0F800
G1 X12.515Y20.388Z0F800
G1 X12.273Y20.119Z0F800
G1 X12.004Y19.903Z0F800
G1 X11.714Y19.743Z0F800
G1 X11.41Y19.641Z0F800
G1 X11.099Y19.596Z0F800
G1 X10.787Y19.612Z0F800
G1 X10.481Y19.69Z0F800
G0 Z2.8F500
G0 X17.269Y19.622Z2.8F1000
G1 Z0F500
G1 X17.799Y19.788Z0F800
G1 X18.346Y19.965Z0F800
G1 X18.915Y20.159Z0F800
G1 X19.143Y20.245Z0F800
G1 X19.329Y20.328Z0F800
G1 X19.455Y20.398Z0F800
G1 X19.501Y20.446Z0F800
G1 X19.466Y20.505Z0F800
G1 X19.371Y20.606Z0F800
G1 X19.231Y20.736Z0F800
G1 X19.06Y20.879Z0F800
G1 X18.618Y21.231Z0F800
G1 X18.416Y20.941Z0F800
G1 X18.3Y20.787Z0F800
G1 X18.134Y20.584Z0F800
G1 X17.941Y20.359Z0F800
G1 X17.741Y20.136Z0F800
G1 X17.269Y19.622Z0F800
G0 Z2.8F500
G0 X19.563Y21.179Z2.8F1000
G1 Z0F500
G1 X20.003Y20.846Z0F800
G1 X20.455Y20.576Z0F800
G1 X20.885Y20.392Z0F800
G1 X21.186Y20.316Z0F800
G1 X21.522Y20.271Z0F800
G1 X21.881Y20.254Z0F800
G1 X22.249Y20.267Z0F800
G1 X22.615Y20.307Z0F800
G1 X22.965Y20.374Z0F800
G1 X23.287Y20.466Z0F800
G1 X23.57Y20.584Z0F800
G1 X23.951Y20.789Z0F800
G1 X24.303Y21.005Z0F800
G1 X24.624Y21.23Z0F800
G1 X24.912Y21.464Z0F800
G1 X25.166Y21.706Z0F800
G1 X25.386Y21.954Z0F800
G1 X25.568Y22.207Z0F800
G1 X25.714Y22.464Z0F800
G1 X25.873Y22.839Z0F800
G1 X26.005Y23.248Z0F800
G1 X26.109Y23.683Z0F800
G1 X26.182Y24.137Z0F800
G1 X26.225Y24.602Z0F800
G1 X26.237Y25.07Z0F800
G1 X26.216Y25.535Z0F800
G1 X26.162Y25.988Z0F800
G1 X26.045Y26.593Z0F800
G1 X25.891Y27.16Z0F800
G1 X25.69Y27.705Z0F800
G1 X25.432Y28.249Z0F800
G1 X25.107Y28.808Z0F800
G1 X24.707Y29.401Z0F800
G1 X24.475Y29.715Z0F800
G1 X24.221Y30.045Z0F800
G1 X23.943Y30.393Z0F800
G1 X23.64Y30.76Z0F800
G1 X23.236Y31.254Z0F800
G1 X22.88Y31.714Z0F800
G1 X22.568Y32.145Z0F800
G1 X22.298Y32.551Z0F800
G1 X22.067Y32.936Z0F800
G1 X21.873Y33.305Z0F800
G1 X21.712Y33.661Z0F800
G1 X21.582Y34.009Z0F800
G1 X21.449Y34.466Z0F800
G1 X21.378Y34.901Z0F800
G1 X21.362Y35.147Z0F800
G1 X21.358Y35.431Z0F800
G1 X21.364Y35.767Z0F800
G1 X21.379Y36.169Z0F800
G1 X21.4Y36.565Z0F800
G1 X21.426Y36.913Z0F800
G1 X21.461Y37.229Z0F800
G1 X21.508Y37.527Z0F800
G1 X21.569Y37.822Z0F800
G1 X21.648Y38.129Z0F800
G1 X21.745Y38.463Z0F800
G1 X21.866Y38.84Z0F800
G1 X22.294Y40.138Z0F800
G1 X21.18Y40.559Z0F800
G1 X20.105Y40.995Z0F800
G1 X19.085Y41.454Z0F800
G1 X18.699Y41.63Z0F800
G1 X18.371Y41.758Z0F800
G1 X18.241Y41.8Z0F800
G1 X18.138Y41.826Z0F800
G1 X18.067Y41.834Z0F800
G1 X18.032Y41.822Z0F800
G1 X17.365Y40.814Z0F800
G1 X16.775Y39.861Z0F800
G1 X16.256Y38.951Z0F800
G1 X15.801Y38.07Z0F800
G1 X15.403Y37.205Z0F800
G1 X15.058Y36.345Z0F800
G1 X14.759Y35.475Z0F800
G1 X14.498Y34.584Z0F800
G1 X14.364Y34.074Z0F800
G1 X14.312Y33.865Z0F800
G1 X14.272Y33.684Z0F800
G1 X14.226Y33.391Z0F800
G1 X14.23Y33.174Z0F800
G1 X14.287Y33.01Z0F800
G1 X14.4Y32.879Z0F800
G1 X14.574Y32.757Z0F800
G1 X14.812Y32.623Z0F800
G1 X15.52Y32.185Z0F800
G1 X16.182Y31.669Z0F800
G1 X16.795Y31.077Z0F800
G1 X17.356Y30.414Z0F800
G1 X17.863Y29.683Z0F800
G1 X18.312Y28.889Z0F800
G1 X18.701Y28.034Z0F800
G1 X19.027Y27.123Z0F800
G1 X19.175Y26.586Z0F800
G1 X19.262Y26.064Z0F800
G1 X19.287Y25.767Z0F800
G1 X19.302Y25.424Z0F800
G1 X19.309Y25.018Z0F800
G1 Y24.534Z0F800
G1 X19.306Y24.101Z0F800
G1 X19.297Y23.726Z0F800
G1 X19.282Y23.402Z0F800
G1 X19.26Y23.124Z0F800
G1 X19.233Y22.886Z0F800
G1 X19.197Y22.682Z0F800
G1 X19.154Y22.507Z0F800
G1 X19.103Y22.354Z0F800
G1 X19.039Y22.188Z0F800
G1 X18.995Y22.057Z0F800
G1 X18.97Y21.954Z0F800
G1 X18.966Y21.87Z0F800
G1 X19.023Y21.724Z0F800
G1 X19.171Y21.55Z0F800
G1 X19.563Y21.179Z0F800

; Color 1 picking sequence
G1 Z10 F500;         ; Raise brush to safe height
G0 X2 Y0 F1000;     ; Rapid move to brush cleaning position
G1 Z0 F500;         ; Lower brush for cleaning - controlled movement
G1 Z2 F500;         ; Raise brush slightly - controlled movement
G1 X22 Y0 Z8 F500;     ; Move across cleaning area - controlled movement
G1 Z8 F500;         ; Maintain brush height - controlled movement
G0 X41 Y0 F1200;    ; Rapid move to color 1 position
G1 Z0 F500;         ; Lower into color - controlled movement
G1 X35 Y1 F500;     ; Small movement in paint - controlled movement
G1 Z7 F500;         ; Raise from color - controlled movement
G1 X38 Y1 F500;     ; Movement in paint - controlled movement
G1 Z1 F500;         ; Lower slightly - controlled movement
G1 X27 Y10 Z8 F500;     ; Move in paint - controlled movement
G1 Z8 F500;         ; Raise brush - controlled movement
G1 F1000;           ; Set feed rate to 1000
G0 Z2.8F500
G0 X26.314Y22.291Z2.8F1000
G1 Z0F500
G1 X26.359Y22.24Z0F800
G1 X26.444Y22.219Z0F800
G1 X26.571Y22.222Z0F800
G1 X26.744Y22.24Z0F800
G1 X27.281Y22.306Z0F800
G1 X27.297Y22.36Z0F800
G1 X27.285Y22.501Z0F800
G1 X27.248Y22.707Z0F800
G1 X27.189Y22.958Z0F800
G1 X27.092Y23.456Z0F800
G1 X27.047Y23.995Z0F800
G1 X27.052Y24.563Z0F800
G1 X27.105Y25.151Z0F800
G1 X27.206Y25.745Z0F800
G1 X27.352Y26.337Z0F800
G1 X27.543Y26.913Z0F800
G1 X27.776Y27.463Z0F800
G1 X27.907Y27.716Z0F800
G1 X28.06Y27.969Z0F800
G1 X28.251Y28.239Z0F800
G1 X28.495Y28.543Z0F800
G1 X28.641Y28.713Z0F800
G1 X28.806Y28.899Z0F800
G1 X28.991Y29.102Z0F800
G1 X29.199Y29.324Z0F800
G1 X29.43Y29.568Z0F800
G1 X29.973Y30.13Z0F800
G1 X30.778Y30.956Z0F800
G1 X31.212Y31.413Z0F800
G1 X31.595Y31.831Z0F800
G1 X31.929Y32.217Z0F800
G1 X32.217Y32.576Z0F800
G1 X32.463Y32.916Z0F800
G1 X32.67Y33.243Z0F800
G1 X32.84Y33.565Z0F800
G1 X32.978Y33.887Z0F800
G1 X33.087Y34.217Z0F800
G1 X33.169Y34.561Z0F800
G1 X33.228Y34.926Z0F800
G1 X33.267Y35.319Z0F800
G1 X33.289Y35.746Z0F800
G1 X33.299Y36.215Z0F800
G1 X33.295Y37.399Z0F800
G1 X33.291Y37.664Z0F800
G1 X33.28Y37.888Z0F800
G1 X33.258Y38.074Z0F800
G1 X33.221Y38.226Z0F800
G1 X33.165Y38.347Z0F800
G1 X33.087Y38.442Z0F800
G1 X32.981Y38.512Z0F800
G1 X32.844Y38.563Z0F800
G1 X32.672Y38.598Z0F800
G1 X32.462Y38.62Z0F800
G1 X32.208Y38.632Z0F800
G1 X31.908Y38.639Z0F800
G1 X31.151Y38.65Z0F800
G1 X30.295Y38.68Z0F800
G1 X29.419Y38.736Z0F800
G1 X28.534Y38.818Z0F800
G1 X27.648Y38.925Z0F800
G1 X26.77Y39.054Z0F800
G1 X25.909Y39.205Z0F800
G1 X25.075Y39.377Z0F800
G1 X24.276Y39.568Z0F800
G1 X23.733Y39.702Z0F800
G1 X23.277Y39.804Z0F800
G1 X23.096Y39.84Z0F800
G1 X22.954Y39.865Z0F800
G1 X22.858Y39.876Z0F800
G1 X22.814Z0F800
G1 X22.789Y39.838Z0F800
G1 X22.75Y39.754Z0F800
G1 X22.698Y39.629Z0F800
G1 X22.636Y39.467Z0F800
G1 X22.487Y39.054Z0F800
G1 X22.32Y38.559Z0F800
G1 X22.195Y38.17Z0F800
G1 X22.098Y37.839Z0F800
G1 X22.026Y37.547Z0F800
G1 X21.974Y37.269Z0F800
G1 X21.939Y36.985Z0F800
G1 X21.918Y36.673Z0F800
G1 X21.908Y36.311Z0F800
G1 Y35.876Z0F800
G1 Y35.429Z0F800
G1 X21.915Y35.073Z0F800
G1 X21.932Y34.787Z0F800
G1 X21.962Y34.549Z0F800
G1 X22.009Y34.339Z0F800
G1 X22.077Y34.134Z0F800
G1 X22.169Y33.914Z0F800
G1 X22.289Y33.657Z0F800
G1 X22.444Y33.351Z0F800
G1 X22.619Y33.041Z0F800
G1 X22.824Y32.715Z0F800
G1 X23.067Y32.36Z0F800
G1 X23.359Y31.963Z0F800
G1 X23.708Y31.511Z0F800
G1 X23.906Y31.26Z0F800
G1 X24.122Y30.991Z0F800
G1 X24.612Y30.39Z0F800
G1 X25.157Y29.677Z0F800
G1 X25.622Y28.96Z0F800
G1 X26.007Y28.24Z0F800
G1 X26.311Y27.514Z0F800
G1 X26.537Y26.782Z0F800
G1 X26.683Y26.044Z0F800
G1 X26.75Y25.298Z0F800
G1 X26.738Y24.544Z0F800
G1 X26.696Y24.09Z0F800
G1 X26.632Y23.638Z0F800
G1 X26.595Y23.429Z0F800
G1 X26.555Y23.239Z0F800
G1 X26.515Y23.076Z0F800
G1 X26.475Y22.946Z0F800
G1 X26.389Y22.7Z0F800
G1 X26.331Y22.514Z0F800
G1 X26.305Y22.38Z0F800
G1 X26.314Y22.291Z0F800
G0 Z2.8F500
G0 X27.811Y22.756Z2.8F1000
G1 Z0F500
G1 X28.069Y22.185Z0F800
G1 X28.414Y21.662Z0F800
G1 X28.618Y21.42Z0F800
G1 X28.844Y21.192Z0F800
G1 X29.091Y20.977Z0F800
G1 X29.359Y20.777Z0F800
G1 X29.849Y20.493Z0F800
G1 X30.429Y20.237Z0F800
G1 X30.718Y20.132Z0F800
G1 X30.99Y20.051Z0F800
G1 X31.229Y19.997Z0F800
G1 X31.423Y19.976Z0F800
G1 X31.58Y19.985Z0F800
G1 X31.807Y20.014Z0F800
G1 X32.073Y20.057Z0F800
G1 X32.348Y20.11Z0F800
G1 X32.754Y20.218Z0F800
G1 X33.157Y20.363Z0F800
G1 X33.538Y20.533Z0F800
G1 X33.879Y20.719Z0F800
G1 X34.159Y20.907Z0F800
G1 X34.359Y21.086Z0F800
G1 X34.423Y21.168Z0F800
G1 X34.46Y21.244Z0F800
G1 X34.467Y21.312Z0F800
G1 X34.442Y21.37Z0F800
G1 X34.377Y21.482Z0F800
G1 X34.284Y21.682Z0F800
G1 X34.175Y21.942Z0F800
G1 X34.063Y22.233Z0F800
G1 X33.92Y22.688Z0F800
G1 X33.813Y23.168Z0F800
G1 X33.743Y23.67Z0F800
G1 X33.708Y24.19Z0F800
G1 Y24.724Z0F800
G1 X33.74Y25.269Z0F800
G1 X33.806Y25.82Z0F800
G1 X33.905Y26.374Z0F800
G1 X34.035Y26.927Z0F800
G1 X34.195Y27.476Z0F800
G1 X34.385Y28.015Z0F800
G1 X34.605Y28.543Z0F800
G1 X34.852Y29.054Z0F800
G1 X35.128Y29.545Z0F800
G1 X35.43Y30.012Z0F800
G1 X35.757Y30.452Z0F800
G1 X36.142Y30.897Z0F800
G1 X36.563Y31.322Z0F800
G1 X37.011Y31.72Z0F800
G1 X37.48Y32.086Z0F800
G1 X37.96Y32.414Z0F800
G1 X38.445Y32.698Z0F800
G1 X38.926Y32.933Z0F800
G1 X39.395Y33.112Z0F800
G1 X39.649Y33.199Z0F800
G1 X39.872Y33.283Z0F800
G1 X40.039Y33.356Z0F800
G1 X40.127Y33.406Z0F800
G1 X40.146Y33.445Z0F800
G1 X40.154Y33.517Z0F800
G1 Y33.62Z0F800
G1 X40.142Y33.751Z0F800
G1 X40.095Y34.087Z0F800
G1 X40.016Y34.508Z0F800
G1 X39.91Y34.993Z0F800
G1 X39.78Y35.525Z0F800
G1 X39.63Y36.084Z0F800
G1 X39.464Y36.65Z0F800
G1 X39.139Y37.599Z0F800
G1 X38.75Y38.595Z0F800
G1 X38.564Y39.029Z0F800
G1 X38.402Y39.38Z0F800
G1 X38.334Y39.513Z0F800
G1 X38.277Y39.613Z0F800
G1 X38.233Y39.677Z0F800
G1 X38.202Y39.698Z0F800
G1 X38.139Y39.683Z0F800
G1 X38.006Y39.642Z0F800
G1 X37.823Y39.58Z0F800
G1 X37.61Y39.505Z0F800
G1 X37.344Y39.421Z0F800
G1 X36.987Y39.325Z0F800
G1 X36.564Y39.222Z0F800
G1 X36.097Y39.117Z0F800
G1 X35.609Y39.015Z0F800
G1 X35.125Y38.92Z0F800
G1 X34.666Y38.839Z0F800
G1 X34.257Y38.777Z0F800
G1 X34.063Y38.749Z0F800
G1 X33.918Y38.723Z0F800
G1 X33.816Y38.694Z0F800
G1 X33.751Y38.656Z0F800
G1 X33.717Y38.604Z0F800
G1 X33.71Y38.534Z0F800
G1 X33.722Y38.438Z0F800
G1 X33.748Y38.313Z0F800
G1 X33.774Y38.161Z0F800
G1 X33.796Y37.974Z0F800
G1 X33.812Y37.757Z0F800
G1 X33.824Y37.515Z0F800
G1 X33.833Y36.975Z0F800
G1 X33.823Y36.39Z0F800
G1 X33.797Y35.798Z0F800
G1 X33.755Y35.235Z0F800
G1 X33.728Y34.977Z0F800
G1 X33.698Y34.739Z0F800
G1 X33.664Y34.528Z0F800
G1 X33.627Y34.347Z0F800
G1 X33.499Y33.86Z0F800
G1 X33.344Y33.422Z0F800
G1 X33.142Y33.002Z0F800
G1 X32.871Y32.57Z0F800
G1 X32.704Y32.34Z0F800
G1 X32.511Y32.096Z0F800
G1 X32.292Y31.835Z0F800
G1 X32.042Y31.551Z0F800
G1 X31.76Y31.243Z0F800
G1 X31.442Y30.905Z0F800
G1 X31.086Y30.534Z0F800
G1 X30.281Y29.706Z0F800
G1 X29.915Y29.324Z0F800
G1 X29.589Y28.974Z0F800
G1 X29.3Y28.654Z0F800
G1 X29.046Y28.359Z0F800
G1 X28.822Y28.083Z0F800
G1 X28.627Y27.823Z0F800
G1 X28.458Y27.574Z0F800
G1 X28.185Y27.092Z0F800
G1 X27.979Y26.6Z0F800
G1 X27.817Y26.062Z0F800
G1 X27.677Y25.443Z0F800
G1 X27.573Y24.718Z0F800
G1 X27.562Y24.026Z0F800
G1 X27.641Y23.371Z0F800
G1 X27.811Y22.756Z0F800

; Color 1 picking sequence
G1 Z10 F500;         ; Raise brush to safe height
G0 X2 Y0 F1000;     ; Rapid move to brush cleaning position
G1 Z0 F500;         ; Lower brush for cleaning - controlled movement
G1 Z2 F500;         ; Raise brush slightly - controlled movement
G1 X22 Y0 Z8 F500;     ; Move across cleaning area - controlled movement
G1 Z8 F500;         ; Maintain brush height - controlled movement
G0 X41 Y0 F1200;    ; Rapid move to color 1 position
G1 Z0 F500;         ; Lower into color - controlled movement
G1 X35 Y1 F500;     ; Small movement in paint - controlled movement
G1 Z7 F500;         ; Raise from color - controlled movement
G1 X38 Y1 F500;     ; Movement in paint - controlled movement
G1 Z1 F500;         ; Lower slightly - controlled movement
G1 X27 Y10 Z8 F500;     ; Move in paint - controlled movement
G1 Z8 F500;         ; Raise brush - controlled movement
G1 F1000;           ; Set feed rate to 1000
G0 Z2.8F500
G0 X34.426Y20.401Z2.8F1000
G1 Z0F500
G1 X34.385Y20.339Z0F800
G1 X34.375Y20.287Z0F800
G1 X34.399Y20.24Z0F800
G1 X34.462Y20.191Z0F800
G1 X34.57Y20.137Z0F800
G1 X34.726Y20.071Z0F800
G1 X35.192Y19.892Z0F800
G1 X35.561Y19.754Z0F800
G1 X35.627Y19.732Z0F800
G1 X35.61Y19.768Z0F800
G1 X35.537Y19.872Z0F800
G1 X35.419Y20.027Z0F800
G1 X35.268Y20.218Z0F800
G1 X35.107Y20.41Z0F800
G1 X34.963Y20.567Z0F800
G1 X34.851Y20.673Z0F800
G1 X34.788Y20.712Z0F800
G1 X34.738Y20.693Z0F800
G1 X34.666Y20.643Z0F800
G1 X34.581Y20.568Z0F800
G1 X34.492Y20.477Z0F800
G1 X34.426Y20.401Z0F800
G0 Z2.8F500
G0 X37.33Y21.31Z2.8F1000
G1 Z0F500
G1 X37.504Y21.134Z0F800
G1 X37.683Y20.997Z0F800
G1 X37.871Y20.899Z0F800
G1 X38.072Y20.838Z0F800
G1 X38.293Y20.813Z0F800
G1 X38.538Y20.823Z0F800
G1 X38.813Y20.868Z0F800
G1 X39.122Y20.945Z0F800
G1 X39.434Y21.028Z0F800
G1 X39.695Y21.078Z0F800
G1 X39.914Y21.094Z0F800
G1 X40.103Y21.073Z0F800
G1 X40.271Y21.012Z0F800
G1 X40.43Y20.91Z0F800
G1 X40.591Y20.763Z0F800
G1 X40.93Y20.38Z0F800
G1 X41.087Y20.225Z0F800
G1 X41.241Y20.102Z0F800
G1 X41.397Y20.006Z0F800
G1 X41.56Y19.936Z0F800
G1 X41.736Y19.889Z0F800
G1 X41.929Y19.863Z0F800
G1 X42.146Y19.853Z0F800
G1 X42.405Y19.868Z0F800
G1 X42.628Y19.92Z0F800
G1 X42.832Y20.016Z0F800
G1 X43.032Y20.161Z0F800
G1 X43.207Y20.329Z0F800
G1 X43.351Y20.517Z0F800
G1 X43.465Y20.729Z0F800
G1 X43.552Y20.969Z0F800
G1 X43.611Y21.241Z0F800
G1 X43.645Y21.551Z0F800
G1 X43.654Y21.902Z0F800
G1 X43.64Y22.3Z0F800
G1 X43.608Y22.65Z0F800
G1 X43.555Y22.98Z0F800
G1 X43.48Y23.288Z0F800
G1 X43.384Y23.576Z0F800
G1 X43.266Y23.842Z0F800
G1 X43.128Y24.087Z0F800
G1 X42.968Y24.311Z0F800
G1 X42.787Y24.514Z0F800
G1 X42.584Y24.695Z0F800
G1 X42.361Y24.856Z0F800
G1 X42.116Y24.995Z0F800
G1 X41.851Y25.112Z0F800
G1 X41.564Y25.209Z0F800
G1 X41.256Y25.284Z0F800
G1 X40.927Y25.338Z0F800
G1 X40.577Y25.37Z0F800
G1 X40.298Y25.384Z0F800
G1 X40.067Y25.389Z0F800
G1 X39.871Y25.382Z0F800
G1 X39.7Y25.362Z0F800
G1 X39.384Y25.275Z0F800
G1 X39.028Y25.112Z0F800
G1 X38.767Y24.963Z0F800
G1 X38.509Y24.784Z0F800
G1 X38.259Y24.579Z0F800
G1 X38.021Y24.352Z0F800
G1 X37.591Y23.843Z0F800
G1 X37.247Y23.284Z0F800
G1 X37.143Y23.036Z0F800
G1 X37.073Y22.768Z0F800
G1 X37.036Y22.491Z0F800
G1 X37.031Y22.215Z0F800
G1 X37.059Y21.948Z0F800
G1 X37.118Y21.702Z0F800
G1 X37.208Y21.486Z0F800
G1 X37.33Y21.31Z0F800
G0 Z2.8F500
G0 X37.138Y21.202Z2.8F1000
G1 Z0F500
G1 X36.968Y21.486Z0F800
G1 X36.843Y21.82Z0F800
G1 X36.779Y22.162Z0F800
G1 Y22.513Z0F800
G1 X36.838Y22.872Z0F800
G1 X36.961Y23.239Z0F800
G1 X37.145Y23.615Z0F800
G1 X37.39Y23.999Z0F800
G1 X37.698Y24.39Z0F800
G1 X37.95Y24.663Z0F800
G1 X38.212Y24.899Z0F800
G1 X38.483Y25.1Z0F800
G1 X38.767Y25.267Z0F800
G1 X39.065Y25.4Z0F800
G1 X39.38Y25.502Z0F800
G1 X39.714Y25.572Z0F800
G1 X40.069Y25.612Z0F800
G1 X40.63Y25.62Z0F800
G1 X41.159Y25.561Z0F800
G1 X41.653Y25.438Z0F800
G1 X42.108Y25.252Z0F800
G1 X42.521Y25.006Z0F800
G1 X42.889Y24.7Z0F800
G1 X43.208Y24.337Z0F800
G1 X43.474Y23.918Z0F800
G1 X43.643Y23.544Z0F800
G1 X43.773Y23.132Z0F800
G1 X43.863Y22.696Z0F800
G1 X43.912Y22.252Z0F800
G1 X43.92Y21.814Z0F800
G1 X43.885Y21.398Z0F800
G1 X43.806Y21.018Z0F800
G1 X43.683Y20.689Z0F800
G1 X43.541Y20.436Z0F800
G1 X43.38Y20.216Z0F800
G1 X43.199Y20.029Z0F800
G1 X42.998Y19.876Z0F800
G1 X42.779Y19.756Z0F800
G1 X42.54Y19.671Z0F800
G1 X42.284Y19.619Z0F800
G1 X42.009Y19.602Z0F800
G1 X41.825Y19.605Z0F800
G1 X41.672Y19.618Z0F800
G1 X41.54Y19.645Z0F800
G1 X41.419Y19.691Z0F800
G1 X41.3Y19.762Z0F800
G1 X41.172Y19.861Z0F800
G1 X41.025Y19.994Z0F800
G1 X40.85Y20.166Z0F800
G1 X40.588Y20.424Z0F800
G1 X40.374Y20.619Z0F800
G1 X40.195Y20.756Z0F800
G1 X40.037Y20.841Z0F800
G1 X39.887Y20.88Z0F800
G1 X39.731Z0F800
G1 X39.556Y20.84Z0F800
G1 X39.347Y20.772Z0F800
G1 X38.948Y20.658Z0F800
G1 X38.571Y20.605Z0F800
G1 X38.22Y20.611Z0F800
G1 X37.897Y20.674Z0F800
G1 X37.606Y20.795Z0F800
G1 X37.352Y20.971Z0F800
G1 X37.138Y21.202Z0F800
G0 Z2.8F500
G0 X37.902Y25.95Z2.8F1000
G1 Z0F500
G1 X38.178Y25.984Z0F800
G1 X38.429Y26.097Z0F800
G1 X38.639Y26.293Z0F800
G1 X38.774Y26.546Z0F800
G1 X38.842Y26.852Z0F800
G1 X38.846Y27.189Z0F800
G1 X38.793Y27.537Z0F800
G1 X38.687Y27.874Z0F800
G1 X38.533Y28.18Z0F800
G1 X38.335Y28.433Z0F800
G1 X38.099Y28.612Z0F800
G1 X37.899Y28.702Z0F800
G1 X37.706Y28.754Z0F800
G1 X37.521Y28.771Z0F800
G1 X37.347Y28.756Z0F800
G1 X37.185Y28.71Z0F800
G1 X37.037Y28.636Z0F800
G1 X36.904Y28.535Z0F800
G1 X36.789Y28.411Z0F800
G1 X36.693Y28.264Z0F800
G1 X36.617Y28.098Z0F800
G1 X36.564Y27.915Z0F800
G1 X36.534Y27.716Z0F800
G1 X36.531Y27.505Z0F800
G1 X36.555Y27.282Z0F800
G1 X36.608Y27.051Z0F800
G1 X36.693Y26.813Z0F800
G1 X36.86Y26.516Z0F800
G1 X37.08Y26.277Z0F800
G1 X37.338Y26.101Z0F800
G1 X37.617Y25.99Z0F800
G1 X37.902Y25.95Z0F800
G0 Z2.8F500
G0 X37.951Y25.707Z2.8F1000
G1 Z0F500
G1 X37.77Y25.718Z0F800
G1 X37.578Y25.761Z0F800
G1 X37.373Y25.835Z0F800
G1 X37.171Y25.948Z0F800
G1 X36.963Y26.113Z0F800
G1 X36.764Y26.315Z0F800
G1 X36.593Y26.54Z0F800
G1 X36.419Y26.832Z0F800
G1 X36.322Y27.084Z0F800
G1 X36.287Y27.357Z0F800
G1 X36.301Y27.709Z0F800
G1 X36.34Y28.014Z0F800
G1 X36.407Y28.274Z0F800
G1 X36.503Y28.492Z0F800
G1 X36.629Y28.668Z0F800
G1 X36.786Y28.802Z0F800
G1 X36.975Y28.897Z0F800
G1 X37.196Y28.954Z0F800
G1 X37.452Y28.972Z0F800
G1 X37.787Y28.934Z0F800
G1 X38.098Y28.824Z0F800
G1 X38.379Y28.649Z0F800
G1 X38.623Y28.418Z0F800
G1 X38.824Y28.136Z0F800
G1 X38.975Y27.813Z0F800
G1 X39.071Y27.455Z0F800
G1 X39.104Y27.069Z0F800
G1 X39.089Y26.78Z0F800
G1 X39.035Y26.55Z0F800
G1 X38.931Y26.347Z0F800
G1 X38.765Y26.143Z0F800
G1 X38.608Y25.989Z0F800
G1 X38.45Y25.869Z0F800
G1 X38.289Y25.782Z0F800
G1 X38.123Y25.728Z0F800
G1 X37.951Y25.707Z0F800
G0 Z2.8F500
G0 X40.023Y27.477Z2.8F1000
G1 Z0F500
G1 X40.208Y27.38Z0F800
G1 X40.404Y27.324Z0F800
G1 X40.61Y27.314Z0F800
G1 X40.821Y27.353Z0F800
G1 X41.033Y27.447Z0F800
G1 X41.244Y27.599Z0F800
G1 X41.439Y27.811Z0F800
G1 X41.595Y28.062Z0F800
G1 X41.712Y28.343Z0F800
G1 X41.786Y28.644Z0F800
G1 X41.817Y28.954Z0F800
G1 X41.803Y29.263Z0F800
G1 X41.741Y29.561Z0F800
G1 X41.631Y29.838Z0F800
G1 X41.447Y30.114Z0F800
G1 X41.222Y30.305Z0F800
G1 X40.948Y30.416Z0F800
G1 X40.616Y30.452Z0F800
G1 X40.323Y30.415Z0F800
G1 X40.076Y30.293Z0F800
G1 X39.961Y30.194Z0F800
G1 X39.847Y30.065Z0F800
G1 X39.731Y29.906Z0F800
G1 X39.609Y29.712Z0F800
G1 X39.481Y29.452Z0F800
G1 X39.4Y29.189Z0F800
G1 X39.362Y28.926Z0F800
G1 X39.365Y28.668Z0F800
G1 X39.403Y28.419Z0F800
G1 X39.475Y28.185Z0F800
G1 X39.576Y27.969Z0F800
G1 X39.704Y27.776Z0F800
G1 X39.854Y27.611Z0F800
G1 X40.023Y27.477Z0F800
G0 Z2.8F500
G0 X42.306Y27.539Z2.8F1000
G1 Z0F500
G1 X42.355Y27.321Z0F800
G1 X42.436Y27.124Z0F800
G1 X42.547Y26.95Z0F800
G1 X42.687Y26.801Z0F800
G1 X42.855Y26.677Z0F800
G1 X43.049Y26.581Z0F800
G1 X43.269Y26.514Z0F800
G1 X43.314Y26.524Z0F800
G1 X43.411Y26.558Z0F800
G1 X43.544Y26.61Z0F800
G1 X43.701Y26.675Z0F800
G1 X43.898Y26.772Z0F800
G1 X44.077Y26.887Z0F800
G1 X44.237Y27.02Z0F800
G1 X44.38Y27.172Z0F800
G1 X44.505Y27.342Z0F800
G1 X44.611Y27.53Z0F800
G1 X44.7Y27.737Z0F800
G1 X44.772Y27.962Z0F800
G1 X44.836Y28.253Z0F800
G1 X44.847Y28.48Z0F800
G1 X44.8Y28.694Z0F800
G1 X44.69Y28.948Z0F800
G1 X44.576Y29.149Z0F800
G1 X44.447Y29.317Z0F800
G1 X44.305Y29.451Z0F800
G1 X44.151Y29.551Z0F800
G1 X43.988Y29.614Z0F800
G1 X43.818Y29.641Z0F800
G1 X43.642Y29.631Z0F800
G1 X43.462Y29.581Z0F800
G1 X43.198Y29.458Z0F800
G1 X42.965Y29.301Z0F800
G1 X42.764Y29.113Z0F800
G1 X42.597Y28.896Z0F800
G1 X42.464Y28.652Z0F800
G1 X42.368Y28.383Z0F800
G1 X42.309Y28.091Z0F800
G1 X42.289Y27.777Z0F800
G1 X42.306Y27.539Z0F800
G0 Z2.8F500
G0 X42.045Y27.617Z2.8F1000
G1 Z0F500
G1 X42.042Y27.842Z0F800
G1 X42.054Y28.197Z0F800
G1 Y28.258Z0F800
G1 X42.042Y28.288Z0F800
G1 X42.022Z0F800
G1 X41.992Y28.257Z0F800
G1 X41.95Y28.193Z0F800
G1 X41.893Y28.096Z0F800
G1 X41.819Y27.963Z0F800
G1 X41.694Y27.752Z0F800
G1 X41.562Y27.575Z0F800
G1 X41.423Y27.43Z0F800
G1 X41.272Y27.315Z0F800
G1 X41.109Y27.228Z0F800
G1 X40.929Y27.169Z0F800
G1 X40.731Y27.134Z0F800
G1 X40.512Y27.123Z0F800
G1 X40.265Y27.146Z0F800
G1 X40.039Y27.212Z0F800
G1 X39.836Y27.316Z0F800
G1 X39.656Y27.455Z0F800
G1 X39.501Y27.624Z0F800
G1 X39.371Y27.818Z0F800
G1 X39.267Y28.035Z0F800
G1 X39.192Y28.268Z0F800
G1 X39.145Y28.514Z0F800
G1 X39.128Y28.768Z0F800
G1 X39.143Y29.027Z0F800
G1 X39.189Y29.285Z0F800
G1 X39.269Y29.539Z0F800
G1 X39.382Y29.784Z0F800
G1 X39.532Y30.016Z0F800
G1 X39.718Y30.231Z0F800
G1 X39.973Y30.466Z0F800
G1 X40.189Y30.609Z0F800
G1 X40.409Y30.679Z0F800
G1 X40.675Y30.698Z0F800
G1 X40.973Y30.666Z0F800
G1 X41.242Y30.572Z0F800
G1 X41.479Y30.42Z0F800
G1 X41.68Y30.214Z0F800
G1 X41.843Y29.959Z0F800
G1 X41.963Y29.657Z0F800
G1 X42.039Y29.314Z0F800
G1 X42.066Y28.933Z0F800
G1 X42.069Y28.417Z0F800
G1 X42.26Y28.805Z0F800
G1 X42.385Y29.032Z0F800
G1 X42.519Y29.227Z0F800
G1 X42.665Y29.39Z0F800
G1 X42.825Y29.525Z0F800
G1 X43.002Y29.632Z0F800
G1 X43.198Y29.714Z0F800
G1 X43.415Y29.771Z0F800
G1 X43.657Y29.806Z0F800
G1 X43.845Y29.822Z0F800
G1 X43.999Y29.828Z0F800
G1 X44.125Y29.82Z0F800
G1 X44.233Y29.796Z0F800
G1 X44.427Y29.691Z0F800
G1 X44.647Y29.49Z0F800
G1 X44.871Y29.23Z0F800
G1 X44.997Y28.964Z0F800
G1 X45.029Y28.806Z0F800
G1 X45.044Y28.619Z0F800
G1 Y28.394Z0F800
G1 X45.034Y28.123Z0F800
G1 X45.001Y27.861Z0F800
G1 X44.936Y27.615Z0F800
G1 X44.842Y27.385Z0F800
G1 X44.721Y27.174Z0F800
G1 X44.577Y26.984Z0F800
G1 X44.413Y26.816Z0F800
G1 X44.234Y26.672Z0F800
G1 X44.041Y26.554Z0F800
G1 X43.838Y26.463Z0F800
G1 X43.629Y26.402Z0F800
G1 X43.417Y26.371Z0F800
G1 X43.205Z0F800
G1 X42.996Y26.41Z0F800
G1 X42.794Y26.482Z0F800
G1 X42.602Y26.593Z0F800
G1 X42.424Y26.743Z0F800
G1 X42.215Y26.993Z0F800
G1 X42.094Y27.264Z0F800
G1 X42.062Y27.427Z0F800
G1 X42.045Y27.617Z0F800

; Color 1 picking sequence
G1 Z10 F500;         ; Raise brush to safe height
G0 X2 Y0 F1000;     ; Rapid move to brush cleaning position
G1 Z0 F500;         ; Lower brush for cleaning - controlled movement
G1 Z2 F500;         ; Raise brush slightly - controlled movement
G1 X22 Y0 Z8 F500;     ; Move across cleaning area - controlled movement
G1 Z8 F500;         ; Maintain brush height - controlled movement
G0 X41 Y0 F1200;    ; Rapid move to color 1 position
G1 Z0 F500;         ; Lower into color - controlled movement
G1 X35 Y1 F500;     ; Small movement in paint - controlled movement
G1 Z7 F500;         ; Raise from color - controlled movement
G1 X38 Y1 F500;     ; Movement in paint - controlled movement
G1 Z1 F500;         ; Lower slightly - controlled movement
G1 X27 Y10 Z8 F500;     ; Move in paint - controlled movement
G1 Z8 F500;         ; Raise brush - controlled movement
G1 F1000;           ; Set feed rate to 1000
G0 Z2.8F500
G0 X44.73Y26.307Z2.8F1000
G1 Z0F500
G1 X44.395Y26.046Z0F800
G1 X44.141Y25.726Z0F800
G1 X44.048Y25.552Z0F800
G1 X43.98Y25.372Z0F800
G1 X43.94Y25.19Z0F800
G1 X43.93Y25.008Z0F800
G1 X43.95Y24.829Z0F800
G1 X44.003Y24.657Z0F800
G1 X44.091Y24.494Z0F800
G1 X44.215Y24.343Z0F800
G1 X44.358Y24.223Z0F800
G1 X44.516Y24.134Z0F800
G1 X44.687Y24.076Z0F800
G1 X44.872Y24.048Z0F800
G1 X45.069Y24.052Z0F800
G1 X45.278Y24.086Z0F800
G1 X45.497Y24.15Z0F800
G1 X45.727Y24.246Z0F800
G1 X45.919Y24.356Z0F800
G1 X46.093Y24.491Z0F800
G1 X46.246Y24.649Z0F800
G1 X46.376Y24.826Z0F800
G1 X46.482Y25.018Z0F800
G1 X46.559Y25.223Z0F800
G1 X46.608Y25.436Z0F800
G1 X46.625Y25.655Z0F800
G1 X46.608Y25.869Z0F800
G1 X46.558Y26.054Z0F800
G1 X46.476Y26.211Z0F800
G1 X46.36Y26.339Z0F800
G1 X46.213Y26.438Z0F800
G1 X46.033Y26.507Z0F800
G1 X45.822Y26.547Z0F800
G1 X45.58Y26.556Z0F800
G1 X45.349Y26.535Z0F800
G1 X45.13Y26.485Z0F800
G1 X44.923Y26.408Z0F800
G1 X44.73Y26.307Z0F800
G0 Z2.8F500
G0 X44.607Y26.509Z2.8F1000
G1 Z0F500
G1 X44.903Y26.671Z0F800
G1 X45.217Y26.776Z0F800
G1 X45.539Y26.82Z0F800
G1 X45.86Y26.799Z0F800
G1 X46.171Y26.709Z0F800
G1 X46.35Y26.619Z0F800
G1 X46.517Y26.507Z0F800
G1 X46.653Y26.389Z0F800
G1 X46.739Y26.278Z0F800
G1 X46.818Y26.095Z0F800
G1 X46.865Y25.905Z0F800
G1 X46.883Y25.711Z0F800
G1 X46.872Y25.513Z0F800
G1 X46.771Y25.121Z0F800
G1 X46.575Y24.748Z0F800
G1 X46.298Y24.412Z0F800
G1 X45.951Y24.134Z0F800
G1 X45.756Y24.023Z0F800
G1 X45.548Y23.933Z0F800
G1 X45.329Y23.866Z0F800
G1 X45.101Y23.826Z0F800
G1 X44.925Y23.809Z0F800
G1 X44.782Y23.803Z0F800
G1 X44.662Y23.812Z0F800
G1 X44.556Y23.84Z0F800
G1 X44.456Y23.888Z0F800
G1 X44.353Y23.962Z0F800
G1 X44.238Y24.064Z0F800
G1 X44.101Y24.197Z0F800
G1 X43.935Y24.377Z0F800
G1 X43.811Y24.544Z0F800
G1 X43.73Y24.707Z0F800
G1 X43.689Y24.872Z0F800
G1 Y25.049Z0F800
G1 X43.729Y25.245Z0F800
G1 X43.806Y25.467Z0F800
G1 X43.922Y25.723Z0F800
G1 X44.107Y26.031Z0F800
G1 X44.339Y26.294Z0F800
G1 X44.607Y26.509Z0F800
G0 Z2.8F500
G0 X48.141Y26.514Z2.8F1000
G1 Z0F500
G1 X48.052Y27.166Z0F800
G1 X47.914Y27.804Z0F800
G1 X47.727Y28.424Z0F800
G1 X47.491Y29.022Z0F800
G1 X47.207Y29.595Z0F800
G1 X46.875Y30.139Z0F800
G1 X46.496Y30.651Z0F800
G1 X46.069Y31.127Z0F800
G1 X45.727Y31.45Z0F800
G1 X45.369Y31.742Z0F800
G1 X44.994Y32.002Z0F800
G1 X44.6Y32.232Z0F800
G1 X44.186Y32.432Z0F800
G1 X43.75Y32.604Z0F800
G1 X43.289Y32.749Z0F800
G1 X42.803Y32.866Z0F800
G1 X42.141Y32.965Z0F800
G1 X41.478Y32.986Z0F800
G1 X40.82Y32.932Z0F800
G1 X40.171Y32.806Z0F800
G1 X39.534Y32.612Z0F800
G1 X38.914Y32.352Z0F800
G1 X38.315Y32.029Z0F800
G1 X37.741Y31.647Z0F800
G1 X37.196Y31.208Z0F800
G1 X36.684Y30.715Z0F800
G1 X36.21Y30.172Z0F800
G1 X35.777Y29.581Z0F800
G1 X35.389Y28.946Z0F800
G1 X35.051Y28.269Z0F800
G1 X34.766Y27.553Z0F800
G1 X34.539Y26.802Z0F800
G1 X34.421Y26.295Z0F800
G1 X34.33Y25.802Z0F800
G1 X34.266Y25.324Z0F800
G1 X34.228Y24.859Z0F800
G1 X34.217Y24.409Z0F800
G1 X34.234Y23.972Z0F800
G1 X34.277Y23.549Z0F800
G1 X34.347Y23.14Z0F800
G1 X34.444Y22.744Z0F800
G1 X34.569Y22.362Z0F800
G1 X34.72Y21.993Z0F800
G1 X34.898Y21.638Z0F800
G1 X35.103Y21.295Z0F800
G1 X35.336Y20.965Z0F800
G1 X35.596Y20.649Z0F800
G1 X35.882Y20.345Z0F800
G1 X36.3Y19.974Z0F800
G1 X36.777Y19.625Z0F800
G1 X37.307Y19.302Z0F800
G1 X37.881Y19.009Z0F800
G1 X38.491Y18.749Z0F800
G1 X39.13Y18.526Z0F800
G1 X39.789Y18.345Z0F800
G1 X40.461Y18.208Z0F800
G1 X40.767Y18.17Z0F800
G1 X41.125Y18.148Z0F800
G1 X41.518Y18.14Z0F800
G1 X41.926Y18.147Z0F800
G1 X42.33Y18.168Z0F800
G1 X42.712Y18.202Z0F800
G1 X43.053Y18.248Z0F800
G1 X43.334Y18.306Z0F800
G1 X43.91Y18.49Z0F800
G1 X44.465Y18.732Z0F800
G1 X44.993Y19.028Z0F800
G1 X45.488Y19.375Z0F800
G1 X45.945Y19.768Z0F800
G1 X46.359Y20.202Z0F800
G1 X46.723Y20.673Z0F800
G1 X47.033Y21.177Z0F800
G1 X47.351Y21.823Z0F800
G1 X47.617Y22.482Z0F800
G1 X47.832Y23.15Z0F800
G1 X47.995Y23.824Z0F800
G1 X48.107Y24.501Z0F800
G1 X48.168Y25.178Z0F800
G1 X48.179Y25.85Z0F800
G1 X48.141Y26.514Z0F800
G0 Z2.8F500
G0 X68.089Y34.416Z2.8F1000
G1 Z0F500
G1 X67.598Y35.005Z0F800
G1 X67.165Y35.609Z0F800
G1 X66.795Y36.219Z0F800
G1 X66.495Y36.831Z0F800
G1 X66.27Y37.435Z0F800
G1 X66.174Y37.768Z0F800
G1 X66.13Y38.046Z0F800
G1 X66.124Y38.2Z0F800
G1 X66.128Y38.385Z0F800
G1 X66.14Y38.616Z0F800
G1 X66.159Y38.906Z0F800
G1 X66.275Y40.061Z0F800
G1 X66.459Y41.204Z0F800
G1 X66.707Y42.32Z0F800
G1 X67.013Y43.394Z0F800
G1 X67.374Y44.411Z0F800
G1 X67.783Y45.354Z0F800
G1 X68.004Y45.794Z0F800
G1 X68.236Y46.21Z0F800
G1 X68.478Y46.599Z0F800
G1 X68.728Y46.961Z0F800
G1 X69.102Y47.443Z0F800
G1 X69.476Y47.883Z0F800
G1 X69.648Y48.07Z0F800
G1 X69.8Y48.223Z0F800
G1 X69.925Y48.337Z0F800
G1 X70.018Y48.403Z0F800
G1 X70.091Y48.439Z0F800
G1 X70.119Z0F800
G1 X70.104Y48.401Z0F800
G1 X70.05Y48.313Z0F800
G1 X69.962Y48.153Z0F800
G1 X69.848Y47.914Z0F800
G1 X69.717Y47.613Z0F800
G1 X69.575Y47.267Z0F800
G1 X69.285Y46.512Z0F800
G1 X69.035Y45.787Z0F800
G1 X68.805Y45.012Z0F800
G1 X68.61Y44.238Z0F800
G1 X68.452Y43.465Z0F800
G1 X68.329Y42.695Z0F800
G1 X68.242Y41.929Z0F800
G1 X68.19Y41.168Z0F800
G1 X68.174Y40.412Z0F800
G1 X68.193Y39.662Z0F800
G1 X68.248Y38.92Z0F800
G1 X68.338Y38.186Z0F800
G1 X68.463Y37.461Z0F800
G1 X68.624Y36.746Z0F800
G1 X68.82Y36.042Z0F800
G1 X69.051Y35.349Z0F800
G1 X69.318Y34.67Z0F800
G1 X69.619Y34.004Z0F800
G1 X69.784Y33.67Z0F800
G1 X69.958Y33.331Z0F800
G1 X70.119Y33.026Z0F800
G1 X70.247Y32.796Z0F800
G1 X70.344Y32.626Z0F800
G1 X70.421Y32.487Z0F800
G1 X70.469Y32.393Z0F800
G1 X70.48Y32.359Z0F800
G1 X70.425Y32.394Z0F800
G1 X70.29Y32.489Z0F800
G1 X70.096Y32.629Z0F800
G1 X69.864Y32.801Z0F800
G1 X69.228Y33.307Z0F800
G1 X68.635Y33.848Z0F800
G1 X68.089Y34.416Z0F800
G0 Z2.8F500
G0 X72.67Y40.533Z2.8F1000
G1 Z0F500
G1 X72.044Y40.766Z0F800
G1 X71.426Y41.024Z0F800
G1 X71.202Y41.124Z0F800
G1 X71.029Y41.205Z0F800
G1 X70.898Y41.272Z0F800
G1 X70.803Y41.332Z0F800
G1 X70.689Y41.448Z0F800
G1 X70.629Y41.594Z0F800
G1 X70.587Y41.793Z0F800
G1 X70.553Y42.065Z0F800
G1 X70.528Y42.389Z0F800
G1 X70.513Y42.743Z0F800
G1 X70.508Y43.107Z0F800
G1 X70.514Y43.458Z0F800
G1 X70.531Y43.775Z0F800
G1 X70.56Y44.036Z0F800
G1 X70.632Y44.432Z0F800
G1 X70.73Y44.88Z0F800
G1 X70.845Y45.35Z0F800
G1 X70.969Y45.813Z0F800
G1 X71.095Y46.239Z0F800
G1 X71.213Y46.6Z0F800
G1 X71.267Y46.747Z0F800
G1 X71.315Y46.867Z0F800
G1 X71.358Y46.955Z0F800
G1 X71.394Y47.009Z0F800
G1 X71.41Y46.994Z0F800
G1 X71.419Y46.916Z0F800
G1 X71.422Y46.788Z0F800
G1 X71.417Y46.623Z0F800
G1 Y46.365Z0F800
G1 X71.44Y46.077Z0F800
G1 X71.484Y45.769Z0F800
G1 X71.548Y45.449Z0F800
G1 X71.726Y44.811Z0F800
G1 X71.957Y44.236Z0F800
G1 X72.284Y43.642Z0F800
G1 X72.682Y43.063Z0F800
G1 X73.148Y42.503Z0F800
G1 X73.681Y41.963Z0F800
G1 X74.277Y41.445Z0F800
G1 X74.936Y40.951Z0F800
G1 X75.653Y40.484Z0F800
G1 X76.428Y40.045Z0F800
G1 X76.709Y39.895Z0F800
G1 X76.917Y39.78Z0F800
G1 X77.053Y39.695Z0F800
G1 X77.121Y39.638Z0F800
G1 Y39.605Z0F800
G1 X77.062Y39.593Z0F800
G1 X76.941Y39.598Z0F800
G1 X76.762Y39.617Z0F800
G1 X76.025Y39.716Z0F800
G1 X75.314Y39.836Z0F800
G1 X74.626Y39.977Z0F800
G1 X73.958Y40.139Z0F800
G1 X73.307Y40.324Z0F800
G1 X72.67Y40.533Z0F800

; Color 1 picking sequence
G1 Z10 F500;         ; Raise brush to safe height
G0 X2 Y0 F1000;     ; Rapid move to brush cleaning position
G1 Z0 F500;         ; Lower brush for cleaning - controlled movement
G1 Z2 F500;         ; Raise brush slightly - controlled movement
G1 X22 Y0 Z8 F500;     ; Move across cleaning area - controlled movement
G1 Z8 F500;         ; Maintain brush height - controlled movement
G0 X41 Y0 F1200;    ; Rapid move to color 1 position
G1 Z0 F500;         ; Lower into color - controlled movement
G1 X35 Y1 F500;     ; Small movement in paint - controlled movement
G1 Z7 F500;         ; Raise from color - controlled movement
G1 X38 Y1 F500;     ; Movement in paint - controlled movement
G1 Z1 F500;         ; Lower slightly - controlled movement
G1 X27 Y10 Z8 F500;     ; Move in paint - controlled movement
G1 Z8 F500;         ; Raise brush - controlled movement
G1 F1000;           ; Set feed rate to 1000
G0 Z2.8F500
G0 X79.924Y41.51Z2.8F1000
G1 Z0F500
G1 X80.467Y42.025Z0F800
G1 X81.056Y42.635Z0F800
G1 X81.547Y43.252Z0F800
G1 X81.94Y43.875Z0F800
G1 X82.233Y44.502Z0F800
G1 X82.342Y44.816Z0F800
G1 X82.426Y45.131Z0F800
G1 X82.485Y45.447Z0F800
G1 X82.519Y45.762Z0F800
G1 X82.527Y46.077Z0F800
G1 X82.511Y46.393Z0F800
G1 X82.469Y46.707Z0F800
G1 X82.401Y47.022Z0F800
G1 X82.25Y47.503Z0F800
G1 X82.051Y47.96Z0F800
G1 X81.807Y48.389Z0F800
G1 X81.521Y48.786Z0F800
G1 X81.194Y49.15Z0F800
G1 X80.83Y49.475Z0F800
G1 X80.431Y49.76Z0F800
G1 X80Y50Z0F800
G1 X79.546Y50.193Z0F800
G1 X79.095Y50.325Z0F800
G1 X78.629Y50.401Z0F800
G1 X78.13Y50.424Z0F800
G1 X77.874Y50.42Z0F800
G1 X77.649Y50.408Z0F800
G1 X77.453Y50.387Z0F800
G1 X77.285Y50.359Z0F800
G1 X77.02Y50.274Z0F800
G1 X76.839Y50.149Z0F800
G1 X76.692Y50.002Z0F800
G1 X76.832Y49.745Z0F800
G1 X77.039Y49.474Z0F800
G1 X77.342Y49.186Z0F800
G1 X77.481Y49.069Z0F800
G1 X77.586Y48.974Z0F800
G1 X77.646Y48.909Z0F800
G1 X77.652Y48.885Z0F800
G1 X77.572Y48.897Z0F800
G1 X77.434Y48.929Z0F800
G1 X77.255Y48.976Z0F800
G1 X77.054Y49.033Z0F800
G1 X76.846Y49.095Z0F800
G1 X76.65Y49.158Z0F800
G1 X76.482Y49.215Z0F800
G1 X76.359Y49.263Z0F800
G1 X76.208Y49.335Z0F800
G1 X76.13Y49.415Z0F800
G1 X76.111Y49.471Z0F800
G1 X76.101Y49.547Z0F800
G1 X76.097Y49.649Z0F800
G1 Y49.781Z0F800
G1 X76.09Y49.95Z0F800
G1 X76.071Y50.097Z0F800
G1 X76.04Y50.22Z0F800
G1 X75.996Y50.32Z0F800
G1 X75.938Y50.397Z0F800
G1 X75.868Y50.452Z0F800
G1 X75.785Y50.485Z0F800
G1 X75.688Y50.496Z0F800
G1 X75.51Y50.466Z0F800
G1 X75.349Y50.387Z0F800
G1 X75.231Y50.279Z0F800
G1 X75.183Y50.159Z0F800
G1 X75.16Y50.129Z0F800
G1 X75.099Y50.158Z0F800
G1 X75.01Y50.234Z0F800
G1 X74.904Y50.346Z0F800
G1 X74.676Y50.635Z0F800
G1 X74.493Y50.938Z0F800
G1 X74.346Y51.29Z0F800
G1 X74.238Y51.659Z0F800
G1 X74.169Y52.047Z0F800
G1 X74.138Y52.457Z0F800
G1 X74.145Y52.889Z0F800
G1 X74.19Y53.347Z0F800
G1 X74.273Y53.831Z0F800
G1 X74.394Y54.345Z0F800
G1 X74.514Y54.797Z0F800
G1 X74.595Y54.233Z0F800
G1 X74.69Y53.768Z0F800
G1 X74.836Y53.344Z0F800
G1 X75.032Y52.962Z0F800
G1 X75.277Y52.624Z0F800
G1 X75.57Y52.331Z0F800
G1 X75.91Y52.083Z0F800
G1 X76.296Y51.882Z0F800
G1 X76.727Y51.73Z0F800
G1 X76.828Y51.705Z0F800
G1 X76.967Y51.676Z0F800
G1 X77.14Y51.644Z0F800
G1 X77.338Y51.61Z0F800
G1 X77.788Y51.541Z0F800
G1 X78.703Y51.419Z0F800
G1 X79.11Y51.36Z0F800
G1 X79.489Y51.298Z0F800
G1 X79.843Y51.233Z0F800
G1 X80.479Y51.091Z0F800
G1 X81.029Y50.93Z0F800
G1 X81.507Y50.746Z0F800
G1 X81.923Y50.535Z0F800
G1 X82.29Y50.294Z0F800
G1 X82.621Y50.017Z0F800
G1 X82.808Y49.85Z0F800
G1 X82.975Y49.712Z0F800
G1 X83.106Y49.62Z0F800
G1 X83.18Y49.585Z0F800
G1 X83.317Y49.622Z0F800
G1 X83.464Y49.724Z0F800
G1 X83.605Y49.876Z0F800
G1 X83.724Y50.064Z0F800
G1 X83.851Y50.392Z0F800
G1 X83.909Y50.731Z0F800
G1 X83.901Y51.072Z0F800
G1 X83.829Y51.407Z0F800
G1 X83.697Y51.725Z0F800
G1 X83.508Y52.018Z0F800
G1 X83.263Y52.277Z0F800
G1 X82.967Y52.492Z0F800
G1 X82.829Y52.577Z0F800
G1 X82.716Y52.656Z0F800
G1 X82.639Y52.717Z0F800
G1 X82.611Y52.754Z0F800
G1 X82.66Y52.785Z0F800
G1 X82.796Y52.804Z0F800
G1 X82.993Y52.81Z0F800
G1 X83.23Y52.805Z0F800
G1 X83.483Y52.79Z0F800
G1 X83.728Y52.767Z0F800
G1 X83.942Y52.735Z0F800
G1 X84.102Y52.695Z0F800
G1 X84.403Y52.536Z0F800
G1 X84.69Y52.285Z0F800
G1 X84.927Y51.98Z0F800
G1 X85.078Y51.659Z0F800
G1 X85.112Y51.484Z0F800
G1 X85.14Y51.219Z0F800
G1 X85.158Y50.901Z0F800
G1 X85.165Y50.565Z0F800
G1 Y49.758Z0F800
G1 X84.661Y48.709Z0F800
G1 X84.476Y48.318Z0F800
G1 X84.326Y47.979Z0F800
G1 X84.205Y47.677Z0F800
G1 X84.108Y47.396Z0F800
G1 X84.032Y47.122Z0F800
G1 X83.971Y46.84Z0F800
G1 X83.92Y46.534Z0F800
G1 X83.875Y46.189Z0F800
G1 X83.788Y45.59Z0F800
G1 X83.67Y45.079Z0F800
G1 X83.505Y44.599Z0F800
G1 X83.276Y44.088Z0F800
G1 X82.999Y43.588Z0F800
G1 X82.681Y43.13Z0F800
G1 X82.327Y42.72Z0F800
G1 X81.944Y42.362Z0F800
G1 X81.538Y42.061Z0F800
G1 X81.115Y41.822Z0F800
G1 X80.681Y41.651Z0F800
G1 X80.241Y41.553Z0F800
G1 X79.924Y41.51Z0F800
G0 Z2.8F500
G0 X81.183Y44.215Z2.8F1000
G1 Z0F500
G1 X81.132Y44.249Z0F800
G1 X81.065Y44.311Z0F800
G1 X80.979Y44.399Z0F800
G1 X80.716Y44.607Z0F800
G1 X80.356Y44.819Z0F800
G1 X80.008Y44.963Z0F800
G1 X79.669Y45.026Z0F800
G1 X79.483Y45.029Z0F800
G1 X79.278Y45.013Z0F800
G1 X79.046Y44.979Z0F800
G1 X78.778Y44.928Z0F800
G1 X78.487Y44.883Z0F800
G1 X78.188Y44.867Z0F800
G1 X77.883Y44.88Z0F800
G1 X77.577Y44.92Z0F800
G1 X77.274Y44.987Z0F800
G1 X76.976Y45.081Z0F800
G1 X76.687Y45.2Z0F800
G1 X76.411Y45.345Z0F800
G1 X76.113Y45.564Z0F800
G1 X75.803Y45.863Z0F800
G1 X75.525Y46.195Z0F800
G1 X75.325Y46.512Z0F800
G1 X75.215Y46.711Z0F800
G1 X75.097Y46.885Z0F800
G1 X74.966Y47.036Z0F800
G1 X74.818Y47.168Z0F800
G1 X74.646Y47.285Z0F800
G1 X74.447Y47.391Z0F800
G1 X74.216Y47.489Z0F800
G1 X73.947Y47.584Z0F800
G1 X73.637Y47.71Z0F800
G1 X73.402Y47.846Z0F800
G1 X73.25Y48.012Z0F800
G1 X73.094Y48.243Z0F800
G1 X73.031Y48.358Z0F800
G1 X72.984Y48.46Z0F800
G1 X72.961Y48.537Z0F800
G1 X72.967Y48.58Z0F800
G1 X73.006Y48.576Z0F800
G1 X73.09Y48.543Z0F800
G1 X73.206Y48.485Z0F800
G1 X73.342Y48.409Z0F800
G1 X73.675Y48.228Z0F800
G1 X74.004Y48.084Z0F800
G1 X74.333Y47.975Z0F800
G1 X74.663Y47.901Z0F800
G1 X74.999Y47.86Z0F800
G1 X75.343Y47.854Z0F800
G1 X75.699Y47.88Z0F800
G1 X76.07Y47.94Z0F800
G1 X76.652Y48.015Z0F800
G1 X77.274Y48.027Z0F800
G1 X77.879Y47.976Z0F800
G1 X78.407Y47.866Z0F800
G1 X78.986Y47.653Z0F800
G1 X79.501Y47.379Z0F800
G1 X79.951Y47.044Z0F800
G1 X80.337Y46.648Z0F800
G1 X80.658Y46.191Z0F800
G1 X80.915Y45.674Z0F800
G1 X81.106Y45.095Z0F800
G1 X81.233Y44.456Z0F800
G1 X81.245Y44.351Z0F800
G1 X81.248Y44.275Z0F800
G1 X81.239Y44.228Z0F800
G1 X81.218Y44.208Z0F800
G1 X81.183Y44.215Z0F800
G0 Z2.8F500
G0 X88.856Y44.952Z2.8F1000
G1 Z0F500
G1 X88.723Y45.529Z0F800
G1 X88.629Y46.154Z0F800
G1 X88.583Y46.51Z0F800
G1 X88.533Y46.823Z0F800
G1 X88.472Y47.11Z0F800
G1 X88.396Y47.386Z0F800
G1 X88.3Y47.668Z0F800
G1 X88.18Y47.97Z0F800
G1 X88.029Y48.31Z0F800
G1 X87.845Y48.702Z0F800
G1 X87.683Y49.039Z0F800
G1 X87.56Y49.304Z0F800
G1 X87.47Y49.514Z0F800
G1 X87.407Y49.688Z0F800
G1 X87.34Y49.997Z0F800
G1 X87.313Y50.374Z0F800
G1 X87.308Y50.8Z0F800
G1 X87.335Y51.179Z0F800
G1 X87.395Y51.513Z0F800
G1 X87.491Y51.804Z0F800
G1 X87.622Y52.056Z0F800
G1 X87.79Y52.271Z0F800
G1 X87.996Y52.451Z0F800
G1 X88.24Y52.599Z0F800
G1 X88.478Y52.709Z0F800
G1 X88.687Y52.771Z0F800
G1 X88.928Y52.8Z0F800
G1 X89.262Y52.807Z0F800
G1 X89.501Y52.803Z0F800
G1 X89.704Y52.794Z0F800
G1 X89.848Y52.779Z0F800
G1 X89.914Y52.762Z0F800
G1 X89.908Y52.733Z0F800
G1 X89.861Y52.689Z0F800
G1 X89.779Y52.634Z0F800
G1 X89.67Y52.575Z0F800
G1 X89.46Y52.454Z0F800
G1 X89.268Y52.308Z0F800
G1 X89.096Y52.139Z0F800
G1 X88.945Y51.951Z0F800
G1 X88.818Y51.745Z0F800
G1 X88.715Y51.524Z0F800
G1 X88.638Y51.289Z0F800
G1 X88.589Y51.044Z0F800
G1 X88.578Y50.827Z0F800
G1 X88.6Y50.604Z0F800
G1 X88.651Y50.384Z0F800
G1 X88.727Y50.175Z0F800
G1 X88.825Y49.986Z0F800
G1 X88.941Y49.825Z0F800
G1 X89.07Y49.703Z0F800
G1 X89.209Y49.626Z0F800
G1 X89.322Y49.602Z0F800
G1 X89.433Y49.632Z0F800
G1 X89.499Y49.675Z0F800
G1 X89.579Y49.739Z0F800
G1 X89.679Y49.828Z0F800
G1 X90.001Y50.127Z0F800
G1 X90.175Y50.28Z0F800
G1 X90.335Y50.406Z0F800
G1 X90.489Y50.512Z0F800
G1 X90.818Y50.688Z0F800
G1 X91.238Y50.856Z0F800
G1 X91.818Y51.04Z0F800
G1 X92.493Y51.201Z0F800
G1 X92.877Y51.275Z0F800
G1 X93.298Y51.345Z0F800
G1 X93.761Y51.414Z0F800
G1 X94.839Y51.557Z0F800
G1 X95.311Y51.634Z0F800
G1 X95.701Y51.716Z0F800
G1 X96.026Y51.81Z0F800
G1 X96.304Y51.922Z0F800
G1 X96.551Y52.057Z0F800
G1 X96.784Y52.222Z0F800
G1 X97.019Y52.421Z0F800
G1 X97.344Y52.776Z0F800
G1 X97.6Y53.195Z0F800
G1 X97.787Y53.677Z0F800
G1 X97.904Y54.219Z0F800
G1 X97.987Y54.797Z0F800
G1 X98.18Y54.058Z0F800
G1 X98.238Y53.815Z0F800
G1 X98.283Y53.605Z0F800
G1 X98.316Y53.417Z0F800
G1 X98.354Y53.063Z0F800
G1 X98.364Y52.664Z0F800
G1 X98.351Y52.286Z0F800
G1 X98.308Y51.925Z0F800
G1 X98.236Y51.582Z0F800
G1 X98.136Y51.257Z0F800
G1 X98.009Y50.952Z0F800
G1 X97.853Y50.669Z0F800
G1 X97.671Y50.407Z0F800
G1 X97.462Y50.169Z0F800
G1 X97.14Y49.842Z0F800
G1 X97.119Y50.063Z0F800
G1 X97.068Y50.232Z0F800
G1 X96.964Y50.369Z0F800
G1 X96.819Y50.462Z0F800
G1 X96.65Y50.496Z0F800
G1 X96.485Y50.462Z0F800
G1 X96.339Y50.373Z0F800
G1 X96.235Y50.248Z0F800
G1 X96.195Y50.107Z0F800
G1 X96.203Y50.023Z0F800
G1 X96.23Y49.97Z0F800
G1 X96.284Y49.943Z0F800
G1 X96.37Y49.936Z0F800
G1 X96.443Y49.943Z0F800
G1 X96.498Y49.964Z0F800
G1 X96.533Y49.997Z0F800
G1 X96.545Y50.041Z0F800
G1 X96.576Y50.115Z0F800
G1 X96.65Y50.146Z0F800
G1 X96.707Y50.137Z0F800
G1 X96.741Y50.112Z0F800
G1 X96.753Y50.073Z0F800
G1 X96.744Y50.024Z0F800
G1 X96.666Y49.899Z0F800
G1 X96.329Y49.588Z0F800
G1 X96.228Y49.439Z0F800
G1 X96.153Y49.321Z0F800
G1 X96.034Y49.224Z0F800
G1 X95.437Y49.029Z0F800
G1 X94.844Y48.886Z0F800
G1 X94.852Y48.91Z0F800
G1 X94.914Y48.974Z0F800
G1 X95.02Y49.069Z0F800
G1 X95.159Y49.185Z0F800
G1 X95.32Y49.324Z0F800
G1 X95.455Y49.458Z0F800
G1 X95.563Y49.587Z0F800
G1 X95.643Y49.71Z0F800
G1 X95.696Y49.824Z0F800
G1 X95.72Y49.929Z0F800
G1 X95.714Y50.025Z0F800
G1 X95.678Y50.108Z0F800
G1 X95.615Y50.183Z0F800
G1 X95.529Y50.248Z0F800
G1 X95.42Y50.301Z0F800
G1 X95.286Y50.344Z0F800
G1 X95.126Y50.378Z0F800
G1 X94.938Y50.401Z0F800
G1 X94.721Y50.416Z0F800
G1 X94.473Y50.422Z0F800
G1 X94.007Y50.405Z0F800
G1 X93.565Y50.348Z0F800
G1 X93.145Y50.249Z0F800
G1 X92.744Y50.108Z0F800
G1 X92.36Y49.923Z0F800
G1 X91.992Y49.695Z0F800
G1 X91.636Y49.421Z0F800
G1 X91.29Y49.101Z0F800
G1 X90.912Y48.673Z0F800
G1 X90.594Y48.212Z0F800
G1 X90.34Y47.724Z0F800
G1 X90.149Y47.216Z0F800
G1 X90.026Y46.694Z0F800
G1 X89.97Y46.164Z0F800
G1 X89.985Y45.632Z0F800
G1 X90.071Y45.105Z0F800
G1 X90.18Y44.731Z0F800
G1 X90.332Y44.347Z0F800
G1 X90.525Y43.957Z0F800
G1 X90.755Y43.563Z0F800
G1 X91.022Y43.171Z0F800
G1 X91.321Y42.784Z0F800
G1 X91.652Y42.405Z0F800
G1 X92.011Y42.04Z0F800
G1 X92.538Y41.532Z0F800
G1 X92.248Y41.537Z0F800
G1 X91.961Y41.566Z0F800
G1 X91.678Y41.63Z0F800
G1 X91.313Y41.772Z0F800
G1 X90.96Y41.959Z0F800
G1 X90.622Y42.19Z0F800
G1 X90.302Y42.463Z0F800
G1 X90.001Y42.775Z0F800
G1 X89.723Y43.124Z0F800
G1 X89.469Y43.508Z0F800
G1 X89.242Y43.924Z0F800
G1 X89.028Y44.419Z0F800
G1 X88.856Y44.952Z0F800

; Color 1 picking sequence
G1 Z10 F500;         ; Raise brush to safe height
G0 X2 Y0 F1000;     ; Rapid move to brush cleaning position
G1 Z0 F500;         ; Lower brush for cleaning - controlled movement
G1 Z2 F500;         ; Raise brush slightly - controlled movement
G1 X22 Y0 Z8 F500;     ; Move across cleaning area - controlled movement
G1 Z8 F500;         ; Maintain brush height - controlled movement
G0 X41 Y0 F1200;    ; Rapid move to color 1 position
G1 Z0 F500;         ; Lower into color - controlled movement
G1 X35 Y1 F500;     ; Small movement in paint - controlled movement
G1 Z7 F500;         ; Raise from color - controlled movement
G1 X38 Y1 F500;     ; Movement in paint - controlled movement
G1 Z1 F500;         ; Lower slightly - controlled movement
G1 X27 Y10 Z8 F500;     ; Move in paint - controlled movement
G1 Z8 F500;         ; Raise brush - controlled movement
G1 F1000;           ; Set feed rate to 1000
G0 Z2.8F500
G0 X91.335Y44.848Z2.8F1000
G1 Z0F500
G1 X91.448Y45.28Z0F800
G1 X91.514Y45.496Z0F800
G1 X91.582Y45.698Z0F800
G1 X91.65Y45.874Z0F800
G1 X91.713Y46.013Z0F800
G1 X91.87Y46.285Z0F800
G1 X92.052Y46.54Z0F800
G1 X92.257Y46.777Z0F800
G1 X92.485Y46.995Z0F800
G1 X92.733Y47.195Z0F800
G1 X93.001Y47.374Z0F800
G1 X93.286Y47.533Z0F800
G1 X93.586Y47.671Z0F800
G1 X93.901Y47.788Z0F800
G1 X94.229Y47.882Z0F800
G1 X94.568Y47.953Z0F800
G1 X94.917Y48Z0F800
G1 X95.273Y48.024Z0F800
G1 X95.636Z0F800
G1 X96.004Y47.994Z0F800
G1 X96.375Y47.941Z0F800
G1 X96.7Y47.89Z0F800
G1 X97.004Y47.859Z0F800
G1 X97.281Y47.847Z0F800
G1 X97.524Y47.855Z0F800
G1 X97.956Y47.927Z0F800
G1 X98.42Y48.063Z0F800
G1 X98.866Y48.247Z0F800
G1 X99.247Y48.462Z0F800
G1 X99.362Y48.536Z0F800
G1 X99.448Y48.584Z0F800
G1 X99.506Y48.604Z0F800
G1 X99.538Y48.596Z0F800
G1 X99.544Y48.559Z0F800
G1 X99.526Y48.491Z0F800
G1 X99.483Y48.391Z0F800
G1 X99.418Y48.259Z0F800
G1 X99.269Y48.023Z0F800
G1 X99.079Y47.84Z0F800
G1 X98.821Y47.69Z0F800
G1 X98.471Y47.555Z0F800
G1 X98.252Y47.477Z0F800
G1 X98.065Y47.397Z0F800
G1 X97.902Y47.312Z0F800
G1 X97.76Y47.216Z0F800
G1 X97.51Y46.976Z0F800
G1 X97.27Y46.643Z0F800
G1 X97Y46.246Z0F800
G1 X96.733Y45.912Z0F800
G1 X96.461Y45.634Z0F800
G1 X96.176Y45.406Z0F800
G1 X95.869Y45.224Z0F800
G1 X95.532Y45.081Z0F800
G1 X95.157Y44.972Z0F800
G1 X94.735Y44.89Z0F800
G1 X94.477Y44.859Z0F800
G1 X94.25Y44.853Z0F800
G1 X94.016Y44.875Z0F800
G1 X93.739Y44.925Z0F800
G1 X93.279Y45.002Z0F800
G1 X92.904Y45.033Z0F800
G1 X92.567Y44.98Z0F800
G1 X92.183Y44.839Z0F800
G1 X91.818Y44.641Z0F800
G1 X91.536Y44.414Z0F800
G1 X91.452Y44.328Z0F800
G1 X91.376Y44.258Z0F800
G1 X91.317Y44.211Z0F800
G1 X91.282Y44.193Z0F800
G1 X91.267Y44.217Z0F800
G1 X91.26Y44.281Z0F800
G1 Y44.375Z0F800
G1 X91.27Y44.491Z0F800
G1 X91.335Y44.848Z0F800
G0 Z2.8F500
G0 X97.39Y40.821Z2.8F1000
G1 Z0F500
G1 X97.802Y41.109Z0F800
G1 X98.558Y41.719Z0F800
G1 X99.264Y42.403Z0F800
G1 X99.678Y42.873Z0F800
G1 X100.039Y43.35Z0F800
G1 X100.344Y43.835Z0F800
G1 X100.596Y44.328Z0F800
G1 X100.792Y44.829Z0F800
G1 X100.934Y45.337Z0F800
G1 X101.022Y45.854Z0F800
G1 X101.055Y46.378Z0F800
G1 X101.061Y46.637Z0F800
G1 X101.074Y46.843Z0F800
G1 X101.091Y46.973Z0F800
G1 X101.111Y47.008Z0F800
G1 X101.132Y46.975Z0F800
G1 X101.161Y46.914Z0F800
G1 X101.196Y46.827Z0F800
G1 X101.238Y46.718Z0F800
G1 X101.333Y46.443Z0F800
G1 X101.439Y46.116Z0F800
G1 X101.548Y45.761Z0F800
G1 X101.652Y45.402Z0F800
G1 X101.743Y45.065Z0F800
G1 X101.814Y44.775Z0F800
G1 X101.875Y44.429Z0F800
G1 X101.922Y44.014Z0F800
G1 X101.955Y43.557Z0F800
G1 X101.973Y43.088Z0F800
G1 X101.976Y42.632Z0F800
G1 X101.962Y42.218Z0F800
G1 X101.931Y41.874Z0F800
G1 X101.883Y41.627Z0F800
G1 X101.82Y41.457Z0F800
G1 X101.715Y41.336Z0F800
G1 X101.626Y41.278Z0F800
G1 X101.503Y41.213Z0F800
G1 X101.338Y41.137Z0F800
G1 X101.123Y41.041Z0F800
G1 X100.466Y40.769Z0F800
G1 X99.794Y40.523Z0F800
G1 X99.11Y40.301Z0F800
G1 X98.416Y40.107Z0F800
G1 X97.715Y39.939Z0F800
G1 X97.01Y39.8Z0F800
G1 X96.304Y39.689Z0F800
G1 X95.6Y39.608Z0F800
G1 X95.18Y39.568Z0F800
G1 X95.95Y39.975Z0F800
G1 X96.47Y40.258Z0F800
G1 X96.948Y40.539Z0F800
G1 X97.39Y40.821Z0F800
G0 Z2.8F500
G0 X104.314Y41.167Z2.8F1000
G1 Z0F500
G1 X104.258Y41.978Z0F800
G1 X104.162Y42.796Z0F800
G1 X104.024Y43.619Z0F800
G1 X103.846Y44.447Z0F800
G1 X103.627Y45.28Z0F800
G1 X103.407Y45.986Z0F800
G1 X103.155Y46.694Z0F800
G1 X102.889Y47.357Z0F800
G1 X102.626Y47.926Z0F800
G1 X102.529Y48.127Z0F800
G1 X102.468Y48.274Z0F800
G1 X102.443Y48.367Z0F800
G1 X102.456Y48.406Z0F800
G1 X102.505Y48.392Z0F800
G1 X102.594Y48.325Z0F800
G1 X102.721Y48.205Z0F800
G1 X102.888Y48.033Z0F800
G1 X103.246Y47.63Z0F800
G1 X103.586Y47.203Z0F800
G1 X103.908Y46.752Z0F800
G1 X104.211Y46.278Z0F800
G1 X104.496Y45.781Z0F800
G1 X104.762Y45.262Z0F800
G1 X105.008Y44.721Z0F800
G1 X105.236Y44.157Z0F800
G1 X105.444Y43.573Z0F800
G1 X105.633Y42.968Z0F800
G1 X105.802Y42.343Z0F800
G1 X105.951Y41.697Z0F800
G1 X106.08Y41.032Z0F800
G1 X106.189Y40.348Z0F800
G1 X106.278Y39.645Z0F800
G1 X106.347Y38.924Z0F800
G1 X106.369Y38.636Z0F800
G1 X106.383Y38.408Z0F800
G1 X106.388Y38.227Z0F800
G1 X106.383Y38.075Z0F800
G1 X106.337Y37.798Z0F800
G1 X106.236Y37.454Z0F800
G1 X105.99Y36.801Z0F800
G1 X105.66Y36.144Z0F800
G1 X105.254Y35.49Z0F800
G1 X104.779Y34.847Z0F800
G1 X104.241Y34.225Z0F800
G1 X103.648Y33.632Z0F800
G1 X103.005Y33.077Z0F800
G1 X102.321Y32.567Z0F800
G1 X101.988Y32.338Z0F800
G1 X102.248Y32.786Z0F800
G1 X102.638Y33.496Z0F800
G1 X102.987Y34.218Z0F800
G1 X103.296Y34.952Z0F800
G1 X103.565Y35.696Z0F800
G1 X103.793Y36.451Z0F800
G1 X103.981Y37.216Z0F800
G1 X104.129Y37.99Z0F800
G1 X104.236Y38.772Z0F800
G1 X104.303Y39.563Z0F800
G1 X104.328Y40.361Z0F800
G1 X104.314Y41.167Z0F800
G0 Z2.8F500
G0 X90.513Y32.478Z2.8F1000
G1 Z0F500
G1 X90.457Y32.495Z0F800
G1 X89.999Y32.413Z0F800
G1 X89.635Y32.378Z0F800
G1 X89.248Y32.369Z0F800
G1 X88.839Y32.385Z0F800
G1 X88.408Y32.427Z0F800
G1 X87.955Y32.495Z0F800
G1 X87.48Y32.587Z0F800
G1 X86.983Y32.706Z0F800
G1 X86.209Y32.905Z0F800
G1 X85.617Y32.733Z0F800
G1 X84.701Y32.517Z0F800
G1 X83.799Y32.393Z0F800
G1 X83.377Y32.369Z0F800
G1 X82.988Z0F800
G1 X82.64Y32.398Z0F800
G1 X82.344Y32.453Z0F800
G1 X81.979Y32.548Z0F800
G1 Y32.323Z0F800
G1 X82.026Y32.077Z0F800
G1 X82.16Y31.839Z0F800
G1 X82.368Y31.625Z0F800
G1 X82.638Y31.452Z0F800
G1 X82.852Y31.362Z0F800
G1 X83.101Y31.303Z0F800
G1 X83.262Y31.282Z0F800
G1 X83.46Y31.264Z0F800
G1 X83.704Y31.248Z0F800
G1 X84.003Y31.233Z0F800
G1 X84.499Y31.204Z0F800
G1 X84.902Y31.166Z0F800
G1 X85.223Y31.115Z0F800
G1 X85.478Y31.047Z0F800
G1 X85.677Y30.957Z0F800
G1 X85.835Y30.84Z0F800
G1 X85.964Y30.692Z0F800
G1 X86.077Y30.508Z0F800
G1 X86.133Y30.411Z0F800
G1 X86.186Y30.331Z0F800
G1 X86.23Y30.277Z0F800
G1 X86.258Y30.257Z0F800
G1 X86.315Y30.317Z0F800
G1 X86.388Y30.46Z0F800
G1 X86.484Y30.649Z0F800
G1 X86.606Y30.804Z0F800
G1 X86.765Y30.929Z0F800
G1 X86.969Y31.028Z0F800
G1 X87.227Y31.104Z0F800
G1 X87.55Y31.161Z0F800
G1 X87.946Y31.203Z0F800
G1 X88.424Y31.231Z0F800
G1 X88.749Y31.247Z0F800
G1 X89.012Y31.263Z0F800
G1 X89.222Y31.281Z0F800
G1 X89.39Y31.302Z0F800
G1 X89.644Y31.361Z0F800
G1 X89.86Y31.452Z0F800
G1 X90.12Y31.609Z0F800
G1 X90.308Y31.786Z0F800
G1 X90.431Y31.994Z0F800
G1 X90.5Y32.247Z0F800
G1 X90.522Y32.403Z0F800
G1 X90.513Y32.478Z0F800
G0 Z2.8F500
G0 X87.801Y25.688Z2.8F1000
G1 Z0F500
G1 X87.453Y25.728Z0F800
G1 X87.085Y25.755Z0F800
G1 X86.69Y25.77Z0F800
G1 X86.259Y25.775Z0F800
G1 X85.655Y25.763Z0F800
G1 X85.093Y25.727Z0F800
G1 X84.565Y25.665Z0F800
G1 X84.068Y25.577Z0F800
G1 X83.594Y25.46Z0F800
G1 X83.137Y25.314Z0F800
G1 X82.693Y25.137Z0F800
G1 X82.254Y24.929Z0F800
G1 X81.695Y24.599Z0F800
G1 X81.198Y24.219Z0F800
G1 X80.767Y23.795Z0F800
G1 X80.406Y23.331Z0F800
G1 X80.119Y22.834Z0F800
G1 X79.91Y22.309Z0F800
G1 X79.782Y21.762Z0F800
G1 X79.739Y21.198Z0F800
G1 X79.756Y20.874Z0F800
G1 X79.807Y20.571Z0F800
G1 X79.894Y20.286Z0F800
G1 X80.018Y20.019Z0F800
G1 X80.179Y19.767Z0F800
G1 X80.379Y19.528Z0F800
G1 X80.618Y19.3Z0F800
G1 X80.899Y19.081Z0F800
G1 X81.34Y18.799Z0F800
G1 X81.82Y18.555Z0F800
G1 X82.352Y18.346Z0F800
G1 X82.947Y18.164Z0F800
G1 X83.736Y17.976Z0F800
G1 X84.475Y17.867Z0F800
G1 X84.879Y17.837Z0F800
G1 X85.336Y17.82Z0F800
G1 X85.868Y17.815Z0F800
G1 X86.496Y17.819Z0F800
G1 X87.016Y17.826Z0F800
G1 X87.433Y17.835Z0F800
G1 X87.769Y17.848Z0F800
G1 X88.046Y17.866Z0F800
G1 X88.514Y17.926Z0F800
G1 X89.017Y18.032Z0F800
G1 X89.538Y18.164Z0F800
G1 X90.017Y18.31Z0F800
G1 X90.455Y18.472Z0F800
G1 X90.854Y18.649Z0F800
G1 X91.215Y18.843Z0F800
G1 X91.539Y19.055Z0F800
G1 X91.829Y19.285Z0F800
G1 X92.086Y19.534Z0F800
G1 X92.263Y19.736Z0F800
G1 X92.407Y19.923Z0F800
G1 X92.519Y20.106Z0F800
G1 X92.603Y20.293Z0F800
G1 X92.662Y20.493Z0F800
G1 X92.7Y20.715Z0F800
G1 X92.72Y20.967Z0F800
G1 X92.725Y21.258Z0F800
G1 X92.722Y21.47Z0F800
G1 X92.716Y21.647Z0F800
G1 X92.704Y21.799Z0F800
G1 X92.684Y21.935Z0F800
G1 X92.616Y22.2Z0F800
G1 X92.498Y22.519Z0F800
G1 X92.266Y23.01Z0F800
G1 X91.977Y23.466Z0F800
G1 X91.634Y23.884Z0F800
G1 X91.236Y24.265Z0F800
G1 X90.787Y24.606Z0F800
G1 X90.285Y24.907Z0F800
G1 X89.734Y25.166Z0F800
G1 X89.134Y25.384Z0F800
G1 X88.464Y25.567Z0F800
G1 X87.801Y25.688Z0F800

; Color 1 picking sequence
G1 Z10 F500;         ; Raise brush to safe height
G0 X2 Y0 F1000;     ; Rapid move to brush cleaning position
G1 Z0 F500;         ; Lower brush for cleaning - controlled movement
G1 Z2 F500;         ; Raise brush slightly - controlled movement
G1 X22 Y0 Z8 F500;     ; Move across cleaning area - controlled movement
G1 Z8 F500;         ; Maintain brush height - controlled movement
G0 X41 Y0 F1200;    ; Rapid move to color 1 position
G1 Z0 F500;         ; Lower into color - controlled movement
G1 X35 Y1 F500;     ; Small movement in paint - controlled movement
G1 Z7 F500;         ; Raise from color - controlled movement
G1 X38 Y1 F500;     ; Movement in paint - controlled movement
G1 Z1 F500;         ; Lower slightly - controlled movement
G1 X27 Y10 Z8 F500;     ; Move in paint - controlled movement
G1 Z8 F500;         ; Raise brush - controlled movement
G1 F1000;           ; Set feed rate to 1000
G0 Z2.8F500
G0 X75.495Y49.799Z2.8F1000
G1 Z0F500
G1 X75.418Y49.813Z0F800
G1 X75.361Y49.866Z0F800
G1 Y49.915Z0F800
G1 X75.427Y49.936Z0F800
G1 X75.504Y49.966Z0F800
G1 X75.567Y50.115Z0F800
G1 X75.641Y50.146Z0F800
G1 X75.714Y50.121Z0F800
G1 X75.743Y50.056Z0F800
G1 X75.726Y49.97Z0F800
G1 X75.662Y49.88Z0F800
G1 X75.58Y49.821Z0F800
G1 X75.495Y49.799Z0F800
G0 Z2.8F500
G0 X77.204Y53.175Z2.8F1000
G1 Z0F500
G1 X77.578Y53.556Z0F800
G1 X77.904Y53.869Z0F800
G1 X78.25Y54.162Z0F800
G1 X78.613Y54.434Z0F800
G1 X78.994Y54.685Z0F800
G1 X79.392Y54.915Z0F800
G1 X79.807Y55.123Z0F800
G1 X80.237Y55.311Z0F800
G1 X80.683Y55.476Z0F800
G1 X81.142Y55.62Z0F800
G1 X81.616Y55.741Z0F800
G1 X82.102Y55.84Z0F800
G1 X82.602Y55.917Z0F800
G1 X83.113Y55.97Z0F800
G1 X83.635Y56.001Z0F800
G1 X84.167Y56.008Z0F800
G1 X84.71Y55.992Z0F800
G1 X85.169Y55.971Z0F800
G1 X85.616Y55.956Z0F800
G1 X85.818Y55.95Z0F800
G1 X86.151Y55.945Z0F800
G1 X86.268Z0F800
G1 X87.765Y55.971Z0F800
G1 X88.498Y55.978Z0F800
G1 X88.799Z0F800
G1 X89.062Z0F800
G1 X89.293Y55.972Z0F800
G1 X89.675Y55.955Z0F800
G1 X89.981Y55.926Z0F800
G1 X90.248Y55.885Z0F800
G1 X90.514Y55.83Z0F800
G1 X91.021Y55.707Z0F800
G1 X91.497Y55.571Z0F800
G1 X91.947Y55.419Z0F800
G1 X92.373Y55.251Z0F800
G1 X93.171Y54.86Z0F800
G1 X93.919Y54.384Z0F800
G1 X94.363Y54.043Z0F800
G1 X94.782Y53.683Z0F800
G1 X94.956Y53.519Z0F800
G1 X95.093Y53.378Z0F800
G1 X95.182Y53.27Z0F800
G1 X95.215Y53.203Z0F800
G1 X95.189Y53.178Z0F800
G1 X95.127Y53.208Z0F800
G1 X95.093Y53.227Z0F800
G1 X95.029Y53.255Z0F800
G1 X94.94Y53.29Z0F800
G1 X94.829Y53.332Z0F800
G1 X94.554Y53.427Z0F800
G1 X94.234Y53.532Z0F800
G1 X93.511Y53.751Z0F800
G1 X92.826Y53.938Z0F800
G1 X92.174Y54.093Z0F800
G1 X91.549Y54.217Z0F800
G1 X90.943Y54.312Z0F800
G1 X90.353Y54.379Z0F800
G1 X89.771Y54.419Z0F800
G1 X89.192Y54.432Z0F800
G1 X88.789Y54.429Z0F800
G1 X88.426Y54.416Z0F800
G1 X88.097Y54.393Z0F800
G1 X87.794Y54.36Z0F800
G1 X87.239Y54.257Z0F800
G1 X86.703Y54.099Z0F800
G1 X86.211Y53.929Z0F800
G1 X85.828Y54.075Z0F800
G1 X85.424Y54.202Z0F800
G1 X84.956Y54.303Z0F800
G1 X84.437Y54.377Z0F800
G1 X83.878Y54.423Z0F800
G1 X83.292Y54.44Z0F800
G1 X82.69Y54.428Z0F800
G1 X82.085Y54.387Z0F800
G1 X81.489Y54.315Z0F800
G1 X81.099Y54.25Z0F800
G1 X80.659Y54.162Z0F800
G1 X80.185Y54.058Z0F800
G1 X79.693Y53.939Z0F800
G1 X79.202Y53.812Z0F800
G1 X78.727Y53.679Z0F800
G1 X78.285Y53.546Z0F800
G1 X77.893Y53.416Z0F800
G1 X77.204Y53.175Z0F800
G0 Z2.8F500
G0 X76.075Y56.337Z2.8F1000
G1 Z0F500
G1 X76.048Z0F800
G1 X76.053Y56.363Z0F800
G1 X76.084Y56.411Z0F800
G1 X76.138Y56.48Z0F800
G1 X76.302Y56.673Z0F800
G1 X76.463Y56.836Z0F800
G1 X77.04Y57.323Z0F800
G1 X77.61Y57.741Z0F800
G1 X78.184Y58.093Z0F800
G1 X78.771Y58.386Z0F800
G1 X79.382Y58.622Z0F800
G1 X80.028Y58.807Z0F800
G1 X80.719Y58.945Z0F800
G1 X81.465Y59.041Z0F800
G1 X81.9Y59.07Z0F800
G1 X82.37Y59.074Z0F800
G1 X82.864Y59.055Z0F800
G1 X83.372Y59.014Z0F800
G1 X83.881Y58.953Z0F800
G1 X84.383Y58.871Z0F800
G1 X84.865Y58.771Z0F800
G1 X85.317Y58.654Z0F800
G1 X85.521Y58.589Z0F800
G1 X85.633Y58.526Z0F800
G1 X85.683Y58.437Z0F800
G1 X85.704Y58.293Z0F800
G1 X85.749Y58.094Z0F800
G1 X85.839Y57.968Z0F800
G1 X85.962Y57.924Z0F800
G1 X86.107Y57.971Z0F800
G1 X86.219Y58.016Z0F800
G1 X86.287Y57.988Z0F800
G1 X86.364Y57.939Z0F800
G1 X86.491Y57.919Z0F800
G1 X86.578Y57.928Z0F800
G1 X86.626Y57.967Z0F800
G1 X86.645Y58.057Z0F800
G1 Y58.215Z0F800
G1 X86.636Y58.51Z0F800
G1 X87.091Y58.636Z0F800
G1 X87.867Y58.822Z0F800
G1 X88.652Y58.955Z0F800
G1 X89.435Y59.035Z0F800
G1 X90.208Y59.063Z0F800
G1 X90.964Y59.038Z0F800
G1 X91.693Y58.961Z0F800
G1 X92.387Y58.831Z0F800
G1 X93.037Y58.648Z0F800
G1 X93.449Y58.498Z0F800
G1 X93.843Y58.328Z0F800
G1 X94.223Y58.138Z0F800
G1 X94.591Y57.925Z0F800
G1 X94.948Y57.689Z0F800
G1 X95.298Y57.427Z0F800
G1 X95.643Y57.139Z0F800
G1 X95.985Y56.823Z0F800
G1 X96.58Y56.245Z0F800
G1 X95.845Y56.61Z0F800
G1 X95.333Y56.85Z0F800
G1 X94.824Y57.057Z0F800
G1 X94.314Y57.234Z0F800
G1 X93.799Y57.38Z0F800
G1 X93.275Y57.497Z0F800
G1 X92.738Y57.586Z0F800
G1 X92.184Y57.649Z0F800
G1 X91.608Y57.685Z0F800
G1 X90.987Y57.696Z0F800
G1 X90.38Y57.677Z0F800
G1 X89.784Y57.627Z0F800
G1 X89.197Y57.547Z0F800
G1 X88.615Y57.435Z0F800
G1 X88.036Y57.291Z0F800
G1 X87.457Y57.114Z0F800
G1 X86.874Y56.905Z0F800
G1 X86.234Y56.657Z0F800
G1 X85.598Y56.909Z0F800
G1 X85.04Y57.112Z0F800
G1 X84.472Y57.286Z0F800
G1 X83.895Y57.429Z0F800
G1 X83.311Y57.542Z0F800
G1 X82.718Y57.624Z0F800
G1 X82.118Y57.675Z0F800
G1 X81.512Y57.695Z0F800
G1 X80.899Y57.685Z0F800
G1 X80.302Y57.646Z0F800
G1 X79.728Y57.582Z0F800
G1 X79.175Y57.49Z0F800
G1 X78.64Y57.37Z0F800
G1 X78.119Y57.222Z0F800
G1 X77.61Y57.045Z0F800
G1 X77.11Y56.838Z0F800
G1 X76.617Y56.6Z0F800
G1 X76.248Y56.412Z0F800
G1 X76.14Y56.361Z0F800
G1 X76.075Y56.337Z0F800
G0 Z2.8F500
G0 X86.041Y58.339Z2.8F1000
G1 Z0F500
G1 X86.06Y58.389Z0F800
G1 X86.107Y58.409Z0F800
G1 X86.166Y58.389Z0F800
G1 X86.216Y58.339Z0F800
G1 Y58.29Z0F800
G1 X86.15Y58.269Z0F800
G1 X86.073Y58.29Z0F800
G1 X86.041Y58.339Z0F800
G0 Z2.8F500
G0 X86.196Y59.581Z2.8F1000
G1 Z0F500
G1 X86.111Y59.628Z0F800
G1 X85.967Y59.724Z0F800
G1 X85.785Y59.853Z0F800
G1 X85.585Y60.003Z0F800
G1 X85.321Y60.189Z0F800
G1 X85.001Y60.386Z0F800
G1 X84.643Y60.585Z0F800
G1 X84.263Y60.779Z0F800
G1 X83.878Y60.96Z0F800
G1 X83.503Y61.119Z0F800
G1 X83.157Y61.249Z0F800
G1 X82.854Y61.341Z0F800
G1 X82.395Y61.447Z0F800
G1 X81.952Y61.527Z0F800
G1 X81.518Y61.58Z0F800
G1 X81.089Y61.606Z0F800
G1 X80.659Z0F800
G1 X80.22Y61.579Z0F800
G1 X79.768Y61.526Z0F800
G1 X79.296Y61.447Z0F800
G1 X78.662Y61.294Z0F800
G1 X77.996Y61.073Z0F800
G1 X77.313Y60.792Z0F800
G1 X76.629Y60.46Z0F800
G1 X75.96Y60.085Z0F800
G1 X75.324Y59.676Z0F800
G1 X74.736Y59.241Z0F800
G1 X74.212Y58.789Z0F800
G1 X73.64Y58.207Z0F800
G1 X73.129Y57.598Z0F800
G1 X72.678Y56.959Z0F800
G1 X72.285Y56.288Z0F800
G1 X71.95Y55.581Z0F800
G1 X71.671Y54.838Z0F800
G1 X71.447Y54.056Z0F800
G1 X71.277Y53.231Z0F800
G1 X71.226Y52.946Z0F800
G1 X71.177Y52.719Z0F800
G1 X71.131Y52.546Z0F800
G1 X71.085Y52.425Z0F800
G1 X71.039Y52.353Z0F800
G1 X70.99Y52.328Z0F800
G1 X70.939Y52.347Z0F800
G1 X70.882Y52.407Z0F800
G1 X70.815Y52.522Z0F800
G1 X70.752Y52.678Z0F800
G1 X70.694Y52.87Z0F800
G1 X70.641Y53.096Z0F800
G1 X70.551Y53.632Z0F800
G1 X70.484Y54.254Z0F800
G1 X70.443Y54.933Z0F800
G1 X70.43Y55.638Z0F800
G1 X70.449Y56.34Z0F800
G1 X70.501Y57.007Z0F800
G1 X70.577Y57.711Z0F800
G1 X70.033Y58.287Z0F800
G1 X69.673Y58.691Z0F800
G1 X69.35Y59.097Z0F800
G1 X69.064Y59.508Z0F800
G1 X68.814Y59.926Z0F800
G1 X68.597Y60.355Z0F800
G1 X68.413Y60.796Z0F800
G1 X68.26Y61.251Z0F800
G1 X68.137Y61.723Z0F800
G1 X68.022Y62.191Z0F800
G1 X67.901Y62.608Z0F800
G1 X67.768Y62.979Z0F800
G1 X67.62Y63.315Z0F800
G1 X67.453Y63.621Z0F800
G1 X67.264Y63.907Z0F800
G1 X67.048Y64.179Z0F800
G1 X66.802Y64.446Z0F800
G1 X66.507Y64.709Z0F800
G1 X66.208Y64.908Z0F800
G1 X65.914Y65.041Z0F800
G1 X65.629Y65.107Z0F800
G1 X65.36Z0F800
G1 X65.115Y65.038Z0F800
G1 X64.9Y64.901Z0F800
G1 X64.721Y64.693Z0F800
G1 X64.657Y64.576Z0F800
G1 X64.6Y64.431Z0F800
G1 X64.55Y64.26Z0F800
G1 X64.507Y64.065Z0F800
G1 X64.441Y63.612Z0F800
G1 X64.404Y63.088Z0F800
G1 X64.396Y62.51Z0F800
G1 X64.419Y61.895Z0F800
G1 X64.471Y61.257Z0F800
G1 X64.556Y60.615Z0F800
G1 X64.614Y60.213Z0F800
G1 X64.662Y59.841Z0F800
G1 X64.679Y59.68Z0F800
G1 X64.692Y59.543Z0F800
G1 X64.7Y59.434Z0F800
G1 X64.705Y59.232Z0F800
G1 X64.725Y59.129Z0F800
G1 X64.76Y59.05Z0F800
G1 X64.81Y58.995Z0F800
G1 X64.871Y58.943Z0F800
G1 X64.89Y58.891Z0F800
G1 X64.868Y58.818Z0F800
G1 X64.804Y58.701Z0F800
G1 X64.721Y58.504Z0F800
G1 X64.686Y58.3Z0F800
G1 X64.701Y58.123Z0F800
G1 X64.769Y58.004Z0F800
G1 X64.878Y57.946Z0F800
G1 X65.017Y57.908Z0F800
G1 X65.107Y57.871Z0F800
G1 X65.193Y57.774Z0F800
G1 X65.239Y57.696Z0F800
G1 X65.29Y57.594Z0F800
G1 X65.347Y57.467Z0F800
G1 X65.413Y57.31Z0F800
G1 X65.641Y56.807Z0F800
G1 X65.892Y56.354Z0F800
G1 X66.161Y55.955Z0F800
G1 X66.442Y55.618Z0F800
G1 X66.732Y55.346Z0F800
G1 X67.025Y55.145Z0F800
G1 X67.315Y55.02Z0F800
G1 X67.599Y54.978Z0F800
G1 X67.721Y54.988Z0F800
G1 X67.823Y55.02Z0F800
G1 X67.906Y55.076Z0F800
G1 X67.971Y55.157Z0F800
G1 X68.019Y55.265Z0F800
G1 X68.051Y55.403Z0F800
G1 X68.069Y55.572Z0F800
G1 X68.073Y55.773Z0F800
G1 X68.06Y56.051Z0F800
G1 X68.018Y56.298Z0F800
G1 X67.937Y56.566Z0F800
G1 X67.804Y56.904Z0F800
G1 X67.695Y57.17Z0F800
G1 X67.614Y57.38Z0F800
G1 X67.562Y57.54Z0F800
G1 X67.536Y57.655Z0F800
G1 Y57.732Z0F800
G1 X67.564Y57.777Z0F800
G1 X67.616Y57.796Z0F800
G1 X67.692Z0F800
G1 X67.797Y57.762Z0F800
G1 X67.918Y57.691Z0F800
G1 X68.05Y57.585Z0F800
G1 X68.188Y57.451Z0F800
G1 X68.463Y57.116Z0F800
G1 X68.705Y56.726Z0F800
G1 X68.926Y56.233Z0F800
G1 X69.07Y55.734Z0F800
G1 X69.142Y55.206Z0F800
G1 X69.146Y54.628Z0F800
G1 X69.117Y54.234Z0F800
G1 X69.056Y53.872Z0F800
G1 X68.951Y53.515Z0F800
G1 X68.789Y53.135Z0F800
G1 X68.682Y52.928Z0F800
G1 X68.556Y52.705Z0F800
G1 X68.408Y52.463Z0F800
G1 X68.239Y52.199Z0F800
G1 X68.044Y51.908Z0F800
G1 X67.824Y51.588Z0F800
G1 X67.576Y51.235Z0F800
G1 X66.768Y50.095Z0F800
G1 X66.279Y49.387Z0F800
G1 X65.831Y48.718Z0F800
G1 X65.421Y48.082Z0F800
G1 X65.047Y47.476Z0F800
G1 X64.708Y46.895Z0F800
G1 X64.4Y46.336Z0F800
G1 X64.123Y45.795Z0F800
G1 X63.651Y44.747Z0F800
G1 X63.275Y43.718Z0F800
G1 X62.979Y42.676Z0F800
G1 X62.746Y41.586Z0F800
G1 X62.693Y41.224Z0F800
G1 X62.655Y40.795Z0F800
G1 X62.631Y40.293Z0F800
G1 X62.621Y39.711Z0F800
G1 X62.641Y38.796Z0F800
G1 X62.698Y37.962Z0F800
G1 X62.736Y37.621Z0F800
G1 X62.779Y37.355Z0F800
G1 X62.801Y37.256Z0F800
G1 X62.824Y37.182Z0F800
G1 X62.847Y37.136Z0F800
G1 X62.87Y37.12Z0F800
G1 X62.913Y37.167Z0F800
G1 X62.931Y37.279Z0F800
G1 X62.959Y37.545Z0F800
G1 X63.039Y37.874Z0F800
G1 X63.16Y38.242Z0F800
G1 X63.315Y38.631Z0F800
G1 X63.493Y39.018Z0F800
G1 X63.687Y39.384Z0F800
G1 X63.886Y39.706Z0F800
G1 X64.083Y39.965Z0F800
G1 X64.375Y40.252Z0F800
G1 X64.708Y40.518Z0F800
G1 X64.863Y40.623Z0F800
G1 X64.996Y40.7Z0F800
G1 X65.096Y40.74Z0F800
G1 X65.151Y40.736Z0F800
G1 X65.157Y40.705Z0F800
G1 X65.11Y40.692Z0F800
G1 X65Y40.641Z0F800
G1 X64.853Y40.52Z0F800
G1 X64.744Y40.353Z0F800
G1 X64.685Y40.15Z0F800
G1 Y39.955Z0F800
G1 X64.746Y39.813Z0F800
G1 X64.76Y39.731Z0F800
G1 X64.74Y39.556Z0F800
G1 X64.69Y39.3Z0F800
G1 X64.611Y38.973Z0F800
G1 X64.403Y38.071Z0F800
G1 X64.268Y37.229Z0F800
G1 X64.224Y36.803Z0F800
G1 X64.195Y36.358Z0F800
G1 X64.178Y35.884Z0F800
G1 X64.174Y35.369Z0F800
G1 Y35.014Z0F800
G1 X64.181Y34.701Z0F800
G1 X64.191Y34.422Z0F800
G1 X64.205Y34.168Z0F800
G1 X64.252Y33.702Z0F800
G1 X64.325Y33.233Z0F800
G1 X64.438Y32.683Z0F800
G1 X64.579Y32.134Z0F800
G1 X64.747Y31.591Z0F800
G1 X64.942Y31.055Z0F800
G1 X65.161Y30.53Z0F800
G1 X65.405Y30.019Z0F800
G1 X65.672Y29.523Z0F800
G1 X65.96Y29.046Z0F800
G1 X66.075Y28.868Z0F800
G1 X66.162Y28.735Z0F800
G1 X66.229Y28.645Z0F800
G1 X66.278Y28.591Z0F800
G1 X66.349Y28.578Z0F800
G1 X66.416Y28.661Z0F800
G1 X66.611Y28.913Z0F800
G1 X66.859Y29.171Z0F800
G1 X67.142Y29.418Z0F800
G1 X67.443Y29.637Z0F800
G1 X67.709Y29.794Z0F800
G1 X67.988Y29.925Z0F800
G1 X68.278Y30.03Z0F800
G1 X68.579Y30.108Z0F800
G1 X68.889Y30.16Z0F800
G1 X69.208Y30.187Z0F800
G1 X69.534Z0F800
G1 X69.868Y30.161Z0F800
G1 X70.208Y30.11Z0F800
G1 X70.552Y30.033Z0F800
G1 X70.902Y29.93Z0F800
G1 X71.255Y29.802Z0F800
G1 X71.61Y29.648Z0F800
G1 X71.968Y29.469Z0F800
G1 X72.326Y29.265Z0F800
G1 X72.684Y29.036Z0F800
G1 X72.872Y28.912Z0F800
G1 X73.034Y28.811Z0F800
G1 X73.152Y28.742Z0F800
G1 X73.209Y28.717Z0F800
G1 X73.22Y28.739Z0F800
G1 X73.23Y28.804Z0F800
G1 X73.239Y28.906Z0F800
G1 X73.247Y29.041Z0F800
G1 X73.26Y29.392Z0F800
G1 X73.267Y29.82Z0F800
G1 X73.305Y30.802Z0F800
G1 X73.405Y31.725Z0F800
G1 X73.566Y32.584Z0F800
G1 X73.786Y33.377Z0F800
G1 X74.066Y34.099Z0F800
G1 X74.403Y34.748Z0F800
G1 X74.797Y35.32Z0F800
G1 X75.246Y35.812Z0F800
G1 X75.4Y35.951Z0F800
G1 X75.537Y36.06Z0F800
G1 X75.654Y36.136Z0F800
G1 X75.75Y36.181Z0F800
G1 X75.825Y36.193Z0F800
G1 X75.877Y36.173Z0F800
G1 X75.905Y36.119Z0F800
G1 X75.908Y36.032Z0F800
G1 X75.899Y35.984Z0F800
G1 X75.876Y35.899Z0F800
G1 X75.796Y35.637Z0F800
G1 X75.681Y35.284Z0F800
G1 X75.544Y34.879Z0F800
G1 X75.376Y34.379Z0F800
G1 X75.237Y33.923Z0F800
G1 X75.125Y33.499Z0F800
G1 X75.035Y33.092Z0F800
G1 X74.966Y32.69Z0F800
G1 X74.915Y32.278Z0F800
G1 X74.88Y31.844Z0F800
G1 X74.857Y31.373Z0F800
G1 X74.847Y30.929Z0F800
G1 X74.852Y30.532Z0F800
G1 X74.873Y30.17Z0F800
G1 X74.912Y29.836Z0F800
G1 X75.046Y29.216Z0F800
G1 X75.266Y28.598Z0F800
G1 X75.539Y28.053Z0F800
G1 X75.883Y27.55Z0F800
G1 X76.292Y27.094Z0F800
G1 X76.758Y26.691Z0F800
G1 X77.276Y26.345Z0F800
G1 X77.839Y26.061Z0F800
G1 X78.44Y25.844Z0F800
G1 X79.073Y25.701Z0F800
G1 X79.295Y25.676Z0F800
G1 X79.563Y25.665Z0F800
G1 X79.863Z0F800
G1 X80.183Y25.68Z0F800
G1 X80.826Y25.741Z0F800
G1 X81.384Y25.841Z0F800
G1 X81.802Y25.955Z0F800
G1 X82.2Y26.089Z0F800
G1 X82.575Y26.24Z0F800
G1 X82.926Y26.408Z0F800
G1 X83.251Y26.589Z0F800
G1 X83.548Y26.783Z0F800
G1 X83.815Y26.987Z0F800
G1 X84.05Y27.2Z0F800
G1 X84.252Y27.419Z0F800
G1 X84.419Y27.644Z0F800
G1 X84.548Y27.871Z0F800
G1 X84.639Y28.1Z0F800
G1 X84.688Y28.328Z0F800
G1 X84.695Y28.554Z0F800
G1 X84.657Y28.775Z0F800
G1 X84.573Y28.991Z0F800
G1 X84.4Y29.245Z0F800
G1 X84.15Y29.482Z0F800
G1 X83.828Y29.702Z0F800
G1 X83.436Y29.902Z0F800
G1 X82.978Y30.081Z0F800
G1 X82.458Y30.237Z0F800
G1 X81.879Y30.369Z0F800
G1 X81.245Y30.475Z0F800
G1 X81.05Y30.503Z0F800
G1 X80.9Y30.527Z0F800
G1 X80.789Y30.552Z0F800
G1 X80.709Y30.58Z0F800
G1 X80.61Y30.659Z0F800
G1 X80.543Y30.793Z0F800
G1 X80.47Y30.996Z0F800
G1 X80.393Y31.257Z0F800
G1 X80.314Y31.564Z0F800
G1 X80.238Y31.9Z0F800
G1 X80.104Y32.608Z0F800
G1 X80.015Y33.268Z0F800
G1 X79.981Y33.825Z0F800
G1 X79.984Y34.398Z0F800
G1 X80.023Y34.982Z0F800
G1 X80.098Y35.57Z0F800
G1 X80.206Y36.154Z0F800
G1 X80.348Y36.728Z0F800
G1 X80.522Y37.285Z0F800
G1 X80.726Y37.818Z0F800
G1 X80.899Y38.206Z0F800
G1 X81.071Y38.558Z0F800
G1 X81.235Y38.862Z0F800
G1 X81.384Y39.109Z0F800
G1 X81.512Y39.287Z0F800
G1 X81.611Y39.386Z0F800
G1 X81.648Y39.403Z0F800
G1 X81.676Y39.396Z0F800
G1 X81.692Y39.364Z0F800
G1 X81.698Y39.306Z0F800
G1 X81.687Y39.207Z0F800
G1 X81.657Y39.026Z0F800
G1 X81.612Y38.789Z0F800
G1 X81.559Y38.521Z0F800
G1 X81.489Y38.135Z0F800
G1 X81.441Y37.761Z0F800
G1 X81.417Y37.401Z0F800
G1 X81.414Y37.055Z0F800
G1 X81.434Y36.723Z0F800
G1 X81.476Y36.406Z0F800
G1 X81.539Y36.105Z0F800
G1 X81.625Y35.819Z0F800
G1 X81.731Y35.55Z0F800
G1 X81.859Y35.298Z0F800
G1 X82.008Y35.064Z0F800
G1 X82.178Y34.848Z0F800
G1 X82.368Y34.651Z0F800
G1 X82.579Y34.473Z0F800
G1 X82.81Y34.315Z0F800
G1 X83.061Y34.177Z0F800
G1 X83.356Y34.04Z0F800
G1 X83.628Y33.934Z0F800
G1 X83.902Y33.854Z0F800
G1 X84.206Y33.797Z0F800
G1 X84.567Y33.759Z0F800
G1 X85.01Y33.737Z0F800
G1 X85.271Y33.73Z0F800
G1 X85.562Y33.726Z0F800
G1 X86.251Z0F800
G1 X86.83Z0F800
G1 X87.285Z0F800
G1 X87.638Y33.735Z0F800
G1 X87.911Y33.748Z0F800
G1 X88.311Y33.796Z0F800
G1 X88.665Y33.885Z0F800
G1 X89.156Y34.052Z0F800
G1 X89.554Y34.227Z0F800
G1 X89.82Y34.394Z0F800
G1 X90.068Y34.593Z0F800
G1 X90.294Y34.821Z0F800
G1 X90.496Y35.074Z0F800
G1 X90.672Y35.349Z0F800
G1 X90.819Y35.642Z0F800
G1 X90.935Y35.95Z0F800
G1 X91.016Y36.268Z0F800
G1 X91.05Y36.512Z0F800
G1 X91.069Y36.8Z0F800
G1 Y37.121Z0F800
G1 X91.059Y37.463Z0F800
G1 X90.993Y38.16Z0F800
G1 X90.876Y38.794Z0F800
G1 X90.822Y39.025Z0F800
G1 X90.783Y39.22Z0F800
G1 X90.764Y39.358Z0F800
G1 X90.767Y39.418Z0F800
G1 X90.802Y39.429Z0F800
G1 X90.85Y39.406Z0F800
G1 X90.91Y39.353Z0F800
G1 X90.98Y39.273Z0F800
G1 X91.144Y39.039Z0F800
G1 X91.329Y38.728Z0F800
G1 X91.713Y37.964Z0F800
G1 X92.032Y37.158Z0F800
G1 X92.244Y36.415Z0F800
G1 X92.395Y35.651Z0F800
G1 X92.486Y34.874Z0F800
G1 X92.517Y34.09Z0F800
G1 X92.488Y33.309Z0F800
G1 X92.399Y32.536Z0F800
G1 X92.25Y31.78Z0F800
G1 X92.041Y31.049Z0F800
G1 X91.883Y30.577Z0F800
G1 X91.132Y30.454Z0F800
G1 X90.484Y30.333Z0F800
G1 X89.906Y30.193Z0F800
G1 X89.397Y30.034Z0F800
G1 X88.958Y29.857Z0F800
G1 X88.589Y29.662Z0F800
G1 X88.291Y29.449Z0F800
G1 X88.062Y29.218Z0F800
G1 X87.904Y28.968Z0F800
G1 X87.827Y28.753Z0F800
G1 X87.795Y28.532Z0F800
G1 X87.808Y28.307Z0F800
G1 X87.862Y28.08Z0F800
G1 X87.957Y27.853Z0F800
G1 X88.09Y27.627Z0F800
G1 X88.259Y27.404Z0F800
G1 X88.464Y27.186Z0F800
G1 X88.701Y26.975Z0F800
G1 X88.969Y26.773Z0F800
G1 X89.267Y26.58Z0F800
G1 X89.593Y26.4Z0F800
G1 X89.944Y26.233Z0F800
G1 X90.319Y26.082Z0F800
G1 X90.716Y25.948Z0F800
G1 X91.134Y25.832Z0F800
G1 X91.458Y25.766Z0F800
G1 X91.812Y25.718Z0F800
G1 X92.186Y25.687Z0F800
G1 X92.566Y25.674Z0F800
G1 X92.94Y25.679Z0F800
G1 X93.297Y25.703Z0F800
G1 X93.625Y25.744Z0F800
G1 X93.911Y25.804Z0F800
G1 X94.345Y25.937Z0F800
G1 X94.755Y26.099Z0F800
G1 X95.143Y26.291Z0F800
G1 X95.507Y26.513Z0F800
G1 X95.847Y26.764Z0F800
G1 X96.165Y27.045Z0F800
G1 X96.459Y27.355Z0F800
G1 X96.729Y27.695Z0F800
G1 X96.948Y28.027Z0F800
G1 X97.137Y28.383Z0F800
G1 X97.298Y28.763Z0F800
G1 X97.43Y29.166Z0F800
G1 X97.534Y29.591Z0F800
G1 X97.609Y30.037Z0F800
G1 X97.655Y30.503Z0F800
G1 X97.673Y30.987Z0F800
G1 X97.662Y31.49Z0F800
G1 X97.622Y32.009Z0F800
G1 X97.554Y32.545Z0F800
G1 X97.457Y33.095Z0F800
G1 X97.331Y33.658Z0F800
G1 X97.177Y34.235Z0F800
G1 X96.994Y34.823Z0F800
G1 X96.782Y35.422Z0F800
G1 X96.676Y35.734Z0F800
G1 X96.619Y35.968Z0F800
G1 X96.612Y36.127Z0F800
G1 X96.654Y36.208Z0F800
G1 X96.746Y36.213Z0F800
G1 X96.887Y36.142Z0F800
G1 X97.078Y35.994Z0F800
G1 X97.318Y35.77Z0F800
G1 X97.751Y35.274Z0F800
G1 X98.131Y34.7Z0F800
G1 X98.457Y34.052Z0F800
G1 X98.727Y33.332Z0F800
G1 X98.942Y32.545Z0F800
G1 X99.098Y31.695Z0F800
G1 X99.196Y30.785Z0F800
G1 X99.233Y29.82Z0F800
G1 X99.24Y29.392Z0F800
G1 X99.251Y29.041Z0F800
G1 X99.259Y28.906Z0F800
G1 X99.266Y28.804Z0F800
G1 X99.275Y28.739Z0F800
G1 X99.283Y28.717Z0F800
G1 X99.338Y28.742Z0F800
G1 X99.455Y28.81Z0F800
G1 X99.618Y28.912Z0F800
G1 X99.809Y29.036Z0F800
G1 X100.176Y29.267Z0F800
G1 X100.541Y29.473Z0F800
G1 X100.903Y29.653Z0F800
G1 X101.262Y29.807Z0F800
G1 X101.616Y29.936Z0F800
G1 X101.965Y30.039Z0F800
G1 X102.309Y30.116Z0F800
G1 X102.647Y30.167Z0F800
G1 X102.978Y30.193Z0F800
G1 X103.302Z0F800
G1 X103.618Y30.165Z0F800
G1 X103.925Y30.112Z0F800
G1 X104.224Y30.033Z0F800
G1 X104.513Y29.927Z0F800
G1 X104.791Y29.796Z0F800
G1 X105.059Y29.637Z0F800
G1 X105.341Y29.436Z0F800
G1 X105.592Y29.22Z0F800
G1 X105.824Y28.978Z0F800
G1 X106.05Y28.699Z0F800
G1 X106.195Y28.506Z0F800
G1 X106.463Y28.909Z0F800
G1 X106.756Y29.382Z0F800
G1 X107.033Y29.887Z0F800
G1 X107.288Y30.417Z0F800
G1 X107.522Y30.968Z0F800
G1 X107.73Y31.532Z0F800
G1 X107.91Y32.102Z0F800
G1 X108.06Y32.673Z0F800
G1 X108.178Y33.238Z0F800
G1 X108.25Y33.704Z0F800
G1 X108.296Y34.169Z0F800
G1 X108.311Y34.423Z0F800
G1 X108.321Y34.702Z0F800
G1 X108.327Y35.015Z0F800
G1 Y35.369Z0F800
G1 X108.324Y35.896Z0F800
G1 X108.307Y36.377Z0F800
G1 X108.277Y36.827Z0F800
G1 X108.23Y37.262Z0F800
G1 X108.166Y37.695Z0F800
G1 X108.083Y38.141Z0F800
G1 X107.978Y38.615Z0F800
G1 X107.768Y39.463Z0F800
G1 X107.703Y39.757Z0F800
G1 X107.655Y40.011Z0F800
G1 X107.625Y40.225Z0F800
G1 X107.612Y40.395Z0F800
G1 X107.617Y40.519Z0F800
G1 X107.641Y40.596Z0F800
G1 X107.682Y40.622Z0F800
G1 X107.748Y40.584Z0F800
G1 X107.875Y40.48Z0F800
G1 X108.044Y40.327Z0F800
G1 X108.236Y40.14Z0F800
G1 X108.478Y39.883Z0F800
G1 X108.674Y39.635Z0F800
G1 X108.843Y39.373Z0F800
G1 X109Y39.072Z0F800
G1 X109.208Y38.587Z0F800
G1 X109.391Y38.069Z0F800
G1 X109.465Y37.824Z0F800
G1 X109.521Y37.604Z0F800
G1 X109.558Y37.419Z0F800
G1 X109.571Y37.279Z0F800
G1 X109.576Y37.173Z0F800
G1 X109.591Y37.118Z0F800
G1 X109.613Y37.11Z0F800
G1 X109.641Y37.147Z0F800
G1 X109.673Y37.224Z0F800
G1 X109.706Y37.338Z0F800
G1 X109.74Y37.486Z0F800
G1 X109.771Y37.663Z0F800
G1 X109.862Y38.392Z0F800
G1 X109.906Y39.134Z0F800
G1 Y39.887Z0F800
G1 X109.858Y40.648Z0F800
G1 X109.766Y41.413Z0F800
G1 X109.63Y42.179Z0F800
G1 X109.448Y42.943Z0F800
G1 X109.223Y43.703Z0F800
G1 X108.946Y44.485Z0F800
G1 X108.626Y45.26Z0F800
G1 X108.253Y46.047Z0F800
G1 X107.816Y46.866Z0F800
G1 X107.569Y47.294Z0F800
G1 X107.303Y47.736Z0F800
G1 X107.015Y48.196Z0F800
G1 X106.704Y48.676Z0F800
G1 X106.369Y49.179Z0F800
G1 X106.009Y49.706Z0F800
G1 X105.621Y50.261Z0F800
G1 X104.928Y51.233Z0F800
G1 X104.68Y51.586Z0F800
G1 X104.46Y51.905Z0F800
G1 X104.265Y52.196Z0F800
G1 X104.095Y52.46Z0F800
G1 X103.948Y52.702Z0F800
G1 X103.821Y52.925Z0F800
G1 X103.714Y53.132Z0F800
G1 X103.551Y53.512Z0F800
G1 X103.446Y53.87Z0F800
G1 X103.385Y54.233Z0F800
G1 X103.355Y54.628Z0F800
G1 X103.359Y55.19Z0F800
G1 X103.425Y55.705Z0F800
G1 X103.558Y56.191Z0F800
G1 X103.761Y56.664Z0F800
G1 X103.908Y56.925Z0F800
G1 X104.074Y57.168Z0F800
G1 X104.25Y57.384Z0F800
G1 X104.427Y57.566Z0F800
G1 X104.597Y57.705Z0F800
G1 X104.75Y57.793Z0F800
G1 X104.878Y57.822Z0F800
G1 X104.972Y57.784Z0F800
G1 X104.989Y57.724Z0F800
G1 X104.97Y57.613Z0F800
G1 X104.915Y57.451Z0F800
G1 X104.694Y56.94Z0F800
G1 X104.589Y56.658Z0F800
G1 X104.506Y56.393Z0F800
G1 X104.447Y56.147Z0F800
G1 X104.41Y55.922Z0F800
G1 X104.396Y55.718Z0F800
G1 X104.403Y55.536Z0F800
G1 X104.432Y55.378Z0F800
G1 X104.482Y55.245Z0F800
G1 X104.554Y55.138Z0F800
G1 X104.646Y55.058Z0F800
G1 X104.758Y55.006Z0F800
G1 X104.89Y54.984Z0F800
G1 X105.042Y54.994Z0F800
G1 X105.214Y55.035Z0F800
G1 X105.404Y55.109Z0F800
G1 X105.632Y55.238Z0F800
G1 X105.861Y55.418Z0F800
G1 X106.088Y55.644Z0F800
G1 X106.312Y55.914Z0F800
G1 X106.529Y56.226Z0F800
G1 X106.739Y56.575Z0F800
G1 X106.938Y56.96Z0F800
G1 X107.236Y57.631Z0F800
G1 X107.328Y57.798Z0F800
G1 X107.407Y57.891Z0F800
G1 X107.48Y57.919Z0F800
G1 X107.548Y57.934Z0F800
G1 X107.587Y57.996Z0F800
G1 X107.605Y58.129Z0F800
G1 X107.61Y58.358Z0F800
G1 X107.624Y58.595Z0F800
G1 X107.661Y58.915Z0F800
G1 X107.717Y59.276Z0F800
G1 X107.784Y59.636Z0F800
G1 X107.942Y60.507Z0F800
G1 X108.042Y61.336Z0F800
G1 X108.088Y62.16Z0F800
G1 X108.082Y63.016Z0F800
G1 X108.063Y63.431Z0F800
G1 X108.036Y63.779Z0F800
G1 X107.998Y64.068Z0F800
G1 X107.947Y64.304Z0F800
G1 X107.881Y64.497Z0F800
G1 X107.797Y64.655Z0F800
G1 X107.695Y64.785Z0F800
G1 X107.57Y64.895Z0F800
G1 X107.363Y65.021Z0F800
G1 X107.145Y65.093Z0F800
G1 X106.915Y65.11Z0F800
G1 X106.676Y65.072Z0F800
G1 X106.426Y64.981Z0F800
G1 X106.167Y64.835Z0F800
G1 X105.899Y64.635Z0F800
G1 X105.623Y64.381Z0F800
G1 X105.444Y64.183Z0F800
G1 X105.269Y63.95Z0F800
G1 X105.101Y63.69Z0F800
G1 X104.943Y63.409Z0F800
G1 X104.673Y62.815Z0F800
G1 X104.49Y62.226Z0F800
G1 X104.407Y61.87Z0F800
G1 X104.334Y61.57Z0F800
G1 X104.267Y61.316Z0F800
G1 X104.203Y61.096Z0F800
G1 X104.067Y60.714Z0F800
G1 X103.901Y60.335Z0F800
G1 X103.619Y59.806Z0F800
G1 X103.273Y59.272Z0F800
G1 X102.869Y58.744Z0F800
G1 X102.415Y58.23Z0F800
G1 X101.924Y57.714Z0F800
G1 X102.001Y57.008Z0F800
G1 X102.075Y55.898Z0F800
G1 X102.062Y54.794Z0F800
G1 X102.024Y54.264Z0F800
G1 X101.965Y53.76Z0F800
G1 X101.886Y53.289Z0F800
G1 X101.787Y52.859Z0F800
G1 X101.702Y52.566Z0F800
G1 X101.626Y52.366Z0F800
G1 X101.558Y52.26Z0F800
G1 X101.493Y52.25Z0F800
G1 X101.431Y52.337Z0F800
G1 X101.368Y52.523Z0F800
G1 X101.336Y52.654Z0F800
G1 X101.303Y52.809Z0F800
G1 X101.268Y52.991Z0F800
G1 X101.231Y53.198Z0F800
G1 X101.12Y53.764Z0F800
G1 X100.982Y54.318Z0F800
G1 X100.815Y54.858Z0F800
G1 X100.622Y55.384Z0F800
G1 X100.402Y55.894Z0F800
G1 X100.156Y56.389Z0F800
G1 X99.884Y56.868Z0F800
G1 X99.586Y57.329Z0F800
G1 X99.368Y57.618Z0F800
G1 X99.098Y57.936Z0F800
G1 X98.787Y58.27Z0F800
G1 X98.448Y58.608Z0F800
G1 X98.094Y58.938Z0F800
G1 X97.738Y59.247Z0F800
G1 X97.392Y59.523Z0F800
G1 X97.07Y59.754Z0F800
G1 X96.299Y60.231Z0F800
G1 X95.525Y60.639Z0F800
G1 X94.751Y60.977Z0F800
G1 X93.98Y61.244Z0F800
G1 X93.218Y61.438Z0F800
G1 X92.467Y61.559Z0F800
G1 X91.731Y61.606Z0F800
G1 X91.014Y61.576Z0F800
G1 X90.462Y61.504Z0F800
G1 X89.919Y61.395Z0F800
G1 X89.385Y61.249Z0F800
G1 X88.862Y61.067Z0F800
G1 X88.354Y60.85Z0F800
G1 X87.861Y60.599Z0F800
G1 X87.386Y60.314Z0F800
G1 X86.931Y59.997Z0F800
G1 X86.649Y59.794Z0F800
G1 X86.436Y59.658Z0F800
G1 X86.286Y59.588Z0F800
G1 X86.196Y59.581Z0F800

; Color 1 picking sequence
G1 Z10 F500;         ; Raise brush to safe height
G0 X2 Y0 F1000;     ; Rapid move to brush cleaning position
G1 Z0 F500;         ; Lower brush for cleaning - controlled movement
G1 Z2 F500;         ; Raise brush slightly - controlled movement
G1 X22 Y0 Z8 F500;     ; Move across cleaning area - controlled movement
G1 Z8 F500;         ; Maintain brush height - controlled movement
G0 X41 Y0 F1200;    ; Rapid move to color 1 position
G1 Z0 F500;         ; Lower into color - controlled movement
G1 X35 Y1 F500;     ; Small movement in paint - controlled movement
G1 Z7 F500;         ; Raise from color - controlled movement
G1 X38 Y1 F500;     ; Movement in paint - controlled movement
G1 Z1 F500;         ; Lower slightly - controlled movement
G1 X27 Y10 Z8 F500;     ; Move in paint - controlled movement
G1 Z8 F500;         ; Raise brush - controlled movement
G1 F1000;           ; Set feed rate to 1000
G0 Z2.8F500
G0 X86.281Y63.014Z2.8F1000
G1 Z0F500
G1 X86.408Y63.02Z0F800
G1 X86.547Y63.037Z0F800
G1 X86.712Y63.067Z0F800
G1 X86.916Y63.108Z0F800
G1 X87.766Y63.246Z0F800
G1 X88.698Y63.33Z0F800
G1 X89.703Y63.36Z0F800
G1 X90.772Y63.337Z0F800
G1 X91.899Y63.261Z0F800
G1 X93.074Y63.131Z0F800
G1 X94.288Y62.95Z0F800
G1 X95.534Y62.716Z0F800
G1 X95.981Y62.629Z0F800
G1 X96.405Y62.557Z0F800
G1 X96.809Y62.5Z0F800
G1 X97.194Y62.459Z0F800
G1 X97.915Y62.422Z0F800
G1 X98.583Y62.45Z0F800
G1 X99.213Y62.542Z0F800
G1 X99.821Y62.7Z0F800
G1 X100.42Y62.926Z0F800
G1 X101.027Y63.221Z0F800
G1 X101.557Y63.52Z0F800
G1 X102.072Y63.848Z0F800
G1 X102.356Y64.045Z0F800
G1 X102.676Y64.277Z0F800
G1 X103.046Y64.552Z0F800
G1 X104.409Y65.586Z0F800
G1 X105.222Y66.198Z0F800
G1 X105.71Y66.55Z0F800
G1 X106.167Y66.855Z0F800
G1 X106.592Y67.111Z0F800
G1 X106.988Y67.32Z0F800
G1 X107.354Y67.48Z0F800
G1 X107.69Y67.593Z0F800
G1 X107.999Y67.657Z0F800
G1 X108.279Y67.674Z0F800
G1 X108.531Y67.643Z0F800
G1 X108.756Y67.563Z0F800
G1 X108.955Y67.436Z0F800
G1 X109.128Y67.26Z0F800
G1 X109.276Y67.037Z0F800
G1 X109.398Y66.765Z0F800
G1 X109.496Y66.446Z0F800
G1 X109.571Y66.078Z0F800
G1 X109.587Y65.949Z0F800
G1 X109.602Y65.791Z0F800
G1 X109.614Y65.606Z0F800
G1 X109.624Y65.398Z0F800
G1 X109.638Y64.928Z0F800
G1 X109.642Y64.412Z0F800
G1 X109.637Y63.878Z0F800
G1 X109.624Y63.357Z0F800
G1 X109.601Y62.878Z0F800
G1 X109.57Y62.47Z0F800
G1 X109.431Y61.386Z0F800
G1 X109.235Y60.297Z0F800
G1 X108.987Y59.225Z0F800
G1 X108.694Y58.19Z0F800
G1 X108.362Y57.213Z0F800
G1 X107.997Y56.315Z0F800
G1 X107.805Y55.902Z0F800
G1 X107.607Y55.516Z0F800
G1 X107.404Y55.161Z0F800
G1 X107.197Y54.838Z0F800
G1 X107.011Y54.552Z0F800
G1 X106.84Y54.265Z0F800
G1 X106.703Y54.011Z0F800
G1 X106.618Y53.822Z0F800
G1 X106.513Y53.389Z0F800
G1 X106.493Y52.92Z0F800
G1 X106.56Y52.412Z0F800
G1 X106.715Y51.863Z0F800
G1 X106.825Y51.573Z0F800
G1 X106.958Y51.27Z0F800
G1 X107.113Y50.957Z0F800
G1 X107.291Y50.631Z0F800
G1 X107.491Y50.293Z0F800
G1 X107.714Y49.942Z0F800
G1 X107.96Y49.578Z0F800
G1 X108.229Y49.2Z0F800
G1 X108.409Y48.94Z0F800
G1 X108.615Y48.619Z0F800
G1 X108.84Y48.253Z0F800
G1 X109.073Y47.856Z0F800
G1 X109.533Y47.029Z0F800
G1 X109.925Y46.259Z0F800
G1 X110.297Y45.444Z0F800
G1 X110.629Y44.635Z0F800
G1 X110.922Y43.827Z0F800
G1 X111.177Y43.018Z0F800
G1 X111.396Y42.202Z0F800
G1 X111.58Y41.376Z0F800
G1 X111.73Y40.536Z0F800
G1 X111.846Y39.677Z0F800
G1 X111.883Y39.29Z0F800
G1 X111.912Y38.844Z0F800
G1 X111.934Y38.361Z0F800
G1 X111.946Y37.862Z0F800
G1 X111.95Y37.368Z0F800
G1 X111.945Y36.9Z0F800
G1 X111.931Y36.48Z0F800
G1 X111.907Y36.128Z0F800
G1 X111.862Y35.66Z0F800
G1 X111.538Y35.842Z0F800
G1 X111.396Y35.913Z0F800
G1 X111.268Y35.959Z0F800
G1 X111.151Y35.98Z0F800
G1 X111.044Y35.976Z0F800
G1 X110.943Y35.945Z0F800
G1 X110.847Y35.889Z0F800
G1 X110.753Y35.805Z0F800
G1 X110.659Y35.695Z0F800
G1 X110.579Y35.57Z0F800
G1 X110.506Y35.415Z0F800
G1 X110.441Y35.223Z0F800
G1 X110.381Y34.989Z0F800
G1 X110.325Y34.706Z0F800
G1 X110.272Y34.37Z0F800
G1 X110.22Y33.975Z0F800
G1 X110.169Y33.514Z0F800
G1 X110.063Y32.678Z0F800
G1 X109.925Y31.89Z0F800
G1 X109.754Y31.147Z0F800
G1 X109.549Y30.444Z0F800
G1 X109.309Y29.781Z0F800
G1 X109.032Y29.153Z0F800
G1 X108.718Y28.557Z0F800
G1 X108.366Y27.992Z0F800
G1 X108.182Y27.741Z0F800
G1 X107.956Y27.471Z0F800
G1 X107.701Y27.193Z0F800
G1 X107.427Y26.917Z0F800
G1 X107.146Y26.656Z0F800
G1 X106.868Y26.418Z0F800
G1 X106.605Y26.216Z0F800
G1 X106.367Y26.059Z0F800
G1 X106.163Y25.946Z0F800
G1 X105.982Y25.858Z0F800
G1 X105.843Y25.805Z0F800
G1 X105.767Y25.795Z0F800
G1 X105.724Y25.842Z0F800
G1 X105.675Y25.941Z0F800
G1 X105.626Y26.079Z0F800
G1 X105.584Y26.241Z0F800
G1 X105.465Y26.672Z0F800
G1 X105.304Y27.091Z0F800
G1 X105.111Y27.479Z0F800
G1 X104.892Y27.817Z0F800
G1 X104.674Y28.073Z0F800
G1 X104.434Y28.285Z0F800
G1 X104.172Y28.452Z0F800
G1 X103.89Y28.576Z0F800
G1 X103.588Y28.655Z0F800
G1 X103.265Y28.691Z0F800
G1 X102.923Y28.682Z0F800
G1 X102.561Y28.629Z0F800
G1 X102.181Y28.533Z0F800
G1 X101.782Y28.393Z0F800
G1 X101.365Y28.21Z0F800
G1 X100.93Y27.982Z0F800
G1 X100.477Y27.712Z0F800
G1 X100.008Y27.398Z0F800
G1 X99.522Y27.04Z0F800
G1 X99.02Y26.639Z0F800
G1 X98.565Y26.245Z0F800
G1 X98.098Y25.808Z0F800
G1 X97.635Y25.345Z0F800
G1 X97.192Y24.875Z0F800
G1 X96.789Y24.419Z0F800
G1 X96.44Y23.993Z0F800
G1 X96.292Y23.797Z0F800
G1 X96.164Y23.617Z0F800
G1 X96.058Y23.453Z0F800
G1 X95.977Y23.309Z0F800
G1 X95.9Y23.137Z0F800
G1 X95.795Y22.875Z0F800
G1 X95.676Y22.559Z0F800
G1 X95.557Y22.225Z0F800
G1 X95.328Y21.606Z0F800
G1 X95.079Y21.014Z0F800
G1 X94.809Y20.452Z0F800
G1 X94.522Y19.922Z0F800
G1 X94.218Y19.425Z0F800
G1 X93.899Y18.966Z0F800
G1 X93.566Y18.547Z0F800
G1 X93.222Y18.17Z0F800
G1 X92.827Y17.804Z0F800
G1 X92.378Y17.46Z0F800
G1 X92.115Y17.285Z0F800
G1 X91.816Y17.1Z0F800
G1 X91.474Y16.9Z0F800
G1 X91.083Y16.681Z0F800
G1 X90.613Y16.406Z0F800
G1 X90.092Y16.072Z0F800
G1 X89.535Y15.689Z0F800
G1 X88.957Y15.269Z0F800
G1 X87.79Y14.356Z0F800
G1 X86.706Y13.419Z0F800
G1 X86.539Y13.27Z0F800
G1 X86.394Y13.147Z0F800
G1 X86.288Y13.063Z0F800
G1 X86.236Y13.032Z0F800
G1 X86.182Y13.063Z0F800
G1 X86.071Y13.149Z0F800
G1 X85.92Y13.277Z0F800
G1 X85.746Y13.434Z0F800
G1 X85.142Y13.978Z0F800
G1 X84.565Y14.474Z0F800
G1 X84.005Y14.929Z0F800
G1 X83.453Y15.35Z0F800
G1 X82.342Y16.115Z0F800
G1 X81.162Y16.819Z0F800
G1 X80.804Y17.024Z0F800
G1 X80.481Y17.221Z0F800
G1 X80.189Y17.412Z0F800
G1 X79.923Y17.601Z0F800
G1 X79.452Y17.987Z0F800
G1 X79.031Y18.406Z0F800
G1 X78.744Y18.746Z0F800
G1 X78.459Y19.133Z0F800
G1 X78.179Y19.562Z0F800
G1 X77.908Y20.027Z0F800
G1 X77.649Y20.523Z0F800
G1 X77.405Y21.043Z0F800
G1 X77.18Y21.582Z0F800
G1 X76.976Y22.134Z0F800
G1 X76.855Y22.478Z0F800
G1 X76.75Y22.761Z0F800
G1 X76.654Y22.997Z0F800
G1 X76.56Y23.2Z0F800
G1 X76.345Y23.571Z0F800
G1 X76.048Y23.989Z0F800
G1 X75.432Y24.75Z0F800
G1 X74.734Y25.496Z0F800
G1 X73.977Y26.208Z0F800
G1 X73.187Y26.866Z0F800
G1 X72.388Y27.452Z0F800
G1 X71.604Y27.945Z0F800
G1 X71.225Y28.152Z0F800
G1 X70.859Y28.329Z0F800
G1 X70.509Y28.473Z0F800
G1 X70.179Y28.582Z0F800
G1 X69.747Y28.66Z0F800
G1 X69.27Y28.674Z0F800
G1 X69.036Y28.658Z0F800
G1 X68.815Y28.627Z0F800
G1 X68.616Y28.581Z0F800
G1 X68.448Y28.521Z0F800
G1 X68.201Y28.383Z0F800
G1 X67.964Y28.197Z0F800
G1 X67.741Y27.968Z0F800
G1 X67.535Y27.698Z0F800
G1 X67.347Y27.394Z0F800
G1 X67.182Y27.058Z0F800
G1 X67.042Y26.695Z0F800
G1 X66.93Y26.309Z0F800
G1 X66.872Y26.102Z0F800
G1 X66.813Y25.941Z0F800
G1 X66.757Y25.835Z0F800
G1 X66.707Y25.791Z0F800
G1 X66.597Y25.803Z0F800
G1 X66.441Y25.867Z0F800
G1 X66.246Y25.977Z0F800
G1 X66.022Y26.127Z0F800
G1 X65.518Y26.522Z0F800
G1 X64.997Y27.004Z0F800
G1 X64.429Y27.639Z0F800
G1 X63.929Y28.336Z0F800
G1 X63.497Y29.099Z0F800
G1 X63.129Y29.935Z0F800
G1 X62.969Y30.382Z0F800
G1 X62.824Y30.849Z0F800
G1 X62.694Y31.337Z0F800
G1 X62.579Y31.846Z0F800
G1 X62.479Y32.377Z0F800
G1 X62.394Y32.931Z0F800
G1 X62.322Y33.508Z0F800
G1 X62.264Y34.109Z0F800
G1 X62.222Y34.493Z0F800
G1 X62.162Y34.838Z0F800
G1 X62.086Y35.143Z0F800
G1 X61.994Y35.405Z0F800
G1 X61.888Y35.621Z0F800
G1 X61.769Y35.789Z0F800
G1 X61.637Y35.907Z0F800
G1 X61.494Y35.971Z0F800
G1 X61.4Y35.979Z0F800
G1 X61.284Y35.962Z0F800
G1 X61.15Y35.921Z0F800
G1 X60.875Y35.802Z0F800
G1 X60.762Y35.763Z0F800
G1 X60.678Y35.746Z0F800
G1 X60.634Y35.752Z0F800
G1 X60.624Y35.8Z0F800
G1 X60.615Y35.916Z0F800
G1 X60.606Y36.094Z0F800
G1 X60.599Y36.325Z0F800
G1 X60.593Y36.603Z0F800
G1 X60.589Y36.918Z0F800
G1 X60.585Y37.634Z0F800
G1 X60.588Y38.306Z0F800
G1 X60.593Y38.603Z0F800
G1 X60.6Y38.878Z0F800
G1 X60.623Y39.377Z0F800
G1 X60.661Y39.833Z0F800
G1 X60.715Y40.274Z0F800
G1 X60.79Y40.729Z0F800
G1 X60.887Y41.227Z0F800
G1 X61.011Y41.796Z0F800
G1 X61.307Y42.968Z0F800
G1 X61.663Y44.084Z0F800
G1 X62.093Y45.19Z0F800
G1 X62.614Y46.329Z0F800
G1 X63.038Y47.164Z0F800
G1 X63.459Y47.914Z0F800
G1 X63.683Y48.283Z0F800
G1 X63.926Y48.663Z0F800
G1 X64.192Y49.064Z0F800
G1 X64.49Y49.497Z0F800
G1 X64.856Y50.043Z0F800
G1 X65.169Y50.557Z0F800
G1 X65.431Y51.04Z0F800
G1 X65.643Y51.496Z0F800
G1 X65.806Y51.927Z0F800
G1 X65.921Y52.336Z0F800
G1 X65.99Y52.725Z0F800
G1 X66.012Y53.097Z0F800
G1 X65.978Y53.483Z0F800
G1 X65.863Y53.867Z0F800
G1 X65.768Y54.075Z0F800
G1 X65.645Y54.301Z0F800
G1 X65.49Y54.553Z0F800
G1 X65.302Y54.838Z0F800
G1 X65.094Y55.163Z0F800
G1 X64.891Y55.52Z0F800
G1 X64.693Y55.907Z0F800
G1 X64.5Y56.321Z0F800
G1 X64.136Y57.219Z0F800
G1 X63.805Y58.197Z0F800
G1 X63.512Y59.234Z0F800
G1 X63.264Y60.31Z0F800
G1 X63.067Y61.408Z0F800
G1 X62.927Y62.506Z0F800
G1 X62.891Y62.954Z0F800
G1 X62.868Y63.456Z0F800
G1 X62.856Y63.987Z0F800
G1 Y64.522Z0F800
G1 X62.866Y65.036Z0F800
G1 X62.887Y65.505Z0F800
G1 X62.919Y65.905Z0F800
G1 X62.962Y66.21Z0F800
G1 X63.045Y66.563Z0F800
G1 X63.15Y66.865Z0F800
G1 X63.279Y67.116Z0F800
G1 X63.432Y67.318Z0F800
G1 X63.611Y67.473Z0F800
G1 X63.817Y67.582Z0F800
G1 X64.052Y67.646Z0F800
G1 X64.316Y67.667Z0F800
G1 X64.656Y67.642Z0F800
G1 X65.012Y67.557Z0F800
G1 X65.205Y67.486Z0F800
G1 X65.414Y67.392Z0F800
G1 X65.641Y67.275Z0F800
G1 X65.892Y67.131Z0F800
G1 X66.169Y66.959Z0F800
G1 X66.477Y66.755Z0F800
G1 X66.82Y66.517Z0F800
G1 X67.2Y66.244Z0F800
G1 X67.623Y65.933Z0F800
G1 X68.091Y65.582Z0F800
G1 X68.609Y65.188Z0F800
G1 X69.181Y64.749Z0F800
G1 X69.868Y64.234Z0F800
G1 X70.498Y63.798Z0F800
G1 X71.082Y63.434Z0F800
G1 X71.635Y63.135Z0F800
G1 X72.168Y62.896Z0F800
G1 X72.695Y62.709Z0F800
G1 X73.229Y62.568Z0F800
G1 X73.782Y62.467Z0F800
G1 X74.1Y62.431Z0F800
G1 X74.43Y62.413Z0F800
G1 X74.784Y62.416Z0F800
G1 X75.174Y62.441Z0F800
G1 X75.611Y62.488Z0F800
G1 X76.107Y62.559Z0F800
G1 X76.673Y62.655Z0F800
G1 X77.322Y62.776Z0F800
G1 X78.558Y62.996Z0F800
G1 X79.729Y63.165Z0F800
G1 X80.839Y63.282Z0F800
G1 X81.892Y63.348Z0F800
G1 X82.893Y63.363Z0F800
G1 X83.845Y63.328Z0F800
G1 X84.752Y63.242Z0F800
G1 X85.62Y63.105Z0F800
G1 X85.836Y63.065Z0F800
G1 X86.009Y63.036Z0F800
G1 X86.152Y63.019Z0F800
G1 X86.281Y63.014Z0F800

; Color 1 picking sequence
G1 Z10 F500;         ; Raise brush to safe height
G0 X2 Y0 F1000;     ; Rapid move to brush cleaning position
G1 Z0 F500;         ; Lower brush for cleaning - controlled movement
G1 Z2 F500;         ; Raise brush slightly - controlled movement
G1 X22 Y0 Z8 F500;     ; Move across cleaning area - controlled movement
G1 Z8 F500;         ; Maintain brush height - controlled movement
G0 X41 Y0 F1200;    ; Rapid move to color 1 position
G1 Z0 F500;         ; Lower into color - controlled movement
G1 X35 Y1 F500;     ; Small movement in paint - controlled movement
G1 Z7 F500;         ; Raise from color - controlled movement
G1 X38 Y1 F500;     ; Movement in paint - controlled movement
G1 Z1 F500;         ; Lower slightly - controlled movement
G1 X27 Y10 Z8 F500;     ; Move in paint - controlled movement
G1 Z8 F500;         ; Raise brush - controlled movement
G1 F1000;           ; Set feed rate to 1000
G0 Z2.8F500
G0 X45.406Y60.288Z2.8F1000
G1 Z0F500
G1 X45.323Y60.627Z0F800
G1 X45.211Y60.943Z0F800
G1 X45.069Y61.24Z0F800
G1 X44.897Y61.521Z0F800
G1 X44.691Y61.79Z0F800
G1 X44.452Y62.05Z0F800
G1 X44.216Y62.265Z0F800
G1 X43.963Y62.454Z0F800
G1 X43.697Y62.616Z0F800
G1 X43.419Y62.753Z0F800
G1 X43.131Y62.863Z0F800
G1 X42.835Y62.946Z0F800
G1 X42.534Y63.003Z0F800
G1 X42.229Y63.033Z0F800
G1 X41.923Y63.036Z0F800
G1 X41.617Y63.013Z0F800
G1 X41.314Y62.962Z0F800
G1 X41.015Y62.884Z0F800
G1 X40.723Y62.778Z0F800
G1 X40.439Y62.645Z0F800
G1 X40.166Y62.485Z0F800
G1 X39.906Y62.297Z0F800
G1 X39.739Y62.155Z0F800
G1 X39.601Y62.023Z0F800
G1 X39.508Y61.916Z0F800
G1 X39.474Y61.849Z0F800
G1 X39.488Y61.812Z0F800
G1 X39.529Y61.748Z0F800
G1 X39.592Y61.661Z0F800
G1 X39.677Y61.552Z0F800
G1 X39.896Y61.289Z0F800
G1 X40.163Y60.986Z0F800
G1 X40.509Y60.586Z0F800
G1 X40.858Y60.146Z0F800
G1 X41.207Y59.67Z0F800
G1 X41.552Y59.164Z0F800
G1 X42.217Y58.085Z0F800
G1 X42.822Y56.957Z0F800
G1 X43.435Y55.721Z0F800
G1 X43.814Y55.94Z0F800
G1 X43.998Y56.07Z0F800
G1 X44.219Y56.265Z0F800
G1 X44.448Y56.497Z0F800
G1 X44.659Y56.741Z0F800
G1 X44.885Y57.047Z0F800
G1 X45.073Y57.357Z0F800
G1 X45.225Y57.674Z0F800
G1 X45.343Y58.002Z0F800
G1 X45.427Y58.347Z0F800
G1 X45.48Y58.713Z0F800
G1 X45.502Y59.105Z0F800
G1 X45.495Y59.526Z0F800
G1 X45.464Y59.922Z0F800
G1 X45.406Y60.288Z0F800
G0 Z2.8F500
G0 X45.697Y60.342Z2.8F1000
G1 Z0F500
G1 X45.783Y59.873Z0F800
G1 X45.818Y59.389Z0F800
G1 X45.8Y58.896Z0F800
G1 X45.726Y58.395Z0F800
G1 X45.595Y57.892Z0F800
G1 X45.405Y57.391Z0F800
G1 X45.278Y57.151Z0F800
G1 X45.105Y56.89Z0F800
G1 X44.895Y56.622Z0F800
G1 X44.661Y56.356Z0F800
G1 X44.412Y56.105Z0F800
G1 X44.159Y55.879Z0F800
G1 X43.913Y55.691Z0F800
G1 X43.684Y55.551Z0F800
G1 X43.306Y55.355Z0F800
G1 X42.662Y56.675Z0F800
G1 X42.03Y57.872Z0F800
G1 X41.334Y59.003Z0F800
G1 X40.969Y59.535Z0F800
G1 X40.596Y60.039Z0F800
G1 X40.216Y60.511Z0F800
G1 X39.834Y60.948Z0F800
G1 X39.679Y61.118Z0F800
G1 X39.544Y61.27Z0F800
G1 X39.43Y61.404Z0F800
G1 X39.338Y61.523Z0F800
G1 X39.216Y61.725Z0F800
G1 X39.179Y61.895Z0F800
G1 X39.229Y62.049Z0F800
G1 X39.365Y62.207Z0F800
G1 X39.588Y62.385Z0F800
G1 X39.9Y62.601Z0F800
G1 X40.209Y62.792Z0F800
G1 X40.53Y62.957Z0F800
G1 X40.858Y63.094Z0F800
G1 X41.191Y63.202Z0F800
G1 X41.522Y63.279Z0F800
G1 X41.848Y63.325Z0F800
G1 X42.163Y63.338Z0F800
G1 X42.465Y63.316Z0F800
G1 X42.951Y63.22Z0F800
G1 X43.407Y63.069Z0F800
G1 X43.829Y62.866Z0F800
G1 X44.217Y62.615Z0F800
G1 X44.568Y62.321Z0F800
G1 X44.88Y61.987Z0F800
G1 X45.151Y61.618Z0F800
G1 X45.379Y61.218Z0F800
G1 X45.561Y60.791Z0F800
G1 X45.697Y60.342Z0F800
G0 Z2.8F500
G0 X33.747Y53.206Z2.8F1000
G1 Z0F500
G1 X33.607Y53.287Z0F800
G1 X33.476Y53.338Z0F800
G1 X33.352Y53.359Z0F800
G1 X33.234Y53.349Z0F800
G1 X33.12Y53.309Z0F800
G1 X33.009Y53.237Z0F800
G1 X32.898Y53.134Z0F800
G1 X32.786Y52.998Z0F800
G1 X32.667Y52.821Z0F800
G1 X32.616Y52.68Z0F800
G1 X32.628Y52.545Z0F800
G1 X32.699Y52.382Z0F800
G1 X32.805Y52.207Z0F800
G1 X32.918Y52.072Z0F800
G1 X33.038Y51.977Z0F800
G1 X33.166Y51.922Z0F800
G1 X33.304Y51.907Z0F800
G1 X33.45Y51.931Z0F800
G1 X33.607Y51.994Z0F800
G1 X33.775Y52.096Z0F800
G1 X33.901Y52.21Z0F800
G1 X33.989Y52.346Z0F800
G1 X34.04Y52.497Z0F800
G1 X34.054Y52.654Z0F800
G1 X34.032Y52.812Z0F800
G1 X33.973Y52.961Z0F800
G1 X33.878Y53.095Z0F800
G1 X33.747Y53.206Z0F800
G0 Z2.8F500
G0 X34.413Y53.393Z2.8F1000
G1 Z0F500
G1 X34.626Y53.032Z0F800
G1 X34.771Y52.651Z0F800
G1 X34.847Y52.26Z0F800
G1 X34.857Y51.866Z0F800
G1 X34.8Y51.481Z0F800
G1 X34.677Y51.112Z0F800
G1 X34.489Y50.77Z0F800
G1 X34.236Y50.463Z0F800
G1 X34.056Y50.306Z0F800
G1 X33.87Y50.186Z0F800
G1 X33.678Y50.105Z0F800
G1 X33.481Y50.062Z0F800
G1 X33.28Y50.057Z0F800
G1 X33.075Y50.091Z0F800
G1 X32.868Y50.163Z0F800
G1 X32.659Y50.274Z0F800
G1 X32.411Y50.477Z0F800
G1 X32.204Y50.749Z0F800
G1 X32.039Y51.072Z0F800
G1 X31.921Y51.431Z0F800
G1 X31.855Y51.812Z0F800
G1 X31.843Y52.198Z0F800
G1 X31.89Y52.575Z0F800
G1 X31.999Y52.925Z0F800
G1 X32.187Y53.26Z0F800
G1 X32.44Y53.556Z0F800
G1 X32.731Y53.789Z0F800
G1 X33.034Y53.933Z0F800
G1 X33.199Y53.962Z0F800
G1 X33.383Y53.957Z0F800
G1 X33.576Y53.921Z0F800
G1 X33.772Y53.857Z0F800
G1 X33.961Y53.77Z0F800
G1 X34.137Y53.661Z0F800
G1 X34.29Y53.534Z0F800
G1 X34.413Y53.393Z0F800
G0 Z2.8F500
G0 X30.111Y50.134Z2.8F1000
G1 Z0F500
G1 X30.285Y50.001Z0F800
G1 X30.437Y49.86Z0F800
G1 X30.564Y49.711Z0F800
G1 X30.666Y49.555Z0F800
G1 X30.74Y49.393Z0F800
G1 X30.786Y49.227Z0F800
G1 X30.801Y49.057Z0F800
G1 X30.786Y48.884Z0F800
G1 X30.734Y48.69Z0F800
G1 X30.654Y48.504Z0F800
G1 X30.548Y48.327Z0F800
G1 X30.417Y48.159Z0F800
G1 X30.092Y47.859Z0F800
G1 X29.696Y47.611Z0F800
G1 X29.248Y47.425Z0F800
G1 X28.764Y47.311Z0F800
G1 X28.263Y47.277Z0F800
G1 X27.762Y47.332Z0F800
G1 X27.324Y47.458Z0F800
G1 X26.923Y47.641Z0F800
G1 X26.566Y47.874Z0F800
G1 X26.259Y48.152Z0F800
G1 X26.009Y48.466Z0F800
G1 X25.823Y48.81Z0F800
G1 X25.706Y49.177Z0F800
G1 X25.666Y49.56Z0F800
G1 X25.7Y49.889Z0F800
G1 X25.804Y50.165Z0F800
G1 X25.981Y50.389Z0F800
G1 X26.234Y50.562Z0F800
G1 X26.565Y50.684Z0F800
G1 X26.977Y50.759Z0F800
G1 X27.473Y50.787Z0F800
G1 X28.056Y50.769Z0F800
G1 X28.659Y50.695Z0F800
G1 X29.211Y50.559Z0F800
G1 X29.698Y50.37Z0F800
G1 X30.111Y50.134Z0F800
G0 Z2.8F500
G0 X30.253Y50.499Z2.8F1000
G1 Z0F500
G1 X29.509Y50.787Z0F800
G1 X28.74Y50.991Z0F800
G1 X27.955Y51.113Z0F800
G1 X27.162Y51.15Z0F800
G1 X26.367Y51.102Z0F800
G1 X25.578Y50.969Z0F800
G1 X24.804Y50.75Z0F800
G1 X24.05Y50.443Z0F800
G1 X23.326Y50.049Z0F800
G1 X22.638Y49.566Z0F800
G1 X21.995Y48.994Z0F800
G1 X21.69Y48.669Z0F800
G1 X21.418Y48.336Z0F800
G1 X21.177Y47.994Z0F800
G1 X20.968Y47.646Z0F800
G1 X20.791Y47.292Z0F800
G1 X20.646Y46.934Z0F800
G1 X20.535Y46.574Z0F800
G1 X20.456Y46.213Z0F800
G1 X20.41Y45.851Z0F800
G1 X20.398Y45.491Z0F800
G1 X20.419Y45.134Z0F800
G1 X20.475Y44.781Z0F800
G1 X20.564Y44.434Z0F800
G1 X20.688Y44.094Z0F800
G1 X20.846Y43.761Z0F800
G1 X21.039Y43.439Z0F800
G1 X21.363Y43.023Z0F800
G1 X21.765Y42.627Z0F800
G1 X22.236Y42.254Z0F800
G1 X22.769Y41.906Z0F800
G1 X23.356Y41.585Z0F800
G1 X23.989Y41.294Z0F800
G1 X24.66Y41.035Z0F800
G1 X25.362Y40.81Z0F800
G1 X26.087Y40.622Z0F800
G1 X26.826Y40.472Z0F800
G1 X27.573Y40.363Z0F800
G1 X28.319Y40.298Z0F800
G1 X29.056Y40.278Z0F800
G1 X29.777Y40.305Z0F800
G1 X30.474Y40.383Z0F800
G1 X31.139Y40.513Z0F800
G1 X31.743Y40.694Z0F800
G1 X32.289Y40.929Z0F800
G1 X32.778Y41.215Z0F800
G1 X33.207Y41.547Z0F800
G1 X33.577Y41.922Z0F800
G1 X33.885Y42.337Z0F800
G1 X34.131Y42.787Z0F800
G1 X34.313Y43.27Z0F800
G1 X34.431Y43.781Z0F800
G1 X34.483Y44.317Z0F800
G1 X34.468Y44.874Z0F800
G1 X34.386Y45.449Z0F800
G1 X34.234Y46.038Z0F800
G1 X34.013Y46.637Z0F800
G1 X33.72Y47.243Z0F800
G1 X33.355Y47.852Z0F800
G1 X32.843Y48.54Z0F800
G1 X32.269Y49.15Z0F800
G1 X31.641Y49.68Z0F800
G1 X30.967Y50.13Z0F800
G1 X30.253Y50.499Z0F800

; Color 1 picking sequence
G1 Z10 F500;         ; Raise brush to safe height
G0 X2 Y0 F1000;     ; Rapid move to brush cleaning position
G1 Z0 F500;         ; Lower brush for cleaning - controlled movement
G1 Z2 F500;         ; Raise brush slightly - controlled movement
G1 X22 Y0 Z8 F500;     ; Move across cleaning area - controlled movement
G1 Z8 F500;         ; Maintain brush height - controlled movement
G0 X41 Y0 F1200;    ; Rapid move to color 1 position
G1 Z0 F500;         ; Lower into color - controlled movement
G1 X35 Y1 F500;     ; Small movement in paint - controlled movement
G1 Z7 F500;         ; Raise from color - controlled movement
G1 X38 Y1 F500;     ; Movement in paint - controlled movement
G1 Z1 F500;         ; Lower slightly - controlled movement
G1 X27 Y10 Z8 F500;     ; Move in paint - controlled movement
G1 Z8 F500;         ; Raise brush - controlled movement
G1 F1000;           ; Set feed rate to 1000
G0 Z2.8F500
G0 X30.422Y50.712Z2.8F1000
G1 Z0F500
G1 X30.882Y50.476Z0F800
G1 X31.325Y50.209Z0F800
G1 X31.75Y49.915Z0F800
G1 X32.155Y49.594Z0F800
G1 X32.538Y49.248Z0F800
G1 X32.898Y48.88Z0F800
G1 X33.232Y48.49Z0F800
G1 X33.539Y48.081Z0F800
G1 X33.816Y47.654Z0F800
G1 X34.063Y47.212Z0F800
G1 X34.277Y46.755Z0F800
G1 X34.457Y46.286Z0F800
G1 X34.6Y45.806Z0F800
G1 X34.683Y45.447Z0F800
G1 X34.74Y45.106Z0F800
G1 X34.771Y44.776Z0F800
G1 X34.778Y44.453Z0F800
G1 X34.758Y44.133Z0F800
G1 X34.713Y43.809Z0F800
G1 X34.643Y43.478Z0F800
G1 X34.546Y43.133Z0F800
G1 X34.38Y42.692Z0F800
G1 X34.167Y42.282Z0F800
G1 X33.907Y41.903Z0F800
G1 X33.603Y41.555Z0F800
G1 X33.257Y41.241Z0F800
G1 X32.87Y40.959Z0F800
G1 X32.444Y40.712Z0F800
G1 X31.981Y40.499Z0F800
G1 X31.482Y40.322Z0F800
G1 X30.95Y40.181Z0F800
G1 X30.385Y40.077Z0F800
G1 X29.791Y40.01Z0F800
G1 X29.167Y39.982Z0F800
G1 X28.518Y39.992Z0F800
G1 X27.843Y40.043Z0F800
G1 X27.145Y40.133Z0F800
G1 X26.556Y40.238Z0F800
G1 X25.982Y40.364Z0F800
G1 X25.424Y40.511Z0F800
G1 X24.884Y40.677Z0F800
G1 X24.364Y40.863Z0F800
G1 X23.866Y41.065Z0F800
G1 X23.391Y41.285Z0F800
G1 X22.942Y41.52Z0F800
G1 X22.52Y41.77Z0F800
G1 X22.126Y42.033Z0F800
G1 X21.764Y42.309Z0F800
G1 X21.434Y42.597Z0F800
G1 X21.138Y42.895Z0F800
G1 X20.879Y43.203Z0F800
G1 X20.657Y43.519Z0F800
G1 X20.475Y43.843Z0F800
G1 X20.325Y44.192Z0F800
G1 X20.235Y44.541Z0F800
G1 X20.208Y44.74Z0F800
G1 X20.191Y44.969Z0F800
G1 X20.182Y45.237Z0F800
G1 X20.179Y45.555Z0F800
G1 X20.182Y45.897Z0F800
G1 X20.191Y46.179Z0F800
G1 X20.211Y46.416Z0F800
G1 X20.246Y46.625Z0F800
G1 X20.298Y46.824Z0F800
G1 X20.372Y47.03Z0F800
G1 X20.471Y47.259Z0F800
G1 X20.598Y47.527Z0F800
G1 X20.957Y48.154Z0F800
G1 X21.405Y48.75Z0F800
G1 X21.932Y49.309Z0F800
G1 X22.526Y49.821Z0F800
G1 X23.177Y50.277Z0F800
G1 X23.872Y50.669Z0F800
G1 X24.601Y50.988Z0F800
G1 X25.352Y51.224Z0F800
G1 X25.734Y51.302Z0F800
G1 X26.168Y51.357Z0F800
G1 X26.64Y51.391Z0F800
G1 X27.132Y51.402Z0F800
G1 X27.627Y51.391Z0F800
G1 X28.108Y51.358Z0F800
G1 X28.559Y51.303Z0F800
G1 X28.963Y51.226Z0F800
G1 X29.461Y51.089Z0F800
G1 X29.948Y50.918Z0F800
G1 X30.422Y50.712Z0F800
G0 Z2.8F500
G0 X25.265Y53.665Z2.8F1000
G1 Z0F500
G1 X25.325Y53.744Z0F800
G1 X25.374Y53.872Z0F800
G1 X25.407Y54.031Z0F800
G1 X25.419Y54.203Z0F800
G1 X25.4Y54.384Z0F800
G1 X25.344Y54.539Z0F800
G1 X25.257Y54.665Z0F800
G1 X25.14Y54.761Z0F800
G1 X24.998Y54.823Z0F800
G1 X24.835Y54.85Z0F800
G1 X24.654Y54.84Z0F800
G1 X24.459Y54.79Z0F800
G1 X24.285Y54.712Z0F800
G1 X24.184Y54.607Z0F800
G1 X24.136Y54.442Z0F800
G1 X24.125Y54.186Z0F800
G1 X24.137Y53.939Z0F800
G1 X24.183Y53.767Z0F800
G1 X24.274Y53.646Z0F800
G1 X24.42Y53.552Z0F800
G1 X24.635Y53.476Z0F800
G1 X24.844Y53.469Z0F800
G1 X25.052Y53.532Z0F800
G1 X25.265Y53.665Z0F800
G0 Z2.8F500
G0 X26.08Y53.724Z2.8F1000
G1 Z0F500
G1 X26.039Y53.437Z0F800
G1 X25.962Y53.158Z0F800
G1 X25.853Y52.891Z0F800
G1 X25.715Y52.64Z0F800
G1 X25.553Y52.409Z0F800
G1 X25.369Y52.202Z0F800
G1 X25.168Y52.022Z0F800
G1 X24.954Y51.873Z0F800
G1 X24.73Y51.759Z0F800
G1 X24.5Y51.685Z0F800
G1 X24.268Y51.652Z0F800
G1 X24.037Y51.667Z0F800
G1 X23.812Y51.731Z0F800
G1 X23.596Y51.85Z0F800
G1 X23.379Y52.04Z0F800
G1 X23.21Y52.266Z0F800
G1 X23.087Y52.522Z0F800
G1 X23.009Y52.8Z0F800
G1 X22.973Y53.094Z0F800
G1 X22.977Y53.397Z0F800
G1 X23.019Y53.703Z0F800
G1 X23.097Y54.005Z0F800
G1 X23.209Y54.296Z0F800
G1 X23.352Y54.57Z0F800
G1 X23.525Y54.821Z0F800
