;LightBurn 1.6.04
;Custom GCode device profile, absolute coords
;Bounds: X12 Y46.94 to X73.99 Y115.99
G00 G17 G40 G21 G54
G90
M4
;Cut @ 1500 mm/min, 90% power

M8
G0 Z3.5 F1000
G0 X29.25 Y46.938 Z3.5 
G1 Z0 F1000
;Layer C2
G1 X23 Y53 Z0 S900 F1000
G1 X29.25 Y59.062 Z0 F1000
G1 X41.75 Z0 F1000
G1 X48 Y53 Z0 F1000
G1 X41.75 Y46.938 Z0 F1000
G1 X29.25 Z0 F1000
;Cut @ 1500 mm/min, 80% power

M8
G0 Z3.5 F1000
G0 X50.745 Y76.051 Z3.5 F1500
G1 Z0 F1000
;Layer C1
G1 X34.197 Y85.009 Z0 S800 F1000
G1 X34.174 Y99.179 Z0 F1000
G0 Z3.5 F1000
G0 X34.128 Y99.176 Z3.5 
G1 Z0 F1000
G1 X48.769 Y106.767 Z0 F1000
G1 X63.434 Y100.833 Z0 F1000
G1 X51.004 Y91.457 Z0 F1000
G1 X34.128 Y99.176 Z0 F1000
G0 Z3.5 F1000
G0 X50.905 Y91.616 Z3.5 
G1 Z0 F1000
G1 Y76.06 Z0 F1000
G1 X63.363 Y86.726 Z0 F1000
G1 X63.383 Y100.777 Z0 F1000
G0 Z3.5 F1000
G0 X70.97 Y102.91 Z3.5 
G1 Z0 F1000
G1 X70.369 Y103.956 Z0 F1000
G1 X69.719 Y104.97 Z0 F1000
G1 X69.022 Y105.95 Z0 F1000
G1 X68.28 Y106.893 Z0 F1000
G1 X67.495 Y107.8 Z0 F1000
G1 X66.668 Y108.668 Z0 F1000
G1 X65.8 Y109.495 Z0 F1000
G1 X64.893 Y110.28 Z0 F1000
G1 X63.95 Y111.022 Z0 F1000
G1 X62.97 Y111.719 Z0 F1000
G1 X61.956 Y112.369 Z0 F1000
G1 X60.91 Y112.97 Z0 F1000
G1 X59.832 Y113.522 Z0 F1000
G1 X58.726 Y114.023 Z0 F1000
G1 X57.591 Y114.47 Z0 F1000
G1 X56.43 Y114.863 Z0 F1000
G1 X55.244 Y115.199 Z0 F1000
G1 X54.036 Y115.478 Z0 F1000
G1 X52.805 Y115.698 Z0 F1000
G1 X51.555 Y115.857 Z0 F1000
G1 X50.286 Y115.954 Z0 F1000
G1 X49 Y115.986 Z0 F1000
G1 X47.714 Y115.954 Z0 F1000
G1 X46.445 Y115.857 Z0 F1000
G1 X45.195 Y115.698 Z0 F1000
G1 X43.964 Y115.478 Z0 F1000
G1 X42.756 Y115.199 Z0 F1000
G1 X41.57 Y114.863 Z0 F1000
G1 X40.409 Y114.47 Z0 F1000
G1 X39.274 Y114.023 Z0 F1000
G1 X38.168 Y113.522 Z0 F1000
G1 X37.09 Y112.97 Z0 F1000
G1 X36.044 Y112.369 Z0 F1000
G1 X35.03 Y111.719 Z0 F1000
G1 X34.05 Y111.022 Z0 F1000
G1 X33.107 Y110.28 Z0 F1000
G1 X32.2 Y109.495 Z0 F1000
G1 X31.332 Y108.668 Z0 F1000
G1 X30.505 Y107.8 Z0 F1000
G1 X29.72 Y106.893 Z0 F1000
G1 X28.978 Y105.95 Z0 F1000
G1 X28.281 Y104.97 Z0 F1000
G1 X27.631 Y103.956 Z0 F1000
G1 X27.03 Y102.91 Z0 F1000
G1 X26.478 Y101.832 Z0 F1000
G1 X25.977 Y100.726 Z0 F1000
G1 X25.53 Y99.591 Z0 F1000
G1 X25.137 Y98.43 Z0 F1000
G1 X24.801 Y97.244 Z0 F1000
G1 X24.522 Y96.036 Z0 F1000
G1 X24.302 Y94.805 Z0 F1000
G1 X24.143 Y93.555 Z0 F1000
G1 X24.046 Y92.286 Z0 F1000
G1 X24.014 Y91 Z0 F1000
G1 X24.046 Y89.714 Z0 F1000
G1 X24.143 Y88.445 Z0 F1000
G1 X24.302 Y87.195 Z0 F1000
G1 X24.522 Y85.964 Z0 F1000
G1 X24.801 Y84.756 Z0 F1000
G1 X25.137 Y83.57 Z0 F1000
G1 X25.53 Y82.409 Z0 F1000
G1 X25.977 Y81.274 Z0 F1000
G1 X26.478 Y80.168 Z0 F1000
G1 X27.03 Y79.09 Z0 F1000
G1 X27.631 Y78.044 Z0 F1000
G1 X28.281 Y77.03 Z0 F1000
G1 X28.978 Y76.05 Z0 F1000
G1 X29.72 Y75.107 Z0 F1000
G1 X30.505 Y74.2 Z0 F1000
G1 X31.332 Y73.332 Z0 F1000
G1 X32.2 Y72.505 Z0 F1000
G1 X33.107 Y71.72 Z0 F1000
G1 X34.05 Y70.978 Z0 F1000
G1 X35.03 Y70.281 Z0 F1000
G1 X36.044 Y69.631 Z0 F1000
G1 X37.09 Y69.03 Z0 F1000
G1 X38.168 Y68.478 Z0 F1000
G1 X39.274 Y67.977 Z0 F1000
G1 X40.409 Y67.53 Z0 F1000
G1 X41.57 Y67.137 Z0 F1000
G1 X42.756 Y66.801 Z0 F1000
G1 X43.964 Y66.522 Z0 F1000
G1 X45.195 Y66.302 Z0 F1000
G1 X46.445 Y66.143 Z0 F1000
G1 X47.714 Y66.046 Z0 F1000
G1 X49 Y66.014 Z0 F1000
G1 X50.286 Y66.046 Z0 F1000
G1 X51.555 Y66.143 Z0 F1000
G1 X52.805 Y66.302 Z0 F1000
G1 X54.036 Y66.522 Z0 F1000
G1 X55.244 Y66.801 Z0 F1000
G1 X56.43 Y67.137 Z0 F1000
G1 X57.591 Y67.53 Z0 F1000
G1 X58.726 Y67.977 Z0 F1000
G1 X59.832 Y68.478 Z0 F1000
G1 X60.91 Y69.03 Z0 F1000
G1 X61.956 Y69.631 Z0 F1000
G1 X62.97 Y70.281 Z0 F1000
G1 X63.95 Y70.978 Z0 F1000
G1 X64.893 Y71.72 Z0 F1000
G1 X65.8 Y72.505 Z0 F1000
G1 X66.668 Y73.332 Z0 F1000
G1 X67.495 Y74.2 Z0 F1000
G1 X68.28 Y75.107 Z0 F1000
G1 X69.022 Y76.05 Z0 F1000
G1 X69.719 Y77.03 Z0 F1000
G1 X70.369 Y78.044 Z0 F1000
G1 X70.97 Y79.09 Z0 F1000
G1 X71.522 Y80.168 Z0 F1000
G1 X72.023 Y81.274 Z0 F1000
G1 X72.47 Y82.409 Z0 F1000
G1 X72.863 Y83.57 Z0 F1000
G1 X73.199 Y84.756 Z0 F1000
G1 X73.478 Y85.964 Z0 F1000
G1 X73.698 Y87.195 Z0 F1000
G1 X73.857 Y88.445 Z0 F1000
G1 X73.954 Y89.714 Z0 F1000
G1 X73.986 Y91 Z0 F1000
G1 X73.954 Y92.286 Z0 F1000
G1 X73.857 Y93.555 Z0 F1000
G1 X73.698 Y94.805 Z0 F1000
G1 X73.478 Y96.036 Z0 F1000
G1 X73.199 Y97.244 Z0 F1000
G1 X72.863 Y98.43 Z0 F1000
G1 X72.47 Y99.591 Z0 F1000
G1 X72.023 Y100.726 Z0 F1000
G1 X71.522 Y101.832 Z0 F1000
G1 X70.97 Y102.91 Z0 F1000
;Cut @ 1500 mm/min, 90% power

M8
G0 Z3.5 F1000
G0 X21 Y82.321 Z3.5 
G1 Z0 F1000
;Layer C3
G1 X24 Y65 Z0 S900 F1000
G1 X21 Y47.679 Z0 F1000
G1 X15 Z0 F1000
G1 X12 Y65 Z0 F1000
G1 X15 Y82.321 Z0 F1000
G1 X21 Z0 F1000
M9

G90
G1 Z10 F800
