
G0 Z10 F500;      ; Move to clearance level - Z motion limited to 500
; G0 X-10 Y-10 F1200; Homing
; G0 X-5 Y-5 F1200; go in
; G10 P0 L20 X0 Y0; set to zero
G1 F1000;           ; Set feed rate to 1000
;LightBurn 1.6.04
;Custom GCode device profile, absolute coords
;Bounds: X7.7 Y27.77 to X122.3 Y92.23
G00 G17 G40 G21 G54
G90
M3
G1 Z10 F500
;Cut @ 15 mm/sec, 90% power

M8

; Color 1 picking sequence
G1 Z10 F500;         ; Raise brush to safe height
G0 X2 Y0 F1000;     ; Rapid move to brush cleaning position
G1 Z0 F500;         ; Lower brush for cleaning - controlled movement
G1 Z2 F500;         ; Raise brush slightly - controlled movement
G1 X22 Y0 Z8 F500;     ; Move across cleaning area - controlled movement
G1 Z8 F500;         ; Maintain brush height - controlled movement
G0 X41 Y0 F1200;    ; Rapid move to color 1 position
G1 Z0 F500;         ; Lower into color - controlled movement
G1 X35 Y1 F500;     ; Small movement in paint - controlled movement
G1 Z7 F500;         ; Raise from color - controlled movement
G1 X38 Y1 F500;     ; Movement in paint - controlled movement
G1 Z1 F500;         ; Lower slightly - controlled movement
G1 X27 Y10 Z8 F500;     ; Move in paint - controlled movement
G1 Z8 F500;         ; Raise brush - controlled movement
G1 F1000;           ; Set feed rate to 1000
G0 Z2.8F500
G0 X12.269Y28.388Z2.8F1000
G1 Z0F500
;Layer C00
G1 X12.206Y28.414Z0S900F800
G1 X12.161Y28.459Z0F800
G1 X12.13Y28.527Z0F800
G1 X12.107Y28.622Z0F800
G1 X12.086Y28.748Z0F800
G1 X12.15Y29.296Z0F800
G1 X12.224Y29.366Z0F800
G1 X12.306Y29.406Z0F800
G1 X12.391Y29.419Z0F800
G1 X12.474Y29.405Z0F800
G1 X12.55Y29.366Z0F800
G1 X12.615Y29.304Z0F800
G1 X12.664Y29.22Z0F800
G1 X12.692Y29.117Z0F800
G1 X12.967Y28.779Z0F800
G1 X13.085Y28.729Z0F800
G1 X13.15Y28.673Z0F800
G1 X13.167Y28.613Z0F800
G1 X13.139Y28.553Z0F800
G1 X13.068Y28.498Z0F800
G1 X12.958Y28.45Z0F800
G1 X12.811Y28.413Z0F800
G1 X12.63Y28.39Z0F800
G1 X12.476Y28.38Z0F800
G1 X12.357Z0F800
G1 X12.269Y28.388Z0F800
G0 Z2.8F500
G0 X15.363Y28.527Z2.8F1000
G1 Z0F500
G1 Y28.581Z0F800
G1 X15.394Y28.665Z0F800
G1 X15.449Y28.784Z0F800
G1 X15.528Y28.945Z0F800
G1 X15.625Y29.112Z0F800
G1 X15.722Y29.231Z0F800
G1 X15.814Y29.301Z0F800
G1 X15.896Y29.324Z0F800
G1 X15.963Y29.298Z0F800
G1 X16.012Y29.224Z0F800
G1 X16.038Y29.102Z0F800
G1 X16.035Y28.933Z0F800
G1 X16.003Y28.735Z0F800
G1 X15.943Y28.611Z0F800
G1 X15.837Y28.542Z0F800
G1 X15.669Y28.507Z0F800
G1 X15.542Y28.493Z0F800
G1 X15.451Y28.489Z0F800
G1 X15.391Y28.498Z0F800
G1 X15.363Y28.527Z0F800
G0 Z2.8F500
G0 X17.012Y29.039Z2.8F1000
G1 Z0F500
G1 X17.233Y29.259Z0F800
G1 X17.153Y29.056Z0F800
G1 X17.012Y29.039Z0F800
G0 Z2.8F500
G0 X16.057Y30.157Z2.8F1000
G1 Z0F500
G1 X15.699Z0F800
G1 X15.878Y30.276Z0F800
G1 X16.057Y30.157Z0F800
G0 Z2.8F500
G0 X16.812Y30.776Z2.8F1000
G1 Z0F500
G1 X16.783Y30.81Z0F800
G1 X16.773Y30.863Z0F800
G1 X17.633Y31.473Z0F800
G1 X17.712Y31.597Z0F800
G1 X17.792Y31.696Z0F800
G1 X17.868Y31.768Z0F800
G1 X17.938Y31.812Z0F800
G1 X17.998Y31.827Z0F800
G1 X18.044Y31.811Z0F800
G1 X18.074Y31.762Z0F800
G1 X18.084Y31.679Z0F800
G1 X18.048Y31.498Z0F800
G1 X17.937Y31.329Z0F800
G1 X17.741Y31.163Z0F800
G1 X17.45Y30.988Z0F800
G1 X17.284Y30.902Z0F800
G1 X17.142Y30.836Z0F800
G1 X17.025Y30.791Z0F800
G1 X16.932Y30.766Z0F800
G1 X16.861Y30.761Z0F800
G1 X16.812Y30.776Z0F800
G0 Z2.8F500
G0 X18.513Y31.003Z2.8F1000
G1 Z0F500
G1 X18.517Y31.119Z0F800
G1 X18.576Y31.2Z0F800
G1 X18.683Y31.231Z0F800
G1 X18.811Y30.834Z0F800
G1 X18.567Y30.868Z0F800
G1 X18.513Y31.003Z0F800
G0 Z2.8F500
G0 X19.46Y32.079Z2.8F1000
G1 Z0F500
G1 X19.381Y32.13Z0F800
G1 X19.313Y32.213Z0F800
G1 X19.25Y32.335Z0F800
G1 X19.183Y32.503Z0F800
G1 X19.106Y32.724Z0F800
G1 X19.03Y32.963Z0F800
G1 X18.98Y33.157Z0F800
G1 X18.957Y33.306Z0F800
G1 X18.96Y33.409Z0F800
G1 X18.989Y33.467Z0F800
G1 X19.045Y33.479Z0F800
G1 X19.126Y33.446Z0F800
G1 X19.343Y33.289Z0F800
G1 X19.422Y33.271Z0F800
G1 X19.49Y33.317Z0F800
G1 X19.566Y33.43Z0F800
G1 X19.907Y33.877Z0F800
G1 X20.042Y34.036Z0F800
G1 X20.108Y34.149Z0F800
G1 X20.113Y34.182Z0F800
G1 X20.098Y34.197Z0F800
G1 X20.063Y34.191Z0F800
G1 X20.006Y34.162Z0F800
G1 X19.557Y34.185Z0F800
G1 X19.316Y34.041Z0F800
G1 X19.061Y33.978Z0F800
G1 X18.956Z0F800
G1 X18.879Y34.004Z0F800
G1 X18.84Y34.053Z0F800
G1 X18.852Y34.126Z0F800
G1 X18.995Y34.484Z0F800
G1 X19.068Y34.622Z0F800
G1 X19.156Y34.684Z0F800
G1 X19.25Y34.669Z0F800
G1 X19.34Y34.573Z0F800
G1 X19.392Y34.513Z0F800
G1 X19.459Y34.476Z0F800
G1 X19.54Y34.46Z0F800
G1 X19.633Y34.466Z0F800
G1 X19.849Y34.542Z0F800
G1 X20.308Y34.842Z0F800
G1 X20.552Y34.893Z0F800
G1 X20.72Y34.886Z0F800
G1 X20.937Y34.858Z0F800
G1 X21.219Y34.809Z0F800
G1 X21.578Y34.739Z0F800
G1 X21.744Y34.695Z0F800
G1 X21.833Y34.633Z0F800
G1 X21.858Y34.536Z0F800
G1 X21.833Y34.385Z0F800
G1 X22.264Y33.917Z0F800
G1 X22.328Y33.825Z0F800
G1 X22.32Y33.77Z0F800
G1 X22.23Y33.744Z0F800
G1 X22.047Y33.738Z0F800
G1 X20.831Y33.977Z0F800
G1 X20.708Y34.03Z0F800
G1 X20.601Y34.05Z0F800
G1 X20.514Y34.041Z0F800
G1 X20.449Y34.004Z0F800
G1 X20.408Y33.943Z0F800
G1 X20.395Y33.86Z0F800
G1 X20.413Y33.757Z0F800
G1 X20.463Y33.638Z0F800
G1 X20.399Y33.283Z0F800
G1 X20.305Y33.209Z0F800
G1 X20.262Y33.106Z0F800
G1 X20.266Y32.948Z0F800
G1 X20.313Y32.71Z0F800
G1 X20.385Y32.476Z0F800
G1 X20.486Y32.3Z0F800
G1 X20.631Y32.163Z0F800
G1 X20.836Y32.043Z0F800
G1 X21.038Y31.95Z0F800
G1 X21.21Y31.886Z0F800
G1 X21.354Y31.853Z0F800
G1 X21.475Z0F800
G1 X21.578Y31.879Z0F800
G1 X21.665Y31.939Z0F800
G1 X21.742Y32.032Z0F800
G1 X21.811Y32.156Z0F800
G1 X21.91Y32.323Z0F800
G1 X22.035Y32.429Z0F800
G1 X22.213Y32.489Z0F800
G1 X22.474Y32.521Z0F800
G1 X22.981Y32.379Z0F800
G1 X22.742Y31.761Z0F800
G1 X22.713Y31.583Z0F800
G1 X22.643Y31.481Z0F800
G1 X22.601Y31.464Z0F800
G1 X22.558Y31.473Z0F800
G1 X22.518Y31.511Z0F800
G1 X22.483Y31.579Z0F800
G1 X20.898Y31.633Z0F800
G1 X20.71Y31.744Z0F800
G1 X20.573Y31.799Z0F800
G1 X20.488Y31.803Z0F800
G1 X20.455Y31.76Z0F800
G1 X20.475Y31.676Z0F800
G1 X20.549Y31.556Z0F800
G1 X20.677Y31.403Z0F800
G1 X20.858Y31.224Z0F800
G1 X21.106Y30.873Z0F800
G1 X19.833Y32.06Z0F800
G1 X19.679Y32.051Z0F800
G1 X19.557Y32.055Z0F800
G1 X19.46Y32.079Z0F800

; Color 1 picking sequence
G1 Z10 F500;         ; Raise brush to safe height
G0 X2 Y0 F1000;     ; Rapid move to brush cleaning position
G1 Z0 F500;         ; Lower brush for cleaning - controlled movement
G1 Z2 F500;         ; Raise brush slightly - controlled movement
G1 X22 Y0 Z8 F500;     ; Move across cleaning area - controlled movement
G1 Z8 F500;         ; Maintain brush height - controlled movement
G0 X41 Y0 F1200;    ; Rapid move to color 1 position
G1 Z0 F500;         ; Lower into color - controlled movement
G1 X35 Y1 F500;     ; Small movement in paint - controlled movement
G1 Z7 F500;         ; Raise from color - controlled movement
G1 X38 Y1 F500;     ; Movement in paint - controlled movement
G1 Z1 F500;         ; Lower slightly - controlled movement
G1 X27 Y10 Z8 F500;     ; Move in paint - controlled movement
G1 Z8 F500;         ; Raise brush - controlled movement
G1 F1000;           ; Set feed rate to 1000
G0 Z2.8F500
G0 X16.893Y32.312Z2.8F1000
G1 Z0F500
G1 X16.654Y32.239Z0F800
G1 X16.773Y32.425Z0F800
G1 X16.893Y32.312Z0F800
G0 Z2.8F500
G0 X16.176Y32.067Z2.8F1000
G1 Z0F500
G1 X16.296Y31.947Z0F800
G1 X16.057Z0F800
G1 X16.176Y32.067Z0F800
G0 Z2.8F500
G0 X15.779Y34.486Z2.8F1000
G1 Z0F500
G1 X15.695Z0F800
G1 X15.641Y34.499Z0F800
G1 X15.612Y34.53Z0F800
G1 X15.606Y34.58Z0F800
G1 X15.62Y34.65Z0F800
G1 X15.652Y34.742Z0F800
G1 X15.705Y34.816Z0F800
G1 X15.792Y34.869Z0F800
G1 X15.901Y34.9Z0F800
G1 X16.021Y34.91Z0F800
G1 X16.14Y34.899Z0F800
G1 X16.248Y34.866Z0F800
G1 X16.332Y34.813Z0F800
G1 X16.381Y34.739Z0F800
G1 X16.042Y34.529Z0F800
G1 X15.894Y34.501Z0F800
G1 X15.779Y34.486Z0F800
G0 Z2.8F500
G0 X18.153Y36.722Z2.8F1000
G1 Z0F500
G1 X18.027Y36.842Z0F800
G1 X18.079Y36.961Z0F800
G1 X18.206Y36.842Z0F800
G1 X18.153Y36.722Z0F800
G0 Z2.8F500
G0 X19.698Y38.99Z2.8F1000
G1 Z0F500
G1 X19.81Y39.11Z0F800
G1 X19.996Y38.99Z0F800
G1 X19.698Z0F800
G0 Z2.8F500
G0 X19.755Y39.229Z2.8F1000
G1 Z0F500
G1 X19.503Y39.242Z0F800
G1 X19.316Y39.277Z0F800
G1 X19.196Y39.327Z0F800
G1 X19.144Y39.388Z0F800
G1 X19.162Y39.454Z0F800
G1 X19.251Y39.519Z0F800
G1 X19.412Y39.576Z0F800
G1 X19.648Y39.621Z0F800
G1 X20.198Y39.749Z0F800
G1 X19.757Y40.949Z0F800
G1 X19.761Y41.096Z0F800
G1 X19.771Y41.209Z0F800
G1 X19.791Y41.29Z0F800
G1 X19.822Y41.341Z0F800
G1 X19.866Y41.364Z0F800
G1 X19.924Y41.36Z0F800
G1 X19.998Y41.33Z0F800
G1 X20.09Y41.277Z0F800
G1 X20.167Y40.98Z0F800
G1 X20.146Y40.88Z0F800
G1 X20.19Y40.819Z0F800
G1 X20.242Y40.801Z0F800
G1 X20.316Y40.789Z0F800
G1 X20.414Y40.783Z0F800
G1 X20.683Y40.78Z0F800
G1 X20.789Y40.776Z0F800
G1 X20.86Y40.767Z0F800
G1 X20.899Y40.75Z0F800
G1 X20.908Y40.722Z0F800
G1 X20.889Y40.681Z0F800
G1 X20.845Y40.625Z0F800
G1 X20.78Y40.551Z0F800
G1 X20.541Y39.522Z0F800
G1 X20.42Y39.372Z0F800
G1 X20.274Y39.283Z0F800
G1 X20.18Y39.257Z0F800
G1 X20.065Y39.24Z0F800
G1 X19.925Y39.232Z0F800
G1 X19.755Y39.229Z0F800
G0 Z2.8F500
G0 X20.273Y39.094Z2.8F1000
G1 Z0F500
G1 X20.292Y39.098Z0F800
G1 X20.327Y39.077Z0F800
G1 X20.38Y39.031Z0F800
G1 X20.45Y38.961Z0F800
G1 X20.538Y38.866Z0F800
G1 X20.641Y38.746Z0F800
G1 X20.679Y38.683Z0F800
G1 X20.654Y38.669Z0F800
G1 X20.566Y38.696Z0F800
G1 X20.308Y38.94Z0F800
G1 X20.281Y39.015Z0F800
G1 X20.269Y39.067Z0F800
G1 X20.273Y39.094Z0F800
G0 Z2.8F500
G0 X21.445Y38.589Z2.8F1000
G1 Z0F500
G1 X21.618Y38.7Z0F800
G1 X21.831Y38.742Z0F800
G1 X21.416Y38.342Z0F800
G1 X21.369Y38.392Z0F800
G1 X21.362Y38.454Z0F800
G1 X21.389Y38.521Z0F800
G1 X21.445Y38.589Z0F800
G0 Z2.8F500
G0 X22.436Y38.155Z2.8F1000
G1 Z0F500
G1 X22.622Y38.102Z0F800
G1 X22.325Y38.033Z0F800
G1 X22.436Y38.155Z0F800
G0 Z2.8F500
G0 X25.01Y39.233Z2.8F1000
G1 Z0F500
G1 X25.189Y39.348Z0F800
G1 X25.368Y39.301Z0F800
G1 X25.01Y39.233Z0F800
G0 Z2.8F500
G0 X24.853Y39.826Z2.8F1000
G1 Z0F500
G1 X24.957Y40.001Z0F800
G1 X25.058Y40.076Z0F800
G1 X25.137Y40.129Z0F800
G1 X25.192Y40.161Z0F800
G1 X25.225Y40.172Z0F800
G1 X25.235Y40.162Z0F800
G1 X25.223Y40.131Z0F800
G1 X25.188Y40.078Z0F800
G1 X25.129Y40.005Z0F800
G1 X24.853Y39.826Z0F800
G0 Z2.8F500
G0 X24.496Y40.423Z2.8F1000
G1 Z0F500
G1 X24.456Y40.602Z0F800
G1 X24.482Y40.68Z0F800
G1 X24.489Y40.734Z0F800
G1 X24.474Y40.763Z0F800
G1 X24.436Y40.767Z0F800
G1 X24.374Y40.746Z0F800
G1 X24.283Y40.698Z0F800
G1 X24.164Y40.624Z0F800
G1 X24.014Y40.523Z0F800
G1 X23.786Y40.427Z0F800
G1 X23.936Y40.818Z0F800
G1 X23.948Y40.927Z0F800
G1 X23.995Y40.986Z0F800
G1 X24.086Y40.998Z0F800
G1 X24.234Y40.971Z0F800
G1 X24.532Y41.017Z0F800
G1 X24.541Y41.084Z0F800
G1 X24.566Y41.124Z0F800
G1 X24.602Y41.14Z0F800
G1 X24.644Y41.133Z0F800
G1 X24.735Y41.057Z0F800
G1 X24.803Y40.91Z0F800
G1 X24.809Y40.738Z0F800
G1 X24.748Y40.581Z0F800
G1 X24.638Y40.467Z0F800
G1 X24.496Y40.423Z0F800
G0 Z2.8F500
G0 X26.421Y40.611Z2.8F1000
G1 Z0F500
G1 X26.389Y40.76Z0F800
G1 X26.396Y40.847Z0F800
G1 X26.445Y40.882Z0F800
G1 X26.54Y40.876Z0F800
G1 X26.741Y40.57Z0F800
G1 X26.731Y40.453Z0F800
G1 X26.705Y40.371Z0F800
G1 X26.666Y40.325Z0F800
G1 X26.619Y40.314Z0F800
G1 X26.566Y40.338Z0F800
G1 X26.513Y40.396Z0F800
G1 X26.464Y40.487Z0F800
G1 X26.421Y40.611Z0F800
G0 Z2.8F500
G0 X26.352Y42.337Z2.8F1000
G1 Z0F500
G1 X26.486Y42.347Z0F800
G1 X26.604Y42.375Z0F800
G1 X26.694Y42.42Z0F800
G1 X26.744Y42.482Z0F800
G1 X26.48Y43.375Z0F800
G1 X26.166Y43.233Z0F800
G1 X25.998Y43.105Z0F800
G1 X25.828Y43.062Z0F800
G1 X25.644Y43.104Z0F800
G1 X25.435Y43.232Z0F800
G1 X25.33Y43.307Z0F800
G1 X25.243Y43.359Z0F800
G1 X25.169Y43.388Z0F800
G1 X25.106Y43.394Z0F800
G1 X24.999Y43.334Z0F800
G1 X24.895Y43.176Z0F800
G1 X24.794Y42.91Z0F800
G1 X24.783Y42.669Z0F800
G1 X24.81Y42.563Z0F800
G1 X24.859Y42.47Z0F800
G1 X24.929Y42.39Z0F800
G1 X25.02Y42.327Z0F800
G1 X25.872Y42.473Z0F800
G1 X26.077Y42.369Z0F800
G1 X26.352Y42.337Z0F800
G0 Z2.8F500
G0 X30.453Y42.233Z2.8F1000
G1 Z0F500
G1 X30.489Y42.093Z0F800
G1 X30.525Y41.986Z0F800
G1 X30.567Y41.908Z0F800
G1 X30.622Y41.854Z0F800
G1 X30.697Y41.821Z0F800
G1 X30.799Y41.802Z0F800
G1 X30.936Y41.793Z0F800
G1 X31.115Y41.79Z0F800
G1 X31.609Y41.941Z0F800
G1 X31.707Y42.287Z0F800
G1 X31.772Y42.403Z0F800
G1 X31.749Y42.526Z0F800
G1 X31.699Y42.602Z0F800
G1 X31.62Y42.694Z0F800
G1 X31.51Y42.806Z0F800
G1 X31.367Y42.942Z0F800
G1 X30.759Y43.407Z0F800
G1 X30.497Y43.039Z0F800
G1 X30.453Y42.233Z0F800

; Color 1 picking sequence
G1 Z10 F500;         ; Raise brush to safe height
G0 X2 Y0 F1000;     ; Rapid move to brush cleaning position
G1 Z0 F500;         ; Lower brush for cleaning - controlled movement
G1 Z2 F500;         ; Raise brush slightly - controlled movement
G1 X22 Y0 Z8 F500;     ; Move across cleaning area - controlled movement
G1 Z8 F500;         ; Maintain brush height - controlled movement
G0 X41 Y0 F1200;    ; Rapid move to color 1 position
G1 Z0 F500;         ; Lower into color - controlled movement
G1 X35 Y1 F500;     ; Small movement in paint - controlled movement
G1 Z7 F500;         ; Raise from color - controlled movement
G1 X38 Y1 F500;     ; Movement in paint - controlled movement
G1 Z1 F500;         ; Lower slightly - controlled movement
G1 X27 Y10 Z8 F500;     ; Move in paint - controlled movement
G1 Z8 F500;         ; Raise brush - controlled movement
G1 F1000;           ; Set feed rate to 1000
G0 Z2.8F500
G0 X30.642Y41.332Z2.8F1000
G1 Z0F500
G1 X30.395Y41.297Z0F800
G1 X30.232Y41.245Z0F800
G1 X30.147Y41.166Z0F800
G1 X30.083Y41.047Z0F800
G1 X30.043Y40.901Z0F800
G1 X30.025Y40.739Z0F800
G1 X30.031Y40.575Z0F800
G1 X30.061Y40.42Z0F800
G1 X30.116Y40.288Z0F800
G1 X30.195Y40.19Z0F800
G1 X30.405Y39.787Z0F800
G1 X30.438Y39.66Z0F800
G1 X30.506Y39.585Z0F800
G1 X30.621Y39.552Z0F800
G1 X30.8Z0F800
G1 X30.956Y39.579Z0F800
G1 X31.099Y39.634Z0F800
G1 X31.23Y39.718Z0F800
G1 X31.348Y39.831Z0F800
G1 X31.455Y39.974Z0F800
G1 X31.55Y40.147Z0F800
G1 X31.633Y40.35Z0F800
G1 X31.705Y40.583Z0F800
G1 X31.942Y41.207Z0F800
G1 X31.949Y41.237Z0F800
G1 X31.92Y41.264Z0F800
G1 X31.86Y41.287Z0F800
G1 X31.774Y41.307Z0F800
G1 X31.538Y41.336Z0F800
G1 X31.248Y41.351Z0F800
G1 X30.938Z0F800
G1 X30.642Y41.332Z0F800
G0 Z2.8F500
G0 X29.252Y38.216Z2.8F1000
G1 Z0F500
G1 X28.986Y38.267Z0F800
G1 X28.873Y38.264Z0F800
G1 X28.776Y38.243Z0F800
G1 X28.699Y38.204Z0F800
G1 X28.645Y38.145Z0F800
G1 X29.066Y37.519Z0F800
G1 X29.226Y37.362Z0F800
G1 X29.35Y37.245Z0F800
G1 X29.446Y37.167Z0F800
G1 X29.52Y37.124Z0F800
G1 X29.579Y37.114Z0F800
G1 X29.63Y37.134Z0F800
G1 X29.68Y37.182Z0F800
G1 X29.736Y37.253Z0F800
G1 X29.819Y37.384Z0F800
G1 X29.872Y37.508Z0F800
G1 X29.894Y37.624Z0F800
G1 X29.886Y37.733Z0F800
G1 X29.848Y37.834Z0F800
G1 X29.78Y37.927Z0F800
G1 X29.681Y38.014Z0F800
G1 X29.552Y38.092Z0F800
G1 X29.252Y38.216Z0F800
G0 Z2.8F500
G0 X25.635Y35.477Z2.8F1000
G1 Z0F500
G1 X25.429Y35.528Z0F800
G1 X25.283Y35.511Z0F800
G1 X25.183Y35.451Z0F800
G1 X25.115Y35.332Z0F800
G1 X25.066Y35.14Z0F800
G1 X24.613Y34.573Z0F800
G1 X24.43Y34.47Z0F800
G1 X24.307Y34.353Z0F800
G1 X24.234Y34.209Z0F800
G1 X24.198Y34.022Z0F800
G1 X24.194Y33.882Z0F800
G1 X24.216Y33.767Z0F800
G1 X24.267Y33.677Z0F800
G1 X24.352Y33.608Z0F800
G1 X24.475Y33.559Z0F800
G1 X24.64Y33.526Z0F800
G1 X24.851Y33.507Z0F800
G1 X25.112Y33.501Z0F800
G1 X25.447Y33.67Z0F800
G1 X25.302Y34.267Z0F800
G1 X25.277Y34.404Z0F800
G1 X25.264Y34.508Z0F800
G1 Y34.584Z0F800
G1 X25.283Y34.635Z0F800
G1 X25.322Y34.667Z0F800
G1 X25.385Y34.685Z0F800
G1 X25.474Y34.692Z0F800
G1 X25.593Z0F800
G1 X25.965Y34.88Z0F800
G1 X25.922Y35.13Z0F800
G1 X25.806Y35.336Z0F800
G1 X25.635Y35.477Z0F800
G0 Z2.8F500
G0 X23.091Y35.096Z2.8F1000
G1 Z0F500
G1 X23.087Y35.062Z0F800
G1 X23.052Y35.032Z0F800
G1 X22.988Y35.008Z0F800
G1 X22.894Y34.991Z0F800
G1 X22.772Y34.983Z0F800
G1 X22.026Y34.923Z0F800
G1 X22.294Y35.167Z0F800
G1 X22.911Y35.217Z0F800
G1 X23.004Y35.175Z0F800
G1 X23.063Y35.135Z0F800
G1 X23.091Y35.096Z0F800
G0 Z2.8F500
G0 X21.716Y30.388Z2.8F1000
G1 Z0F500
G1 X21.751Y30.361Z0F800
G1 X21.734Y30.306Z0F800
G1 X21.669Y30.218Z0F800
G1 X21.413Y30.107Z0F800
G1 X21.351Y30.191Z0F800
G1 X21.381Y30.286Z0F800
G1 X21.48Y30.363Z0F800
G1 X21.629Y30.395Z0F800
G1 X21.716Y30.388Z0F800
G0 Z2.8F500
G0 X19.824Y29.389Z2.8F1000
G1 Z0F500
G1 X19.92Y29.079Z0F800
G1 X19.842Y29.031Z0F800
G1 X19.747Y29.017Z0F800
G1 X19.641Y29.031Z0F800
G1 X19.535Y29.069Z0F800
G1 X19.437Y29.128Z0F800
G1 X19.356Y29.203Z0F800
G1 X19.3Y29.29Z0F800
G1 X19.28Y29.385Z0F800
G1 X19.291Y29.458Z0F800
G1 X19.323Y29.51Z0F800
G1 X19.373Y29.542Z0F800
G1 X19.44Y29.553Z0F800
G1 X19.613Y29.512Z0F800
G1 X19.824Y29.389Z0F800
G0 Z2.8F500
G0 X26.486Y29.593Z2.8F1000
G1 Z0F500
G1 X26.496Y29.648Z0F800
G1 X26.562Y29.739Z0F800
G1 X26.871Y29.918Z0F800
G1 X26.963Y29.739Z0F800
G1 X26.654Y29.56Z0F800
G1 X26.537Y29.567Z0F800
G1 X26.486Y29.593Z0F800
G0 Z2.8F500
G0 X27.545Y29.134Z2.8F1000
G1 Z0F500
G1 X27.855Y29.633Z0F800
G1 X28.561Y29.498Z0F800
G1 X28.731Y29.466Z0F800
G1 X28.876Y29.428Z0F800
G1 X28.996Y29.383Z0F800
G1 X29.088Y29.335Z0F800
G1 X29.151Y29.283Z0F800
G1 X29.182Y29.228Z0F800
G1 Y29.173Z0F800
G1 X29.144Y29.118Z0F800
G1 X27.545Y29.134Z0F800
G0 Z2.8F500
G0 X27.694Y28.625Z2.8F1000
G1 Z0F500
G1 X28.232Y28.742Z0F800
G1 X28.83Y28.663Z0F800
G1 X28.792Y28.481Z0F800
G1 X28.677Y28.351Z0F800
G1 X28.487Y28.273Z0F800
G1 X28.22Y28.247Z0F800
G1 X27.755Y28.356Z0F800
G1 X27.694Y28.625Z0F800
G0 Z2.8F500
G0 X31.48Y29.038Z2.8F1000
G1 Z0F500
G1 X31.575Y28.907Z0F800
G1 X31.737Y28.808Z0F800
G1 X31.965Y28.746Z0F800
G1 X32.256Y28.724Z0F800
G1 X32.419Z0F800
G1 X32.544Y28.732Z0F800
G1 X32.635Y28.747Z0F800
G1 X32.697Y28.775Z0F800
G1 X32.737Y28.819Z0F800
G1 X32.758Y28.884Z0F800
G1 X32.767Y28.972Z0F800
G1 Y29.088Z0F800
G1 X32.719Y29.429Z0F800
G1 X32.595Y29.777Z0F800
G1 X32.518Y29.927Z0F800
G1 X32.436Y30.048Z0F800
G1 X32.355Y30.128Z0F800
G1 X32.279Y30.157Z0F800
G1 X31.805Y29.808Z0F800
G1 X31.615Y29.587Z0F800
G1 X31.498Y29.382Z0F800
G1 X31.454Y29.198Z0F800
G1 X31.48Y29.038Z0F800

; Color 1 picking sequence
G1 Z10 F500;         ; Raise brush to safe height
G0 X2 Y0 F1000;     ; Rapid move to brush cleaning position
G1 Z0 F500;         ; Lower brush for cleaning - controlled movement
G1 Z2 F500;         ; Raise brush slightly - controlled movement
G1 X22 Y0 Z8 F500;     ; Move across cleaning area - controlled movement
G1 Z8 F500;         ; Maintain brush height - controlled movement
G0 X41 Y0 F1200;    ; Rapid move to color 1 position
G1 Z0 F500;         ; Lower into color - controlled movement
G1 X35 Y1 F500;     ; Small movement in paint - controlled movement
G1 Z7 F500;         ; Raise from color - controlled movement
G1 X38 Y1 F500;     ; Movement in paint - controlled movement
G1 Z1 F500;         ; Lower slightly - controlled movement
G1 X27 Y10 Z8 F500;     ; Move in paint - controlled movement
G1 Z8 F500;         ; Raise brush - controlled movement
G1 F1000;           ; Set feed rate to 1000
G0 Z2.8F500
G0 X50.398Y34.177Z2.8F1000
G1 Z0F500
G1 X49.968Y35.409Z0F800
G1 X49.802Y35.618Z0F800
G1 X50.398Y34.177Z0F800
G0 Z2.8F500
G0 X49.682Y35.984Z2.8F1000
G1 Z0F500
G1 X49.673Y36.212Z0F800
G1 X49.61Y36.056Z0F800
G1 X49.682Y35.984Z0F800
G0 Z2.8F500
G0 X49.435Y36.29Z2.8F1000
G1 Z0F500
G1 X49.465Y36.343Z0F800
G1 X49.502Y36.446Z0F800
G1 X49.541Y36.603Z0F800
G1 X49.568Y37.033Z0F800
G1 X49.437Y36.707Z0F800
G1 X49.408Y36.54Z0F800
G1 X49.396Y36.412Z0F800
G1 Y36.326Z0F800
G1 X49.411Y36.285Z0F800
G1 X49.435Y36.29Z0F800
G0 Z2.8F500
G0 X49.274Y36.9Z2.8F1000
G1 Z0F500
G1 X49.348Y37.166Z0F800
G1 Y37.302Z0F800
G1 Y37.411Z0F800
G1 X49.338Y37.495Z0F800
G1 X49.323Y37.555Z0F800
G1 X49.271Y37.613Z0F800
G1 X49.183Y37.601Z0F800
G1 X48.885Y37.797Z0F800
G1 X48.765Y37.661Z0F800
G1 X49.274Y36.9Z0F800
G0 Z2.8F500
G0 X48.704Y38.211Z2.8F1000
G1 Z0F500
G1 X48.717Y38.23Z0F800
G1 X48.714Y38.291Z0F800
G1 X48.697Y38.393Z0F800
G1 X48.531Y38.871Z0F800
G1 X48.425Y39.026Z0F800
G1 X48.369Y39.262Z0F800
G1 X48.372Y39.509Z0F800
G1 X48.442Y39.693Z0F800
G1 X48.179Y39.838Z0F800
G1 X48.124Y39.766Z0F800
G1 X48.083Y39.75Z0F800
G1 X48.048Y39.793Z0F800
G1 X48.015Y39.898Z0F800
G1 X47.983Y40.017Z0F800
G1 X47.964Y40.055Z0F800
G1 X47.953Y40.012Z0F800
G1 X47.944Y39.886Z0F800
G1 X48.354Y38.811Z0F800
G1 X48.466Y38.593Z0F800
G1 X48.556Y38.425Z0F800
G1 X48.625Y38.307Z0F800
G1 X48.673Y38.236Z0F800
G1 X48.704Y38.211Z0F800
G0 Z2.8F500
G0 X48.707Y39.077Z2.8F1000
G1 Z0F500
G1 X48.72Y39.159Z0F800
G1 Y39.332Z0F800
G1 X48.712Y39.47Z0F800
G1 X48.704Y39.574Z0F800
G1 X48.692Y39.646Z0F800
G1 X48.677Y39.685Z0F800
G1 X48.658Y39.692Z0F800
G1 X48.635Y39.67Z0F800
G1 X48.606Y39.617Z0F800
G1 X48.572Y39.535Z0F800
G1 X48.62Y39.161Z0F800
G1 X48.674Y39.079Z0F800
G1 X48.707Z0F800
G0 Z2.8F500
G0 X47.811Y40.138Z2.8F1000
G1 Z0F500
G1 X47.857Y40.155Z0F800
G1 X47.895Y40.21Z0F800
G1 X47.92Y40.304Z0F800
G1 X47.93Y40.437Z0F800
G1 X47.691Y40.709Z0F800
G1 X47.194Y41.733Z0F800
G1 X47.626Y40.452Z0F800
G1 X47.664Y40.316Z0F800
G1 X47.711Y40.219Z0F800
G1 X47.761Y40.159Z0F800
G1 X47.811Y40.138Z0F800
G0 Z2.8F500
G0 X47.09Y42.034Z2.8F1000
G1 Z0F500
G1 X46.975Y42.333Z0F800
G0 Z2.8F500
G0 Z2.8F1000
G1 Z0F500
G1 X47.09Y42.034Z0F800
G0 Z2.8F500
G0 Z2.8F1000
G1 Z0F500
G1 X46.975Y42.094Z0F800
G0 Z2.8F500
G0 Z2.8F1000
G1 Z0F500
G1 X46.859Y42.392Z0F800
G0 Z2.8F500
G0 X51.929Y40.781Z2.8F1000
G1 Z0F500
G1 X51.981Y40.662Z0F800
G1 X52.108Y40.781Z0F800
G1 X52.055Y40.9Z0F800
G1 X51.929Y40.781Z0F800
G0 Z2.8F500
G0 X53.54Y40.475Z2.8F1000
G1 Z0F500
G1 X53.779Y40.549Z0F800
G1 X53.66Y40.662Z0F800
G1 X53.54Y40.475Z0F800
G0 Z2.8F500
G0 X54.216Y40.99Z2.8F1000
G1 Z0F500
G1 Y41.288Z0F800
G1 X54.156Y41.139Z0F800
G1 X54.216Y40.99Z0F800
G0 Z2.8F500
G0 X54.694Y40.572Z2.8F1000
G1 Z0F500
G1 X54.633Y40.423Z0F800
G1 X54.694Y40.274Z0F800
G1 Y40.572Z0F800
G0 Z2.8F500
G0 X54.806Y40.032Z2.8F1000
G1 Z0F500
G1 X54.743Y39.876Z0F800
G1 X54.815Y39.804Z0F800
G1 X54.806Y40.032Z0F800
G0 Z2.8F500
G0 X55.164Z2.8F1000
G1 Z0F500
G1 X55.101Y39.876Z0F800
G1 X55.174Y39.804Z0F800
G1 X55.164Y40.032Z0F800
G0 Z2.8F500
G0 X55.59Y39.747Z2.8F1000
G1 Z0F500
G1 X55.45Y39.351Z0F800
G1 X55.462Y39.228Z0F800
G1 X55.51Y39.164Z0F800
G1 X55.61Y39.152Z0F800
G1 X55.778Y39.182Z0F800
G1 X55.932Y39.223Z0F800
G1 X56.047Y39.263Z0F800
G1 X56.125Y39.306Z0F800
G1 X56.165Y39.354Z0F800
G1 X56.171Y39.41Z0F800
G1 X56.142Y39.477Z0F800
G1 X56.08Y39.556Z0F800
G1 X55.986Y39.652Z0F800
G1 X55.59Y39.747Z0F800
G0 Z2.8F500
G0 X56.421Y40.124Z2.8F1000
G1 Z0F500
G1 X56.59Y40.662Z0F800
G1 X56.653Y40.916Z0F800
G1 X56.702Y41.22Z0F800
G1 X56.737Y41.551Z0F800
G1 X56.756Y41.884Z0F800
G1 X56.759Y42.193Z0F800
G1 X56.745Y42.455Z0F800
G1 X56.713Y42.646Z0F800
G1 X56.662Y42.739Z0F800
G1 X56.405Y41.454Z0F800
G1 X56.006Y41.323Z0F800
G1 X55.696Y41.32Z0F800
G1 X55.468Y41.27Z0F800
G1 X55.402Y41.234Z0F800
G1 X55.376Y41.194Z0F800
G1 X55.396Y41.152Z0F800
G1 X55.47Y41.112Z0F800
G1 X56.017Y41.076Z0F800
G1 X56.142Y41.083Z0F800
G1 X56.237Z0F800
G1 X56.306Y41.065Z0F800
G1 X56.354Y41.031Z0F800
G1 X56.384Y40.974Z0F800
G1 X56.401Y40.889Z0F800
G1 X56.409Y40.77Z0F800
G1 X56.421Y40.124Z0F800
G0 Z2.8F500
G0 X56.763Y40.542Z2.8F1000
G1 Z0F500
G1 X57.002Z0F800
G1 X56.883Y40.662Z0F800
G1 X56.763Y40.542Z0F800

; Color 1 picking sequence
G1 Z10 F500;         ; Raise brush to safe height
G0 X2 Y0 F1000;     ; Rapid move to brush cleaning position
G1 Z0 F500;         ; Lower brush for cleaning - controlled movement
G1 Z2 F500;         ; Raise brush slightly - controlled movement
G1 X22 Y0 Z8 F500;     ; Move across cleaning area - controlled movement
G1 Z8 F500;         ; Maintain brush height - controlled movement
G0 X41 Y0 F1200;    ; Rapid move to color 1 position
G1 Z0 F500;         ; Lower into color - controlled movement
G1 X35 Y1 F500;     ; Small movement in paint - controlled movement
G1 Z7 F500;         ; Raise from color - controlled movement
G1 X38 Y1 F500;     ; Movement in paint - controlled movement
G1 Z1 F500;         ; Lower slightly - controlled movement
G1 X27 Y10 Z8 F500;     ; Move in paint - controlled movement
G1 Z8 F500;         ; Raise brush - controlled movement
G1 F1000;           ; Set feed rate to 1000
G0 Z2.8F500
G0 X58.692Y40.9Z2.8F1000
G1 Z0F500
G1 X58.752Y41.049Z0F800
G1 Y40.751Z0F800
G1 X58.692Y40.9Z0F800
G0 Z2.8F500
G0 X58.914Y40.93Z2.8F1000
G1 Z0F500
G1 X58.92Y41.056Z0F800
G1 X58.938Y41.111Z0F800
G1 X58.974Y41.097Z0F800
G1 X59.031Y41.02Z0F800
G1 X59.149Y40.751Z0F800
G1 X58.914Y40.93Z0F800
G0 Z2.8F500
G0 X58.517Y41.288Z2.8F1000
G1 Z0F500
G1 X58.462Y41.497Z0F800
G1 X58.517Y41.706Z0F800
G1 Y41.288Z0F800
G0 Z2.8F500
G0 X58.756Y41.768Z2.8F1000
G1 Z0F500
G1 X58.696Y41.915Z0F800
G1 X58.752Y42.126Z0F800
G1 X58.756Y41.768Z0F800
G0 Z2.8F500
G0 X58.993Y42.31Z2.8F1000
G1 Z0F500
G1 X58.921Y42.382Z0F800
G1 X58.984Y42.539Z0F800
G1 X58.993Y42.31Z0F800
G0 Z2.8F500
G0 X58.972Y43.765Z2.8F1000
G1 Z0F500
G1 X59.151Y44.004Z0F800
G1 X58.972Y44.243Z0F800
G1 X58.793Y44.004Z0F800
G1 X58.972Y43.765Z0F800
G0 Z2.8F500
G0 X58.554Y44.347Z2.8F1000
G1 Z0F500
G1 X58.403Y45.078Z0F800
G1 X58.286Y44.781Z0F800
G1 X58.554Y44.347Z0F800
G0 Z2.8F500
G0 X59.428Y45.013Z2.8F1000
G1 Z0F500
G1 X59.455Z0F800
G1 X59.507Y45.019Z0F800
G1 X59.584Y45.036Z0F800
G1 X59.688Y45.062Z0F800
G1 X59.812Y45.105Z0F800
G1 X59.912Y45.161Z0F800
G1 X59.986Y45.226Z0F800
G1 X60.031Y45.295Z0F800
G1 X60.047Y45.363Z0F800
G1 X60.032Y45.428Z0F800
G1 X59.982Y45.483Z0F800
G1 X59.897Y45.526Z0F800
G1 X59.539Y45.127Z0F800
G1 X59.441Y45.047Z0F800
G1 X59.428Y45.013Z0F800
G0 Z2.8F500
G0 X60.225Y45.085Z2.8F1000
G1 Z0F500
G1 X60.499Y44.69Z0F800
G1 X60.52Y44.626Z0F800
G1 X60.54Y44.65Z0F800
G1 X60.557Y44.753Z0F800
G1 X60.567Y44.929Z0F800
G1 X60.523Y45.436Z0F800
G1 X60.225Y45.085Z0F800
G0 Z2.8F500
G0 X62.374Y45.788Z2.8F1000
G1 Z0F500
G1 X62.493Y45.735Z0F800
G1 X62.613Y45.861Z0F800
G1 X62.493Y45.914Z0F800
G1 X62.374Y45.788Z0F800
G0 Z2.8F500
G0 X63.376Y46.072Z2.8F1000
G1 Z0F500
G1 X63.488Y45.632Z0F800
G1 X63.476Y46.25Z0F800
G1 X63.44Y46.392Z0F800
G1 X63.412Y46.491Z0F800
G1 X63.393Y46.545Z0F800
G1 X63.381Y46.552Z0F800
G1 X63.374Y46.511Z0F800
G1 Y46.418Z0F800
G1 Y46.072Z0F800
G0 Z2.8F500
G0 X65.298Y45.317Z2.8F1000
G1 Z0F500
G1 X65.351Y45.198Z0F800
G1 X65.477Y45.317Z0F800
G1 X65.425Y45.436Z0F800
G1 X65.298Y45.317Z0F800
G0 Z2.8F500
G0 X64.595Y44.688Z2.8F1000
G1 Z0F500
G1 X64.532Y44.531Z0F800
G1 X64.604Y44.459Z0F800
G1 X64.595Y44.688Z0F800
G0 Z2.8F500
G0 X65.06Y42.973Z2.8F1000
G1 Z0F500
G1 X65.239Y42.857Z0F800
G1 X64.881Y42.926Z0F800
G1 X65.06Y42.973Z0F800
G0 Z2.8F500
G0 X63.16Y42.768Z2.8F1000
G1 Z0F500
G1 X63.136Y42.806Z0F800
G1 X63.104Y42.765Z0F800
G1 X63.054Y42.644Z0F800
G1 X63.028Y42.355Z0F800
G1 X63.105Y42.324Z0F800
G1 X63.165Y42.378Z0F800
G1 X63.196Y42.494Z0F800
G1 X63.187Y42.652Z0F800
G1 X63.16Y42.768Z0F800
G0 Z2.8F500
G0 X62.692Y43.139Z2.8F1000
G1 Z0F500
G1 Y43.437Z0F800
G1 X62.631Y43.288Z0F800
G1 X62.692Y43.139Z0F800
G0 Z2.8F500
G0 X62.404Y43.109Z2.8F1000
G1 Z0F500
G1 X62.409Y42.945Z0F800
G1 X62.421Y42.851Z0F800
G1 X62.438Y42.834Z0F800
G1 X62.458Y42.901Z0F800
G1 Y43.379Z0F800
G1 X62.404Y43.109Z0F800
G0 Z2.8F500
G0 X61.61Y42.897Z2.8F1000
G1 Z0F500
G1 X61.62Y42.668Z0F800
G1 X61.548Y42.741Z0F800
G1 X61.61Y42.897Z0F800
G0 Z2.8F500
G0 X61.287Y41.855Z2.8F1000
G1 Z0F500
G1 X62.075Y41.648Z0F800
G1 X61.299Y41.425Z0F800
G1 X61.227Y41.666Z0F800
G1 X61.287Y41.855Z0F800
G0 Z2.8F500
G0 X61.065Y41.587Z2.8F1000
G1 Z0F500
G1 X61.126Y41.541Z0F800
G1 X61.202Y41.463Z0F800
G1 X61.295Y41.354Z0F800
G1 X61.42Y41.211Z0F800
G1 X61.52Y41.157Z0F800
G1 X61.637Y41.185Z0F800
G1 X61.812Y41.291Z0F800
G1 X62.507Y41.199Z0F800
G1 X62.664Y41.171Z0F800
G1 X62.77Y41.186Z0F800
G1 X62.838Y41.25Z0F800
G1 X62.884Y41.369Z0F800
G1 X62.84Y41.616Z0F800
G1 X62.544Y41.564Z0F800
G1 X62.177Y41.841Z0F800
G1 X62.096Y42.019Z0F800
G1 X62.002Y42.117Z0F800
G1 X61.868Y42.152Z0F800
G1 X61.664Y42.141Z0F800
G1 X61.33Y42.244Z0F800
G1 X62.444Y42.482Z0F800
G1 X62.27Y42.571Z0F800
G1 X62.136Y42.58Z0F800
G1 X62.075Y42.615Z0F800
G1 X62.08Y42.691Z0F800
G1 X62.142Y42.824Z0F800
G1 X62.222Y43.365Z0F800
G1 X62.214Y43.484Z0F800
G1 X62.237Y43.591Z0F800
G1 X62.284Y43.681Z0F800
G1 X62.352Y43.752Z0F800
G1 X62.436Y43.799Z0F800
G1 X62.53Y43.819Z0F800
G1 X62.631Y43.809Z0F800
G1 X62.734Y43.764Z0F800
G1 X62.795Y43.683Z0F800
G1 X62.838Y43.541Z0F800
G1 X62.863Y43.36Z0F800
G1 X62.869Y43.16Z0F800
G1 X62.858Y42.962Z0F800
G1 X62.83Y42.787Z0F800
G1 X62.784Y42.657Z0F800
G1 X62.722Y42.591Z0F800
G1 X62.613Y42.36Z0F800
G1 X62.62Y42.272Z0F800
G1 X62.646Y42.249Z0F800
G1 X62.699Y42.29Z0F800
G1 X62.788Y42.399Z0F800
G1 X63.197Y43.665Z0F800
G1 X63.185Y43.838Z0F800
G1 Y43.983Z0F800
G1 X63.192Y44.103Z0F800
G1 X63.211Y44.199Z0F800
G1 X63.288Y44.332Z0F800
G1 X63.418Y44.399Z0F800
G1 X63.53Y44.43Z0F800
G1 X63.568Y44.448Z0F800
G1 X63.53Y44.459Z0F800
G1 X63.418Y44.468Z0F800
G1 X63.271Y44.514Z0F800
G1 X63.214Y44.6Z0F800
G1 X63.22Y44.645Z0F800
G1 X63.251Y44.683Z0F800
G1 X63.307Y44.71Z0F800
G1 X63.388Y44.72Z0F800
G1 X63.475Y44.736Z0F800
G1 X63.532Y44.779Z0F800
G1 X63.56Y44.842Z0F800
G1 Y44.915Z0F800
G1 X63.538Y44.992Z0F800
G1 X63.489Y45.064Z0F800
G1 X63.417Y45.125Z0F800
G1 X63.322Y45.165Z0F800
G1 X63.224Y46.274Z0F800
G1 X63.188Y46.358Z0F800
G1 X63.161Y46.412Z0F800
G1 X63.14Y46.436Z0F800
G1 X63.124Y46.425Z0F800
G1 X63.113Y46.38Z0F800
G1 X63.105Y46.297Z0F800
G1 X63.101Y46.174Z0F800
G1 X63.098Y46.011Z0F800
G1 X62.927Y45.495Z0F800
G1 X62.941Y45.563Z0F800
G1 X62.929Y45.612Z0F800
G1 X62.894Y45.642Z0F800
G1 X62.843Y45.652Z0F800
G1 X62.714Y45.613Z0F800
G1 X62.586Y45.496Z0F800
G1 X61.57Y45.355Z0F800
G1 X61.415Y45.27Z0F800
G1 X61.295Y45.207Z0F800
G1 X61.205Y45.168Z0F800
G1 X61.14Y45.15Z0F800
G1 X61.071Y45.177Z0F800
G1 X61.052Y45.283Z0F800
G1 X61.045Y45.387Z0F800
G1 X61.029Y45.418Z0F800
G1 X60.999Y45.375Z0F800
G1 X60.949Y45.257Z0F800
G1 X60.868Y45.018Z0F800
G1 X60.792Y45.257Z0F800
G1 X60.725Y44.959Z0F800
G1 Y44.819Z0F800
G1 Y44.711Z0F800
G1 X60.733Y44.633Z0F800
G1 X60.743Y44.584Z0F800
G1 X60.757Y44.564Z0F800
G1 X60.776Y44.571Z0F800
G1 X60.799Y44.603Z0F800
G1 X60.886Y44.78Z0F800
G1 X60.915Y44.813Z0F800
G1 X60.921Y44.755Z0F800
G1 X60.909Y44.602Z0F800
G1 X60.881Y44.467Z0F800
G1 X60.827Y44.365Z0F800
G1 X60.757Y44.297Z0F800
G1 X60.677Y44.264Z0F800
G1 X60.593Y44.268Z0F800
G1 X60.515Y44.31Z0F800
G1 X60.448Y44.391Z0F800
G1 X60.401Y44.513Z0F800
G1 X60.075Y44.78Z0F800
G1 X59.774Y44.621Z0F800
G1 X59.735Y44.544Z0F800
G1 X59.682Y44.498Z0F800
G1 X59.621Y44.481Z0F800
G1 X59.555Y44.492Z0F800
G1 X59.429Y44.591Z0F800
G1 X59.34Y44.78Z0F800
G1 X59.303Y44.892Z0F800
G1 X59.257Y44.978Z0F800
G1 X59.206Y45.038Z0F800
G1 X59.155Y45.07Z0F800
G1 X59.107Y45.073Z0F800
G1 X59.068Y45.044Z0F800
G1 X59.041Y44.982Z0F800
G1 X59.031Y44.886Z0F800
G1 X58.673Y44.657Z0F800
G1 X58.685Y44.586Z0F800
G1 X58.716Y44.535Z0F800
G1 X58.765Y44.501Z0F800
G1 X58.826Y44.487Z0F800
G1 X58.973Y44.517Z0F800
G1 X59.127Y44.625Z0F800
G1 X59.196Y44.665Z0F800
G1 X59.24Y44.609Z0F800
G1 X59.254Y44.54Z0F800
G1 X59.263Y44.441Z0F800
G1 X59.268Y44.311Z0F800
G1 Y44.147Z0F800
G1 Y43.946Z0F800
G1 X59.263Y43.794Z0F800
G1 X59.25Y43.684Z0F800
G1 X59.223Y43.61Z0F800
G1 X59.181Y43.563Z0F800
G1 X59.12Y43.538Z0F800
G1 X59.034Y43.528Z0F800
G1 X58.922Z0F800
G1 X58.369Y43.556Z0F800
G1 X58.329Y43.447Z0F800
G1 X58.287Y43.367Z0F800
G1 X58.243Y43.317Z0F800
G1 X58.198Y43.298Z0F800
G1 X58.155Y43.309Z0F800
G1 X58.113Y43.351Z0F800
G1 X58.075Y43.423Z0F800
G1 X58.042Y43.526Z0F800
G1 X57.964Y43.678Z0F800
G1 X57.856Y43.759Z0F800
G1 X57.804Y43.768Z0F800
G1 X57.76Y43.754Z0F800
G1 X57.73Y43.713Z0F800
G1 X57.718Y43.646Z0F800
G1 X56.75Y43.526Z0F800
G1 X56.58Y43.885Z0F800
G1 X56.405Y43.452Z0F800
G1 Y43.328Z0F800
G1 X56.411Y43.233Z0F800
G1 X56.421Y43.166Z0F800
G1 X56.437Y43.123Z0F800
G1 X56.491Y43.107Z0F800
G1 X56.584Y43.168Z0F800
G1 X57.193Y43.24Z0F800
G1 X57.209Y41.557Z0F800
G1 X57.273Y42.78Z0F800
G1 X57.851Y42.93Z0F800
G1 X58.013Z0F800
G1 X58.143Y42.921Z0F800
G1 X58.245Y42.909Z0F800
G1 X58.321Y42.889Z0F800
G1 X58.409Y42.825Z0F800
G1 X58.433Y42.721Z0F800
G1 X58.427Y42.618Z0F800
G1 X58.409Y42.58Z0F800
G1 X58.37Y42.605Z0F800
G1 X58.304Y42.691Z0F800
G1 X57.708Y42.571Z0F800
G1 X57.516Y42.56Z0F800
G1 X57.412Y42.501Z0F800
G1 X57.384Y42.442Z0F800
G1 X57.369Y42.358Z0F800
G1 X57.362Y42.243Z0F800
G1 Y42.094Z0F800
G1 Y41.959Z0F800
G1 X57.369Y41.852Z0F800
G1 X57.383Y41.768Z0F800
G1 X57.405Y41.706Z0F800
G1 X57.478Y41.635Z0F800
G1 X57.599Y41.616Z0F800
G1 X57.838Y41.378Z0F800
G1 X57.613Y41.139Z0F800
G1 X57.5Y41.128Z0F800
G1 X57.403Y41.094Z0F800
G1 X57.323Y41.04Z0F800
G1 X57.261Y40.966Z0F800
G1 X57.218Y40.873Z0F800
G1 X57.194Y40.763Z0F800
G1 X57.191Y40.637Z0F800
G1 X57.209Y40.496Z0F800
G1 X57.275Y40.152Z0F800
G1 X57.559Y40.712Z0F800
G1 X57.837Y40.581Z0F800
G1 Y39.886Z0F800
G1 X58.076Y41.378Z0F800
G1 X58.196Y41.616Z0F800
G1 X58.244Y41.597Z0F800
G1 X58.28Y41.547Z0F800
G1 X58.303Y41.474Z0F800
G1 X58.313Y41.389Z0F800
G1 X58.292Y41.22Z0F800
G1 X58.214Y41.119Z0F800
G1 X57.964Y40.005Z0F800
G1 X58.237Y40.664Z0F800
G1 X58.289Y40.779Z0F800
G1 X58.331Y40.856Z0F800
G1 X58.366Y40.898Z0F800
G1 X58.397Y40.907Z0F800
G1 X58.428Y40.885Z0F800
G1 X58.46Y40.834Z0F800
G1 X58.497Y40.757Z0F800
G1 X58.626Y40.585Z0F800
G1 X58.8Y40.484Z0F800
G1 X58.889Y40.465Z0F800
G1 X58.973Y40.469Z0F800
G1 X59.044Y40.498Z0F800
G1 X59.099Y40.555Z0F800
G1 X59.352Y40.625Z0F800
G1 X59.446Y40.972Z0F800
G1 X59.544Y41.097Z0F800
G1 X59.615Y41.137Z0F800
G1 X59.687Y41.092Z0F800
G1 X59.891Y40.835Z0F800
G1 X59.954Y40.789Z0F800
G1 X60.001Y40.822Z0F800
G1 X60.05Y40.93Z0F800
G1 X60.101Y41.026Z0F800
G1 X60.164Y41.092Z0F800
G1 X60.232Y41.126Z0F800
G1 X60.301Y41.132Z0F800
G1 X60.366Y41.108Z0F800
G1 X60.42Y41.056Z0F800
G1 X60.459Y40.976Z0F800
G1 X60.478Y40.87Z0F800
G1 X60.487Y40.734Z0F800
G1 X60.498Y40.685Z0F800
G1 X60.516Y40.721Z0F800
G1 X60.586Y41.023Z0F800
G1 X60.622Y41.162Z0F800
G1 X60.655Y41.262Z0F800
G1 X60.685Y41.324Z0F800
G1 X60.716Y41.351Z0F800
G1 X60.749Y41.347Z0F800
G1 X60.785Y41.314Z0F800
G1 X60.881Y41.181Z0F800
G1 X60.915Y41.17Z0F800
G1 X60.934Y41.224Z0F800
G1 X60.944Y41.459Z0F800
G1 X60.958Y41.538Z0F800
G1 X60.982Y41.586Z0F800
G1 X61.017Y41.602Z0F800
G1 X61.065Y41.587Z0F800

; Color 1 picking sequence
G1 Z10 F500;         ; Raise brush to safe height
G0 X2 Y0 F1000;     ; Rapid move to brush cleaning position
G1 Z0 F500;         ; Lower brush for cleaning - controlled movement
G1 Z2 F500;         ; Raise brush slightly - controlled movement
G1 X22 Y0 Z8 F500;     ; Move across cleaning area - controlled movement
G1 Z8 F500;         ; Maintain brush height - controlled movement
G0 X41 Y0 F1200;    ; Rapid move to color 1 position
G1 Z0 F500;         ; Lower into color - controlled movement
G1 X35 Y1 F500;     ; Small movement in paint - controlled movement
G1 Z7 F500;         ; Raise from color - controlled movement
G1 X38 Y1 F500;     ; Movement in paint - controlled movement
G1 Z1 F500;         ; Lower slightly - controlled movement
G1 X27 Y10 Z8 F500;     ; Move in paint - controlled movement
G1 Z8 F500;         ; Raise brush - controlled movement
G1 F1000;           ; Set feed rate to 1000
G0 Z2.8F500
G0 X60.344Y40.542Z2.8F1000
G1 Z0F500
G1 X60.039Y40.662Z0F800
G1 X59.807Y40.542Z0F800
G1 X60.344Z0F800
G0 Z2.8F500
G0 X62.266Y40.21Z2.8F1000
G1 Z0F500
G1 X62.288Y40.258Z0F800
G1 X63.209Y40.526Z0F800
G1 X63.037Y40.359Z0F800
G1 X62.806Y40.251Z0F800
G1 X62.522Y40.187Z0F800
G1 X62.399Y40.177Z0F800
G1 X62.308Y40.184Z0F800
G1 X62.266Y40.21Z0F800
G0 Z2.8F500
G0 X62.785Y39.218Z2.8F1000
G1 Z0F500
G1 X63.329Y39.155Z0F800
G1 X63.023Y39.11Z0F800
G1 X62.785Y39.218Z0F800
G0 Z2.8F500
G0 X63.846Y39.388Z2.8F1000
G1 Z0F500
G1 Y39.642Z0F800
G1 X63.954Y39.776Z0F800
G1 X64.1Y39.821Z0F800
G1 X64.17Y39.81Z0F800
G1 X64.228Y39.777Z0F800
G1 X64.269Y39.721Z0F800
G1 X64.284Y39.643Z0F800
G1 X64.232Y39.506Z0F800
G1 X64.11Y39.399Z0F800
G1 X63.965Y39.35Z0F800
G1 X63.846Y39.388Z0F800
G0 Z2.8F500
G0 X66.432Y39.707Z2.8F1000
G1 Z0F500
G1 X66.552Y39.826Z0F800
G1 X66.671Y39.707Z0F800
G1 X66.432Z0F800
G0 Z2.8F500
G0 X68.056Y39.754Z2.8F1000
G1 Z0F500
G1 X68.193Y39.896Z0F800
G1 X68.038Y39.493Z0F800
G1 X68.056Y39.754Z0F800
G0 Z2.8F500
G0 X68.82Y38.871Z2.8F1000
G1 Z0F500
G1 X68.701Y38.744Z0F800
G0 Z2.8F500
G0 Z2.8F1000
G1 Z0F500
G1 X68.82Y38.871Z0F800
G0 Z2.8F500
G0 X68.939Y38.818Z2.8F1000
G1 Z0F500
G1 X68.82Y38.692Z0F800
G0 Z2.8F500
G0 Z2.8F1000
G1 Z0F500
G1 X68.701Y38.744Z0F800
G0 Z2.8F500
G0 X70.483Y38.825Z2.8F1000
G1 Z0F500
G1 X70.486Y38.89Z0F800
G1 X70.515Y38.96Z0F800
G1 X70.571Y39.03Z0F800
G1 X70.722Y39.109Z0F800
G1 X70.892Y39.104Z0F800
G1 X71.031Y39.029Z0F800
G1 X71.088Y38.897Z0F800
G1 X70.79Y38.66Z0F800
G1 X70.61Y38.681Z0F800
G1 X70.504Y38.766Z0F800
G1 X70.483Y38.825Z0F800
G0 Z2.8F500
G0 X71.017Y38.505Z2.8F1000
G1 Z0F500
G1 X71.072Y38.489Z0F800
G1 X71.143Y38.402Z0F800
G1 X71.09Y38.216Z0F800
G1 X70.969Y38.327Z0F800
G1 X70.981Y38.45Z0F800
G1 X71.017Y38.505Z0F800
G0 Z2.8F500
G0 X70.571Y39.529Z2.8F1000
G1 Z0F500
G1 X70.143Y39.673Z0F800
G1 X70.332Y39.707Z0F800
G1 X70.571Y39.529Z0F800
G0 Z2.8F500
G0 X72.096Y39.479Z2.8F1000
G1 Z0F500
G1 X72.478Y39.766Z0F800
G1 X72.614Y39.89Z0F800
G1 X72.7Y39.936Z0F800
G1 X72.746Y39.904Z0F800
G1 X72.758Y39.796Z0F800
G1 X72.733Y39.722Z0F800
G1 X72.667Y39.646Z0F800
G1 X72.572Y39.574Z0F800
G1 X72.46Y39.512Z0F800
G1 X72.345Y39.465Z0F800
G1 X72.237Y39.44Z0F800
G1 X72.15Y39.443Z0F800
G1 X72.096Y39.479Z0F800
G0 Z2.8F500
G0 X72.444Y40.422Z2.8F1000
G1 Z0F500
G1 X72.328Y40.453Z0F800
G1 X72.239Y40.492Z0F800
G1 X72.182Y40.54Z0F800
G1 X72.162Y40.596Z0F800
G1 X71.968Y40.878Z0F800
G1 X71.89Y40.934Z0F800
G1 X71.857Y40.985Z0F800
G1 X71.864Y41.031Z0F800
G1 X71.906Y41.067Z0F800
G1 X71.979Y41.092Z0F800
G1 X72.077Y41.102Z0F800
G1 X72.197Y41.096Z0F800
G1 X72.332Y41.071Z0F800
G1 X72.823Y40.542Z0F800
G1 X72.706Y41.497Z0F800
G1 X72.371Y41.565Z0F800
G1 X72.204Y41.462Z0F800
G1 X72.104Y41.43Z0F800
G1 X72.043Y41.469Z0F800
G1 X71.99Y41.581Z0F800
G1 X72.365Y42.452Z0F800
G1 X72.687Y42.262Z0F800
G1 X72.693Y41.964Z0F800
G1 X73.155Y41.855Z0F800
G1 X73.385Y41.845Z0F800
G1 X73.572Y41.815Z0F800
G1 X73.715Y41.766Z0F800
G1 X73.812Y41.701Z0F800
G1 X73.862Y41.622Z0F800
G1 Y41.529Z0F800
G1 X73.811Y41.425Z0F800
G1 X73.707Y41.311Z0F800
G1 X73.383Y40.163Z0F800
G1 X73.311Y40.101Z0F800
G1 X73.267Y40.089Z0F800
G1 X73.243Y40.13Z0F800
G1 X73.237Y40.225Z0F800
G1 X73.088Y40.414Z0F800
G1 X72.74Y40.394Z0F800
G1 X72.444Y40.422Z0F800
G0 Z2.8F500
G0 X73.834Y40.124Z2.8F1000
G1 Z0F500
G1 X74.308Y40.566Z0F800
G1 X74.43Y40.707Z0F800
G1 X74.479Y40.801Z0F800
G1 X74.457Y40.869Z0F800
G1 X74.37Y40.932Z0F800
G1 X73.922Y40.95Z0F800
G1 X73.783Y40.91Z0F800
G1 X73.726Z0F800
G1 X73.744Y40.964Z0F800
G1 X73.83Y41.075Z0F800
G1 X74.567Y41.49Z0F800
G1 X74.592Y40.556Z0F800
G1 X74.538Y40.381Z0F800
G1 X74.489Y40.242Z0F800
G1 X74.441Y40.135Z0F800
G1 X74.392Y40.057Z0F800
G1 X74.278Y39.968Z0F800
G1 X74.123Y39.945Z0F800
G1 X73.834Y40.124Z0F800
G0 Z2.8F500
G0 X74.695Y39.873Z2.8F1000
G1 Z0F500
G1 X74.751Y39.922Z0F800
G1 X75.116Y40.534Z0F800
G1 X75.387Y40.606Z0F800
G1 X75.406Y40.886Z0F800
G1 X74.908Y41.44Z0F800
G1 X75.312Y41.273Z0F800
G1 X75.552Y39.581Z0F800
G1 X75.594Y39.52Z0F800
G1 X75.565Y39.491Z0F800
G1 X75.458Y39.494Z0F800
G1 X75.266Y39.527Z0F800
G1 X75.093Y39.568Z0F800
G1 X74.948Y39.614Z0F800
G1 X74.831Y39.664Z0F800
G1 X74.746Y39.716Z0F800
G1 X74.694Y39.769Z0F800
G1 X74.676Y39.822Z0F800
G1 X74.695Y39.873Z0F800

; Color 1 picking sequence
G1 Z10 F500;         ; Raise brush to safe height
G0 X2 Y0 F1000;     ; Rapid move to brush cleaning position
G1 Z0 F500;         ; Lower brush for cleaning - controlled movement
G1 Z2 F500;         ; Raise brush slightly - controlled movement
G1 X22 Y0 Z8 F500;     ; Move across cleaning area - controlled movement
G1 Z8 F500;         ; Maintain brush height - controlled movement
G0 X41 Y0 F1200;    ; Rapid move to color 1 position
G1 Z0 F500;         ; Lower into color - controlled movement
G1 X35 Y1 F500;     ; Small movement in paint - controlled movement
G1 Z7 F500;         ; Raise from color - controlled movement
G1 X38 Y1 F500;     ; Movement in paint - controlled movement
G1 Z1 F500;         ; Lower slightly - controlled movement
G1 X27 Y10 Z8 F500;     ; Move in paint - controlled movement
G1 Z8 F500;         ; Raise brush - controlled movement
G1 F1000;           ; Set feed rate to 1000
G0 Z2.8F500
G0 X75.906Y40.005Z2.8F1000
G1 Z0F500
G1 X75.878Y40.225Z0F800
G1 X75.915Y40.481Z0F800
G1 X75.952Y40.597Z0F800
G1 X75.997Y40.693Z0F800
G1 X76.049Y40.757Z0F800
G1 X76.104Y40.781Z0F800
G1 X76.46Y40.542Z0F800
G1 X76.554Y40.44Z0F800
G1 X76.624Y40.348Z0F800
G1 X76.669Y40.266Z0F800
G1 X76.689Y40.197Z0F800
G1 X76.684Y40.141Z0F800
G1 X76.655Y40.099Z0F800
G1 X76.6Y40.074Z0F800
G1 X76.52Y40.065Z0F800
G1 X76.34Y39.945Z0F800
G1 X76.325Y39.886Z0F800
G1 X76.283Y39.847Z0F800
G1 X76.223Y39.829Z0F800
G1 X76.152Z0F800
G1 X76.006Y39.885Z0F800
G1 X75.906Y40.005Z0F800
G0 Z2.8F500
G0 X76.993Y40.307Z2.8F1000
G1 Z0F500
G1 X76.892Y40.435Z0F800
G1 X76.886Y40.545Z0F800
G1 X76.915Y40.583Z0F800
G1 X76.962Y40.606Z0F800
G1 X77.027Y40.609Z0F800
G1 X77.108Y40.588Z0F800
G1 X77.351Y40.655Z0F800
G1 X77.441Y40.728Z0F800
G1 X77.54Y40.712Z0F800
G1 X77.62Y40.626Z0F800
G1 X77.654Y40.483Z0F800
G1 X77.634Y40.403Z0F800
G1 X77.58Y40.335Z0F800
G1 X77.499Y40.282Z0F800
G1 X77.401Y40.245Z0F800
G1 X77.184Y40.23Z0F800
G1 X76.993Y40.307Z0F800
G0 Z2.8F500
G0 X76.762Y40.922Z2.8F1000
G1 Z0F500
G1 X76.572Y40.962Z0F800
G1 X76.452Y41.008Z0F800
G1 X76.398Y41.05Z0F800
G1 X76.406Y41.096Z0F800
G1 X76.474Y41.15Z0F800
G1 X76.617Y41.227Z0F800
G1 X76.725Y41.25Z0F800
G1 X76.81Y41.218Z0F800
G1 X76.883Y41.131Z0F800
G1 X76.926Y41.011Z0F800
G1 X76.883Y40.94Z0F800
G1 X76.762Y40.922Z0F800
G0 Z2.8F500
G0 X77.057Y41.444Z2.8F1000
G1 Z0F500
G1 X77.176Y41.557Z0F800
G1 X77.295Y41.371Z0F800
G1 X77.057Y41.444Z0F800
G0 Z2.8F500
G0 X76.194Y41.676Z2.8F1000
G1 Z0F500
G1 X76.133Y41.64Z0F800
G1 X76.063Y41.645Z0F800
G1 X75.988Y41.685Z0F800
G1 X75.913Y41.753Z0F800
G1 X75.788Y41.954Z0F800
G1 X75.73Y42.198Z0F800
G1 X75.337Y41.794Z0F800
G1 X75.367Y41.646Z0F800
G1 X75.359Y41.566Z0F800
G1 X75.309Y41.545Z0F800
G1 X75.21Y41.572Z0F800
G1 X75.088Y42.08Z0F800
G1 X75.124Y42.262Z0F800
G1 X75.157Y42.404Z0F800
G1 X75.19Y42.51Z0F800
G1 X75.225Y42.582Z0F800
G1 X75.312Y42.643Z0F800
G1 X75.437Y42.618Z0F800
G1 X75.679Y42.683Z0F800
G1 X75.738Y42.754Z0F800
G1 X75.805Y42.796Z0F800
G1 X75.877Y42.81Z0F800
G1 X75.95Y42.797Z0F800
G1 X76.083Y42.699Z0F800
G1 X76.172Y42.51Z0F800
G1 X76.194Y41.676Z0F800
G0 Z2.8F500
G0 X75.492Y42.779Z2.8F1000
G1 Z0F500
G1 X75.362Y42.76Z0F800
G1 X75.159Y42.807Z0F800
G1 X74.673Y42.987Z0F800
G1 X74.548Y42.728Z0F800
G1 X74.518Y42.473Z0F800
G1 X74.446Y42.247Z0F800
G1 X74.402Y42.162Z0F800
G1 X74.357Y42.104Z0F800
G1 X74.313Y42.08Z0F800
G1 X74.273Y42.097Z0F800
G1 X74.317Y43.312Z0F800
G1 X74.334Y43.413Z0F800
G1 X74.364Y43.479Z0F800
G1 X74.408Y43.51Z0F800
G1 X74.465Y43.506Z0F800
G1 X74.537Y43.467Z0F800
G1 X74.625Y43.395Z0F800
G1 X74.729Y43.288Z0F800
G1 X75.176Y43.049Z0F800
G1 X75.307Y43.07Z0F800
G1 X75.43Y43.13Z0F800
G1 X75.542Y43.221Z0F800
G1 X75.639Y43.339Z0F800
G1 X75.716Y43.476Z0F800
G1 X75.769Y43.627Z0F800
G1 X75.794Y43.785Z0F800
G1 X75.787Y43.944Z0F800
G1 X75.73Y44.302Z0F800
G1 X75.933Y43.95Z0F800
G1 X75.996Y43.551Z0F800
G1 X75.689Y43.104Z0F800
G1 X75.636Y42.98Z0F800
G1 X75.588Y42.886Z0F800
G1 X75.542Y42.82Z0F800
G1 X75.492Y42.779Z0F800
G0 Z2.8F500
G0 X76.46Y43.407Z2.8F1000
G1 Z0F500
G1 X76.579Y43.526Z0F800
G1 X76.699Y43.407Z0F800
G1 X76.46Z0F800
G0 Z2.8F500
G0 X77.295Y44.004Z2.8F1000
G1 Z0F500
G1 X77.415Y44.123Z0F800
G1 X77.534Y44.004Z0F800
G1 X77.295Z0F800
G0 Z2.8F500
G0 X77.894Y45.259Z2.8F1000
G1 Z0F500
G1 X77.773Y45.37Z0F800
G1 X77.786Y45.493Z0F800
G1 X77.822Y45.548Z0F800
G1 X77.877Y45.532Z0F800
G1 X77.947Y45.445Z0F800
G1 X77.894Y45.259Z0F800
G0 Z2.8F500
G0 X78.363Y45.514Z2.8F1000
G1 Z0F500
G1 X78.292Y45.594Z0F800
G1 X78.24Y45.705Z0F800
G1 X78.207Y45.847Z0F800
G1 X78.193Y46.021Z0F800
G1 X78.198Y46.226Z0F800
G1 X78.216Y46.437Z0F800
G1 X78.237Y46.602Z0F800
G1 X78.264Y46.726Z0F800
G1 X78.296Y46.808Z0F800
G1 X78.337Y46.852Z0F800
G1 X78.386Y46.859Z0F800
G1 X78.445Y46.832Z0F800
G1 X78.515Y46.771Z0F800
G1 X78.682Y46.657Z0F800
G1 X78.832Y46.634Z0F800
G1 X78.89Y46.655Z0F800
G1 X78.931Y46.696Z0F800
G1 X78.949Y46.758Z0F800
G1 X78.93Y46.94Z0F800
G1 X78.969Y47.007Z0F800
G1 X79.064Y47.045Z0F800
G1 X79.225Y47.061Z0F800
G1 X79.564Y46.971Z0F800
G1 X79.205Y46.677Z0F800
G1 X79.503Y46.509Z0F800
G1 X79.21Y46.391Z0F800
G1 X79.099Y46.381Z0F800
G1 X79.051Y46.34Z0F800
G1 X79.062Y46.25Z0F800
G1 X79.127Y46.094Z0F800
G1 X79.564Y45.675Z0F800
G1 X79.549Y45.616Z0F800
G1 X79.512Y45.577Z0F800
G1 X79.457Y45.559Z0F800
G1 X79.392Z0F800
G1 X79.257Y45.615Z0F800
G1 X79.162Y45.735Z0F800
G1 X79.077Y45.87Z0F800
G1 X78.983Y45.909Z0F800
G1 X78.943Y45.893Z0F800
G1 X78.911Y45.854Z0F800
G1 X78.892Y45.793Z0F800
G1 Y45.71Z0F800
G1 X78.692Y45.461Z0F800
G1 X78.563Y45.448Z0F800
G1 X78.453Y45.466Z0F800
G1 X78.363Y45.514Z0F800
G0 Z2.8F500
G0 X76.937Y45.556Z2.8F1000
G1 Z0F500
G1 X76.699Z0F800
G1 X76.818Y45.675Z0F800
G1 X76.937Y45.556Z0F800
G0 Z2.8F500
G0 X79.623Y46.033Z2.8F1000
G1 Z0F500
G1 X79.676Y46.153Z0F800
G1 X79.802Y46.033Z0F800
G1 X79.75Y45.914Z0F800
G1 X79.623Y46.033Z0F800
G0 Z2.8F500
G0 X79.937Y44.107Z2.8F1000
G1 Z0F500
G1 X80.072Y44.119Z0F800
G1 X80.198Y44.108Z0F800
G1 X80.302Y44.075Z0F800
G1 X80.373Y44.02Z0F800
G1 X80.399Y43.943Z0F800
G1 X80.39Y43.858Z0F800
G1 X80.355Y43.825Z0F800
G1 X80.283Y43.843Z0F800
G1 X80.163Y43.91Z0F800
G1 X79.781Z0F800
G1 X79.638Y43.799Z0F800
G1 X79.538Y43.769Z0F800
G1 X79.513Y43.784Z0F800
G1 Y43.817Z0F800
G1 X79.535Y43.87Z0F800
G1 X79.589Y43.94Z0F800
G1 X79.683Y44.017Z0F800
G1 X79.803Y44.073Z0F800
G1 X79.937Y44.107Z0F800

; Color 1 picking sequence
G1 Z10 F500;         ; Raise brush to safe height
G0 X2 Y0 F1000;     ; Rapid move to brush cleaning position
G1 Z0 F500;         ; Lower brush for cleaning - controlled movement
G1 Z2 F500;         ; Raise brush slightly - controlled movement
G1 X22 Y0 Z8 F500;     ; Move across cleaning area - controlled movement
G1 Z8 F500;         ; Maintain brush height - controlled movement
G0 X41 Y0 F1200;    ; Rapid move to color 1 position
G1 Z0 F500;         ; Lower into color - controlled movement
G1 X35 Y1 F500;     ; Small movement in paint - controlled movement
G1 Z7 F500;         ; Raise from color - controlled movement
G1 X38 Y1 F500;     ; Movement in paint - controlled movement
G1 Z1 F500;         ; Lower slightly - controlled movement
G1 X27 Y10 Z8 F500;     ; Move in paint - controlled movement
G1 Z8 F500;         ; Raise brush - controlled movement
G1 F1000;           ; Set feed rate to 1000
G0 Z2.8F500
G0 X80.001Y43.591Z2.8F1000
G1 Z0F500
G1 X80.028Y43.574Z0F800
G1 X80.036Y43.538Z0F800
G1 X80.023Y43.485Z0F800
G1 X79.986Y43.415Z0F800
G1 X79.706Y43.292Z0F800
G1 X79.607Y43.299Z0F800
G1 X79.578Y43.324Z0F800
G1 X79.619Y43.378Z0F800
G1 X79.734Y43.469Z0F800
G1 X79.895Y43.569Z0F800
G1 X80.001Y43.591Z0F800
G0 Z2.8F500
G0 X80.326Y42.333Z2.8F1000
G1 Z0F500
G1 X80.544Y41.975Z0F800
G1 X80.56Y41.798Z0F800
G1 X80.542Y41.688Z0F800
G1 X80.484Y41.632Z0F800
G1 X80.378Y41.616Z0F800
G1 X80.16Y41.975Z0F800
G1 X80.326Y42.333Z0F800
G0 Z2.8F500
G0 X79.584Y41.882Z2.8F1000
G1 Z0F500
G1 X79.429Y40.928Z0F800
G1 X79.026Y40.682Z0F800
G1 X79.143Y41.055Z0F800
G1 X79.193Y41.154Z0F800
G1 X79.228Y41.23Z0F800
G1 X79.247Y41.287Z0F800
G1 Y41.327Z0F800
G1 X79.204Y41.369Z0F800
G1 X79.089Y41.378Z0F800
G1 X78.669Y41.288Z0F800
G1 X78.624Y41.462Z0F800
G1 X78.634Y41.61Z0F800
G1 X78.689Y41.728Z0F800
G1 X78.778Y41.809Z0F800
G1 X78.892Y41.847Z0F800
G1 X79.02Y41.837Z0F800
G1 X79.152Y41.772Z0F800
G1 X79.278Y41.646Z0F800
G1 X79.364Y41.541Z0F800
G1 X79.413Y41.515Z0F800
G1 X79.434Y41.577Z0F800
G1 X79.44Y41.73Z0F800
G1 X79.449Y41.863Z0F800
G1 X79.473Y41.93Z0F800
G1 X79.517Y41.935Z0F800
G1 X79.584Y41.882Z0F800
G0 Z2.8F500
G0 X78.075Y41.051Z2.8F1000
G1 Z0F500
G1 X78.134Y41.006Z0F800
G1 X78.199Y40.929Z0F800
G1 X78.226Y40.572Z0F800
G1 X78.156Y40.499Z0F800
G1 X78.093Y40.452Z0F800
G1 X78.036Y40.43Z0F800
G1 X77.987Y40.435Z0F800
G1 X77.947Y40.465Z0F800
G1 X77.917Y40.519Z0F800
G1 X77.899Y40.598Z0F800
G1 X77.892Y40.701Z0F800
G1 X77.898Y40.831Z0F800
G1 X77.915Y40.933Z0F800
G1 X77.942Y41.006Z0F800
G1 X77.978Y41.051Z0F800
G1 X78.022Y41.066Z0F800
G1 X78.075Y41.051Z0F800
G0 Z2.8F500
G0 X74.041Y41.903Z2.8F1000
G1 Z0F500
G1 X73.91Y41.853Z0F800
G1 X73.773Y41.902Z0F800
G1 X73.678Y42.015Z0F800
G1 X73.673Y42.158Z0F800
G1 X73.718Y42.257Z0F800
G1 X73.765Y42.29Z0F800
G1 X73.83Y42.26Z0F800
G1 X73.932Y42.166Z0F800
G1 X74.041Y41.903Z0F800
G0 Z2.8F500
G0 X73.443Y42.499Z2.8F1000
G1 Z0F500
G1 X73.214Y42.49Z0F800
G1 X73.287Y42.562Z0F800
G1 X73.443Y42.499Z0F800
G0 Z2.8F500
G0 X73.093Y42.887Z2.8F1000
G1 Z0F500
G1 X72.891Y42.838Z0F800
G1 X72.73Y42.81Z0F800
G1 X72.606Y42.804Z0F800
G1 X72.516Y42.823Z0F800
G1 X72.458Y42.867Z0F800
G1 X72.428Y42.938Z0F800
G1 X72.424Y43.036Z0F800
G1 X72.442Y43.163Z0F800
G1 X72.463Y43.288Z0F800
G1 Y43.379Z0F800
G1 X72.445Y43.436Z0F800
G1 X72.397Y43.462Z0F800
G1 X72.317Y43.456Z0F800
G1 X72.199Y43.42Z0F800
G1 X72.04Y43.353Z0F800
G1 X71.834Y43.257Z0F800
G1 X71.714Y43.207Z0F800
G1 X71.617Y43.185Z0F800
G1 X71.544Y43.189Z0F800
G1 X71.494Y43.219Z0F800
G1 X71.469Y43.274Z0F800
G1 Y43.354Z0F800
G1 X71.493Y43.458Z0F800
G1 X71.544Y43.586Z0F800
G1 X72.545Y44.017Z0F800
G1 X72.66Y44.087Z0F800
G1 X72.709Y44.144Z0F800
G1 X72.697Y44.196Z0F800
G1 X72.626Y44.254Z0F800
G1 X72.55Y44.306Z0F800
G1 X72.528Y44.339Z0F800
G1 X72.559Y44.355Z0F800
G1 X72.646Y44.36Z0F800
G1 X72.961Y44.232Z0F800
G1 X72.927Y43.784Z0F800
G1 X72.843Y43.608Z0F800
G1 X72.827Y43.505Z0F800
G1 X72.886Y43.446Z0F800
G1 X73.028Y43.402Z0F800
G1 X73.15Y43.358Z0F800
G1 X73.241Y43.297Z0F800
G1 X73.301Y43.224Z0F800
G1 X73.327Y43.146Z0F800
G1 X73.32Y43.067Z0F800
G1 X73.28Y42.994Z0F800
G1 X73.204Y42.932Z0F800
G1 X73.093Y42.887Z0F800
G0 Z2.8F500
G0 X71.058Y43.855Z2.8F1000
G1 Z0F500
G1 X71.067Y43.925Z0F800
G1 X71.042Y43.972Z0F800
G1 X70.994Y43.997Z0F800
G1 X70.93Y44.001Z0F800
G1 X70.788Y43.946Z0F800
G1 X70.683Y43.816Z0F800
G1 X70.81Y43.667Z0F800
G1 X71.058Y43.855Z0F800
G0 Z2.8F500
G0 X71.088Y44.376Z2.8F1000
G1 Z0F500
G1 X70.849Y44.481Z0F800
G1 X70.611Y44.314Z0F800
G1 X71.088Y44.376Z0F800
G0 Z2.8F500
G0 X70.342Y44.454Z2.8F1000
G1 Z0F500
G1 X70.349Y44.529Z0F800
G1 X70.335Y44.575Z0F800
G1 X70.301Y44.595Z0F800
G1 X70.249Y44.587Z0F800
G1 X70.181Y44.554Z0F800
G1 X70.098Y44.495Z0F800
G1 X70.002Y44.411Z0F800
G1 X69.894Y44.302Z0F800
G1 X69.815Y44.216Z0F800
G1 X69.756Y44.148Z0F800
G1 X69.718Y44.095Z0F800
G1 X69.701Y44.057Z0F800
G1 X69.724Y44.015Z0F800
G1 X69.822Y44.004Z0F800
G1 X69.991Y44.041Z0F800
G1 X70.148Y44.141Z0F800
G1 X70.272Y44.284Z0F800
G1 X70.342Y44.454Z0F800
G0 Z2.8F500
G0 X68.641Y44.004Z2.8F1000
G1 Z0F500
G1 X68.588Y43.885Z0F800
G1 X68.462Y44.004Z0F800
G1 X68.514Y44.123Z0F800
G1 X68.641Y44.004Z0F800
G0 Z2.8F500
G0 X68.701Y43.407Z2.8F1000
G1 Z0F500
G1 X68.581Y43.288Z0F800
G1 X68.82Z0F800
G1 X68.701Y43.407Z0F800
G0 Z2.8F500
G0 X67.352Y43.326Z2.8F1000
G1 Z0F500
G1 X67.387Y43.168Z0F800
G1 X67.485Y42.631Z0F800
G1 X67.421Y42.518Z0F800
G1 X67.346Y42.43Z0F800
G1 X67.268Y42.368Z0F800
G1 X67.196Y42.335Z0F800
G1 X67.136Y42.332Z0F800
G1 X67.097Y42.363Z0F800
G1 X67.087Y42.429Z0F800
G1 X67.113Y42.531Z0F800
G1 X67.096Y43.258Z0F800
G1 X67.129Y43.333Z0F800
G1 X67.172Y43.382Z0F800
G1 X67.22Y43.404Z0F800
G1 X67.269Y43.401Z0F800
G1 X67.352Y43.326Z0F800
G0 Z2.8F500
G0 X67.507Y42.094Z2.8F1000
G1 Z0F500
G1 X67.626Y41.975Z0F800
G1 X67.387Z0F800
G1 X67.507Y42.094Z0F800
G0 Z2.8F500
G0 X66.082Y41.636Z2.8F1000
G1 Z0F500
G1 X66.138Y41.564Z0F800
G1 X66.313Y41.236Z0F800
G1 X66.134Y41.139Z0F800
G1 X65.959Y41.467Z0F800
G1 Y41.571Z0F800
G1 X65.965Y41.646Z0F800
G1 X65.973Y41.695Z0F800
G1 X65.987Y41.717Z0F800
G1 X66.008Y41.714Z0F800
G1 X66.04Y41.687Z0F800
G1 X66.082Y41.636Z0F800
G0 Z2.8F500
G0 X69.894Y41.079Z2.8F1000
G1 Z0F500
G1 X70.073Y41.258Z0F800
G1 X70.252Y41.079Z0F800
G1 X70.073Y40.9Z0F800
G1 X69.894Y41.079Z0F800
G0 Z2.8F500
G0 X70.847Y41.677Z2.8F1000
G1 Z0F500
G1 X70.795Y41.863Z0F800
G1 X70.865Y41.951Z0F800
G1 X70.92Y41.967Z0F800
G1 X70.956Y41.912Z0F800
G1 X70.969Y41.789Z0F800
G1 X70.847Y41.677Z0F800
G0 Z2.8F500
G0 X70.222Y45.797Z2.8F1000
G1 Z0F500
G1 X70.264Y45.801Z0F800
G1 X70.317Y45.84Z0F800
G1 X70.376Y45.917Z0F800
G1 X70.436Y46.391Z0F800
G1 X70.247Y46.142Z0F800
G1 X70.202Y46.04Z0F800
G1 X70.179Y45.949Z0F800
G1 X70.176Y45.876Z0F800
G1 X70.192Y45.823Z0F800
G1 X70.222Y45.797Z0F800
G0 Z2.8F500
G0 X72.64Y46.809Z2.8F1000
G1 Z0F500
G1 X72.521Y47.115Z0F800
G1 X72.64Y47.346Z0F800
G1 Y46.809Z0F800
G0 Z2.8F500
G0 X73.356Y46.153Z2.8F1000
G1 Z0F500
G1 X73.476Y46.033Z0F800
G1 X73.237Z0F800
G1 X73.356Y46.153Z0F800

; Color 1 picking sequence
G1 Z10 F500;         ; Raise brush to safe height
G0 X2 Y0 F1000;     ; Rapid move to brush cleaning position
G1 Z0 F500;         ; Lower brush for cleaning - controlled movement
G1 Z2 F500;         ; Raise brush slightly - controlled movement
G1 X22 Y0 Z8 F500;     ; Move across cleaning area - controlled movement
G1 Z8 F500;         ; Maintain brush height - controlled movement
G0 X41 Y0 F1200;    ; Rapid move to color 1 position
G1 Z0 F500;         ; Lower into color - controlled movement
G1 X35 Y1 F500;     ; Small movement in paint - controlled movement
G1 Z7 F500;         ; Raise from color - controlled movement
G1 X38 Y1 F500;     ; Movement in paint - controlled movement
G1 Z1 F500;         ; Lower slightly - controlled movement
G1 X27 Y10 Z8 F500;     ; Move in paint - controlled movement
G1 Z8 F500;         ; Raise brush - controlled movement
G1 F1000;           ; Set feed rate to 1000
G0 Z2.8F500
G0 X83.453Y48.046Z2.8F1000
G1 Z0F500
G1 X83.4Y48.216Z0F800
G1 X83.436Y48.365Z0F800
G1 X83.543Y48.463Z0F800
G1 X83.704Y48.48Z0F800
G1 X83.994Y48.43Z0F800
G1 X84.398Y47.684Z0F800
G1 X84.503Y47.434Z0F800
G1 X84.577Y47.22Z0F800
G1 X84.622Y47.038Z0F800
G1 X84.636Y46.887Z0F800
G1 X84.62Y46.765Z0F800
G1 X84.573Y46.67Z0F800
G1 X84.497Y46.599Z0F800
G1 X84.39Y46.551Z0F800
G1 X84.315Y46.568Z0F800
G1 X84.232Y46.649Z0F800
G1 X84.148Y46.774Z0F800
G1 X84.072Y46.923Z0F800
G1 X84.012Y47.079Z0F800
G1 X83.977Y47.221Z0F800
G1 Y47.331Z0F800
G1 X84.017Y47.389Z0F800
G1 X83.733Y47.913Z0F800
G1 X83.725Y48.111Z0F800
G1 X83.707Y48.21Z0F800
G1 X83.677Y48.215Z0F800
G1 X83.634Y48.13Z0F800
G1 X83.453Y48.046Z0F800
G0 Z2.8F500
G0 X84.305Y48.422Z2.8F1000
G1 Z0F500
G1 X84.228Y48.596Z0F800
G1 X84.221Y48.669Z0F800
G1 X84.237Y48.727Z0F800
G1 X84.275Y48.765Z0F800
G1 X84.339Y48.779Z0F800
G1 X84.787Y48.113Z0F800
G1 X84.459Y48.241Z0F800
G1 X84.305Y48.422Z0F800
G0 Z2.8F500
G0 X84.885Y48.516Z2.8F1000
G1 Z0F500
G1 X84.845Y48.666Z0F800
G1 X84.839Y48.836Z0F800
G1 X84.876Y49.018Z0F800
G1 X84.918Y49.113Z0F800
G1 X84.972Y49.184Z0F800
G1 X85.036Y49.229Z0F800
G1 X85.104Y49.249Z0F800
G1 X85.173Y49.243Z0F800
G1 X85.238Y49.21Z0F800
G1 X85.296Y49.151Z0F800
G1 X85.342Y49.064Z0F800
G1 X85.235Y48.941Z0F800
G1 X85.151Y48.968Z0F800
G1 X85.095Y48.974Z0F800
G1 X85.067Y48.962Z0F800
G1 Y48.931Z0F800
G1 X85.09Y48.884Z0F800
G1 X85.142Y48.82Z0F800
G1 X85.22Y48.742Z0F800
G1 X85.323Y48.651Z0F800
G1 X85.451Y48.533Z0F800
G1 X85.508Y48.448Z0F800
G1 X85.497Y48.38Z0F800
G1 X85.424Y48.315Z0F800
G1 X85.291Y48.257Z0F800
G1 X85.165Z0F800
G1 X85.051Y48.303Z0F800
G1 X84.956Y48.392Z0F800
G1 X84.885Y48.516Z0F800
G0 Z2.8F500
G0 X84.69Y47.943Z2.8F1000
G1 Z0F500
G1 X84.762Y47.778Z0F800
G1 X84.64Y47.838Z0F800
G1 X84.584Y47.891Z0F800
G1 X84.599Y47.929Z0F800
G1 X84.69Y47.943Z0F800
G0 Z2.8F500
G0 X85.317Y47.814Z2.8F1000
G1 Z0F500
G1 X85.353Y47.891Z0F800
G1 X85.415Y47.973Z0F800
G1 X85.502Y48.064Z0F800
G1 X85.62Y48.166Z0F800
G1 X85.69Y48.181Z0F800
G1 X85.715Y48.151Z0F800
G1 X85.736Y48.095Z0F800
G1 X85.755Y48.01Z0F800
G1 X85.777Y47.895Z0F800
G1 X85.792Y47.371Z0F800
G1 X85.517Y47.419Z0F800
G1 X85.426Y47.509Z0F800
G1 X85.36Y47.59Z0F800
G1 X85.32Y47.667Z0F800
G1 X85.306Y47.74Z0F800
G1 X85.317Y47.814Z0F800
G0 Z2.8F500
G0 X85.048Y47.383Z2.8F1000
G1 Z0F500
G1 X85.293Y47.213Z0F800
G1 X85.261Y47.129Z0F800
G1 X85.177Y47.114Z0F800
G1 X85.064Y47.165Z0F800
G1 X84.943Y47.277Z0F800
G1 X84.882Y47.36Z0F800
G1 X84.877Y47.402Z0F800
G1 X84.93Y47.408Z0F800
G1 X85.048Y47.383Z0F800
G0 Z2.8F500
G0 X83.384Y48.779Z2.8F1000
G1 Z0F500
G1 X83.264Y48.958Z0F800
G1 X83.384Y49.137Z0F800
G1 Y48.779Z0F800
G0 Z2.8F500
G0 X83.177Y49.149Z2.8F1000
G1 Z0F500
G1 X83.055Y49.139Z0F800
G1 X82.984Y49.152Z0F800
G1 X82.937Y49.191Z0F800
G1 X82.913Y49.248Z0F800
G1 Y49.318Z0F800
G1 X82.973Y49.473Z0F800
G1 X83.115Y49.605Z0F800
G1 X83.025Y49.853Z0F800
G1 X83.034Y49.924Z0F800
G1 X83.059Y49.964Z0F800
G1 X83.097Y49.975Z0F800
G1 X83.144Y49.959Z0F800
G1 X83.256Y49.851Z0F800
G1 X83.37Y49.655Z0F800
G1 X83.415Y49.538Z0F800
G1 X83.434Y49.436Z0F800
G1 X83.43Y49.348Z0F800
G1 X83.402Y49.275Z0F800
G1 X83.35Y49.217Z0F800
G1 X83.275Y49.175Z0F800
G1 X83.177Y49.149Z0F800
G0 Z2.8F500
G0 X83.794Y49.458Z2.8F1000
G1 Z0F500
G1 X83.68Y49.629Z0F800
G1 X83.633Y49.753Z0F800
G1 X83.654Y49.828Z0F800
G1 X83.742Y49.853Z0F800
G1 X84.036Y49.369Z0F800
G1 X83.794Y49.458Z0F800
G0 Z2.8F500
G0 X84.44Y49.611Z2.8F1000
G1 Z0F500
G1 X84.336Y49.801Z0F800
G1 X84.285Y49.936Z0F800
G1 X84.251Y50.037Z0F800
G1 X84.234Y50.11Z0F800
G1 Y50.159Z0F800
G1 X84.301Y50.204Z0F800
G1 X84.458Y50.211Z0F800
G1 X84.697Y50.099Z0F800
G1 X84.577Y49.674Z0F800
G1 X84.697Y49.622Z0F800
G1 X84.686Y49.546Z0F800
G1 X84.656Y49.504Z0F800
G1 X84.613Y49.491Z0F800
G1 X84.559Y49.506Z0F800
G1 X84.44Y49.611Z0F800
G0 Z2.8F500
G0 X83.546Y50.052Z2.8F1000
G1 Z0F500
G1 X83.203Y50.731Z0F800
G1 X83.153Y50.879Z0F800
G1 X83.118Y50.988Z0F800
G1 X83.099Y51.06Z0F800
G1 Y51.098Z0F800
G1 X83.116Y51.105Z0F800
G1 X83.153Y51.084Z0F800
G1 X83.21Y51.036Z0F800
G1 X83.289Y50.966Z0F800
G1 X83.64Y50.461Z0F800
G1 X83.546Y50.052Z0F800
G0 Z2.8F500
G0 X83.025Y50.191Z2.8F1000
G1 Z0F500
G1 X82.249Y50.753Z0F800
G1 X82.122Y50.853Z0F800
G1 X82.076Y50.921Z0F800
G1 X82.111Y50.98Z0F800
G1 X82.222Y51.054Z0F800
G1 X82.297Y51.111Z0F800
G1 X82.344Y51.171Z0F800
G1 X82.366Y51.23Z0F800
G1 Y51.283Z0F800
G1 X82.339Y51.325Z0F800
G1 X82.293Y51.35Z0F800
G1 X82.227Y51.355Z0F800
G1 X82.142Y51.334Z0F800
G1 X81.736Y51.662Z0F800
G1 X81.652Y51.807Z0F800
G1 X81.594Y51.934Z0F800
G1 X81.562Y52.04Z0F800
G1 X81.557Y52.122Z0F800
G1 X81.578Y52.181Z0F800
G1 X81.624Y52.212Z0F800
G1 X81.696Y52.216Z0F800
G1 X81.794Y52.189Z0F800
G1 X82.067Y52.121Z0F800
G1 X83.025Y50.191Z0F800
G0 Z2.8F500
G0 X82.906Y49.847Z2.8F1000
G1 Z0F500
G1 X82.79Y49.734Z0F800
G1 X82.313Y50.534Z0F800
G1 X82.906Y49.847Z0F800

; Color 1 picking sequence
G1 Z10 F500;         ; Raise brush to safe height
G0 X2 Y0 F1000;     ; Rapid move to brush cleaning position
G1 Z0 F500;         ; Lower brush for cleaning - controlled movement
G1 Z2 F500;         ; Raise brush slightly - controlled movement
G1 X22 Y0 Z8 F500;     ; Move across cleaning area - controlled movement
G1 Z8 F500;         ; Maintain brush height - controlled movement
G0 X41 Y0 F1200;    ; Rapid move to color 1 position
G1 Z0 F500;         ; Lower into color - controlled movement
G1 X35 Y1 F500;     ; Small movement in paint - controlled movement
G1 Z7 F500;         ; Raise from color - controlled movement
G1 X38 Y1 F500;     ; Movement in paint - controlled movement
G1 Z1 F500;         ; Lower slightly - controlled movement
G1 X27 Y10 Z8 F500;     ; Move in paint - controlled movement
G1 Z8 F500;         ; Raise brush - controlled movement
G1 F1000;           ; Set feed rate to 1000
G0 Z2.8F500
G0 X83.862Y50.993Z2.8F1000
G1 Z0F500
G1 X83.736Y51.05Z0F800
G1 X83.582Y51.157Z0F800
G1 X83.516Y51.281Z0F800
G1 X83.533Y51.442Z0F800
G1 X83.632Y51.662Z0F800
G1 X83.688Y51.759Z0F800
G1 X83.735Y51.821Z0F800
G1 X83.774Y51.847Z0F800
G1 X83.807Y51.834Z0F800
G1 X83.836Y51.781Z0F800
G1 X83.863Y51.687Z0F800
G1 X83.888Y51.549Z0F800
G1 X83.913Y51.366Z0F800
G1 X83.93Y51.231Z0F800
G1 X83.938Y51.128Z0F800
G1 Y51.056Z0F800
G1 X83.925Y51.012Z0F800
G1 X83.862Y50.993Z0F800
G0 Z2.8F500
G0 X83.404Y52.002Z2.8F1000
G1 Z0F500
G1 X83.332Y52.007Z0F800
G1 X83.166Y52.082Z0F800
G1 X83.03Y52.233Z0F800
G1 X82.906Y52.546Z0F800
G1 X83.476Y52.141Z0F800
G1 X83.485Y52.067Z0F800
G1 X83.458Y52.022Z0F800
G1 X83.404Y52.002Z0F800
G0 Z2.8F500
G0 X82.495Y52.241Z2.8F1000
G1 Z0F500
G1 X82.369Y52.36Z0F800
G1 X82.421Y52.479Z0F800
G1 X82.548Y52.36Z0F800
G1 X82.495Y52.241Z0F800
G0 Z2.8F500
G0 X81.494Y52.445Z2.8F1000
G1 Z0F500
G1 X81.428Y52.382Z0F800
G1 X81.351Y52.36Z0F800
G1 X80.995Y53.12Z0F800
G1 X80.826Y53.371Z0F800
G1 X80.68Y53.622Z0F800
G1 X80.56Y53.864Z0F800
G1 X80.467Y54.092Z0F800
G1 X80.405Y54.298Z0F800
G1 X80.376Y54.476Z0F800
G1 X80.381Y54.618Z0F800
G1 X80.425Y54.718Z0F800
G1 X80.027Y55.076Z0F800
G1 X80.015Y55.246Z0F800
G1 X80.002Y55.379Z0F800
G1 X79.987Y55.477Z0F800
G1 X79.969Y55.546Z0F800
G1 X79.913Y55.611Z0F800
G1 X79.823Z0F800
G1 X79.741Y55.7Z0F800
G1 X80.245Y55.726Z0F800
G1 X80.765Y54.932Z0F800
G1 X80.866Y54.735Z0F800
G1 X80.947Y54.563Z0F800
G1 X81.009Y54.411Z0F800
G1 X81.053Y54.272Z0F800
G1 X81.092Y54.014Z0F800
G1 X81.079Y53.742Z0F800
G1 X81.075Y53.464Z0F800
G1 X81.117Y53.571Z0F800
G1 X81.171Y53.638Z0F800
G1 X81.234Y53.666Z0F800
G1 X81.301Y53.658Z0F800
G1 X81.37Y53.614Z0F800
G1 X81.438Y53.535Z0F800
G1 X81.5Y53.423Z0F800
G1 X81.554Y53.279Z0F800
G1 X81.608Y52.96Z0F800
G1 X81.583Y52.663Z0F800
G1 X81.546Y52.541Z0F800
G1 X81.494Y52.445Z0F800
G0 Z2.8F500
G0 X82.151Y53.039Z2.8F1000
G1 Z0F500
G1 X82.057Y53.109Z0F800
G1 X81.944Y53.23Z0F800
G1 X81.821Y53.39Z0F800
G1 X81.583Y53.772Z0F800
G1 X81.417Y54.152Z0F800
G1 X81.131Y54.672Z0F800
G1 X81.03Y54.793Z0F800
G1 X81Y54.855Z0F800
G1 X81.044Y54.869Z0F800
G1 X81.165Y54.851Z0F800
G1 X81.589Y54.449Z0F800
G1 X82.217Y53.034Z0F800
G1 X82.151Y53.039Z0F800
G0 Z2.8F500
G0 X82.671Y53.258Z2.8F1000
G1 Z0F500
G1 X82.14Y54.068Z0F800
G1 X82.018Y54.182Z0F800
G1 X81.973Y54.239Z0F800
G1 X82.004Y54.249Z0F800
G1 X82.11Y54.22Z0F800
G1 X82.512Y54.151Z0F800
G1 X82.678Y53.673Z0F800
G1 X82.759Y53.621Z0F800
G1 X82.784Y53.499Z0F800
G1 X82.754Y53.361Z0F800
G1 X82.671Y53.258Z0F800
G0 Z2.8F500
G0 X83.257Y52.957Z2.8F1000
G1 Z0F500
G1 X83.384Y52.838Z0F800
G1 X83.331Y52.718Z0F800
G1 X83.204Y52.838Z0F800
G1 X83.257Y52.957Z0F800
G0 Z2.8F500
G0 X82.548Y54.461Z2.8F1000
G1 Z0F500
G1 X82.232Y54.684Z0F800
G1 X82.181Y54.997Z0F800
G1 X82.13Y55.064Z0F800
G1 X82.097Y55.071Z0F800
G1 X82.078Y55.016Z0F800
G1 X82.072Y54.897Z0F800
G1 X82.055Y54.731Z0F800
G1 X82.013Y54.638Z0F800
G1 X81.951Y54.61Z0F800
G1 X81.88Y54.641Z0F800
G1 X81.805Y54.726Z0F800
G1 X81.734Y54.859Z0F800
G1 X81.676Y55.033Z0F800
G1 X81.637Y55.242Z0F800
G1 X81.626Y55.377Z0F800
G1 X81.63Y55.476Z0F800
G1 X81.65Y55.538Z0F800
G1 X81.686Y55.564Z0F800
G1 X81.741Y55.555Z0F800
G1 X81.814Y55.509Z0F800
G1 X81.907Y55.429Z0F800
G1 X82.022Y55.313Z0F800
G1 X82.548Y54.461Z0F800
G0 Z2.8F500
G0 X81.689Y55.834Z2.8F1000
G1 Z0F500
G1 X81.003Y55.583Z0F800
G1 X80.907Y55.635Z0F800
G1 X80.88Y55.755Z0F800
G1 X80.921Y55.889Z0F800
G1 X81.026Y55.984Z0F800
G1 X81.228Y56.03Z0F800
G1 X81.43Y56.014Z0F800
G1 X81.596Y55.946Z0F800
G1 X81.689Y55.834Z0F800
G0 Z2.8F500
G0 X80.698Y55.941Z2.8F1000
G1 Z0F500
G1 X80.645Y55.822Z0F800
G1 X80.519Y55.941Z0F800
G1 X80.571Y56.061Z0F800
G1 X80.698Y55.941Z0F800
G0 Z2.8F500
G0 X79.747Y56.142Z2.8F1000
G1 Z0F500
G1 X79.721Y56.085Z0F800
G1 X79.68Y56.072Z0F800
G1 X79.624Y56.103Z0F800
G1 X79.555Y56.179Z0F800
G1 X79.472Y56.299Z0F800
G1 X79.349Y56.664Z0F800
G1 X79.284Y56.704Z0F800
G1 X79.211Y56.775Z0F800
G1 X79.13Y56.872Z0F800
G1 X79.044Y56.993Z0F800
G1 X78.863Y57.29Z0F800
G1 X78.681Y57.635Z0F800
G1 X78.515Y57.998Z0F800
G1 X78.377Y58.35Z0F800
G1 X78.284Y58.662Z0F800
G1 X78.249Y58.902Z0F800
G1 X77.955Y59.04Z0F800
G1 X77.904Y59.134Z0F800
G1 X77.912Y59.2Z0F800
G1 X77.944Y59.232Z0F800
G1 X77.998Y59.27Z0F800
G1 X78.077Y59.315Z0F800
G1 X78.183Y59.373Z0F800
G1 X78.314Y59.419Z0F800
G1 X78.424Y59.38Z0F800
G1 X78.481Y59.32Z0F800
G1 X78.544Y59.229Z0F800
G1 X78.617Y59.105Z0F800
G1 X78.703Y58.943Z0F800
G1 X79.325Y57.658Z0F800
G1 X79.317Y57.556Z0F800
G1 X79.281Y57.526Z0F800
G1 X79.2Y57.568Z0F800
G1 X79.056Y57.684Z0F800
G1 X78.968Y57.758Z0F800
G1 X78.864Y57.842Z0F800
G1 X78.847Y57.851Z0F800
G1 X78.853Y57.838Z0F800
G1 X78.88Y57.803Z0F800
G1 X78.997Y57.663Z0F800
G1 X79.207Y57.185Z0F800
G1 X79.213Y57.076Z0F800
G1 X79.23Y57.033Z0F800
G1 X79.265Y57.053Z0F800
G1 X79.322Y57.134Z0F800
G1 X79.382Y57.208Z0F800
G1 X79.44Y57.238Z0F800
G1 X79.497Y57.226Z0F800
G1 X79.551Y57.173Z0F800
G1 X79.602Y57.08Z0F800
G1 X79.649Y56.947Z0F800
G1 X79.692Y56.776Z0F800
G1 X79.729Y56.568Z0F800
G1 X79.751Y56.384Z0F800
G1 X79.757Y56.242Z0F800
G1 X79.747Y56.142Z0F800

; Color 1 picking sequence
G1 Z10 F500;         ; Raise brush to safe height
G0 X2 Y0 F1000;     ; Rapid move to brush cleaning position
G1 Z0 F500;         ; Lower brush for cleaning - controlled movement
G1 Z2 F500;         ; Raise brush slightly - controlled movement
G1 X22 Y0 Z8 F500;     ; Move across cleaning area - controlled movement
G1 Z8 F500;         ; Maintain brush height - controlled movement
G0 X41 Y0 F1200;    ; Rapid move to color 1 position
G1 Z0 F500;         ; Lower into color - controlled movement
G1 X35 Y1 F500;     ; Small movement in paint - controlled movement
G1 Z7 F500;         ; Raise from color - controlled movement
G1 X38 Y1 F500;     ; Movement in paint - controlled movement
G1 Z1 F500;         ; Lower slightly - controlled movement
G1 X27 Y10 Z8 F500;     ; Move in paint - controlled movement
G1 Z8 F500;         ; Raise brush - controlled movement
G1 F1000;           ; Set feed rate to 1000
G0 Z2.8F500
G0 X80.273Y56.658Z2.8F1000
G1 Z0F500
G1 X79.683Y57.593Z0F800
G1 X79.696Y57.683Z0F800
G1 X79.731Y57.725Z0F800
G1 X79.784Y57.721Z0F800
G1 X79.851Y57.676Z0F800
G1 X79.928Y57.594Z0F800
G1 X80.011Y57.477Z0F800
G1 X80.096Y57.331Z0F800
G1 X80.177Y57.158Z0F800
G1 X80.273Y56.658Z0F800
G0 Z2.8F500
G0 X80.598Y57.141Z2.8F1000
G1 Z0F500
G1 X80.557Y57.164Z0F800
G1 X80.529Y57.208Z0F800
G1 X80.519Y57.275Z0F800
G1 X80.321Y57.633Z0F800
G1 X80.228Y57.744Z0F800
G1 X80.194Y57.81Z0F800
G1 X80.217Y57.843Z0F800
G1 X80.298Y57.851Z0F800
G1 X80.694Y57.689Z0F800
G1 X80.84Y57.331Z0F800
G1 X80.753Y57.198Z0F800
G1 X80.647Y57.14Z0F800
G1 X80.598Z0F800
G0 Z2.8F500
G0 X80.722Y57.989Z2.8F1000
G1 Z0F500
G1 X80.711Y57.994Z0F800
G1 X80.684Y58.021Z0F800
G1 X80.585Y58.143Z0F800
G1 X80.399Y58.491Z0F800
G1 X80.411Y58.562Z0F800
G1 X80.449Y58.544Z0F800
G1 X80.479Y58.499Z0F800
G1 X80.519Y58.429Z0F800
G1 X80.569Y58.333Z0F800
G1 X80.628Y58.209Z0F800
G1 X80.703Y58.05Z0F800
G1 X80.72Y58.007Z0F800
G1 Y57.989Z0F800
G0 Z2.8F500
G0 X80.105Y58.329Z2.8F1000
G1 Z0F500
G1 X80.014Y58.34Z0F800
G1 X79.941Y58.371Z0F800
G1 X79.887Y58.42Z0F800
G1 X79.853Y58.486Z0F800
G1 X79.847Y58.66Z0F800
G1 X79.928Y58.877Z0F800
G1 X79.987Y58.988Z0F800
G1 X80.033Y59.065Z0F800
G1 X80.068Y59.106Z0F800
G1 X80.096Y59.111Z0F800
G1 X80.12Y59.076Z0F800
G1 X80.143Y59Z0F800
G1 X80.168Y58.881Z0F800
G1 X80.2Y58.717Z0F800
G1 X80.105Y58.329Z0F800
G0 Z2.8F500
G0 X79.587Y58.239Z2.8F1000
G1 Z0F500
G1 X79.765Y57.893Z0F800
G1 X79.506Y58.039Z0F800
G1 X79.421Y58.162Z0F800
G1 X79.364Y58.261Z0F800
G1 X79.336Y58.336Z0F800
G1 Y58.382Z0F800
G1 X79.362Y58.398Z0F800
G1 X79.413Y58.382Z0F800
G1 X79.488Y58.329Z0F800
G1 X79.587Y58.239Z0F800
G0 Z2.8F500
G0 X79.696Y58.937Z2.8F1000
G1 Z0F500
G1 Y58.975Z0F800
G1 X79.728Y59.075Z0F800
G1 X79.321Y59.53Z0F800
G1 X79.279Y59.609Z0F800
G1 X79.253Y59.666Z0F800
G1 X79.244Y59.702Z0F800
G1 X79.256Y59.718Z0F800
G1 X79.29Y59.713Z0F800
G1 X79.35Y59.689Z0F800
G1 X79.437Y59.647Z0F800
G1 X79.555Y59.586Z0F800
G1 X79.92Y59.311Z0F800
G1 X79.789Y59.045Z0F800
G1 X79.726Y58.961Z0F800
G1 X79.696Y58.937Z0F800
G0 Z2.8F500
G0 X79.76Y59.792Z2.8F1000
G1 Z0F500
G1 X79.716Y59.809Z0F800
G1 X79.626Y59.878Z0F800
G1 X79.505Y59.989Z0F800
G1 X79.453Y60.063Z0F800
G1 X79.469Y60.106Z0F800
G1 X79.551Y60.119Z0F800
G1 X79.733Y59.923Z0F800
G1 X79.764Y59.83Z0F800
G1 X79.76Y59.792Z0F800
G0 Z2.8F500
G0 X78.996Y60.44Z2.8F1000
G1 Z0F500
G1 X78.947Y60.454Z0F800
G1 X78.9Y60.507Z0F800
G1 X78.857Y60.596Z0F800
G1 X78.821Y60.72Z0F800
G1 X78.796Y60.875Z0F800
G1 X78.786Y61.029Z0F800
G1 X78.806Y61.107Z0F800
G1 X78.864Y61.118Z0F800
G1 X78.968Y61.074Z0F800
G1 X79.115Y60.652Z0F800
G1 X79.082Y60.537Z0F800
G1 X79.042Y60.467Z0F800
G1 X78.996Y60.44Z0F800
G0 Z2.8F500
G0 X78.498Y60.325Z2.8F1000
G1 Z0F500
G1 X78.268Y60.364Z0F800
G1 X78.364Y60.46Z0F800
G1 X78.498Y60.325Z0F800
G0 Z2.8F500
G0 X78.337Y60.654Z2.8F1000
G1 Z0F500
G1 X78.287Y60.645Z0F800
G1 X78.211Y60.665Z0F800
G1 X78.128Y60.734Z0F800
G1 X78.026Y60.871Z0F800
G1 X77.917Y61.053Z0F800
G1 X77.812Y61.255Z0F800
G1 X77.723Y61.453Z0F800
G1 X77.661Y61.625Z0F800
G1 X77.639Y61.745Z0F800
G1 X77.667Y61.791Z0F800
G1 X78.07Y61.315Z0F800
G1 X78.181Y61.132Z0F800
G1 X78.266Y60.978Z0F800
G1 X78.324Y60.853Z0F800
G1 X78.355Y60.758Z0F800
G1 X78.359Y60.691Z0F800
G1 X78.337Y60.654Z0F800
G0 Z2.8F500
G0 X77.606Y60.286Z2.8F1000
G1 Z0F500
G1 X77.421Y60.511Z0F800
G1 X77.317Y60.573Z0F800
G1 X77.199Y60.697Z0F800
G1 X77.077Y60.866Z0F800
G1 X76.962Y61.059Z0F800
G1 X76.863Y61.258Z0F800
G1 X76.792Y61.443Z0F800
G1 X76.759Y61.595Z0F800
G1 X76.773Y61.696Z0F800
G1 X76.273Y62.613Z0F800
G1 X76.333Y62.667Z0F800
G1 X76.418Y62.684Z0F800
G1 X76.521Y62.668Z0F800
G1 X76.636Y62.623Z0F800
G1 X76.868Y62.46Z0F800
G1 X77.057Y62.223Z0F800
G1 X77.146Y62.049Z0F800
G1 X77.176Y61.936Z0F800
G1 X77.146Y61.854Z0F800
G1 X77.057Y61.776Z0F800
G1 X76.973Y61.713Z0F800
G1 X76.948Y61.684Z0F800
G1 X76.985Z0F800
G1 X77.085Y61.715Z0F800
G1 X77.174Y61.726Z0F800
G1 X77.258Y61.704Z0F800
G1 X77.334Y61.65Z0F800
G1 X77.401Y61.568Z0F800
G1 X77.498Y61.333Z0F800
G1 X77.534Y61.023Z0F800
G1 X77.945Y59.63Z0F800
G1 X77.898Y59.602Z0F800
G1 X77.837Y59.634Z0F800
G1 X77.771Y59.71Z0F800
G1 X77.707Y59.818Z0F800
G1 X77.651Y59.943Z0F800
G1 X77.611Y60.073Z0F800
G1 X77.593Y60.192Z0F800
G1 X77.606Y60.286Z0F800
G0 Z2.8F500
G0 X78.299Y61.752Z2.8F1000
G1 Z0F500
G1 X78.056Y62.338Z0F800
G1 X77.952Y62.324Z0F800
G1 X77.898Y62.366Z0F800
G1 X77.902Y62.446Z0F800
G1 X77.972Y62.547Z0F800
G1 X78.096Y62.618Z0F800
G1 X78.226Z0F800
G1 X78.328Y62.559Z0F800
G1 X78.37Y62.446Z0F800
G1 X78.844Y61.675Z0F800
G1 X78.299Y61.752Z0F800
G0 Z2.8F500
G0 X77.334Y62.578Z2.8F1000
G1 Z0F500
G1 X77.057Y62.785Z0F800
G1 X77.107Y62.833Z0F800
G1 X77.384Y62.626Z0F800
G1 X77.334Y62.578Z0F800
G0 Z2.8F500
G0 X77.899Y62.984Z2.8F1000
G1 Z0F500
G1 X77.773Y63.104Z0F800
G0 Z2.8F500
G0 X77.952Z2.8F1000
G1 Z0F500
G1 X77.826Y63.223Z0F800
G0 Z2.8F500
G0 Z2.8F1000
G1 Z0F500
G1 X77.952Y63.104Z0F800
G0 Z2.8F500
G0 Z2.8F1000
G1 Z0F500
G1 X77.899Y62.984Z0F800
G0 Z2.8F500
G0 X78.145Y63.004Z2.8F1000
G1 Z0F500
G1 X78.177Y62.912Z0F800
G1 X78.192Y62.845Z0F800
G1 X78.189Y62.798Z0F800
G1 X78.12Y62.754Z0F800
G1 X77.959Y62.746Z0F800
G1 X77.836Y62.752Z0F800
G1 X77.737Y62.774Z0F800
G1 X77.661Y62.811Z0F800
G1 X77.609Y62.865Z0F800
G1 X77.577Y62.938Z0F800
G1 X77.567Y63.031Z0F800
G1 X77.576Y63.145Z0F800
G1 X77.604Y63.282Z0F800
G1 X77.646Y63.408Z0F800
G1 X77.695Y63.492Z0F800
G1 X77.751Y63.534Z0F800
G1 X77.813Z0F800
G1 X77.879Y63.493Z0F800
G1 X77.949Y63.411Z0F800
G1 X78.022Y63.288Z0F800
G1 X78.096Y63.125Z0F800
G1 X78.145Y63.004Z0F800

; Color 1 picking sequence
G1 Z10 F500;         ; Raise brush to safe height
G0 X2 Y0 F1000;     ; Rapid move to brush cleaning position
G1 Z0 F500;         ; Lower brush for cleaning - controlled movement
G1 Z2 F500;         ; Raise brush slightly - controlled movement
G1 X22 Y0 Z8 F500;     ; Move across cleaning area - controlled movement
G1 Z8 F500;         ; Maintain brush height - controlled movement
G0 X41 Y0 F1200;    ; Rapid move to color 1 position
G1 Z0 F500;         ; Lower into color - controlled movement
G1 X35 Y1 F500;     ; Small movement in paint - controlled movement
G1 Z7 F500;         ; Raise from color - controlled movement
G1 X38 Y1 F500;     ; Movement in paint - controlled movement
G1 Z1 F500;         ; Lower slightly - controlled movement
G1 X27 Y10 Z8 F500;     ; Move in paint - controlled movement
G1 Z8 F500;         ; Raise brush - controlled movement
G1 F1000;           ; Set feed rate to 1000
G0 Z2.8F500
G0 X77.256Y63.849Z2.8F1000
G1 Z0F500
G1 X77.236Y63.87Z0F800
G1 X77.208Y63.921Z0F800
G1 X77.169Y64.004Z0F800
G1 X77.118Y64.118Z0F800
G1 X77.023Y64.579Z0F800
G1 X77.063Y64.615Z0F800
G1 X77.106Y64.611Z0F800
G1 X77.151Y64.572Z0F800
G1 X77.193Y64.503Z0F800
G1 X77.261Y64.303Z0F800
G1 X77.284Y64.059Z0F800
G1 X77.281Y63.964Z0F800
G1 X77.276Y63.896Z0F800
G1 X77.269Y63.858Z0F800
G1 X77.256Y63.849Z0F800
G0 Z2.8F500
G0 X76.663Y63.701Z2.8F1000
G1 Z0F500
G1 X76.282Y64.327Z0F800
G1 X76.247Y64.435Z0F800
G1 Y64.503Z0F800
G1 X76.269Y64.534Z0F800
G1 X76.314Y64.529Z0F800
G1 X76.374Y64.492Z0F800
G1 X76.443Y64.425Z0F800
G1 X76.516Y64.329Z0F800
G1 X76.586Y64.208Z0F800
G1 X76.663Y63.701Z0F800
G0 Z2.8F500
G0 X76.19Y63.645Z2.8F1000
G1 Z0F500
G1 X76.2Y63.463Z0F800
G1 X76.107Y62.984Z0F800
G1 X75.926Y63.832Z0F800
G1 X75.971Y63.942Z0F800
G1 X76.017Y64.001Z0F800
G1 X76.061Y64.013Z0F800
G1 X76.103Y63.981Z0F800
G1 X76.14Y63.907Z0F800
G1 X76.17Y63.794Z0F800
G1 X76.19Y63.645Z0F800
G0 Z2.8F500
G0 X75.757Y63.915Z2.8F1000
G1 Z0F500
G1 X75.695Y63.867Z0F800
G1 X75.613Y63.886Z0F800
G1 X74.998Y65.163Z0F800
G1 X74.861Y65.383Z0F800
G1 X74.795Y65.65Z0F800
G1 X74.79Y65.773Z0F800
G1 X74.807Y65.874Z0F800
G1 X74.846Y65.943Z0F800
G1 X74.909Y65.969Z0F800
G1 X75.678Y64.877Z0F800
G1 X75.796Y64.512Z0F800
G1 X75.821Y64.157Z0F800
G1 X75.8Y64.016Z0F800
G1 X75.757Y63.915Z0F800
G0 Z2.8F500
G0 X76.288Y64.656Z2.8F1000
G1 Z0F500
G1 X76.161Y64.775Z0F800
G1 X76.214Y64.894Z0F800
G1 X76.34Y64.775Z0F800
G1 X76.288Y64.656Z0F800
G0 Z2.8F500
G0 X76.644Y65.163Z2.8F1000
G1 Z0F500
G1 X76.609Y65.181Z0F800
G1 X76.562Y65.221Z0F800
G1 X76.5Y65.281Z0F800
G1 X76.455Y65.664Z0F800
G1 X76.527Y65.748Z0F800
G1 X76.584Y65.804Z0F800
G1 X76.627Y65.83Z0F800
G1 X76.658Y65.825Z0F800
G1 X76.678Y65.788Z0F800
G1 X76.691Y65.717Z0F800
G1 X76.697Y65.61Z0F800
G1 Y65.466Z0F800
G1 Y65.347Z0F800
G1 X76.694Y65.26Z0F800
G1 X76.685Y65.201Z0F800
G1 X76.669Y65.169Z0F800
G1 X76.644Y65.163Z0F800
G0 Z2.8F500
G0 X76.937Y65.148Z2.8F1000
G1 Z0F500
G1 X76.956Y65.238Z0F800
G1 X77.009Z0F800
G1 X77.089Y65.152Z0F800
G1 X77.191Y64.984Z0F800
G1 X77.263Y64.844Z0F800
G1 X77.28Y64.784Z0F800
G1 X77.239Y64.799Z0F800
G1 X77.136Y64.879Z0F800
G1 X76.937Y65.148Z0F800
G0 Z2.8F500
G0 X76.271Y65.752Z2.8F1000
G1 Z0F500
G1 X76.225Y65.736Z0F800
G1 X76.221Y65.777Z0F800
G1 X76.255Y65.879Z0F800
G1 X75.863Y66.281Z0F800
G1 X76.132Y66.406Z0F800
G1 X76.275Y66.373Z0F800
G1 X76.328Z0F800
G1 X76.295Y66.414Z0F800
G1 X76.179Y66.504Z0F800
G1 X76.043Y66.805Z0F800
G1 X76.086Y66.844Z0F800
G1 X76.139Z0F800
G1 X76.2Y66.806Z0F800
G1 X76.264Y66.738Z0F800
G1 X76.389Y66.527Z0F800
G1 X76.489Y66.242Z0F800
G1 X76.365Y65.824Z0F800
G1 X76.271Y65.752Z0F800
G0 Z2.8F500
G0 X75.744Y66.099Z2.8F1000
G1 Z0F500
G1 X75.266Y66.162Z0F800
G1 X75.505Y66.207Z0F800
G1 X75.744Y66.099Z0F800
G0 Z2.8F500
G0 X74.491Y66.401Z2.8F1000
G1 Z0F500
G1 X74.47Y66.388Z0F800
G1 X74.441Y66.403Z0F800
G1 X74.402Y66.445Z0F800
G1 X74.352Y66.512Z0F800
G1 X74.414Y67.352Z0F800
G1 X74.517Y66.787Z0F800
G1 Y66.635Z0F800
G1 X74.513Y66.522Z0F800
G1 X74.505Y66.445Z0F800
G1 X74.491Y66.401Z0F800
G0 Z2.8F500
G0 X75.031Y66.976Z2.8F1000
G1 Z0F500
G1 X74.956Y67.02Z0F800
G1 X74.43Y68.179Z0F800
G1 X74.438Y68.23Z0F800
G1 X74.459Y68.246Z0F800
G1 X74.493Y68.226Z0F800
G1 X74.541Y68.173Z0F800
G1 X74.601Y68.086Z0F800
G1 X74.674Y67.966Z0F800
G1 X74.758Y67.813Z0F800
G1 X74.854Y67.628Z0F800
G1 X74.957Y67.421Z0F800
G1 X75.033Y67.254Z0F800
G1 X75.084Y67.127Z0F800
G1 X75.108Y67.037Z0F800
G1 Y66.983Z0F800
G1 X75.082Y66.963Z0F800
G1 X75.031Y66.976Z0F800
G0 Z2.8F500
G0 X75.385Y67.408Z2.8F1000
G1 Z0F500
G1 X75.505Y67.521Z0F800
G1 X75.624Y67.334Z0F800
G1 X75.385Y67.408Z0F800
G0 Z2.8F500
G0 X75.803Y67.282Z2.8F1000
G1 Z0F500
G1 X75.93Y67.401Z0F800
G0 Z2.8F500
G0 Z2.8F1000
G1 Z0F500
G1 X75.803Y67.282Z0F800
G0 Z2.8F500
G0 Z2.8F1000
G1 Z0F500
G1 X75.856Y67.162Z0F800
G0 Z2.8F500
G0 Z2.8F1000
G1 Z0F500
G1 X75.982Y67.282Z0F800
G0 Z2.8F500
G0 X75.473Y68.164Z2.8F1000
G1 Z0F500
G1 X75.439Y68.156Z0F800
G1 X75.397Y68.176Z0F800
G1 X75.306Y68.289Z0F800
G1 X75.23Y68.48Z0F800
G1 X75.205Y68.599Z0F800
G1 X75.211Y68.653Z0F800
G1 X75.253Y68.648Z0F800
G1 X75.335Y68.587Z0F800
G1 X75.505Y68.275Z0F800
G1 X75.496Y68.202Z0F800
G1 X75.473Y68.164Z0F800
G0 Z2.8F500
G0 X74.939Y68.356Z2.8F1000
G1 Z0F500
G1 X74.906Y68.393Z0F800
G1 X74.854Y68.505Z0F800
G1 Y68.923Z0F800
G1 X74.906Y69.035Z0F800
G1 X74.939Y69.072Z0F800
G1 X74.965Y69.035Z0F800
G1 X74.995Y68.923Z0F800
G1 Y68.505Z0F800
G1 X74.965Y68.393Z0F800
G1 X74.939Y68.356Z0F800
G0 Z2.8F500
G0 X74.037Y68.168Z2.8F1000
G1 Z0F500
G1 X74.125Y67.987Z0F800
G1 X74.185Y67.842Z0F800
G1 X74.22Y67.724Z0F800
G1 Y67.534Z0F800
G1 X74.142Y67.342Z0F800
G1 X73.978Y67.026Z0F800
G1 X73.069Y69.107Z0F800
G1 X73.235Y69.167Z0F800
G1 X73.396Y69.115Z0F800
G1 X73.551Y68.983Z0F800
G1 X73.632Y68.881Z0F800
G1 X73.718Y68.751Z0F800
G1 X73.813Y68.59Z0F800
G1 X73.919Y68.395Z0F800
G1 X74.037Y68.168Z0F800

; Color 1 picking sequence
G1 Z10 F500;         ; Raise brush to safe height
G0 X2 Y0 F1000;     ; Rapid move to brush cleaning position
G1 Z0 F500;         ; Lower brush for cleaning - controlled movement
G1 Z2 F500;         ; Raise brush slightly - controlled movement
G1 X22 Y0 Z8 F500;     ; Move across cleaning area - controlled movement
G1 Z8 F500;         ; Maintain brush height - controlled movement
G0 X41 Y0 F1200;    ; Rapid move to color 1 position
G1 Z0 F500;         ; Lower into color - controlled movement
G1 X35 Y1 F500;     ; Small movement in paint - controlled movement
G1 Z7 F500;         ; Raise from color - controlled movement
G1 X38 Y1 F500;     ; Movement in paint - controlled movement
G1 Z1 F500;         ; Lower slightly - controlled movement
G1 X27 Y10 Z8 F500;     ; Move in paint - controlled movement
G1 Z8 F500;         ; Raise brush - controlled movement
G1 F1000;           ; Set feed rate to 1000
G0 Z2.8F500
G0 X74.655Y69.072Z2.8F1000
G1 Z0F500
G1 X74.848Y69.192Z0F800
G0 Z2.8F500
G0 X74.803Y69.311Z2.8F1000
G1 Z0F500
G1 X74.61Y69.192Z0F800
G0 Z2.8F500
G0 Z2.8F1000
G1 Z0F500
G1 X74.803Y69.311Z0F800
G0 Z2.8F500
G0 X74.61Y69.192Z2.8F1000
G1 Z0F500
G1 X74.655Y69.072Z0F800
G0 Z2.8F500
G0 X74.55Y69.43Z2.8F1000
G1 Z0F500
G1 X74.392Y69.461Z0F800
G1 X74.318Y69.535Z0F800
G1 Y69.58Z0F800
G1 X74.338Y69.625Z0F800
G1 X74.386Y69.667Z0F800
G1 X74.46Y69.703Z0F800
G1 X74.789Y69.543Z0F800
G1 X74.55Y69.43Z0F800
G0 Z2.8F500
G0 X72.77Y69.841Z2.8F1000
G1 Z0F500
G1 X72.725Y70.147Z0F800
G1 X72.756Y70.253Z0F800
G1 X72.785Y70.326Z0F800
G1 X72.811Y70.366Z0F800
G1 X72.834Y70.374Z0F800
G1 X72.853Y70.349Z0F800
G1 X72.867Y70.291Z0F800
G1 X72.876Y70.201Z0F800
G1 X72.879Y70.08Z0F800
G1 X72.77Y69.841Z0F800
G0 Z2.8F500
G0 X72.475Y70.457Z2.8F1000
G1 Z0F500
G1 X72.413Y70.452Z0F800
G1 X72.336Y70.512Z0F800
G1 X72.236Y70.64Z0F800
G1 X72.134Y70.795Z0F800
G1 X72.102Y70.889Z0F800
G1 X72.141Y70.949Z0F800
G1 X72.251Y71.002Z0F800
G1 X72.363Y71.044Z0F800
G1 X72.451Y71.071Z0F800
G1 X72.519Y71.084Z0F800
G1 X72.569Y71.08Z0F800
G1 X72.625Y71.022Z0F800
G1 X72.638Y70.893Z0F800
G1 X72.534Y70.523Z0F800
G1 X72.475Y70.457Z0F800
G0 Z2.8F500
G0 X70.835Y73.438Z2.8F1000
G1 Z0F500
G1 X70.781Y73.516Z0F800
G1 X70.796Y73.612Z0F800
G1 X70.865Y73.694Z0F800
G1 X70.972Y73.728Z0F800
G1 X70.835Y73.438Z0F800
G0 Z2.8F500
G0 X70.611Y74.146Z2.8F1000
G1 Z0F500
G1 X70.73Y74.272Z0F800
G0 Z2.8F500
G0 X70.611Y74.325Z2.8F1000
G1 Z0F500
G1 X70.491Y74.198Z0F800
G0 Z2.8F500
G0 Z2.8F1000
G1 Z0F500
G1 X70.611Y74.325Z0F800
G0 Z2.8F500
G0 X70.491Y74.198Z2.8F1000
G1 Z0F500
G1 X70.611Y74.146Z0F800
G0 Z2.8F500
G0 X73.095Y76.951Z2.8F1000
G1 Z0F500
G1 X72.819Y77.19Z0F800
G1 X72.663Y77.429Z0F800
G1 X73.095Y76.951Z0F800
G0 Z2.8F500
G0 X68.82Y77.548Z2.8F1000
G1 Z0F500
G1 X68.581Z0F800
G1 X68.701Y77.667Z0F800
G1 X68.82Y77.548Z0F800
G0 Z2.8F500
G0 X68.596Y77.8Z2.8F1000
G1 Z0F500
G1 X68.485Y77.79Z0F800
G1 X68.283Y77.667Z0F800
G1 X68.306Y77.617Z0F800
G1 Y77.581Z0F800
G1 X68.277Y77.56Z0F800
G1 X68.226Y77.554Z0F800
G1 X68.151Y77.562Z0F800
G1 X68.052Y77.586Z0F800
G1 X67.929Y77.624Z0F800
G1 X67.783Y77.677Z0F800
G1 X66.42Y78.235Z0F800
G1 X66.379Y78.373Z0F800
G1 X66.387Y78.454Z0F800
G1 X66.453Y78.493Z0F800
G1 X66.586Y78.502Z0F800
G1 X67.96Y78.074Z0F800
G1 X68.166Y78.032Z0F800
G1 X68.342Y77.986Z0F800
G1 X68.484Y77.939Z0F800
G1 X68.585Y77.895Z0F800
G1 X68.641Y77.855Z0F800
G1 X68.646Y77.822Z0F800
G1 X68.596Y77.8Z0F800
G0 Z2.8F500
G0 X66.179Y78.262Z2.8F1000
G1 Z0F500
G1 X66.117Y78.231Z0F800
G1 X66.02Z0F800
G1 X65.888Y78.267Z0F800
G1 X64.972Y78.675Z0F800
G1 X64.951Y78.833Z0F800
G1 X64.982Y78.912Z0F800
G1 X65.023Y78.927Z0F800
G1 X65.086Z0F800
G1 X65.173Y78.919Z0F800
G1 X65.286Y78.9Z0F800
G1 X65.925Y78.665Z0F800
G1 X66.052Y78.571Z0F800
G1 X66.141Y78.478Z0F800
G1 X66.191Y78.392Z0F800
G1 X66.203Y78.317Z0F800
G1 X66.179Y78.262Z0F800
G0 Z2.8F500
G0 X64.649Y78.734Z2.8F1000
G1 Z0F500
G1 X64.379Y78.771Z0F800
G1 X64.257Y78.725Z0F800
G1 X64.078Z0F800
G1 X63.864Y78.756Z0F800
G1 X63.641Y78.816Z0F800
G1 X63.433Y78.896Z0F800
G1 X63.264Y78.988Z0F800
G1 X63.158Y79.084Z0F800
G1 X63.139Y79.176Z0F800
G1 X63.096Y79.339Z0F800
G1 X62.365Y79.214Z0F800
G1 X61.717Y79.492Z0F800
G1 X61.885Y79.517Z0F800
G1 X62.024Y79.482Z0F800
G1 X62.1Y79.485Z0F800
G1 X62.122Y79.529Z0F800
G1 X62.099Y79.619Z0F800
G1 X62.078Y79.712Z0F800
G1 X62.113Y79.759Z0F800
G1 X62.219Y79.766Z0F800
G1 X62.409Y79.738Z0F800
G1 X63.444Y79.1Z0F800
G1 X63.494Y79.309Z0F800
G1 X63.475Y79.395Z0F800
G1 X63.494Y79.414Z0F800
G1 X63.556Y79.366Z0F800
G1 X63.666Y79.249Z0F800
G1 X63.849Y79.079Z0F800
G1 X64.008Y78.992Z0F800
G1 X64.072Y78.983Z0F800
G1 X64.121Y78.997Z0F800
G1 X64.153Y79.036Z0F800
G1 X64.164Y79.1Z0F800
G1 X64.275Y79.219Z0F800
G1 X64.649Y78.734Z0F800
G0 Z2.8F500
G0 X63.712Y78.274Z2.8F1000
G1 Z0F500
G1 X63.801Y78.155Z0F800
G1 X63.861Y78.026Z0F800
G1 X63.868Y77.951Z0F800
G1 X63.817Y77.915Z0F800
G1 X63.701Y77.906Z0F800
G1 X63.44Y77.929Z0F800
G1 X63.261Y77.995Z0F800
G1 X63.204Y78.042Z0F800
G1 X63.171Y78.098Z0F800
G1 X63.162Y78.163Z0F800
G1 X63.178Y78.235Z0F800
G1 X62.374Y78.374Z0F800
G1 X62.046Y78.338Z0F800
G1 X61.88Y78.38Z0F800
G1 X61.752Y78.42Z0F800
G1 X61.661Y78.457Z0F800
G1 X61.605Y78.493Z0F800
G1 X61.584Y78.528Z0F800
G1 X61.598Y78.562Z0F800
G1 X61.645Y78.598Z0F800
G1 X61.725Y78.634Z0F800
G1 X61.837Y78.682Z0F800
G1 X61.865Y78.711Z0F800
G1 X61.807Y78.727Z0F800
G1 X61.658Y78.735Z0F800
G1 X60.873Y78.854Z0F800
G1 X60.771Y78.803Z0F800
G1 X60.638Y78.784Z0F800
G1 X60.486Y78.792Z0F800
G1 X60.328Y78.825Z0F800
G1 X60.177Y78.878Z0F800
G1 X60.046Y78.948Z0F800
G1 X59.948Y79.031Z0F800
G1 X59.895Y79.125Z0F800
G1 X59.461Y79.411Z0F800
G1 X59.445Y79.496Z0F800
G1 X59.492Y79.538Z0F800
G1 X59.544Y79.544Z0F800
G1 X59.618Y79.541Z0F800
G1 X59.716Y79.528Z0F800
G1 X59.839Y79.508Z0F800
G1 X60.398Y79.324Z0F800
G1 X59.986Y79.086Z0F800
G1 X60.556Y78.941Z0F800
G1 X60.654Y79.008Z0F800
G1 X60.828Y79.047Z0F800
G1 X61.053Y79.06Z0F800
G1 X61.304Y79.049Z0F800
G1 X61.558Y79.017Z0F800
G1 X61.789Y78.965Z0F800
G1 X61.972Y78.896Z0F800
G1 X62.083Y78.811Z0F800
G1 X62.523Y78.685Z0F800
G1 X62.679Y78.703Z0F800
G1 X62.857Y78.688Z0F800
G1 X63.047Y78.644Z0F800
G1 X63.239Y78.576Z0F800
G1 X63.42Y78.489Z0F800
G1 X63.581Y78.387Z0F800
G1 X63.712Y78.274Z0F800

; Color 1 picking sequence
G1 Z10 F500;         ; Raise brush to safe height
G0 X2 Y0 F1000;     ; Rapid move to brush cleaning position
G1 Z0 F500;         ; Lower brush for cleaning - controlled movement
G1 Z2 F500;         ; Raise brush slightly - controlled movement
G1 X22 Y0 Z8 F500;     ; Move across cleaning area - controlled movement
G1 Z8 F500;         ; Maintain brush height - controlled movement
G0 X41 Y0 F1200;    ; Rapid move to color 1 position
G1 Z0 F500;         ; Lower into color - controlled movement
G1 X35 Y1 F500;     ; Small movement in paint - controlled movement
G1 Z7 F500;         ; Raise from color - controlled movement
G1 X38 Y1 F500;     ; Movement in paint - controlled movement
G1 Z1 F500;         ; Lower slightly - controlled movement
G1 X27 Y10 Z8 F500;     ; Move in paint - controlled movement
G1 Z8 F500;         ; Raise brush - controlled movement
G1 F1000;           ; Set feed rate to 1000
G0 Z2.8F500
G0 X61.521Y79.669Z2.8F1000
G1 Z0F500
G1 X61.428Y79.617Z0F800
G1 X61.308Y79.589Z0F800
G1 X61.173Y79.583Z0F800
G1 X61.032Y79.599Z0F800
G1 X60.897Y79.638Z0F800
G1 X60.779Y79.698Z0F800
G1 X60.687Y79.779Z0F800
G1 X60.608Y79.883Z0F800
G1 X60.59Y79.931Z0F800
G1 X60.64Z0F800
G1 X60.762Y79.884Z0F800
G1 X61.24Y79.735Z0F800
G1 X61.343Y79.717Z0F800
G1 X61.369Y79.73Z0F800
G1 X61.315Y79.777Z0F800
G1 X61.18Y79.864Z0F800
G1 X60.862Y79.975Z0F800
G1 X61.19Y80.051Z0F800
G1 X61.57Y79.983Z0F800
G1 X61.577Y79.745Z0F800
G1 X61.521Y79.669Z0F800
G0 Z2.8F500
G0 X60.765Y80.078Z2.8F1000
G1 Z0F500
G1 X60.551Y80.159Z0F800
G1 X60.488Y80.229Z0F800
G1 X60.477Y80.261Z0F800
G1 X60.52Z0F800
G1 X60.618Y80.226Z0F800
G1 X60.765Y80.078Z0F800
G0 Z2.8F500
G0 X60.066Y80.239Z2.8F1000
G1 Z0F500
G1 X59.907Y80.004Z0F800
G1 X59.748Y80.178Z0F800
G1 X59.907Y80.413Z0F800
G1 X60.066Y80.239Z0F800
G0 Z2.8F500
G0 X59.562Y80.041Z2.8F1000
G1 Z0F500
G1 X59.567Y79.999Z0F800
G1 X59.513Y79.993Z0F800
G1 X59.394Y80.019Z0F800
G1 X59.203Y80.095Z0F800
G1 X59.09Y80.185Z0F800
G1 X59.07Y80.227Z0F800
G1 X59.078Y80.262Z0F800
G1 X59.116Y80.285Z0F800
G1 X59.189Y80.293Z0F800
G1 X59.501Y80.124Z0F800
G1 X59.562Y80.041Z0F800
G0 Z2.8F500
G0 X59.151Y80.413Z2.8F1000
G1 Z0F500
G1 X59.109Y80.435Z0F800
G1 X59.001Y80.517Z0F800
G1 X58.838Y80.771Z0F800
G1 X59.047Y80.562Z0F800
G1 X59.129Y80.454Z0F800
G1 X59.151Y80.413Z0F800
G0 Z2.8F500
G0 X58.356Y80.737Z2.8F1000
G1 Z0F500
G1 X58.022Y80.841Z0F800
G1 X57.948Y80.905Z0F800
G1 X57.916Y80.956Z0F800
G1 X57.921Y80.992Z0F800
G1 X57.956Y81.011Z0F800
G1 X58.098Y80.997Z0F800
G1 X58.298Y80.903Z0F800
G1 X58.356Y80.737Z0F800
G0 Z2.8F500
G0 X57.539Y80.771Z2.8F1000
G1 Z0F500
G1 X57.494Y80.652Z0F800
G1 X57.3Y80.771Z0F800
G1 X57.346Y80.89Z0F800
G1 X57.539Y80.771Z0F800
G0 Z2.8F500
G0 X57.121Y80.768Z2.8F1000
G1 Z0F500
G1 X56.832Y80.905Z0F800
G1 X56.91Y80.959Z0F800
G1 X57.006Y80.944Z0F800
G1 X57.087Y80.875Z0F800
G1 X57.121Y80.768Z0F800
G0 Z2.8F500
G0 X57.337Y81.066Z2.8F1000
G1 Z0F500
G1 X57.189Y81.213Z0F800
G1 X57.155Y81.312Z0F800
G1 Y81.355Z0F800
G1 X57.186Y81.343Z0F800
G1 X57.256Y81.28Z0F800
G1 X57.337Y81.066Z0F800
G0 Z2.8F500
G0 X56.728Y81.26Z2.8F1000
G1 Z0F500
G1 X56.701Y81.226Z0F800
G1 X56.652Y81.208Z0F800
G1 X56.495Y81.225Z0F800
G1 X55.979Y81.445Z0F800
G1 X56.309Y81.483Z0F800
G1 X56.698Y81.376Z0F800
G1 X56.728Y81.31Z0F800
G1 Y81.26Z0F800
G0 Z2.8F500
G0 X56.572Y81.03Z2.8F1000
G1 Z0F500
G1 X56.286Z0F800
G1 X56.398Y81.129Z0F800
G1 X56.572Y81.03Z0F800
G0 Z2.8F500
G0 X56.047Y81.018Z2.8F1000
G1 Z0F500
G1 X55.875Y81.04Z0F800
G1 X55.731Y81.123Z0F800
G1 X55.604Y81.277Z0F800
G1 X55.483Y81.511Z0F800
G1 X55.417Y81.674Z0F800
G1 X55.399Y81.762Z0F800
G1 X55.431Y81.789Z0F800
G1 X55.515Y81.767Z0F800
G1 X56.047Y81.018Z0F800
G0 Z2.8F500
G0 X56.113Y80.573Z2.8F1000
G1 Z0F500
G1 X56.286Y80.4Z0F800
G1 X56.252Y80.312Z0F800
G1 X56.173Y80.298Z0F800
G1 X56.08Y80.352Z0F800
G1 X56.006Y80.466Z0F800
G1 X56.113Y80.573Z0F800
G0 Z2.8F500
G0 X55.763Y80.532Z2.8F1000
G1 Z0F500
G1 X55.615Y80.174Z0F800
G1 X55.523Y80.181Z0F800
G1 X55.487Y80.209Z0F800
G1 X55.503Y80.263Z0F800
G1 X55.569Y80.353Z0F800
G1 X55.763Y80.532Z0F800
G0 Z2.8F500
G0 X55.42Y80.489Z2.8F1000
G1 Z0F500
G1 X55.39Y80.413Z0F800
G1 X54.841Y80.167Z0F800
G1 X54.776Y80.478Z0F800
G1 X54.973Y80.413Z0F800
G1 X55.116Y80.457Z0F800
G1 X55.228Y80.489Z0F800
G1 X55.313Y80.508Z0F800
G1 X55.372Y80.515Z0F800
G1 X55.42Y80.489Z0F800
G0 Z2.8F500
G0 X55.152Y80.771Z2.8F1000
G1 Z0F500
G1 X54.794Z0F800
G1 X55.046Y80.89Z0F800
G1 X55.152Y80.771Z0F800
G0 Z2.8F500
G0 X54.495Y80.883Z2.8F1000
G1 Z0F500
G1 X54.256Y80.957Z0F800
G1 X54.376Y81.069Z0F800
G1 X54.495Y80.883Z0F800
G0 Z2.8F500
G0 X54.018Y80.711Z2.8F1000
G1 Z0F500
G1 X53.839Y80.532Z0F800
G1 X53.66Y80.711Z0F800
G1 X53.839Y80.89Z0F800
G1 X54.018Y80.711Z0F800
G0 Z2.8F500
G0 X53.582Y80.99Z2.8F1000
G1 Z0F500
G1 X53.074Y80.776Z0F800
G1 X52.979Z0F800
G1 X52.913Y80.783Z0F800
G1 X52.877Y80.792Z0F800
G1 X52.872Y80.808Z0F800
G1 X52.899Y80.832Z0F800
G1 X52.959Y80.866Z0F800
G1 X53.053Y80.913Z0F800
G1 X53.292Y81.025Z0F800
G1 X53.377Y81.07Z0F800
G1 X53.435Y81.106Z0F800
G1 X53.47Y81.137Z0F800
G1 Y81.184Z0F800
G1 X53.378Y81.218Z0F800
G1 X53.026Y81.14Z0F800
G1 X52.95Y81.072Z0F800
G1 X52.885Y81.03Z0F800
G1 X52.833Y81.012Z0F800
G1 X52.798Y81.017Z0F800
G1 X52.78Y81.045Z0F800
G1 Y81.094Z0F800
G1 X52.805Y81.162Z0F800
G1 X52.852Y81.248Z0F800
G1 X52.965Y81.407Z0F800
G1 X53.076Y81.472Z0F800
G1 X53.145Z0F800
G1 X53.231Y81.45Z0F800
G1 X53.339Y81.409Z0F800
G1 X53.476Y81.348Z0F800
G1 X53.64Y81.266Z0F800
G1 X53.707Y81.198Z0F800
G1 X53.685Y81.115Z0F800
G1 X53.582Y80.99Z0F800
G0 Z2.8F500
G0 X54.406Y81.442Z2.8F1000
G1 Z0F500
G1 X53.825Y81.812Z0F800
G1 X54.591Y81.635Z0F800
G1 X54.645Y81.67Z0F800
G1 X54.625Y81.728Z0F800
G1 X54.545Y81.801Z0F800
G1 X54.421Y81.88Z0F800
G1 X54.103Y82.022Z0F800
G1 X53.792Y82.084Z0F800
G1 X53.48Y82.203Z0F800
G1 X53.453Y82.256Z0F800
G1 X53.449Y82.291Z0F800
G1 X53.476Y82.31Z0F800
G1 X53.539Z0F800
G1 X53.645Y82.294Z0F800
G1 X53.801Y82.257Z0F800
G1 X54.012Y82.202Z0F800
G1 X54.286Y82.126Z0F800
G1 X54.851Y81.844Z0F800
G1 X54.724Y81.683Z0F800
G1 X54.731Y81.521Z0F800
G1 X54.69Y81.434Z0F800
G1 X54.587Y81.411Z0F800
G1 X54.406Y81.442Z0F800
G0 Z2.8F500
G0 X52.466Y81.607Z2.8F1000
G1 Z0F500
G1 Y81.248Z0F800
G1 X52.346Y81.428Z0F800
G1 X52.466Y81.607Z0F800
G0 Z2.8F500
G0 X52.532Y82.158Z2.8F1000
G1 Z0F500
G1 X52.644Y82.205Z0F800
G1 X52.346Y82.276Z0F800
G1 X52.532Y82.158Z0F800

; Color 1 picking sequence
G1 Z10 F500;         ; Raise brush to safe height
G0 X2 Y0 F1000;     ; Rapid move to brush cleaning position
G1 Z0 F500;         ; Lower brush for cleaning - controlled movement
G1 Z2 F500;         ; Raise brush slightly - controlled movement
G1 X22 Y0 Z8 F500;     ; Move across cleaning area - controlled movement
G1 Z8 F500;         ; Maintain brush height - controlled movement
G0 X41 Y0 F1200;    ; Rapid move to color 1 position
G1 Z0 F500;         ; Lower into color - controlled movement
G1 X35 Y1 F500;     ; Small movement in paint - controlled movement
G1 Z7 F500;         ; Raise from color - controlled movement
G1 X38 Y1 F500;     ; Movement in paint - controlled movement
G1 Z1 F500;         ; Lower slightly - controlled movement
G1 X27 Y10 Z8 F500;     ; Move in paint - controlled movement
G1 Z8 F500;         ; Raise brush - controlled movement
G1 F1000;           ; Set feed rate to 1000
G0 Z2.8F500
G0 X51.845Y82.366Z2.8F1000
G1 Z0F500
G1 X51.838Y82.466Z0F800
G1 X51.769Y82.577Z0F800
G1 X51.652Y82.654Z0F800
G1 X51.772Y82.323Z0F800
G1 X51.845Y82.366Z0F800
G0 Z2.8F500
G0 X51.351Y82.329Z2.8F1000
G1 Z0F500
G1 X51.385Y82.669Z0F800
G1 X51.434Y82.756Z0F800
G1 X51.486Y82.818Z0F800
G1 X51.553Y82.855Z0F800
G1 X51.649Y82.867Z0F800
G1 X51.79Y82.854Z0F800
G1 X51.988Y82.816Z0F800
G1 X52.259Y82.753Z0F800
G1 X52.615Y82.664Z0F800
G1 X52.842Y82.596Z0F800
G1 X52.978Y82.516Z0F800
G1 X53.045Y82.406Z0F800
G1 X53.063Y82.246Z0F800
G1 X53.585Y81.724Z0F800
G1 X51.351Y82.329Z0F800
G0 Z2.8F500
G0 X50.556Y82.203Z2.8F1000
G1 Z0F500
G1 Y81.786Z0F800
G1 X50.436Y81.958Z0F800
G1 X50.556Y82.203Z0F800
G0 Z2.8F500
G0 X51.033Y81.607Z2.8F1000
G1 Z0F500
G1 X50.952Y81.548Z0F800
G1 X50.933Y81.513Z0F800
G1 X50.979Y81.495Z0F800
G1 X51.093Y81.491Z0F800
G1 X51.511Y81.607Z0F800
G1 X51.592Y81.665Z0F800
G1 X51.611Y81.7Z0F800
G1 X51.565Y81.718Z0F800
G1 X51.451Y81.722Z0F800
G1 X51.033Y81.607Z0F800
G0 Z2.8F500
G0 X50.838Y81.577Z2.8F1000
G1 Z0F500
G1 X50.85Y81.711Z0F800
G1 X50.897Y81.813Z0F800
G1 X50.966Y81.888Z0F800
G1 X51.056Y81.935Z0F800
G1 X51.163Y81.956Z0F800
G1 X51.288Y81.95Z0F800
G1 X51.429Y81.916Z0F800
G1 X51.583Y81.855Z0F800
G1 X51.751Y81.766Z0F800
G1 X51.89Y81.665Z0F800
G1 X52.003Y81.547Z0F800
G1 X52.088Y81.422Z0F800
G1 X52.14Y81.298Z0F800
G1 X52.159Y81.186Z0F800
G1 X52.14Y81.094Z0F800
G1 X52.081Y81.032Z0F800
G1 X51.979Y81.01Z0F800
G1 X51.796Y81.049Z0F800
G1 X51.687Y81.145Z0F800
G1 X51.666Y81.205Z0F800
G1 X51.67Y81.266Z0F800
G1 X51.702Y81.326Z0F800
G1 X51.764Y81.379Z0F800
G1 X51.57Y81.368Z0F800
G1 X51.476Y81.273Z0F800
G1 X51.356Y81.231Z0F800
G1 X51.222Y81.234Z0F800
G1 X51.09Y81.278Z0F800
G1 X50.972Y81.353Z0F800
G1 X50.884Y81.455Z0F800
G1 X50.838Y81.577Z0F800
G0 Z2.8F500
G0 X49.481Y82.203Z2.8F1000
G1 Z0F500
G1 X49.458Y82.288Z0F800
G1 X49.389Y82.316Z0F800
G1 X49.277Y82.288Z0F800
G1 X49.123Y82.203Z0F800
G1 X49.046Y82.146Z0F800
G1 X49.032Y82.11Z0F800
G1 X49.087Y82.092Z0F800
G1 X49.213Y82.086Z0F800
G1 X49.481Y82.203Z0F800
G0 Z2.8F500
G0 X49.642Y82.429Z2.8F1000
G1 Z0F500
G1 X50.198Y81.652Z0F800
G1 X49.601Y81.965Z0F800
G1 X49.481Y81.845Z0F800
G1 X49.465Y81.791Z0F800
G1 X49.418Y81.755Z0F800
G1 X49.348Y81.736Z0F800
G1 X49.261Z0F800
G1 X49.057Y81.782Z0F800
G1 X48.855Y81.892Z0F800
G1 X48.713Y82.025Z0F800
G1 X48.656Y82.151Z0F800
G1 X48.682Y82.279Z0F800
G1 X48.789Y82.418Z0F800
G1 X48.945Y82.52Z0F800
G1 X49.141Y82.555Z0F800
G1 X49.375Y82.525Z0F800
G1 X49.642Y82.429Z0F800
G0 Z2.8F500
G0 X49.816Y82.808Z2.8F1000
G1 Z0F500
G1 X49.833Y82.844Z0F800
G1 X49.838Y82.942Z0F800
G1 X49.72Y83.218Z0F800
G1 Y82.92Z0F800
G1 X49.78Y82.834Z0F800
G1 X49.816Y82.808Z0F800
G0 Z2.8F500
G0 X49.727Y82.706Z2.8F1000
G1 Z0F500
G1 X49.557Y82.76Z0F800
G1 X49.433Y82.809Z0F800
G1 X49.349Y82.857Z0F800
G1 X49.3Y82.909Z0F800
G1 X49.279Y82.968Z0F800
G1 Y83.041Z0F800
G1 X49.3Y83.13Z0F800
G1 X49.247Y83.34Z0F800
G1 X48.993Y83.002Z0F800
G1 X48.946Y83.082Z0F800
G1 X48.934Y83.181Z0F800
G1 X48.952Y83.288Z0F800
G1 X48.993Y83.392Z0F800
G1 X49.052Y83.481Z0F800
G1 X49.124Y83.545Z0F800
G1 X49.201Y83.571Z0F800
G1 X49.279Y83.55Z0F800
G1 X50.771Y82.565Z0F800
G1 X50.854Y82.581Z0F800
G1 X50.863Y82.629Z0F800
G1 X50.795Y82.718Z0F800
G1 X50.645Y82.858Z0F800
G1 X50.506Y82.986Z0F800
G1 X50.408Y83.087Z0F800
G1 X50.351Y83.163Z0F800
G1 X50.337Y83.215Z0F800
G1 X50.365Y83.245Z0F800
G1 X50.436Y83.254Z0F800
G1 X50.549Y83.244Z0F800
G1 X50.705Y83.215Z0F800
G1 X50.876Y83.174Z0F800
G1 X51.014Y83.13Z0F800
G1 X51.119Y83.081Z0F800
G1 X51.192Y83.029Z0F800
G1 X51.233Y82.971Z0F800
G1 X51.243Y82.909Z0F800
G1 X51.223Y82.84Z0F800
G1 X51.173Y82.765Z0F800
G1 X51.114Y82.521Z0F800
G1 X51.135Y82.477Z0F800
G1 X51.095Y82.451Z0F800
G1 X51.002Y82.443Z0F800
G1 X50.861Y82.452Z0F800
G1 X50.678Y82.477Z0F800
G1 X50.462Y82.518Z0F800
G1 X50.216Y82.573Z0F800
G1 X49.95Y82.643Z0F800
G1 X49.727Y82.706Z0F800
G0 Z2.8F500
G0 X48.574Y83.235Z2.8F1000
G1 Z0F500
G1 X48.489Y83.145Z0F800
G1 X48.395Y83.092Z0F800
G1 X48.298Z0F800
G1 X47.448Y83.317Z0F800
G1 X47.332Y83.353Z0F800
G1 X47.249Y83.388Z0F800
G1 X47.196Y83.424Z0F800
G1 X47.165Y83.512Z0F800
G1 X47.216Y83.641Z0F800
G1 X47.23Y83.875Z0F800
G1 X47.052Y83.698Z0F800
G1 X47.012Y83.623Z0F800
G1 X46.942Y83.578Z0F800
G1 X46.809Y83.567Z0F800
G1 X46.585Y83.595Z0F800
G1 X46.429Y83.626Z0F800
G1 X46.239Y83.668Z0F800
G1 X46.011Y83.723Z0F800
G1 X45.741Y83.792Z0F800
G1 X45.061Y83.971Z0F800
G1 X44.169Y84.212Z0F800
G1 X43.006Y84.516Z0F800
G1 X42.836Y84.566Z0F800
G1 X42.757Y84.621Z0F800
G1 Y84.704Z0F800
G1 X42.826Y84.832Z0F800
G1 X42.973Y84.985Z0F800
G1 X43.153Y85.059Z0F800
G1 X43.242Y85.065Z0F800
G1 X43.326Y85.049Z0F800
G1 X43.398Y85.01Z0F800
G1 X43.454Y84.947Z0F800
G1 X48.622Y83.773Z0F800
G1 X48.684Y83.699Z0F800
G1 X48.703Y83.595Z0F800
G1 X48.687Y83.474Z0F800
G1 X48.642Y83.349Z0F800
G1 X48.574Y83.235Z0F800

; Color 1 picking sequence
G1 Z10 F500;         ; Raise brush to safe height
G0 X2 Y0 F1000;     ; Rapid move to brush cleaning position
G1 Z0 F500;         ; Lower brush for cleaning - controlled movement
G1 Z2 F500;         ; Raise brush slightly - controlled movement
G1 X22 Y0 Z8 F500;     ; Move across cleaning area - controlled movement
G1 Z8 F500;         ; Maintain brush height - controlled movement
G0 X41 Y0 F1200;    ; Rapid move to color 1 position
G1 Z0 F500;         ; Lower into color - controlled movement
G1 X35 Y1 F500;     ; Small movement in paint - controlled movement
G1 Z7 F500;         ; Raise from color - controlled movement
G1 X38 Y1 F500;     ; Movement in paint - controlled movement
G1 Z1 F500;         ; Lower slightly - controlled movement
G1 X27 Y10 Z8 F500;     ; Move in paint - controlled movement
G1 Z8 F500;         ; Raise brush - controlled movement
G1 F1000;           ; Set feed rate to 1000
G0 Z2.8F500
G0 X48.288Y82.8Z2.8F1000
G1 Z0F500
G1 Y82.442Z0F800
G1 X48.168Y82.621Z0F800
G1 X48.288Y82.8Z0F800
G0 Z2.8F500
G0 X47.181Y82.728Z2.8F1000
G1 Z0F500
G1 X47.024Y82.791Z0F800
G1 X46.952Y82.719Z0F800
G1 X47.181Y82.728Z0F800
G0 Z2.8F500
G0 X47.443Y83.046Z2.8F1000
G1 Z0F500
G1 X47.65Y82.973Z0F800
G1 X47.803Y82.908Z0F800
G1 X47.912Y82.845Z0F800
G1 X47.984Y82.776Z0F800
G1 X48.03Y82.695Z0F800
G1 X48.057Y82.596Z0F800
G1 X48.075Y82.473Z0F800
G1 X47.958Y82.084Z0F800
G1 X46.578Y82.613Z0F800
G1 X46.492Y82.601Z0F800
G1 X46.399Y82.622Z0F800
G1 X46.306Y82.673Z0F800
G1 X46.217Y82.747Z0F800
G1 X46.076Y82.942Z0F800
G1 X46.02Y83.167Z0F800
G1 X46.027Y83.264Z0F800
G1 X46.055Y83.333Z0F800
G1 X46.112Y83.373Z0F800
G1 X46.209Y83.384Z0F800
G1 X46.355Y83.365Z0F800
G1 X46.558Y83.318Z0F800
G1 X46.828Y83.24Z0F800
G1 X47.174Y83.133Z0F800
G1 X47.443Y83.046Z0F800
G0 Z2.8F500
G0 X45.979Y82.883Z2.8F1000
G1 Z0F500
G1 X45.988Y82.773Z0F800
G1 X45.957Y82.698Z0F800
G1 X44.857Y82.92Z0F800
G1 X44.649Y82.931Z0F800
G1 X44.483Y82.963Z0F800
G1 X44.361Y83.014Z0F800
G1 X44.283Y83.085Z0F800
G1 X44.25Y83.174Z0F800
G1 X44.262Y83.28Z0F800
G1 X44.321Y83.401Z0F800
G1 X44.427Y83.537Z0F800
G1 X44.624Y83.683Z0F800
G1 X44.871Y83.746Z0F800
G1 X45.157Y83.725Z0F800
G1 X45.471Y83.619Z0F800
G1 X45.578Y83.549Z0F800
G1 X45.684Y83.441Z0F800
G1 X45.784Y83.309Z0F800
G1 X45.871Y83.163Z0F800
G1 X45.938Y83.017Z0F800
G1 X45.979Y82.883Z0F800
G0 Z2.8F500
G0 X44.575Y83.875Z2.8F1000
G1 Z0F500
G1 X43.979Y83.272Z0F800
G1 X43.051Y83.243Z0F800
G1 X42.912Y83.513Z0F800
G1 X43.124Y83.731Z0F800
G1 X43.237Y83.912Z0F800
G1 X43.264Y83.962Z0F800
G1 X43.271Y83.988Z0F800
G1 X43.258Z0F800
G1 X43.224Y83.971Z0F800
G1 X43.169Y83.932Z0F800
G1 X43.093Y83.875Z0F800
G1 X42.781Y83.592Z0F800
G1 X42.363Y83.612Z0F800
G1 X42.209Y83.673Z0F800
G1 X42.142Y83.713Z0F800
G1 X42.16Y83.738Z0F800
G1 X42.259Y83.75Z0F800
G1 X42.797Y83.934Z0F800
G1 X42.958Y84.019Z0F800
G1 X43.1Y84.073Z0F800
G1 X43.222Y84.098Z0F800
G1 X43.327Y84.092Z0F800
G1 X43.417Y84.055Z0F800
G1 X43.493Y83.987Z0F800
G1 X43.559Y83.887Z0F800
G1 X43.614Y83.755Z0F800
G1 X43.672Y83.604Z0F800
G1 X43.723Y83.496Z0F800
G1 X43.766Y83.431Z0F800
G1 X43.799Y83.409Z0F800
G1 X43.82Y83.43Z0F800
G1 X43.827Y83.494Z0F800
G1 X43.819Y83.601Z0F800
G1 X43.794Y83.751Z0F800
G1 X43.772Y83.867Z0F800
G1 X43.76Y83.953Z0F800
G1 X43.763Y84.011Z0F800
G1 X43.783Y84.045Z0F800
G1 X43.826Y84.057Z0F800
G1 X43.895Y84.05Z0F800
G1 X43.993Y84.027Z0F800
G1 X44.125Y83.99Z0F800
G1 X44.575Y83.875Z0F800
G0 Z2.8F500
G0 X42.76Y84.258Z2.8F1000
G1 Z0F500
G1 X42.488Y84.038Z0F800
G1 X42.356Y83.997Z0F800
G1 X42.259Y83.969Z0F800
G1 X42.194Y83.956Z0F800
G1 X42.159Z0F800
G1 X42.152Y83.974Z0F800
G1 X42.17Y84.008Z0F800
G1 X42.212Y84.06Z0F800
G1 X42.275Y84.13Z0F800
G1 X42.415Y84.272Z0F800
G1 X42.523Y84.336Z0F800
G1 X42.627Y84.328Z0F800
G1 X42.76Y84.258Z0F800
G0 Z2.8F500
G0 X42.027Y84.379Z2.8F1000
G1 Z0F500
G1 X41.94Y84.269Z0F800
G1 X41.819Y84.155Z0F800
G1 X41.675Y84.048Z0F800
G1 X41.522Y83.959Z0F800
G1 X41.372Y83.897Z0F800
G1 X41.239Y83.875Z0F800
G1 X38.201Y84.645Z0F800
G1 X37.853Y84.726Z0F800
G1 X37.562Y84.8Z0F800
G1 X37.324Y84.869Z0F800
G1 X37.137Y84.934Z0F800
G1 X36.997Y84.996Z0F800
G1 X36.901Y85.056Z0F800
G1 X36.846Y85.115Z0F800
G1 X36.828Y85.176Z0F800
G1 X37.065Y85.576Z0F800
G1 X37.302Y85.878Z0F800
G1 X42.046Y84.545Z0F800
G1 X42.067Y84.474Z0F800
G1 X42.027Y84.379Z0F800

; Color 1 picking sequence
G1 Z10 F500;         ; Raise brush to safe height
G0 X2 Y0 F1000;     ; Rapid move to brush cleaning position
G1 Z0 F500;         ; Lower brush for cleaning - controlled movement
G1 Z2 F500;         ; Raise brush slightly - controlled movement
G1 X22 Y0 Z8 F500;     ; Move across cleaning area - controlled movement
G1 Z8 F500;         ; Maintain brush height - controlled movement
G0 X41 Y0 F1200;    ; Rapid move to color 1 position
G1 Z0 F500;         ; Lower into color - controlled movement
G1 X35 Y1 F500;     ; Small movement in paint - controlled movement
G1 Z7 F500;         ; Raise from color - controlled movement
G1 X38 Y1 F500;     ; Movement in paint - controlled movement
G1 Z1 F500;         ; Lower slightly - controlled movement
G1 X27 Y10 Z8 F500;     ; Move in paint - controlled movement
G1 Z8 F500;         ; Raise brush - controlled movement
G1 F1000;           ; Set feed rate to 1000
G0 Z2.8F500
G0 X40.257Y85.951Z2.8F1000
G1 Z0F500
G1 X40.101Y86.014Z0F800
G1 X40.029Y85.942Z0F800
G1 X40.257Y85.951Z0F800
G0 Z2.8F500
G0 X39.73Y86.033Z2.8F1000
G1 Z0F500
G1 X39.275Y86.262Z0F800
G1 X38.811Y86.406Z0F800
G1 X38.41Y86.481Z0F800
G1 X38.25Y86.491Z0F800
G1 X38.128Y86.482Z0F800
G1 X38.049Y86.452Z0F800
G1 X38.022Y86.401Z0F800
G1 X39.73Y86.033Z0F800
G0 Z2.8F500
G0 X37.166Y86.788Z2.8F1000
G1 Z0F500
G1 X37.173Y86.808Z0F800
G1 X37.15Y86.834Z0F800
G1 X37.101Y86.864Z0F800
G1 X36.941Y86.936Z0F800
G1 X36.718Y87.014Z0F800
G1 X36.46Y87.089Z0F800
G1 X36.197Y87.153Z0F800
G1 X35.955Y87.196Z0F800
G1 X35.762Y87.211Z0F800
G1 X35.703Y87.205Z0F800
G1 X35.675Y87.193Z0F800
G1 X35.68Y87.173Z0F800
G1 X35.716Y87.147Z0F800
G1 X35.783Y87.113Z0F800
G1 X35.882Y87.072Z0F800
G1 X36.011Y87.025Z0F800
G1 X36.171Y86.971Z0F800
