;LightBurn 1.6.04
;Custo m GCode device profile, absolute coords
;Bounds: X17.01 Y5.98 to X85.01 Y36.17
G00 G17 G40 G21 G54
G90
M3
G1 Z10 F500
;Cut @ 2200 mm/min, 90% power

M8
G0 Z2.8
G0 X31.152Y5.978Z2.8 F2200
G0 Z0F1500
;Layer Blue
G1 X17.01Y20.12Z0S900F2200
G1 X30.445Y33.555Z0
G1 X44.587Y19.413Z0
G1 X31.152Y5.978Z0
G0 Z2.8
G0 X57.429Y22.731Z2.8F2200
G0 Z0
G1 X70.864Y36.166Z0F2200
G1 X85.007Y22.024Z0
G1 X71.572Y8.589Z0
G1 X57.429Y22.731Z0
M9
M5
G1 Z10 F500
G90
G1 Z10 F500
