;LightBurn 1.6.04
;Custom GCode device profile, absolute coords
;Bounds: X32.3 Y34.95 to X87.98 Y94.1
G00 G17 G40 G21 G54
G90
M3
G1 Z10 F1000
;Cut @ 1600 mm/min, 90% power

M8
G0 Z4.8F1000
G0 X59.442Y64.645Z4.8
G1 Z0F1000
;Layer C3
G1 X59.601Y64.622Z0S900F1800
G1 X59.803Y64.626Z0F1800
G1 X60.05Y64.657Z0F1800
G1 X60.342Y64.714Z0F1800
G1 X60.681Y64.796Z0F1800
G1 X61.067Y64.902Z0F1800
G1 X61.502Y65.032Z0F1800
G1 X62.059Y65.246Z0F1800
G1 X62.616Y65.531Z0F1800
G1 X63.144Y65.864Z0F1800
G1 X63.614Y66.221Z0F1800
G1 X63.817Y66.4Z0F1800
G1 X63.995Y66.575Z0F1800
G1 X64.143Y66.745Z0F1800
G1 X64.259Y66.904Z0F1800
G1 X64.337Y67.051Z0F1800
G1 X64.376Y67.182Z0F1800
G1 X64.37Y67.295Z0F1800
G1 X64.317Y67.385Z0F1800
G1 X64.125Y67.537Z0F1800
G1 X63.896Y67.652Z0F1800
G1 X63.635Y67.731Z0F1800
G1 X63.347Y67.776Z0F1800
G1 X63.038Y67.79Z0F1800
G1 X62.712Y67.772Z0F1800
G1 X62.376Y67.724Z0F1800
G1 X62.036Y67.648Z0F1800
G1 X61.695Y67.546Z0F1800
G1 X61.361Y67.418Z0F1800
G1 X61.038Y67.266Z0F1800
G1 X60.732Y67.092Z0F1800
G1 X60.448Y66.896Z0F1800
G1 X60.192Y66.682Z0F1800
G1 X59.97Y66.449Z0F1800
G1 X59.786Y66.199Z0F1800
G1 X59.602Y65.898Z0F1800
G1 X59.452Y65.631Z0F1800
G1 X59.338Y65.397Z0F1800
G1 X59.259Y65.195Z0F1800
G1 X59.217Y65.025Z0F1800
G1 X59.213Y64.886Z0F1800
G1 X59.249Y64.776Z0F1800
G1 X59.325Y64.696Z0F1800
G1 X59.442Y64.645Z0F1800
G0 Z4.8F1000
G0 X56.603Y65.536Z4.8F1600
G1 Z0F1000
G1 X56.973Y66.099Z0F1800
G1 X57.296Y66.649Z0F1800
G1 X57.564Y67.174Z0F1800
G1 X57.767Y67.663Z0F1800
G1 X57.841Y67.89Z0F1800
G1 X57.896Y68.104Z0F1800
G1 X57.93Y68.304Z0F1800
G1 X57.969Y68.977Z0F1800
G1 X58.053Y69.437Z0F1800
G1 X58.191Y69.865Z0F1800
G1 X58.382Y70.261Z0F1800
G1 X58.623Y70.622Z0F1800
G1 X58.913Y70.949Z0F1800
G1 X59.25Y71.241Z0F1800
G1 X59.634Y71.496Z0F1800
G1 X60.061Y71.713Z0F1800
G1 X60.531Y71.892Z0F1800
G1 X61.042Y72.032Z0F1800
G1 X61.593Y72.131Z0F1800
G1 X62.18Y72.189Z0F1800
G1 X62.804Y72.205Z0F1800
G1 X63.463Y72.177Z0F1800
G1 X64.153Y72.105Z0F1800
G1 X64.726Y72.031Z0F1800
G1 X64.961Y72.004Z0F1800
G1 X65.165Y71.984Z0F1800
G1 X65.499Y71.973Z0F1800
G1 X65.755Y72.002Z0F1800
G1 X65.964Y72.079Z0F1800
G1 X66.152Y72.211Z0F1800
G1 X66.349Y72.403Z0F1800
G1 X66.582Y72.663Z0F1800
G1 X67.166Y73.275Z0F1800
G1 X67.81Y73.861Z0F1800
G1 X68.507Y74.417Z0F1800
G1 X69.251Y74.938Z0F1800
G1 X70.036Y75.421Z0F1800
G1 X70.854Y75.861Z0F1800
G1 X71.699Y76.253Z0F1800
G1 X72.566Y76.595Z0F1800
G1 X72.745Y76.657Z0F1800
G1 X72.858Y76.685Z0F1800
G1 X72.885Z0F1800
G1 X72.893Y76.669Z0F1800
G1 X72.878Y76.64Z0F1800
G1 X72.839Y76.596Z0F1800
G1 X72.776Y76.536Z0F1800
G1 X72.687Y76.457Z0F1800
G1 X72.57Y76.359Z0F1800
G1 X72.425Y76.24Z0F1800
G1 X72.042Y75.934Z0F1800
G1 X71.528Y75.527Z0F1800
G1 X71.399Y75.416Z0F1800
G1 X71.247Y75.269Z0F1800
G1 X71.076Y75.091Z0F1800
G1 X70.891Y74.887Z0F1800
G1 X70.492Y74.425Z0F1800
G1 X70.088Y73.929Z0F1800
G1 X69.712Y73.441Z0F1800
G1 X69.401Y73.007Z0F1800
G1 X69.28Y72.824Z0F1800
G1 X69.188Y72.671Z0F1800
G1 X69.13Y72.553Z0F1800
G1 X69.109Y72.476Z0F1800
G1 X69.128Y72.378Z0F1800
G1 X69.181Y72.303Z0F1800
G1 X69.265Y72.249Z0F1800
G1 X69.375Y72.215Z0F1800
G1 X69.66Y72.203Z0F1800
G1 X70.005Y72.261Z0F1800
G1 X70.378Y72.38Z0F1800
G1 X70.747Y72.553Z0F1800
G1 X71.081Y72.771Z0F1800
G1 X71.348Y73.027Z0F1800
G1 X71.662Y73.386Z0F1800
G1 X71.997Y73.72Z0F1800
G1 X72.353Y74.03Z0F1800
G1 X72.73Y74.316Z0F1800
G1 X73.129Y74.579Z0F1800
G1 X73.551Y74.818Z0F1800
G1 X73.994Y75.034Z0F1800
G1 X74.46Y75.226Z0F1800
G1 X74.779Y75.346Z0F1800
G1 X75.007Y75.425Z0F1800
G1 X75.087Y75.447Z0F1800
G1 X75.145Y75.456Z0F1800
G1 X75.18Y75.451Z0F1800
G1 X75.193Y75.432Z0F1800
G1 X75.183Y75.398Z0F1800
G1 X75.151Y75.347Z0F1800
G1 X75.097Y75.279Z0F1800
G1 X75.02Y75.194Z0F1800
G1 X74.922Y75.09Z0F1800
G1 X74.801Y74.966Z0F1800
G1 X74.493Y74.657Z0F1800
G1 X74.262Y74.415Z0F1800
G1 X74.056Y74.177Z0F1800
G1 X73.876Y73.944Z0F1800
G1 X73.721Y73.718Z0F1800
G1 X73.592Y73.5Z0F1800
G1 X73.489Y73.292Z0F1800
G1 X73.413Y73.097Z0F1800
G1 X73.363Y72.914Z0F1800
G1 X73.341Y72.747Z0F1800
G1 X73.346Y72.597Z0F1800
G1 X73.38Y72.465Z0F1800
G1 X73.441Y72.354Z0F1800
G1 X73.531Y72.264Z0F1800
G1 X73.651Y72.198Z0F1800
G1 X73.799Y72.157Z0F1800
G1 X73.977Y72.143Z0F1800
G1 X74.56Y72.111Z0F1800
G1 X75.183Y72.017Z0F1800
G1 X75.84Y71.866Z0F1800
G1 X76.523Y71.66Z0F1800
G1 X77.226Y71.404Z0F1800
G1 X77.942Y71.101Z0F1800
G1 X78.665Y70.755Z0F1800
G1 X79.387Y70.371Z0F1800
G1 X80.102Y69.951Z0F1800
G1 X80.803Y69.5Z0F1800
G1 X81.483Y69.021Z0F1800
G1 X82.136Y68.518Z0F1800
G1 X82.755Y67.995Z0F1800
G1 X83.333Y67.456Z0F1800
G1 X83.864Y66.904Z0F1800
G1 X84.34Y66.343Z0F1800
G1 X84.54Y66.09Z0F1800
G1 X84.678Y65.906Z0F1800
G1 X84.753Y65.791Z0F1800
G1 X84.76Y65.741Z0F1800
G1 X84.695Y65.754Z0F1800
G1 X84.556Y65.829Z0F1800
G1 X84.337Y65.962Z0F1800
G1 X84.037Y66.151Z0F1800
G1 X83.701Y66.351Z0F1800
G1 X83.358Y66.528Z0F1800
G1 X83.022Y66.68Z0F1800
G1 X82.706Y66.801Z0F1800
G1 X82.422Y66.886Z0F1800
G1 X82.184Y66.933Z0F1800
G1 X82.003Y66.936Z0F1800
G1 X81.892Y66.89Z0F1800
G1 X81.895Y66.844Z0F1800
G1 X81.938Y66.747Z0F1800
G1 X82.017Y66.605Z0F1800
G1 X82.129Y66.425Z0F1800
G1 X82.27Y66.212Z0F1800
G1 X82.436Y65.972Z0F1800
G1 X82.623Y65.711Z0F1800
G1 X82.828Y65.435Z0F1800
G1 X83.482Y64.509Z0F1800
G1 X84.094Y63.529Z0F1800
G1 X84.662Y62.502Z0F1800
G1 X85.186Y61.434Z0F1800
G1 X85.662Y60.331Z0F1800
G1 X86.089Y59.2Z0F1800
G1 X86.467Y58.047Z0F1800
G1 X86.792Y56.879Z0F1800
G1 X87.064Y55.702Z0F1800
G1 X87.281Y54.523Z0F1800
G1 X87.441Y53.348Z0F1800
G1 X87.543Y52.184Z0F1800
G1 X87.585Y51.036Z0F1800
G1 X87.565Y49.912Z0F1800
G1 X87.481Y48.818Z0F1800
G1 X87.333Y47.76Z0F1800
G1 X87.243Y47.259Z0F1800
G1 X87.16Y46.816Z0F1800
G1 X87.083Y46.43Z0F1800
G1 X87.012Y46.1Z0F1800
G1 X86.944Y45.825Z0F1800
G1 X86.881Y45.603Z0F1800
G1 X86.821Y45.434Z0F1800
G1 X86.764Y45.316Z0F1800
G1 X86.709Y45.249Z0F1800
G1 X86.655Y45.232Z0F1800
G1 X86.602Y45.264Z0F1800
G1 X86.55Y45.343Z0F1800
G1 X86.497Y45.469Z0F1800
G1 X86.443Y45.64Z0F1800
G1 X86.387Y45.856Z0F1800
G1 X86.329Y46.115Z0F1800
G1 X86.235Y46.522Z0F1800
G1 X86.131Y46.9Z0F1800
G1 X86.021Y47.244Z0F1800
G1 X85.905Y47.554Z0F1800
G1 X85.787Y47.826Z0F1800
G1 X85.668Y48.059Z0F1800
G1 X85.55Y48.25Z0F1800
G1 X85.436Y48.397Z0F1800
G1 X85.327Y48.497Z0F1800
G1 X85.226Y48.548Z0F1800
G1 X85.135Z0F1800
G1 X85.056Y48.494Z0F1800
G1 X84.99Y48.384Z0F1800
G1 X84.941Y48.216Z0F1800
G1 X84.91Y47.988Z0F1800
G1 X84.899Y47.697Z0F1800
G1 X84.865Y46.882Z0F1800
G1 X84.762Y46.09Z0F1800
G1 X84.594Y45.32Z0F1800
G1 X84.36Y44.573Z0F1800
G1 X84.062Y43.85Z0F1800
G1 X83.7Y43.152Z0F1800
G1 X83.277Y42.478Z0F1800
G1 X82.793Y41.829Z0F1800
G1 X82.25Y41.206Z0F1800
G1 X81.649Y40.61Z0F1800
G1 X80.99Y40.04Z0F1800
G1 X80.276Y39.498Z0F1800
G1 X79.506Y38.983Z0F1800
G1 X78.684Y38.497Z0F1800
G1 X77.809Y38.039Z0F1800
G1 X76.882Y37.611Z0F1800
G1 X75.906Y37.213Z0F1800
G1 X74.881Y36.845Z0F1800
G1 X73.809Y36.509Z0F1800
G1 X72.69Y36.203Z0F1800
G1 X71.526Y35.93Z0F1800
G1 X70.317Y35.689Z0F1800
G1 X69.066Y35.481Z0F1800
G1 X67.774Y35.307Z0F1800
G1 X66.441Y35.167Z0F1800
G1 X65.068Y35.061Z0F1800
G1 X63.658Y34.99Z0F1800
G1 X62.21Y34.955Z0F1800
G1 X60.727Z0F1800
G1 X59.21Y34.993Z0F1800
G1 X57.659Y35.068Z0F1800
G1 X56.076Y35.18Z0F1800
G1 X54.835Y35.312Z0F1800
G1 X53.625Y35.499Z0F1800
G1 X52.445Y35.74Z0F1800
G1 X51.297Y36.033Z0F1800
G1 X50.179Y36.378Z0F1800
G1 X49.094Y36.771Z0F1800
G1 X48.04Y37.213Z0F1800
G1 X47.018Y37.701Z0F1800
G1 X46.028Y38.234Z0F1800
G1 X45.07Y38.809Z0F1800
G1 X44.145Y39.427Z0F1800
G1 X43.253Y40.084Z0F1800
G1 X42.394Y40.78Z0F1800
G1 X41.569Y41.513Z0F1800
G1 X40.776Y42.282Z0F1800
G1 X40.018Y43.084Z0F1800
G1 X39.294Y43.918Z0F1800
G1 X38.604Y44.784Z0F1800
G1 X37.948Y45.678Z0F1800
G1 X37.327Y46.6Z0F1800
G1 X36.741Y47.548Z0F1800
G1 X36.19Y48.521Z0F1800
G1 X35.675Y49.517Z0F1800
G1 X35.195Y50.534Z0F1800
G1 X34.751Y51.571Z0F1800
G1 X34.343Y52.626Z0F1800
G1 X33.971Y53.698Z0F1800
G1 X33.636Y54.786Z0F1800
G1 X33.337Y55.886Z0F1800
G1 X33.076Y57Z0F1800
G1 X32.852Y58.123Z0F1800
G1 X32.665Y59.256Z0F1800
G1 X32.516Y60.396Z0F1800
G1 X32.405Y61.542Z0F1800
G1 X32.332Y62.692Z0F1800
G1 X32.297Y63.845Z0F1800
G1 X32.301Y65Z0F1800
G1 X32.344Y66.154Z0F1800
G1 X32.425Y67.306Z0F1800
G1 X32.546Y68.455Z0F1800
G1 X32.707Y69.599Z0F1800
G1 X32.907Y70.736Z0F1800
G1 X33.148Y71.865Z0F1800
G1 X33.428Y72.985Z0F1800
G1 X33.749Y74.094Z0F1800
G1 X34.11Y75.189Z0F1800
G1 X34.513Y76.271Z0F1800
G1 X34.956Y77.336Z0F1800
G1 X35.441Y78.385Z0F1800
G1 X35.968Y79.414Z0F1800
G1 X36.536Y80.423Z0F1800
G1 X37.146Y81.409Z0F1800
G1 X37.799Y82.373Z0F1800
G1 X38.494Y83.311Z0F1800
G1 X39.232Y84.222Z0F1800
G1 X40.012Y85.105Z0F1800
G1 X40.836Y85.958Z0F1800
G1 X41.704Y86.78Z0F1800
G1 X42.614Y87.569Z0F1800
G1 X43.569Y88.323Z0F1800
G1 X44.568Y89.042Z0F1800
G1 X45.611Y89.723Z0F1800
G1 X46.699Y90.365Z0F1800
G1 X47.832Y90.966Z0F1800
G1 X48.801Y91.428Z0F1800
G1 X49.791Y91.853Z0F1800
G1 X50.8Y92.241Z0F1800
G1 X51.825Y92.592Z0F1800
G1 X52.865Y92.905Z0F1800
G1 X53.919Y93.181Z0F1800
G1 X54.985Y93.421Z0F1800
G1 X56.06Y93.624Z0F1800
G1 X57.144Y93.791Z0F1800
G1 X58.233Y93.921Z0F1800
G1 X59.328Y94.016Z0F1800
G1 X60.425Y94.074Z0F1800
G1 X61.523Y94.097Z0F1800
G1 X62.62Y94.084Z0F1800
G1 X63.715Y94.035Z0F1800
G1 X64.805Y93.952Z0F1800
G1 X65.889Y93.833Z0F1800
G1 X66.966Y93.679Z0F1800
G1 X68.033Y93.49Z0F1800
G1 X69.089Y93.267Z0F1800
G1 X70.131Y93.01Z0F1800
G1 X71.159Y92.718Z0F1800
G1 X72.169Y92.392Z0F1800
G1 X73.162Y92.032Z0F1800
G1 X74.134Y91.638Z0F1800
G1 X75.085Y91.211Z0F1800
G1 X76.011Y90.75Z0F1800
G1 X76.912Y90.256Z0F1800
G1 X77.786Y89.729Z0F1800
G1 X78.631Y89.168Z0F1800
G1 X79.445Y88.575Z0F1800
G1 X80.226Y87.949Z0F1800
G1 X80.464Y87.751Z0F1800
G1 X80.673Y87.578Z0F1800
G1 X80.858Y87.431Z0F1800
G1 X81.021Y87.311Z0F1800
G1 X81.166Y87.215Z0F1800
G1 X81.296Y87.146Z0F1800
G1 X81.416Y87.101Z0F1800
G1 X81.527Y87.081Z0F1800
G1 X81.741Y87.115Z0F1800
G1 X81.964Y87.246Z0F1800
G1 X82.088Y87.348Z0F1800
G1 X82.224Y87.473Z0F1800
G1 X82.376Y87.621Z0F1800
G1 X82.87Y88.112Z0F1800
G1 X83Y88.238Z0F1800
G1 X83.113Y88.343Z0F1800
G1 X83.29Y88.488Z0F1800
G1 X83.414Y88.55Z0F1800
G1 X83.498Y88.53Z0F1800
G1 X83.554Y88.433Z0F1800
G1 X83.596Y88.259Z0F1800
G1 X83.776Y87.107Z0F1800
G1 X83.919Y86.255Z0F1800
G1 X84.066Y85.452Z0F1800
G1 X84.218Y84.694Z0F1800
G1 X84.377Y83.976Z0F1800
G1 X84.543Y83.294Z0F1800
G1 X84.718Y82.644Z0F1800
G1 X84.904Y82.023Z0F1800
G1 X85.311Y80.847Z0F1800
G1 X85.776Y79.733Z0F1800
G1 X86.308Y78.647Z0F1800
G1 X86.918Y77.556Z0F1800
G1 X87.132Y77.194Z0F1800
G1 X87.511Y76.542Z0F1800
G1 X87.798Y76.038Z0F1800
G1 X87.896Y75.861Z0F1800
G1 X87.958Y75.743Z0F1800
G1 X87.98Y75.693Z0F1800
G1 X87.947Y75.699Z0F1800
G1 X87.854Y75.743Z0F1800
G1 X87.707Y75.819Z0F1800
G1 X87.512Y75.926Z0F1800
G1 X87.277Y76.058Z0F1800
G1 X87.007Y76.214Z0F1800
G1 X86.709Y76.388Z0F1800
G1 X86.389Y76.577Z0F1800
G1 X85.32Y77.172Z0F1800
G1 X84.222Y77.692Z0F1800
G1 X83.088Y78.141Z0F1800
G1 X81.908Y78.521Z0F1800
G1 X80.676Y78.834Z0F1800
G1 X79.383Y79.082Z0F1800
G1 X78.021Y79.268Z0F1800
G1 X76.582Y79.395Z0F1800
G1 X75.952Y79.438Z0F1800
G1 X75.701Y79.46Z0F1800
G1 X75.492Y79.484Z0F1800
G1 X75.323Y79.512Z0F1800
G1 X75.192Y79.546Z0F1800
G1 X75.098Y79.588Z0F1800
G1 X75.041Y79.64Z0F1800
G1 X75.019Y79.702Z0F1800
G1 X75.031Y79.778Z0F1800
G1 X75.075Y79.868Z0F1800
G1 X75.15Y79.975Z0F1800
G1 X75.256Y80.1Z0F1800
G1 X75.39Y80.245Z0F1800
G1 X75.552Y80.412Z0F1800
G1 X75.977Y80.843Z0F1800
G1 X76.182Y81.054Z0F1800
G1 X76.355Y81.241Z0F1800
G1 X76.494Y81.407Z0F1800
G1 X76.599Y81.556Z0F1800
G1 X76.67Y81.693Z0F1800
G1 X76.707Y81.823Z0F1800
G1 Y81.948Z0F1800
G1 X76.672Y82.073Z0F1800
G1 X76.6Y82.203Z0F1800
G1 X76.49Y82.341Z0F1800
G1 X76.343Y82.491Z0F1800
G1 X76.157Y82.658Z0F1800
G1 X75.933Y82.846Z0F1800
G1 X75.669Y83.059Z0F1800
G1 X75.365Y83.301Z0F1800
G1 X74.76Y83.763Z0F1800
G1 X74.136Y84.201Z0F1800
G1 X73.493Y84.616Z0F1800
G1 X72.834Y85.008Z0F1800
G1 X72.159Y85.376Z0F1800
G1 X71.47Y85.721Z0F1800
G1 X70.766Y86.042Z0F1800
G1 X70.05Y86.34Z0F1800
G1 X69.322Y86.613Z0F1800
G1 X68.584Y86.863Z0F1800
G1 X67.836Y87.088Z0F1800
G1 X67.079Y87.289Z0F1800
G1 X66.316Y87.465Z0F1800
G1 X65.546Y87.617Z0F1800
G1 X64.771Y87.744Z0F1800
G1 X63.992Y87.847Z0F1800
G1 X63.21Y87.924Z0F1800
G1 X62.426Y87.977Z0F1800
G1 X61.641Y88.004Z0F1800
G1 X60.856Z0F1800
G1 X60.072Y87.982Z0F1800
G1 X59.291Y87.934Z0F1800
G1 X58.513Y87.859Z0F1800
G1 X57.74Y87.759Z0F1800
G1 X56.972Y87.632Z0F1800
G1 X56.21Y87.48Z0F1800
G1 X55.456Y87.301Z0F1800
G1 X54.711Y87.097Z0F1800
G1 X53.976Y86.866Z0F1800
G1 X53.252Y86.608Z0F1800
G1 X52.54Y86.324Z0F1800
G1 X51.84Y86.012Z0F1800
G1 X50.812Y85.5Z0F1800
G1 X49.828Y84.95Z0F1800
G1 X48.888Y84.363Z0F1800
G1 X47.993Y83.74Z0F1800
G1 X47.141Y83.085Z0F1800
G1 X46.333Y82.398Z0F1800
G1 X45.567Y81.68Z0F1800
G1 X44.845Y80.934Z0F1800
G1 X44.164Y80.161Z0F1800
G1 X43.525Y79.363Z0F1800
G1 X42.928Y78.541Z0F1800
G1 X42.372Y77.697Z0F1800
G1 X41.857Y76.833Z0F1800
G1 X41.382Y75.95Z0F1800
G1 X40.947Y75.05Z0F1800
G1 X40.552Y74.134Z0F1800
G1 X40.196Y73.204Z0F1800
G1 X39.88Y72.263Z0F1800
G1 X39.601Y71.31Z0F1800
G1 X39.362Y70.348Z0F1800
G1 X39.16Y69.379Z0F1800
G1 X38.995Y68.404Z0F1800
G1 X38.868Y67.425Z0F1800
G1 X38.778Y66.443Z0F1800
G1 X38.724Y65.461Z0F1800
G1 X38.706Y64.479Z0F1800
G1 X38.724Y63.499Z0F1800
G1 X38.778Y62.524Z0F1800
G1 X38.866Y61.554Z0F1800
G1 X38.989Y60.591Z0F1800
G1 X39.147Y59.637Z0F1800
G1 X39.338Y58.693Z0F1800
G1 X39.563Y57.761Z0F1800
G1 X39.821Y56.844Z0F1800
G1 X40.112Y55.941Z0F1800
G1 X40.436Y55.055Z0F1800
G1 X40.791Y54.188Z0F1800
G1 X41.179Y53.341Z0F1800
G1 X41.598Y52.516Z0F1800
G1 X42.048Y51.714Z0F1800
G1 X42.528Y50.937Z0F1800
G1 X43.039Y50.187Z0F1800
G1 X43.58Y49.465Z0F1800
G1 X44.151Y48.774Z0F1800
G1 X44.751Y48.113Z0F1800
G1 X45.38Y47.486Z0F1800
G1 X46.037Y46.894Z0F1800
G1 X46.722Y46.337Z0F1800
G1 X47.436Y45.819Z0F1800
G1 X48.177Y45.341Z0F1800
G1 X48.944Y44.904Z0F1800
G1 X49.739Y44.51Z0F1800
G1 X50.56Y44.16Z0F1800
G1 X51.407Y43.857Z0F1800
G1 X52.28Y43.601Z0F1800
G1 X53.178Y43.394Z0F1800
G1 X54.101Y43.239Z0F1800
G1 X55.048Y43.136Z0F1800
G1 X56.02Y43.088Z0F1800
G1 X57.016Y43.095Z0F1800
G1 X58.035Y43.16Z0F1800
G1 X59.077Y43.284Z0F1800
G1 X60.142Y43.468Z0F1800
G1 X61.229Y43.716Z0F1800
G1 X61.889Y43.902Z0F1800
G1 X62.547Y44.126Z0F1800
G1 X63.202Y44.385Z0F1800
G1 X63.852Y44.676Z0F1800
G1 X64.494Y44.997Z0F1800
G1 X65.128Y45.346Z0F1800
G1 X65.75Y45.721Z0F1800
G1 X66.36Y46.119Z0F1800
G1 X67.532Y46.975Z0F1800
G1 X68.63Y47.898Z0F1800
G1 X69.147Y48.378Z0F1800
G1 X69.638Y48.868Z0F1800
G1 X70.104Y49.365Z0F1800
G1 X70.541Y49.867Z0F1800
G1 X70.948Y50.372Z0F1800
G1 X71.323Y50.877Z0F1800
G1 X71.664Y51.381Z0F1800
G1 X71.969Y51.88Z0F1800
G1 X72.236Y52.373Z0F1800
G1 X72.463Y52.857Z0F1800
G1 X72.648Y53.33Z0F1800
G1 X72.79Y53.789Z0F1800
G1 X72.887Y54.233Z0F1800
G1 X72.936Y54.66Z0F1800
G1 Y55.066Z0F1800
G1 X72.884Y55.449Z0F1800
G1 X72.779Y55.808Z0F1800
G1 X72.619Y56.14Z0F1800
G1 X72.401Y56.442Z0F1800
G1 X72.125Y56.713Z0F1800
G1 X72.051Y56.795Z0F1800
G1 X72.013Y56.899Z0F1800
G1 X72.016Y57.04Z0F1800
G1 X72.064Y57.231Z0F1800
G1 X72.163Y57.487Z0F1800
G1 X72.317Y57.821Z0F1800
G1 X72.416Y58.022Z0F1800
G1 X72.53Y58.247Z0F1800
G1 X73.026Y59.2Z0F1800
G1 X73.211Y59.565Z0F1800
G1 X73.363Y59.876Z0F1800
G1 X73.48Y60.132Z0F1800
G1 X73.563Y60.334Z0F1800
G1 X73.612Y60.482Z0F1800
G1 X73.626Y60.576Z0F1800
G1 X73.604Y60.615Z0F1800
G1 X73.547Y60.601Z0F1800
G1 X73.455Y60.533Z0F1800
G1 X73.326Y60.411Z0F1800
G1 X73.162Y60.236Z0F1800
G1 X72.96Y60.007Z0F1800
G1 X72.723Y59.724Z0F1800
G1 X72.448Y59.388Z0F1800
G1 X71.839Y58.631Z0F1800
G1 X71.566Y58.302Z0F1800
G1 X71.314Y58.012Z0F1800
G1 X71.08Y57.757Z0F1800
G1 X70.859Y57.536Z0F1800
G1 X70.65Y57.348Z0F1800
G1 X70.449Y57.19Z0F1800
G1 X70.253Y57.06Z0F1800
G1 X69.863Y56.878Z0F1800
G1 X69.454Y56.787Z0F1800
G1 X69.002Y56.772Z0F1800
G1 X68.481Y56.819Z0F1800
G1 X68.002Y56.879Z0F1800
G1 X67.57Y56.931Z0F1800
G1 X67.181Y56.976Z0F1800
G1 X66.832Y57.012Z0F1800
G1 X66.519Y57.041Z0F1800
G1 X66.238Y57.062Z0F1800
G1 X65.985Y57.075Z0F1800
G1 X65.756Y57.081Z0F1800
G1 X65.356Y57.068Z0F1800
G1 X65.006Y57.025Z0F1800
G1 X64.675Y56.952Z0F1800
G1 X64.333Y56.848Z0F1800
G1 X63.694Y56.603Z0F1800
G1 X63.078Y56.297Z0F1800
G1 X62.474Y55.923Z0F1800
G1 X61.874Y55.474Z0F1800
G1 X61.268Y54.94Z0F1800
G1 X60.647Y54.315Z0F1800
G1 X60.328Y53.967Z0F1800
G1 X60.002Y53.592Z0F1800
G1 X59.667Y53.191Z0F1800
G1 X59.323Y52.763Z0F1800
G1 X58.98Y52.379Z0F1800
G1 X58.588Y52.031Z0F1800
G1 X58.155Y51.721Z0F1800
G1 X57.686Y51.449Z0F1800
G1 X57.188Y51.217Z0F1800
G1 X56.666Y51.025Z0F1800
G1 X56.129Y50.875Z0F1800
G1 X55.581Y50.766Z0F1800
G1 X55.029Y50.702Z0F1800
G1 X54.48Y50.681Z0F1800
G1 X53.939Y50.706Z0F1800
G1 X53.413Y50.778Z0F1800
G1 X52.909Y50.896Z0F1800
G1 X52.432Y51.063Z0F1800
G1 X51.989Y51.28Z0F1800
G1 X51.587Y51.546Z0F1800
G1 X51.43Y51.669Z0F1800
G1 X51.329Y51.76Z0F1800
G1 X51.294Y51.826Z0F1800
G1 X51.334Y51.871Z0F1800
G1 X51.46Y51.899Z0F1800
G1 X51.681Y51.914Z0F1800
G1 X51.831Y51.918Z0F1800
G1 X52.009Y51.921Z0F1800
G1 X52.453Y51.925Z0F1800
G1 X52.855Y51.933Z0F1800
G1 X53.224Y51.953Z0F1800
G1 X53.564Y51.99Z0F1800
G1 X53.88Y52.046Z0F1800
G1 X54.179Y52.126Z0F1800
G1 X54.464Y52.233Z0F1800
G1 X54.742Y52.37Z0F1800
G1 X55.017Y52.542Z0F1800
G1 X55.295Y52.751Z0F1800
G1 X55.581Y53.001Z0F1800
G1 X55.879Y53.297Z0F1800
G1 X56.196Y53.64Z0F1800
G1 X56.536Y54.036Z0F1800
G1 X56.905Y54.487Z0F1800
G1 X57.307Y54.997Z0F1800
G1 X57.748Y55.57Z0F1800
G1 X58.252Y56.192Z0F1800
G1 X58.799Y56.799Z0F1800
G1 X59.385Y57.387Z0F1800
G1 X60.007Y57.952Z0F1800
G1 X60.664Y58.494Z0F1800
G1 X61.35Y59.009Z0F1800
G1 X62.064Y59.494Z0F1800
G1 X62.803Y59.948Z0F1800
G1 X63.103Y60.123Z0F1800
G1 X63.365Y60.281Z0F1800
G1 X63.591Y60.422Z0F1800
G1 X63.781Y60.547Z0F1800
G1 X63.936Y60.659Z0F1800
G1 X64.057Y60.76Z0F1800
G1 X64.145Y60.851Z0F1800
G1 X64.2Y60.933Z0F1800
G1 X64.224Y61.008Z0F1800
G1 X64.217Y61.078Z0F1800
G1 X64.181Y61.145Z0F1800
G1 X64.115Y61.21Z0F1800
G1 X64.021Y61.275Z0F1800
G1 X63.9Y61.342Z0F1800
G1 X63.752Y61.412Z0F1800
G1 X63.579Y61.487Z0F1800
G1 X63.252Y61.594Z0F1800
G1 X62.895Y61.656Z0F1800
G1 X62.512Y61.675Z0F1800
G1 X62.104Y61.652Z0F1800
G1 X61.675Y61.587Z0F1800
G1 X61.227Y61.482Z0F1800
G1 X60.764Y61.338Z0F1800
G1 X60.287Y61.156Z0F1800
G1 X59.799Y60.938Z0F1800
G1 X59.304Y60.683Z0F1800
G1 X58.804Y60.395Z0F1800
G1 X58.301Y60.072Z0F1800
G1 X57.799Y59.718Z0F1800
G1 X57.3Y59.333Z0F1800
G1 X56.807Y58.917Z0F1800
G1 X55.652Y57.861Z0F1800
G1 X54.979Y57.297Z0F1800
G1 X54.666Y57.052Z0F1800
G1 X54.382Y56.843Z0F1800
G1 X54.136Y56.678Z0F1800
G1 X53.938Y56.563Z0F1800
G1 X53.572Y56.359Z0F1800
G1 X53.282Y56.151Z0F1800
G1 X53.066Y55.934Z0F1800
G1 X52.921Y55.704Z0F1800
G1 X52.845Y55.456Z0F1800
G1 X52.836Y55.184Z0F1800
G1 X52.891Y54.884Z0F1800
G1 X53.058Y54.408Z0F1800
G1 X53.081Y54.293Z0F1800
G1 Y54.203Z0F1800
G1 X53.054Y54.137Z0F1800
G1 X53.009Y54.096Z0F1800
G1 X52.945Y54.078Z0F1800
G1 X52.866Y54.081Z0F1800
G1 X52.773Y54.106Z0F1800
G1 X52.556Y54.217Z0F1800
G1 X52.312Y54.404Z0F1800
G1 X52.06Y54.659Z0F1800
G1 X51.818Y54.977Z0F1800
G1 X51.704Y55.1Z0F1800
G1 X51.55Y55.193Z0F1800
G1 X51.364Y55.257Z0F1800
G1 X51.153Y55.295Z0F1800
G1 X50.682Z0F1800
G1 X50.194Y55.211Z0F1800
G1 X49.96Y55.141Z0F1800
G1 X49.742Y55.055Z0F1800
G1 X49.548Y54.954Z0F1800
G1 X49.383Y54.841Z0F1800
G1 X49.256Y54.717Z0F1800
G1 X49.173Y54.584Z0F1800
G1 X49.141Y54.443Z0F1800
G1 X49.166Y54.297Z0F1800
G1 X49.186Y54.217Z0F1800
G1 X49.157Y54.19Z0F1800
G1 X49.121Y54.199Z0F1800
G1 X49.069Y54.225Z0F1800
G1 X48.998Y54.268Z0F1800
G1 X48.908Y54.329Z0F1800
G1 X48.796Y54.41Z0F1800
G1 X48.662Y54.512Z0F1800
G1 X48.504Y54.635Z0F1800
G1 X48.32Y54.782Z0F1800
G1 X47.87Y55.147Z0F1800
G1 X47.299Y55.616Z0F1800
G1 X47.145Y55.761Z0F1800
G1 X47.011Y55.925Z0F1800
G1 X46.896Y56.105Z0F1800
G1 X46.799Y56.3Z0F1800
G1 X46.66Y56.728Z0F1800
G1 X46.588Y57.193Z0F1800
G1 X46.578Y57.682Z0F1800
G1 X46.624Y58.182Z0F1800
G1 X46.723Y58.676Z0F1800
G1 X46.868Y59.153Z0F1800
G1 X47.055Y59.596Z0F1800
G1 X47.278Y59.994Z0F1800
G1 X47.533Y60.33Z0F1800
G1 X47.814Y60.592Z0F1800
G1 X47.963Y60.69Z0F1800
G1 X48.117Y60.764Z0F1800
G1 X48.274Y60.813Z0F1800
G1 X48.435Y60.834Z0F1800
G1 X48.599Y60.826Z0F1800
G1 X48.765Y60.787Z0F1800
G1 X48.932Y60.714Z0F1800
G1 X49.101Y60.608Z0F1800
G1 X49.347Y60.432Z0F1800
G1 X49.55Y60.312Z0F1800
G1 X49.725Y60.252Z0F1800
G1 X49.891Y60.255Z0F1800
G1 X50.064Y60.325Z0F1800
G1 X50.26Y60.466Z0F1800
G1 X50.498Y60.682Z0F1800
G1 X51.026Y61.203Z0F1800
G1 X51.225Y61.382Z0F1800
G1 X51.405Y61.517Z0F1800
G1 X51.579Y61.615Z0F1800
G1 X51.757Y61.68Z0F1800
G1 X51.954Y61.72Z0F1800
G1 X52.18Y61.74Z0F1800
G1 X52.45Y61.745Z0F1800
G1 X52.599Y61.759Z0F1800
G1 X52.761Y61.801Z0F1800
G1 X52.935Y61.867Z0F1800
G1 X53.121Y61.959Z0F1800
G1 X53.519Y62.208Z0F1800
G1 X53.947Y62.537Z0F1800
G1 X54.395Y62.934Z0F1800
G1 X54.853Y63.388Z0F1800
G1 X55.312Y63.887Z0F1800
G1 X55.763Y64.419Z0F1800
G1 X56.197Y64.972Z0F1800
G1 X56.603Y65.536Z0F1800
M9
M5
G1 Z10 F1000
G90
G1 Z10 F800
