
G0 Z10 F500;      ; Move to clearance level - Z motion limited to 500
; G0 X-10 Y-10 F1200; Homing
; G0 X-5 Y-5 F1200; go in
; G10 P0 L20 X0 Y0; set to zero
G1 F1200;           ; Set feed rate to 1000
;LightBurn 1.6.04
;Custom GCode device profile, absolute coords
;Bounds: X20.31 Y24.84 to X95.71 Y104.93
G00 G17 G40 G21 G54
G90
M3
G1 Z10 F500
;Cut @ 1200 mm/min, 100% power

M8

; Washing sequence (no color)
G1 Z10 F1000;        ; Raise brush to safe height
G0 X5 Y5 F1200;     ; Rapid move to brush cleaning position
G1 Z-1 F800;         ; Lower brush for cleaning - controlled movement
G1 X10 Y12 Z8 F1200;     ; Rapid move to brush cleaning position
G1 Z-1 F800;         ; Lower brush for cleaning - controlled movement
G1 X25 Y14 Z6 F800;     ; Move across cleaning area - controlled movement
G1 Z8 F800;         ; Maintain brush height - controlled movement
G0 X5 Y5 F1200;     ; Rapid move to brush cleaning position
G1 Z-1 F800;         ; Lower brush for cleaning - controlled movement
G1 X15 Y12 Z8 F1200;     ; Rapid move to brush cleaning position
G1 Z-1 F800;         ; Lower brush for cleaning - controlled movement
G1 X25 Y14 Z6 F800;     ; Move across cleaning area - controlled movement
G1 Z10 F800;         ; Maintain brush height - controlled movement
G1 F1200;           ; Set feed rate to 1000

; Color 1 picking sequence
G1 Z10 F500;         ; Raise brush to safe height
G0 X41 Y5 F1200;    ; Rapid move to color 1 position
G1 Z0 F500;         ; Lower into color - controlled movement
G1 X40.102Y7.295Z0S800F1200
G1 X40.026Y7.642Z0F1200
G1 X40Y8Z0F1200
G1 X40.026Y8.358Z0F1200
G1 X40.102Y8.705Z0F1200
G1 X40.225Y9.041Z0F1200
G1 X40.393Y9.362Z0F1200
G1 X40.603Y9.668Z0F1200
G1 X40.854Y9.957Z0F1200
G1 X41.142Y10.226Z0F1200
G1 X41.464Y10.475Z0F1200
G1 X41.82Y10.701Z0F1200
G1 X42.204Y10.902Z0F1200
G1 X42.617Y11.078Z0F1200
G1 X43.054Y11.225Z0F1200
G1 X43.513Y11.343Z0F1200
G1 X43.992Y11.429Z0F1200
G1 X44.489Y11.482Z0F1200
G1 X45Y11.5Z0F1200
G1 X45.511Y11.482Z0F1200
G1 X46.008Y11.429Z0F1200
G1 X46.487Y11.343Z0F1200
G1 X46.946Y11.225Z0F1200
G1 X47.383Y11.078Z0F1200
G1 X47.796Y10.902Z0F1200
G1 X48.18Y10.701Z0F1200
G1 X48.536Y10.475Z0F1200
G1 X48.858Y10.226Z0F1200
G1 X49.146Y9.957Z0F1200
G1 X49.397Y9.668Z0F1200
G1 X49.607Y9.362Z0F1200
G1 X49.775Y9.041Z0F1200
G1 X49.898Y8.705Z0F1200
G1 X49.974Y8.358Z0F1200
G1 X50Y8Z0F1200
G1 X49.974Y7.642Z0F1200
G1 X49.898Y7.295Z0F1200
G1 X49.775Y6.959Z0F1200
G1 X49.607Y6.638Z0F1200
G1 X49.397Y6.332Z0F1200
G1 X49.146Y6.043Z0F1200
G1 X48.858Y5.774Z0F1200
G1 X48.536Y5.525Z0F1200
G1 X48.18Y5.299Z0F1200
G1 X47.796Y5.098Z0F1200
G1 X47.383Y4.922Z0F1200
G1 X46.946Y4.775Z0F1200
G1 X46.487Y4.657Z0F1200
G1 X46.008Y4.571Z0F1200
G1 X45.511Y4.518Z0F1200
G1 X45Y4.5Z0F1200
G1 X44.489Y4.518Z0F1200
G1 X43.992Y4.571Z0F1200
G1 X43.513Y4.657Z0F1200
G1 X43.054Y4.775Z0F1200
G1 X42.617Y4.922Z0F1200
G1 X42.204Y5.098Z0F1200
G1 X41.82Y5.299Z0F1200
G1 X41.464Y5.525Z0F1200
G1 X41.142Y5.774Z0F1200
G1 X40.854Y6.043Z0F1200
G1 X40.603Y6.332Z0F1200
G1 X40.393Y6.638Z0F1200
G1 X40.225Y6.959Z0F1200
G1 Z7 F800;         ; Raise from color - controlled movement
G1 X34 Y8 Z1 F1200;     ; Movement in paint - controlled movement
G1 X24 Y12 Z8 F500;     ; Move in paint - controlled movement
G1 F1200;           ; Set feed rate to 1000
G0 Z4.8F500
G0 X57.067Y65.049Z4.8F1500
G1 Z0F500
;Layer Green
G1 X57.283Y65.018Z0S1000F1200
G1 X57.557Y65.024Z0F1200
G1 X57.892Y65.065Z0F1200
G1 X58.287Y65.142Z0F1200
G1 X58.746Y65.253Z0F1200
G1 X59.269Y65.397Z0F1200
G1 X59.857Y65.573Z0F1200
G1 X60.612Y65.862Z0F1200
G1 X61.366Y66.249Z0F1200
G1 X62.082Y66.7Z0F1200
G1 X62.717Y67.183Z0F1200
G1 X62.993Y67.425Z0F1200
G1 X63.234Y67.663Z0F1200
G1 X63.435Y67.892Z0F1200
G1 X63.591Y68.108Z0F1200
G1 X63.698Y68.307Z0F1200
G1 X63.749Y68.485Z0F1200
G1 X63.742Y68.637Z0F1200
G1 X63.669Y68.76Z0F1200
G1 X63.41Y68.965Z0F1200
G1 X63.1Y69.12Z0F1200
G1 X62.747Y69.228Z0F1200
G1 X62.356Y69.29Z0F1200
G1 X61.937Y69.307Z0F1200
G1 X61.497Y69.283Z0F1200
G1 X61.042Y69.219Z0F1200
G1 X60.58Y69.116Z0F1200
G1 X60.12Y68.977Z0F1200
G1 X59.667Y68.804Z0F1200
G1 X59.229Y68.598Z0F1200
G1 X58.815Y68.362Z0F1200
G1 X58.431Y68.098Z0F1200
G1 X58.084Y67.807Z0F1200
G1 X57.783Y67.492Z0F1200
G1 X57.534Y67.153Z0F1200
G1 X57.285Y66.746Z0F1200
G1 X57.082Y66.385Z0F1200
G1 X56.927Y66.068Z0F1200
G1 X56.82Y65.794Z0F1200
G1 X56.763Y65.564Z0F1200
G1 X56.758Y65.375Z0F1200
G1 X56.807Y65.227Z0F1200
G1 X56.909Y65.119Z0F1200
G1 X57.067Y65.049Z0F1200
G0 Z4.8F500
G0 X53.223Y66.256Z4.8F1500
G1 Z0F500
G1 X53.724Y67.018Z0F1200
G1 X54.162Y67.762Z0F1200
G1 X54.354Y68.123Z0F1200
G1 X54.525Y68.474Z0F1200
G1 X54.674Y68.812Z0F1200
G1 X54.8Y69.136Z0F1200
G1 X54.901Y69.444Z0F1200
G1 X54.974Y69.734Z0F1200
G1 X55.02Y70.004Z0F1200
G1 X55.074Y70.916Z0F1200
G1 X55.188Y71.539Z0F1200
G1 X55.374Y72.118Z0F1200
G1 X55.632Y72.654Z0F1200
G1 X55.959Y73.144Z0F1200
G1 X56.351Y73.586Z0F1200
G1 X56.809Y73.981Z0F1200
G1 X57.328Y74.326Z0F1200
G1 X57.907Y74.621Z0F1200
G1 X58.543Y74.863Z0F1200
G1 X59.235Y75.052Z0F1200
G1 X59.98Y75.187Z0F1200
G1 X60.777Y75.265Z0F1200
G1 X61.621Y75.286Z0F1200
G1 X62.513Y75.249Z0F1200
G1 X63.448Y75.152Z0F1200
G1 X64.224Y75.051Z0F1200
G1 X64.541Y75.014Z0F1200
G1 X64.818Y74.988Z0F1200
G1 X65.06Y74.974Z0F1200
G1 X65.27Z0F1200
G1 X65.455Y74.985Z0F1200
G1 X65.618Y75.012Z0F1200
G1 X65.9Y75.117Z0F1200
G1 X66.155Y75.295Z0F1200
G1 X66.284Y75.414Z0F1200
G1 X66.421Y75.555Z0F1200
G1 X66.571Y75.719Z0F1200
G1 X66.737Y75.907Z0F1200
G1 X67.529Y76.736Z0F1200
G1 X68.401Y77.529Z0F1200
G1 X69.345Y78.282Z0F1200
G1 X70.352Y78.988Z0F1200
G1 X71.414Y79.642Z0F1200
G1 X72.522Y80.238Z0F1200
G1 X73.667Y80.769Z0F1200
G1 X74.841Y81.232Z0F1200
G1 X74.972Y81.278Z0F1200
G1 X75.083Y81.315Z0F1200
G1 X75.172Y81.341Z0F1200
G1 X75.236Y81.354Z0F1200
G1 X75.273Y81.351Z0F1200
G1 X75.283Y81.332Z0F1200
G1 X75.263Y81.293Z0F1200
G1 X75.211Y81.234Z0F1200
G1 X75.125Y81.152Z0F1200
G1 X75.005Y81.045Z0F1200
G1 X74.847Y80.913Z0F1200
G1 X74.65Y80.751Z0F1200
G1 X74.131Y80.337Z0F1200
G1 X73.434Y79.786Z0F1200
G1 X73.261Y79.636Z0F1200
G1 X73.055Y79.436Z0F1200
G1 X72.823Y79.195Z0F1200
G1 X72.572Y78.919Z0F1200
G1 X72.033Y78.294Z0F1200
G1 X71.485Y77.621Z0F1200
G1 X71.223Y77.286Z0F1200
G1 X70.976Y76.961Z0F1200
G1 X70.752Y76.654Z0F1200
G1 X70.554Y76.373Z0F1200
G1 X70.39Y76.125Z0F1200
G1 X70.266Y75.917Z0F1200
G1 X70.187Y75.758Z0F1200
G1 X70.16Y75.654Z0F1200
G1 X70.185Y75.522Z0F1200
G1 X70.257Y75.42Z0F1200
G1 X70.37Y75.346Z0F1200
G1 X70.52Y75.3Z0F1200
G1 X70.7Y75.28Z0F1200
G1 X70.906Y75.285Z0F1200
G1 X71.132Y75.313Z0F1200
G1 X71.373Y75.363Z0F1200
G1 X71.877Y75.524Z0F1200
G1 X72.377Y75.758Z0F1200
G1 X72.612Y75.898Z0F1200
G1 X72.83Y76.053Z0F1200
G1 X73.025Y76.221Z0F1200
G1 X73.192Y76.401Z0F1200
G1 X73.617Y76.886Z0F1200
G1 X74.07Y77.339Z0F1200
G1 X74.552Y77.758Z0F1200
G1 X75.063Y78.146Z0F1200
G1 X75.604Y78.501Z0F1200
G1 X76.174Y78.825Z0F1200
G1 X76.775Y79.117Z0F1200
G1 X77.406Y79.379Z0F1200
G1 X77.837Y79.541Z0F1200
G1 X78.007Y79.602Z0F1200
G1 X78.146Y79.648Z0F1200
G1 X78.255Y79.677Z0F1200
G1 X78.333Y79.689Z0F1200
G1 X78.381Y79.683Z0F1200
G1 X78.398Y79.657Z0F1200
G1 X78.385Y79.61Z0F1200
G1 X78.341Y79.542Z0F1200
G1 X78.268Y79.45Z0F1200
G1 X78.164Y79.334Z0F1200
G1 X78.031Y79.193Z0F1200
G1 X77.867Y79.026Z0F1200
G1 X77.45Y78.607Z0F1200
G1 X77.138Y78.28Z0F1200
G1 X76.859Y77.957Z0F1200
G1 X76.615Y77.642Z0F1200
G1 X76.405Y77.335Z0F1200
G1 X76.23Y77.04Z0F1200
G1 X76.09Y76.759Z0F1200
G1 X75.987Y76.494Z0F1200
G1 X75.92Y76.247Z0F1200
G1 X75.89Y76.021Z0F1200
G1 X75.897Y75.818Z0F1200
G1 X75.942Y75.639Z0F1200
G1 X76.026Y75.488Z0F1200
G1 X76.148Y75.367Z0F1200
G1 X76.309Y75.278Z0F1200
G1 X76.51Y75.222Z0F1200
G1 X76.752Y75.203Z0F1200
G1 X77.541Y75.16Z0F1200
G1 X78.385Y75.033Z0F1200
G1 X79.274Y74.827Z0F1200
G1 X80.2Y74.549Z0F1200
G1 X81.152Y74.202Z0F1200
G1 X82.121Y73.792Z0F1200
G1 X83.1Y73.324Z0F1200
G1 X84.078Y72.803Z0F1200
G1 X85.046Y72.235Z0F1200
G1 X85.995Y71.624Z0F1200
G1 X86.917Y70.975Z0F1200
G1 X87.801Y70.294Z0F1200
G1 X88.639Y69.586Z0F1200
G1 X89.422Y68.855Z0F1200
G1 X90.14Y68.108Z0F1200
G1 X90.785Y67.349Z0F1200
G1 X90.93Y67.165Z0F1200
G1 X91.16Y66.87Z0F1200
G1 X91.244Y66.757Z0F1200
G1 X91.305Y66.668Z0F1200
G1 X91.345Y66.601Z0F1200
G1 X91.361Y66.556Z0F1200
G1 X91.354Y66.533Z0F1200
G1 X91.322Z0F1200
G1 X91.266Y66.551Z0F1200
G1 X91.185Y66.591Z0F1200
G1 X91.077Y66.652Z0F1200
G1 X90.943Y66.732Z0F1200
G1 X90.782Y66.832Z0F1200
G1 X90.375Y67.089Z0F1200
G1 X89.919Y67.359Z0F1200
G1 X89.456Y67.599Z0F1200
G1 X89.001Y67.805Z0F1200
G1 X88.573Y67.968Z0F1200
G1 X88.188Y68.084Z0F1200
G1 X87.865Y68.147Z0F1200
G1 X87.732Y68.157Z0F1200
G1 X87.62Y68.151Z0F1200
G1 X87.532Y68.129Z0F1200
G1 X87.47Y68.089Z0F1200
G1 X87.474Y68.027Z0F1200
G1 X87.532Y67.896Z0F1200
G1 X87.64Y67.704Z0F1200
G1 X87.792Y67.46Z0F1200
G1 X87.983Y67.171Z0F1200
G1 X88.207Y66.846Z0F1200
G1 X88.46Y66.492Z0F1200
G1 X88.737Y66.119Z0F1200
G1 X89.623Y64.865Z0F1200
G1 X90.452Y63.538Z0F1200
G1 X91.222Y62.147Z0F1200
G1 X91.93Y60.7Z0F1200
G1 X92.575Y59.207Z0F1200
G1 X93.154Y57.675Z0F1200
G1 X93.665Y56.114Z0F1200
G1 X94.106Y54.533Z0F1200
G1 X94.475Y52.939Z0F1200
G1 X94.768Y51.342Z0F1200
G1 X94.985Y49.751Z0F1200
G1 X95.123Y48.174Z0F1200
G1 X95.179Y46.62Z0F1200
G1 X95.152Y45.098Z0F1200
G1 X95.106Y44.351Z0F1200
G1 X95.039Y43.616Z0F1200
G1 X94.949Y42.893Z0F1200
G1 X94.838Y42.183Z0F1200
G1 X94.717Y41.505Z0F1200
G1 X94.605Y40.905Z0F1200
G1 X94.5Y40.383Z0F1200
G1 X94.403Y39.935Z0F1200
G1 X94.312Y39.562Z0F1200
G1 X94.226Y39.262Z0F1200
G1 X94.145Y39.033Z0F1200
G1 X94.068Y38.874Z0F1200
G1 X93.993Y38.783Z0F1200
G1 X93.92Y38.76Z0F1200
G1 X93.849Y38.803Z0F1200
G1 X93.778Y38.91Z0F1200
G1 X93.706Y39.08Z0F1200
G1 X93.633Y39.312Z0F1200
G1 X93.557Y39.604Z0F1200
G1 X93.479Y39.955Z0F1200
G1 X93.351Y40.507Z0F1200
G1 X93.211Y41.018Z0F1200
G1 X93.062Y41.485Z0F1200
G1 X92.905Y41.904Z0F1200
G1 X92.745Y42.273Z0F1200
G1 X92.584Y42.588Z0F1200
G1 X92.424Y42.847Z0F1200
G1 X92.269Y43.045Z0F1200
G1 X92.122Y43.181Z0F1200
G1 X91.985Y43.25Z0F1200
G1 X91.862Z0F1200
G1 X91.754Y43.177Z0F1200
G1 X91.666Y43.029Z0F1200
G1 X91.599Y42.801Z0F1200
G1 X91.557Y42.492Z0F1200
G1 X91.542Y42.097Z0F1200
G1 X91.495Y40.994Z0F1200
G1 X91.357Y39.921Z0F1200
G1 X91.129Y38.879Z0F1200
G1 X90.812Y37.868Z0F1200
G1 X90.408Y36.889Z0F1200
G1 X89.919Y35.943Z0F1200
G1 X89.346Y35.03Z0F1200
G1 X88.691Y34.152Z0F1200
G1 X87.955Y33.308Z0F1200
G1 X87.14Y32.5Z0F1200
G1 X86.249Y31.729Z0F1200
G1 X85.281Y30.994Z0F1200
G1 X84.239Y30.297Z0F1200
G1 X83.125Y29.639Z0F1200
G1 X81.94Y29.019Z0F1200
G1 X80.686Y28.44Z0F1200
G1 X79.364Y27.901Z0F1200
G1 X77.976Y27.403Z0F1200
G1 X76.524Y26.947Z0F1200
G1 X75.008Y26.533Z0F1200
G1 X73.432Y26.163Z0F1200
G1 X71.796Y25.837Z0F1200
G1 X70.102Y25.555Z0F1200
G1 X68.351Y25.319Z0F1200
G1 X66.546Y25.129Z0F1200
G1 X64.687Y24.986Z0F1200
G1 X62.777Y24.89Z0F1200
G1 X60.817Y24.842Z0F1200
G1 X58.809Z0F1200
G1 X56.754Y24.894Z0F1200
G1 X54.653Y24.995Z0F1200
G1 X52.509Y25.147Z0F1200
G1 X50.829Y25.325Z0F1200
G1 X49.19Y25.579Z0F1200
G1 X47.593Y25.905Z0F1200
G1 X46.038Y26.303Z0F1200
G1 X44.525Y26.769Z0F1200
G1 X43.054Y27.302Z0F1200
G1 X41.627Y27.9Z0F1200
G1 X40.243Y28.561Z0F1200
G1 X38.902Y29.283Z0F1200
G1 X37.606Y30.062Z0F1200
G1 X36.353Y30.898Z0F1200
G1 X35.145Y31.789Z0F1200
G1 X33.982Y32.731Z0F1200
G1 X32.864Y33.724Z0F1200
G1 X31.791Y34.764Z0F1200

; Color 1 picking sequence
G1 Z10 F500;         ; Raise brush to safe height
G0 X41 Y5 F1200;    ; Rapid move to color 1 position
G1 Z0 F500;         ; Lower into color - controlled movement
G1 X40.102Y7.295Z0S800F1200
G1 X40.026Y7.642Z0F1200
G1 X40Y8Z0F1200
G1 X40.026Y8.358Z0F1200
G1 X40.102Y8.705Z0F1200
G1 X40.225Y9.041Z0F1200
G1 X40.393Y9.362Z0F1200
G1 X40.603Y9.668Z0F1200
G1 X40.854Y9.957Z0F1200
G1 X41.142Y10.226Z0F1200
G1 X41.464Y10.475Z0F1200
G1 X41.82Y10.701Z0F1200
G1 X42.204Y10.902Z0F1200
G1 X42.617Y11.078Z0F1200
G1 X43.054Y11.225Z0F1200
G1 X43.513Y11.343Z0F1200
G1 X43.992Y11.429Z0F1200
G1 X44.489Y11.482Z0F1200
G1 X45Y11.5Z0F1200
G1 X45.511Y11.482Z0F1200
G1 X46.008Y11.429Z0F1200
G1 X46.487Y11.343Z0F1200
G1 X46.946Y11.225Z0F1200
G1 X47.383Y11.078Z0F1200
G1 X47.796Y10.902Z0F1200
G1 X48.18Y10.701Z0F1200
G1 X48.536Y10.475Z0F1200
G1 X48.858Y10.226Z0F1200
G1 X49.146Y9.957Z0F1200
G1 X49.397Y9.668Z0F1200
G1 X49.607Y9.362Z0F1200
G1 X49.775Y9.041Z0F1200
G1 X49.898Y8.705Z0F1200
G1 X49.974Y8.358Z0F1200
G1 X50Y8Z0F1200
G1 X49.974Y7.642Z0F1200
G1 X49.898Y7.295Z0F1200
G1 X49.775Y6.959Z0F1200
G1 X49.607Y6.638Z0F1200
G1 X49.397Y6.332Z0F1200
G1 X49.146Y6.043Z0F1200
G1 X48.858Y5.774Z0F1200
G1 X48.536Y5.525Z0F1200
G1 X48.18Y5.299Z0F1200
G1 X47.796Y5.098Z0F1200
G1 X47.383Y4.922Z0F1200
G1 X46.946Y4.775Z0F1200
G1 X46.487Y4.657Z0F1200
G1 X46.008Y4.571Z0F1200
G1 X45.511Y4.518Z0F1200
G1 X45Y4.5Z0F1200
G1 X44.489Y4.518Z0F1200
G1 X43.992Y4.571Z0F1200
G1 X43.513Y4.657Z0F1200
G1 X43.054Y4.775Z0F1200
G1 X42.617Y4.922Z0F1200
G1 X42.204Y5.098Z0F1200
G1 X41.82Y5.299Z0F1200
G1 X41.464Y5.525Z0F1200
G1 X41.142Y5.774Z0F1200
G1 X40.854Y6.043Z0F1200
G1 X40.603Y6.332Z0F1200
G1 X40.393Y6.638Z0F1200
G1 X40.225Y6.959Z0F1200
G1 Z7 F800;         ; Raise from color - controlled movement
G1 X34 Y8 Z1 F1200;     ; Movement in paint - controlled movement
G1 X24 Y12 Z8 F500;     ; Move in paint - controlled movement
G1 F1200;           ; Set feed rate to 1000

; Return to drawing position
G0 X31.791 Y34.764 F1200;  ; Return to position with raised Z
G1 Z0 F1000;                       ; Lower Z to drawing position
G1 X30.764Y35.851Z0F1200
G1 X29.783Y36.981Z0F1200
G1 X28.849Y38.153Z0F1200
G1 X27.961Y39.364Z0F1200
G1 X27.12Y40.613Z0F1200
G1 X26.326Y41.897Z0F1200
G1 X25.58Y43.214Z0F1200
G1 X24.882Y44.562Z0F1200
G1 X24.232Y45.94Z0F1200
G1 X23.631Y47.344Z0F1200
G1 X23.078Y48.773Z0F1200
G1 X22.575Y50.225Z0F1200
G1 X22.121Y51.697Z0F1200
G1 X21.717Y53.188Z0F1200
G1 X21.363Y54.696Z0F1200
G1 X21.059Y56.217Z0F1200
G1 X20.807Y57.751Z0F1200
G1 X20.605Y59.295Z0F1200
G1 X20.454Y60.847Z0F1200
G1 X20.355Y62.405Z0F1200
G1 X20.308Y63.966Z0F1200
G1 X20.313Y65.53Z0F1200
G1 X20.371Y67.093Z0F1200
G1 X20.482Y68.653Z0F1200
G1 X20.646Y70.209Z0F1200
G1 X20.863Y71.758Z0F1200
G1 X21.135Y73.298Z0F1200
G1 X21.46Y74.827Z0F1200
G1 X21.84Y76.343Z0F1200
G1 X22.274Y77.844Z0F1200
G1 X22.764Y79.328Z0F1200
G1 X23.309Y80.793Z0F1200
G1 X23.909Y82.236Z0F1200
G1 X24.566Y83.655Z0F1200
G1 X25.279Y85.049Z0F1200
G1 X26.049Y86.415Z0F1200
G1 X26.875Y87.752Z0F1200
G1 X27.759Y89.056Z0F1200
G1 X28.7Y90.326Z0F1200
G1 X29.699Y91.56Z0F1200
G1 X30.756Y92.756Z0F1200
G1 X31.872Y93.911Z0F1200
G1 X33.047Y95.024Z0F1200
G1 X34.28Y96.093Z0F1200
G1 X35.573Y97.115Z0F1200
G1 X36.926Y98.087Z0F1200
G1 X38.339Y99.01Z0F1200
G1 X39.812Y99.879Z0F1200
G1 X41.345Y100.693Z0F1200
G1 X42.658Y101.319Z0F1200
G1 X43.999Y101.895Z0F1200
G1 X45.364Y102.42Z0F1200
G1 X46.753Y102.895Z0F1200
G1 X48.162Y103.319Z0F1200
G1 X49.589Y103.693Z0F1200
G1 X51.032Y104.018Z0F1200
G1 X52.488Y104.293Z0F1200
G1 X53.956Y104.519Z0F1200
G1 X55.431Y104.695Z0F1200
G1 X56.913Y104.823Z0F1200
G1 X58.399Y104.902Z0F1200
G1 X59.886Y104.933Z0F1200
G1 X61.372Y104.915Z0F1200
G1 X62.854Y104.85Z0F1200
G1 X64.331Y104.736Z0F1200
G1 X65.799Y104.575Z0F1200
G1 X67.257Y104.367Z0F1200
G1 X68.702Y104.112Z0F1200
G1 X70.132Y103.81Z0F1200
G1 X71.543Y103.461Z0F1200
G1 X72.935Y103.066Z0F1200
G1 X74.304Y102.624Z0F1200
G1 X75.648Y102.137Z0F1200
G1 X76.964Y101.603Z0F1200
G1 X78.251Y101.025Z0F1200
G1 X79.506Y100.401Z0F1200
G1 X80.726Y99.731Z0F1200
G1 X81.91Y99.017Z0F1200
G1 X83.054Y98.259Z0F1200
G1 X84.156Y97.456Z0F1200
G1 X85.214Y96.608Z0F1200
G1 X85.536Y96.339Z0F1200
G1 X85.819Y96.105Z0F1200
G1 X86.069Y95.906Z0F1200
G1 X86.29Y95.743Z0F1200
G1 X86.487Y95.614Z0F1200
G1 X86.664Y95.519Z0F1200
G1 X86.825Y95.459Z0F1200
G1 X86.976Y95.432Z0F1200
G1 X87.121Y95.439Z0F1200
G1 X87.265Y95.479Z0F1200
G1 X87.412Y95.551Z0F1200
G1 X87.567Y95.656Z0F1200
G1 X87.735Y95.793Z0F1200
G1 X87.919Y95.962Z0F1200
G1 X88.126Y96.163Z0F1200
G1 X88.794Y96.828Z0F1200
G1 X88.971Y96.999Z0F1200
G1 X89.123Y97.141Z0F1200
G1 X89.253Y97.254Z0F1200
G1 X89.363Y97.338Z0F1200
G1 X89.455Y97.393Z0F1200
G1 X89.531Y97.421Z0F1200
G1 X89.594Z0F1200
G1 X89.645Y97.395Z0F1200
G1 X89.687Y97.342Z0F1200
G1 X89.721Y97.262Z0F1200
G1 X89.777Y97.027Z0F1200
G1 X90.021Y95.468Z0F1200
G1 X90.215Y94.314Z0F1200
G1 X90.414Y93.226Z0F1200
G1 X90.62Y92.199Z0F1200
G1 X90.835Y91.227Z0F1200
G1 X91.06Y90.304Z0F1200
G1 X91.297Y89.424Z0F1200
G1 X91.549Y88.582Z0F1200
G1 X91.816Y87.773Z0F1200
G1 X92.101Y86.99Z0F1200
G1 X92.405Y86.228Z0F1200
G1 X92.73Y85.481Z0F1200
G1 X93.078Y84.744Z0F1200
G1 X93.451Y84.01Z0F1200
G1 X93.85Y83.275Z0F1200
G1 X94.277Y82.533Z0F1200
G1 X94.566Y82.043Z0F1200
G1 X95.079Y81.16Z0F1200
G1 X95.292Y80.789Z0F1200
G1 X95.468Y80.478Z0F1200
G1 X95.649Y80.147Z0F1200
G1 X95.707Y80.033Z0F1200
G1 X95.714Y80.011Z0F1200
G1 X95.67Y80.019Z0F1200
G1 X95.544Y80.077Z0F1200
G1 X95.345Y80.181Z0F1200
G1 X95.081Y80.325Z0F1200
G1 X94.762Y80.505Z0F1200
G1 X94.396Y80.715Z0F1200
G1 X93.993Y80.951Z0F1200
G1 X93.56Y81.208Z0F1200
G1 X92.84Y81.623Z0F1200
G1 X92.112Y82.013Z0F1200
G1 X91.374Y82.378Z0F1200
G1 X90.626Y82.718Z0F1200
G1 X89.864Y83.034Z0F1200
G1 X89.089Y83.326Z0F1200
G1 X88.299Y83.594Z0F1200
G1 X87.492Y83.84Z0F1200
G1 X86.668Y84.063Z0F1200
G1 X85.824Y84.264Z0F1200
G1 X84.959Y84.443Z0F1200
G1 X84.073Y84.6Z0F1200
G1 X83.163Y84.736Z0F1200
G1 X82.228Y84.852Z0F1200
G1 X81.267Y84.947Z0F1200
G1 X80.279Y85.023Z0F1200
G1 X79.823Y85.053Z0F1200
G1 X79.426Y85.082Z0F1200
G1 X79.087Y85.111Z0F1200
G1 X78.803Y85.144Z0F1200
G1 X78.574Y85.182Z0F1200
G1 X78.397Y85.229Z0F1200
G1 X78.27Y85.285Z0F1200
G1 X78.193Y85.355Z0F1200
G1 X78.163Y85.44Z0F1200
G1 X78.178Y85.542Z0F1200
G1 X78.238Y85.664Z0F1200
G1 X78.34Y85.809Z0F1200
G1 X78.483Y85.978Z0F1200
G1 X78.665Y86.175Z0F1200
G1 X78.884Y86.401Z0F1200
G1 X79.46Y86.984Z0F1200
G1 X79.738Y87.27Z0F1200
G1 X79.971Y87.523Z0F1200
G1 X80.16Y87.748Z0F1200
G1 X80.303Y87.95Z0F1200
G1 X80.399Y88.136Z0F1200
G1 X80.448Y88.311Z0F1200
G1 Y88.481Z0F1200
G1 X80.401Y88.651Z0F1200
G1 X80.303Y88.826Z0F1200
G1 X80.155Y89.013Z0F1200
G1 X79.956Y89.217Z0F1200
G1 X79.704Y89.443Z0F1200
G1 X79.4Y89.698Z0F1200
G1 X79.043Y89.986Z0F1200
G1 X78.631Y90.313Z0F1200
G1 X77.811Y90.938Z0F1200
G1 X76.966Y91.532Z0F1200
G1 X76.097Y92.094Z0F1200
G1 X75.204Y92.625Z0F1200
G1 X74.29Y93.124Z0F1200
G1 X73.356Y93.591Z0F1200
G1 X72.403Y94.026Z0F1200
G1 X71.433Y94.428Z0F1200
G1 X70.448Y94.799Z0F1200
G1 X69.448Y95.136Z0F1200
G1 X68.435Y95.441Z0F1200
G1 X67.411Y95.713Z0F1200
G1 X66.377Y95.952Z0F1200
G1 X65.334Y96.158Z0F1200
G1 X64.285Y96.33Z0F1200
G1 X63.23Y96.469Z0F1200
G1 X62.171Y96.574Z0F1200
G1 X61.109Y96.645Z0F1200
G1 X60.046Y96.682Z0F1200
G1 X58.983Y96.685Z0F1200
G1 X57.922Y96.653Z0F1200
G1 X56.863Y96.587Z0F1200
G1 X55.81Y96.486Z0F1200
G1 X54.763Y96.35Z0F1200
G1 X53.723Y96.179Z0F1200
G1 X52.692Y95.972Z0F1200
G1 X51.671Y95.731Z0F1200

; Color 1 picking sequence
G1 Z10 F500;         ; Raise brush to safe height
G0 X41 Y5 F1200;    ; Rapid move to color 1 position
G1 Z0 F500;         ; Lower into color - controlled movement
G1 X40.102Y7.295Z0S800F1200
G1 X40.026Y7.642Z0F1200
G1 X40Y8Z0F1200
G1 X40.026Y8.358Z0F1200
G1 X40.102Y8.705Z0F1200
G1 X40.225Y9.041Z0F1200
G1 X40.393Y9.362Z0F1200
G1 X40.603Y9.668Z0F1200
G1 X40.854Y9.957Z0F1200
G1 X41.142Y10.226Z0F1200
G1 X41.464Y10.475Z0F1200
G1 X41.82Y10.701Z0F1200
G1 X42.204Y10.902Z0F1200
G1 X42.617Y11.078Z0F1200
G1 X43.054Y11.225Z0F1200
G1 X43.513Y11.343Z0F1200
G1 X43.992Y11.429Z0F1200
G1 X44.489Y11.482Z0F1200
G1 X45Y11.5Z0F1200
G1 X45.511Y11.482Z0F1200
G1 X46.008Y11.429Z0F1200
G1 X46.487Y11.343Z0F1200
G1 X46.946Y11.225Z0F1200
G1 X47.383Y11.078Z0F1200
G1 X47.796Y10.902Z0F1200
G1 X48.18Y10.701Z0F1200
G1 X48.536Y10.475Z0F1200
G1 X48.858Y10.226Z0F1200
G1 X49.146Y9.957Z0F1200
G1 X49.397Y9.668Z0F1200
G1 X49.607Y9.362Z0F1200
G1 X49.775Y9.041Z0F1200
G1 X49.898Y8.705Z0F1200
G1 X49.974Y8.358Z0F1200
G1 X50Y8Z0F1200
G1 X49.974Y7.642Z0F1200
G1 X49.898Y7.295Z0F1200
G1 X49.775Y6.959Z0F1200
G1 X49.607Y6.638Z0F1200
G1 X49.397Y6.332Z0F1200
G1 X49.146Y6.043Z0F1200
G1 X48.858Y5.774Z0F1200
G1 X48.536Y5.525Z0F1200
G1 X48.18Y5.299Z0F1200
G1 X47.796Y5.098Z0F1200
G1 X47.383Y4.922Z0F1200
G1 X46.946Y4.775Z0F1200
G1 X46.487Y4.657Z0F1200
G1 X46.008Y4.571Z0F1200
G1 X45.511Y4.518Z0F1200
G1 X45Y4.5Z0F1200
G1 X44.489Y4.518Z0F1200
G1 X43.992Y4.571Z0F1200
G1 X43.513Y4.657Z0F1200
G1 X43.054Y4.775Z0F1200
G1 X42.617Y4.922Z0F1200
G1 X42.204Y5.098Z0F1200
G1 X41.82Y5.299Z0F1200
G1 X41.464Y5.525Z0F1200
G1 X41.142Y5.774Z0F1200
G1 X40.854Y6.043Z0F1200
G1 X40.603Y6.332Z0F1200
G1 X40.393Y6.638Z0F1200
G1 X40.225Y6.959Z0F1200
G1 Z7 F800;         ; Raise from color - controlled movement
G1 X34 Y8 Z1 F1200;     ; Movement in paint - controlled movement
G1 X24 Y12 Z8 F500;     ; Move in paint - controlled movement
G1 F1200;           ; Set feed rate to 1000

; Return to drawing position
G0 X51.671 Y95.731 F1200;  ; Return to position with raised Z
G1 Z0 F1000;                       ; Lower Z to drawing position
G1 X50.662Y95.453Z0F1200
G1 X49.666Y95.14Z0F1200
G1 X48.685Y94.791Z0F1200
G1 X47.721Y94.406Z0F1200
G1 X46.774Y93.985Z0F1200
G1 X45.381Y93.291Z0F1200
G1 X44.048Y92.546Z0F1200
G1 X42.776Y91.751Z0F1200
G1 X41.564Y90.908Z0F1200
G1 X40.41Y90.021Z0F1200
G1 X39.316Y89.09Z0F1200
G1 X38.279Y88.118Z0F1200
G1 X37.3Y87.108Z0F1200
G1 X36.378Y86.061Z0F1200
G1 X35.513Y84.98Z0F1200
G1 X34.705Y83.868Z0F1200
G1 X33.952Y82.725Z0F1200
G1 X33.254Y81.554Z0F1200
G1 X32.611Y80.359Z0F1200
G1 X32.022Y79.139Z0F1200
G1 X31.487Y77.899Z0F1200
G1 X31.005Y76.64Z0F1200
G1 X30.576Y75.365Z0F1200
G1 X30.2Y74.075Z0F1200
G1 X29.875Y72.772Z0F1200
G1 X29.602Y71.46Z0F1200
G1 X29.379Y70.14Z0F1200
G1 X29.207Y68.814Z0F1200
G1 X29.085Y67.485Z0F1200
G1 X29.012Y66.154Z0F1200
G1 X28.988Y64.824Z0F1200
G1 X29.012Y63.498Z0F1200
G1 X29.084Y62.176Z0F1200
G1 X29.204Y60.863Z0F1200
G1 X29.371Y59.559Z0F1200
G1 X29.584Y58.267Z0F1200
G1 X29.843Y56.989Z0F1200
G1 X30.148Y55.727Z0F1200
G1 X30.497Y54.484Z0F1200
G1 X30.891Y53.262Z0F1200
G1 X31.329Y52.062Z0F1200
G1 X31.811Y50.888Z0F1200
G1 X32.336Y49.741Z0F1200
G1 X32.903Y48.624Z0F1200
G1 X33.512Y47.538Z0F1200
G1 X34.163Y46.486Z0F1200
G1 X34.855Y45.47Z0F1200
G1 X35.588Y44.493Z0F1200
G1 X36.361Y43.556Z0F1200
G1 X37.173Y42.662Z0F1200
G1 X38.025Y41.812Z0F1200
G1 X38.915Y41.01Z0F1200
G1 X39.843Y40.257Z0F1200
G1 X40.809Y39.555Z0F1200
G1 X41.812Y38.908Z0F1200
G1 X42.852Y38.316Z0F1200
G1 X43.928Y37.782Z0F1200
G1 X45.04Y37.308Z0F1200
G1 X46.187Y36.897Z0F1200
G1 X47.369Y36.551Z0F1200
G1 X48.585Y36.271Z0F1200
G1 X49.835Y36.061Z0F1200
G1 X51.118Y35.922Z0F1200
G1 X52.434Y35.856Z0F1200
G1 X53.782Y35.866Z0F1200
G1 X55.162Y35.954Z0F1200
G1 X56.574Y36.122Z0F1200
G1 X58.016Y36.372Z0F1200
G1 X59.489Y36.706Z0F1200
G1 X60.382Y36.959Z0F1200
G1 X61.273Y37.262Z0F1200
G1 X62.16Y37.612Z0F1200
G1 X63.04Y38.006Z0F1200
G1 X63.91Y38.441Z0F1200
G1 X64.768Y38.914Z0F1200
G1 X65.611Y39.421Z0F1200
G1 X66.436Y39.96Z0F1200
G1 X67.241Y40.528Z0F1200
G1 X68.024Y41.121Z0F1200
G1 X68.781Y41.736Z0F1200
G1 X69.511Y42.37Z0F1200
G1 X70.21Y43.02Z0F1200
G1 X70.876Y43.684Z0F1200
G1 X71.506Y44.357Z0F1200
G1 X72.098Y45.037Z0F1200
G1 X72.649Y45.721Z0F1200
G1 X73.157Y46.405Z0F1200
G1 X73.619Y47.086Z0F1200
G1 X74.032Y47.762Z0F1200
G1 X74.393Y48.43Z0F1200
G1 X74.701Y49.085Z0F1200
G1 X74.952Y49.726Z0F1200
G1 X75.145Y50.348Z0F1200
G1 X75.275Y50.95Z0F1200
G1 X75.341Y51.527Z0F1200
G1 Y52.077Z0F1200
G1 X75.271Y52.596Z0F1200
G1 X75.129Y53.082Z0F1200
G1 X74.912Y53.531Z0F1200
G1 X74.618Y53.94Z0F1200
G1 X74.244Y54.307Z0F1200
G1 X74.143Y54.418Z0F1200
G1 X74.092Y54.56Z0F1200
G1 X74.096Y54.751Z0F1200
G1 X74.161Y55.009Z0F1200
G1 X74.219Y55.17Z0F1200
G1 X74.295Y55.356Z0F1200
G1 X74.39Y55.567Z0F1200
G1 X74.503Y55.808Z0F1200
G1 X74.637Y56.08Z0F1200
G1 X74.792Y56.385Z0F1200
G1 X74.969Y56.727Z0F1200
G1 X75.464Y57.675Z0F1200
G1 X75.715Y58.17Z0F1200
G1 X75.92Y58.59Z0F1200
G1 X76.079Y58.937Z0F1200
G1 X76.191Y59.211Z0F1200
G1 X76.257Y59.411Z0F1200
G1 X76.276Y59.538Z0F1200
G1 X76.247Y59.592Z0F1200
G1 X76.17Y59.573Z0F1200
G1 X76.044Y59.481Z0F1200
G1 X75.87Y59.316Z0F1200
G1 X75.647Y59.078Z0F1200
G1 X75.375Y58.768Z0F1200
G1 X75.053Y58.385Z0F1200
G1 X74.68Y57.93Z0F1200
G1 X73.856Y56.905Z0F1200
G1 X73.487Y56.46Z0F1200
G1 X73.145Y56.066Z0F1200
G1 X72.828Y55.721Z0F1200
G1 X72.529Y55.422Z0F1200
G1 X72.246Y55.167Z0F1200
G1 X71.974Y54.953Z0F1200
G1 X71.708Y54.777Z0F1200
G1 X71.445Y54.637Z0F1200
G1 X71.18Y54.531Z0F1200
G1 X70.908Y54.455Z0F1200
G1 X70.627Y54.408Z0F1200
G1 X70.33Y54.386Z0F1200
G1 X70.014Z0F1200
G1 X69.675Y54.41Z0F1200
G1 X69.309Y54.451Z0F1200
G1 X68.66Y54.532Z0F1200
G1 X68.075Y54.603Z0F1200
G1 X67.548Y54.663Z0F1200
G1 X67.076Y54.713Z0F1200
G1 X66.652Y54.752Z0F1200
G1 X66.271Y54.78Z0F1200
G1 X65.929Y54.798Z0F1200
G1 X65.619Y54.805Z0F1200
G1 X65.077Y54.789Z0F1200
G1 X64.603Y54.73Z0F1200
G1 X64.155Y54.63Z0F1200
G1 X63.692Y54.49Z0F1200
G1 X62.827Y54.158Z0F1200
G1 X61.992Y53.745Z0F1200
G1 X61.582Y53.504Z0F1200
G1 X61.175Y53.238Z0F1200
G1 X60.768Y52.947Z0F1200
G1 X60.362Y52.629Z0F1200
G1 X59.953Y52.283Z0F1200
G1 X59.541Y51.907Z0F1200
G1 X59.124Y51.5Z0F1200
G1 X58.7Y51.061Z0F1200
G1 X58.268Y50.588Z0F1200
G1 X57.827Y50.081Z0F1200
G1 X57.373Y49.538Z0F1200
G1 X56.907Y48.958Z0F1200
G1 X56.442Y48.438Z0F1200
G1 X55.912Y47.967Z0F1200
G1 X55.325Y47.547Z0F1200
G1 X54.69Y47.179Z0F1200
G1 X54.015Y46.865Z0F1200
G1 X53.309Y46.605Z0F1200
G1 X52.581Y46.401Z0F1200
G1 X51.839Y46.255Z0F1200
G1 X51.092Y46.167Z0F1200
G1 X50.348Y46.139Z0F1200
G1 X49.616Y46.173Z0F1200
G1 X48.904Y46.27Z0F1200
G1 X48.221Y46.43Z0F1200
G1 X47.575Y46.657Z0F1200
G1 X46.975Y46.95Z0F1200
G1 X46.43Y47.311Z0F1200
G1 X46.219Y47.476Z0F1200
G1 X46.082Y47.601Z0F1200
G1 X46.046Y47.649Z0F1200
G1 X46.034Y47.69Z0F1200
G1 X46.047Y47.724Z0F1200
G1 X46.088Y47.751Z0F1200
G1 X46.158Y47.772Z0F1200
G1 X46.258Y47.788Z0F1200
G1 X46.391Y47.8Z0F1200
G1 X46.559Y47.809Z0F1200
G1 X46.762Y47.815Z0F1200
G1 X47.003Y47.819Z0F1200
G1 X47.604Y47.823Z0F1200
G1 X48.148Y47.834Z0F1200
G1 X48.647Y47.862Z0F1200
G1 X49.108Y47.911Z0F1200
G1 X49.537Y47.988Z0F1200
G1 X49.941Y48.096Z0F1200
G1 X50.327Y48.241Z0F1200
G1 X50.704Y48.427Z0F1200
G1 X51.076Y48.659Z0F1200
G1 X51.452Y48.942Z0F1200
G1 X51.839Y49.281Z0F1200
G1 X52.243Y49.681Z0F1200
G1 X52.672Y50.146Z0F1200
G1 X53.133Y50.682Z0F1200
G1 X53.632Y51.292Z0F1200
G1 X54.177Y51.983Z0F1200
G1 X54.775Y52.759Z0F1200
G1 X55.457Y53.602Z0F1200
G1 X56.197Y54.424Z0F1200
G1 X56.991Y55.22Z0F1200
G1 X57.834Y55.986Z0F1200
G1 X58.722Y56.72Z0F1200
G1 X59.652Y57.417Z0F1200
G1 X60.619Y58.074Z0F1200
G1 X61.62Y58.688Z0F1200
G1 X62.025Y58.926Z0F1200
G1 X62.381Y59.139Z0F1200
G1 X62.686Y59.33Z0F1200
G1 X62.944Y59.5Z0F1200
G1 X63.154Y59.652Z0F1200
G1 X63.318Y59.788Z0F1200
G1 X63.437Y59.911Z0F1200
G1 X63.512Y60.022Z0F1200
G1 X63.544Y60.124Z0F1200
G1 X63.535Y60.219Z0F1200
G1 X63.485Y60.31Z0F1200
G1 X63.396Y60.398Z0F1200
G1 X63.269Y60.486Z0F1200
G1 X63.105Y60.576Z0F1200
G1 X62.905Y60.671Z0F1200
G1 X62.67Y60.772Z0F1200
G1 X62.228Y60.917Z0F1200
G1 X61.745Y61.002Z0F1200
G1 X61.225Y61.028Z0F1200
G1 X60.673Y60.996Z0F1200
G1 X60.092Y60.908Z0F1200
G1 X59.486Y60.766Z0F1200
G1 X58.858Y60.571Z0F1200
G1 X58.212Y60.325Z0F1200
G1 X57.552Y60.029Z0F1200
G1 X56.881Y59.684Z0F1200
G1 X56.204Y59.293Z0F1200
G1 X55.523Y58.857Z0F1200
G1 X54.843Y58.377Z0F1200
G1 X54.168Y57.855Z0F1200
G1 X53.5Y57.292Z0F1200
G1 X52.844Y56.691Z0F1200
G1 X51.936Y55.862Z0F1200
G1 X51.024Y55.098Z0F1200
G1 X50.6Y54.767Z0F1200
G1 X50.215Y54.484Z0F1200
G1 X49.882Y54.26Z0F1200
G1 X49.614Y54.105Z0F1200
G1 X49.353Y53.966Z0F1200
G1 X49.119Y53.828Z0F1200
G1 X48.91Y53.688Z0F1200
G1 X48.726Y53.546Z0F1200
G1 X48.433Y53.253Z0F1200
G1 X48.237Y52.942Z0F1200
G1 X48.134Y52.605Z0F1200
G1 X48.122Y52.237Z0F1200
G1 X48.196Y51.831Z0F1200
G1 X48.423Y51.186Z0F1200
G1 X48.454Y51.03Z0F1200
G1 X48.451Y50.908Z0F1200
G1 X48.418Y50.82Z0F1200
G1 X48.356Y50.764Z0F1200

; Color 1 picking sequence
G1 Z10 F500;         ; Raise brush to safe height
G0 X41 Y5 F1200;    ; Rapid move to color 1 position
G1 Z0 F500;         ; Lower into color - controlled movement
G1 X40.102Y7.295Z0S800F1200
G1 X40.026Y7.642Z0F1200
G1 X40Y8Z0F1200
G1 X40.026Y8.358Z0F1200
G1 X40.102Y8.705Z0F1200
G1 X40.225Y9.041Z0F1200
G1 X40.393Y9.362Z0F1200
G1 X40.603Y9.668Z0F1200
G1 X40.854Y9.957Z0F1200
G1 X41.142Y10.226Z0F1200
G1 X41.464Y10.475Z0F1200
G1 X41.82Y10.701Z0F1200
G1 X42.204Y10.902Z0F1200
G1 X42.617Y11.078Z0F1200
G1 X43.054Y11.225Z0F1200
G1 X43.513Y11.343Z0F1200
G1 X43.992Y11.429Z0F1200
G1 X44.489Y11.482Z0F1200
G1 X45Y11.5Z0F1200
G1 X45.511Y11.482Z0F1200
G1 X46.008Y11.429Z0F1200
G1 X46.487Y11.343Z0F1200
G1 X46.946Y11.225Z0F1200
G1 X47.383Y11.078Z0F1200
G1 X47.796Y10.902Z0F1200
G1 X48.18Y10.701Z0F1200
G1 X48.536Y10.475Z0F1200
G1 X48.858Y10.226Z0F1200
G1 X49.146Y9.957Z0F1200
G1 X49.397Y9.668Z0F1200
G1 X49.607Y9.362Z0F1200
G1 X49.775Y9.041Z0F1200
G1 X49.898Y8.705Z0F1200
G1 X49.974Y8.358Z0F1200
G1 X50Y8Z0F1200
G1 X49.974Y7.642Z0F1200
G1 X49.898Y7.295Z0F1200
G1 X49.775Y6.959Z0F1200
G1 X49.607Y6.638Z0F1200
G1 X49.397Y6.332Z0F1200
G1 X49.146Y6.043Z0F1200
G1 X48.858Y5.774Z0F1200
G1 X48.536Y5.525Z0F1200
G1 X48.18Y5.299Z0F1200
G1 X47.796Y5.098Z0F1200
G1 X47.383Y4.922Z0F1200
G1 X46.946Y4.775Z0F1200
G1 X46.487Y4.657Z0F1200
G1 X46.008Y4.571Z0F1200
G1 X45.511Y4.518Z0F1200
G1 X45Y4.5Z0F1200
G1 X44.489Y4.518Z0F1200
G1 X43.992Y4.571Z0F1200
G1 X43.513Y4.657Z0F1200
G1 X43.054Y4.775Z0F1200
G1 X42.617Y4.922Z0F1200
G1 X42.204Y5.098Z0F1200
G1 X41.82Y5.299Z0F1200
G1 X41.464Y5.525Z0F1200
G1 X41.142Y5.774Z0F1200
G1 X40.854Y6.043Z0F1200
G1 X40.603Y6.332Z0F1200
G1 X40.393Y6.638Z0F1200
G1 X40.225Y6.959Z0F1200
G1 Z7 F800;         ; Raise from color - controlled movement
G1 X34 Y8 Z1 F1200;     ; Movement in paint - controlled movement
G1 X24 Y12 Z8 F500;     ; Move in paint - controlled movement
G1 F1200;           ; Set feed rate to 1000

; Return to drawing position
G0 X48.356 Y50.764 F1200;  ; Return to position with raised Z
G1 Z0 F1000;                       ; Lower Z to drawing position
G1 X48.27Y50.738Z0F1200
G1 X48.163Y50.744Z0F1200
G1 X48.037Y50.777Z0F1200
G1 X47.896Y50.839Z0F1200
G1 X47.743Y50.928Z0F1200
G1 X47.58Y51.042Z0F1200
G1 X47.412Y51.18Z0F1200
G1 X47.071Y51.526Z0F1200
G1 X46.744Y51.956Z0F1200
G1 X46.589Y52.123Z0F1200
G1 X46.381Y52.249Z0F1200
G1 X46.129Y52.336Z0F1200
G1 X45.843Y52.387Z0F1200
G1 X45.532Y52.403Z0F1200
G1 X45.206Y52.389Z0F1200
G1 X44.873Y52.345Z0F1200
G1 X44.544Y52.274Z0F1200
G1 X44.227Y52.179Z0F1200
G1 X43.932Y52.062Z0F1200
G1 X43.669Y51.926Z0F1200
G1 X43.447Y51.772Z0F1200
G1 X43.275Y51.604Z0F1200
G1 X43.162Y51.424Z0F1200
G1 X43.118Y51.233Z0F1200
G1 X43.153Y51.036Z0F1200
G1 X43.179Y50.928Z0F1200
G1 X43.141Y50.891Z0F1200
G1 X43.092Y50.904Z0F1200
G1 X43.02Y50.938Z0F1200
G1 X42.925Y50.996Z0F1200
G1 X42.802Y51.079Z0F1200
G1 X42.651Y51.189Z0F1200
G1 X42.47Y51.327Z0F1200
G1 X42.256Y51.494Z0F1200
G1 X42.007Y51.692Z0F1200
G1 X41.397Y52.187Z0F1200
G1 X40.624Y52.822Z0F1200
G1 X40.415Y53.019Z0F1200
G1 X40.233Y53.24Z0F1200
G1 X40.078Y53.484Z0F1200
G1 X39.947Y53.749Z0F1200
G1 X39.841Y54.03Z0F1200
G1 X39.759Y54.327Z0F1200
G1 X39.699Y54.637Z0F1200
G1 X39.661Y54.958Z0F1200
G1 X39.647Y55.62Z0F1200
G1 X39.711Y56.296Z0F1200
G1 X39.844Y56.966Z0F1200
G1 X40.041Y57.611Z0F1200
G1 X40.294Y58.212Z0F1200
G1 X40.596Y58.75Z0F1200
G1 X40.764Y58.989Z0F1200
G1 X40.941Y59.206Z0F1200
G1 X41.127Y59.397Z0F1200
G1 X41.322Y59.56Z0F1200
G1 X41.523Y59.693Z0F1200
G1 X41.731Y59.794Z0F1200
G1 X41.945Y59.86Z0F1200
G1 X42.163Y59.888Z0F1200
G1 X42.384Y59.877Z0F1200
G1 X42.609Y59.824Z0F1200
G1 X42.836Y59.726Z0F1200
G1 X43.064Y59.582Z0F1200
G1 X43.397Y59.344Z0F1200
G1 X43.672Y59.181Z0F1200
G1 X43.909Y59.1Z0F1200
G1 X44.134Y59.104Z0F1200
G1 X44.248Y59.14Z0F1200
G1 X44.368Y59.199Z0F1200
G1 X44.495Y59.282Z0F1200
G1 X44.634Y59.39Z0F1200
G1 X44.787Y59.523Z0F1200
G1 X44.956Y59.682Z0F1200
G1 X45.145Y59.867Z0F1200
G1 X45.357Y60.079Z0F1200
G1 X45.671Y60.388Z0F1200
G1 X45.941Y60.63Z0F1200
G1 X46.185Y60.813Z0F1200
G1 X46.419Y60.945Z0F1200
G1 X46.661Y61.034Z0F1200
G1 X46.927Y61.088Z0F1200
G1 X47.234Y61.115Z0F1200
G1 X47.599Y61.122Z0F1200
G1 X47.801Y61.141Z0F1200
G1 X48.021Y61.197Z0F1200
G1 X48.257Y61.288Z0F1200
G1 X48.507Y61.411Z0F1200
G1 X48.771Y61.566Z0F1200
G1 X49.047Y61.749Z0F1200
G1 X49.333Y61.959Z0F1200
G1 X49.626Y62.194Z0F1200
G1 X50.233Y62.732Z0F1200
G1 X50.853Y63.347Z0F1200
G1 X51.476Y64.022Z0F1200
G1 X52.087Y64.742Z0F1200
G1 X52.673Y65.492Z0F1200
G1 X53.223Y66.256Z0F1200
M9
M5
G1 Z10 F500
G90
G1 Z10 F500

; Return to 2,0 wash and park
G1 Z10 F1000;        ; Raise brush to safe height
G0 X5 Y5 F1200;     ; Rapid move to brush cleaning position
G1 Z-1 F800;         ; Lower brush for cleaning - controlled movement
G1 X10 Y12 Z8 F1200;     ; Rapid move to brush cleaning position
G1 Z-1 F800;         ; Lower brush for cleaning - controlled movement
G1 X25 Y14 Z6 F800;     ; Move across cleaning area - controlled movement
G0 X5 Y5 F1200;     ; Rapid move to brush cleaning position
G1 Z-1 F800;         ; Lower brush for cleaning - controlled movement
G1 X15 Y12 Z8 F1200;     ; Rapid move to brush cleaning position
G1 Z-1 F800;         ; Lower brush for cleaning - controlled movement
G1 X25 Y14 Z6 F800;     ; Move across cleaning area - controlled movement
G1 Z10 F800;         ; Maintain brush height - controlled movement
G0 X20 Y110 Z10 F500;; Move to parking position with Z at safe height
M2;                 ; End program
