;LightBurn 1.6.04
;Custom GCode device profile, absolute coords
;Bounds: X32.3 Y34.95 to X87.98 Y94.1
G00 G17 G40 G21 G54
G90
M4
;Cut @ 1600 mm/min, 90% power

M8
G0 X59.442Y64.645
G91
G0 Z-11.5
G90
;Layer C3
G1 X59.601Y64.622S900F1600
G1 X59.803Y64.626
G1 X60.05Y64.657
G1 X60.342Y64.714
G1 X60.681Y64.796
G1 X61.067Y64.902
G1 X61.502Y65.032
G1 X62.059Y65.246
G1 X62.616Y65.531
G1 X63.144Y65.864
G1 X63.614Y66.221
G1 X63.817Y66.4
G1 X63.995Y66.575
G1 X64.143Y66.745
G1 X64.259Y66.904
G1 X64.337Y67.051
G1 X64.376Y67.182
G1 X64.37Y67.295
G1 X64.317Y67.385
G1 X64.125Y67.537
G1 X63.896Y67.652
G1 X63.635Y67.731
G1 X63.347Y67.776
G1 X63.038Y67.79
G1 X62.712Y67.772
G1 X62.376Y67.724
G1 X62.036Y67.648
G1 X61.695Y67.546
G1 X61.361Y67.418
G1 X61.038Y67.266
G1 X60.732Y67.092
G1 X60.448Y66.896
G1 X60.192Y66.682
G1 X59.97Y66.449
G1 X59.786Y66.199
G1 X59.602Y65.898
G1 X59.452Y65.631
G1 X59.338Y65.397
G1 X59.259Y65.195
G1 X59.217Y65.025
G1 X59.213Y64.886
G1 X59.249Y64.776
G1 X59.325Y64.696
G1 X59.442Y64.645
G91
G0 Z11.5
G90
G0 X56.603Y65.536Z0
G91
G0 Z-11.5
G90
G1 X56.973Y66.099
G1 X57.296Y66.649
G1 X57.564Y67.174
G1 X57.767Y67.663
G1 X57.841Y67.89
G1 X57.896Y68.104
G1 X57.93Y68.304
G1 X57.969Y68.977
G1 X58.053Y69.437
G1 X58.191Y69.865
G1 X58.382Y70.261
G1 X58.623Y70.622
G1 X58.913Y70.949
G1 X59.25Y71.241
G1 X59.634Y71.496
G1 X60.061Y71.713
G1 X60.531Y71.892
G1 X61.042Y72.032
G1 X61.593Y72.131
G1 X62.18Y72.189
G1 X62.804Y72.205
G1 X63.463Y72.177
G1 X64.153Y72.105
G1 X64.726Y72.031
G1 X64.961Y72.004
G1 X65.165Y71.984
G1 X65.499Y71.973
G1 X65.755Y72.002
G1 X65.964Y72.079
G1 X66.152Y72.211
G1 X66.349Y72.403
G1 X66.582Y72.663
G1 X67.166Y73.275
G1 X67.81Y73.861
G1 X68.507Y74.417
G1 X69.251Y74.938
G1 X70.036Y75.421
G1 X70.854Y75.861
G1 X71.699Y76.253
G1 X72.566Y76.595
G1 X72.745Y76.657
G1 X72.858Y76.685
G1 X72.885
G1 X72.893Y76.669
G1 X72.878Y76.64
G1 X72.839Y76.596
G1 X72.776Y76.536
G1 X72.687Y76.457
G1 X72.57Y76.359
G1 X72.425Y76.24
G1 X72.042Y75.934
G1 X71.528Y75.527
G1 X71.399Y75.416
G1 X71.247Y75.269
G1 X71.076Y75.091
G1 X70.891Y74.887
G1 X70.492Y74.425
G1 X70.088Y73.929
G1 X69.712Y73.441
G1 X69.401Y73.007
G1 X69.28Y72.824
G1 X69.188Y72.671
G1 X69.13Y72.553
G1 X69.109Y72.476
G1 X69.128Y72.378
G1 X69.181Y72.303
G1 X69.265Y72.249
G1 X69.375Y72.215
G1 X69.66Y72.203
G1 X70.005Y72.261
G1 X70.378Y72.38
G1 X70.747Y72.553
G1 X71.081Y72.771
G1 X71.348Y73.027
G1 X71.662Y73.386
G1 X71.997Y73.72
G1 X72.353Y74.03
G1 X72.73Y74.316
G1 X73.129Y74.579
G1 X73.551Y74.818
G1 X73.994Y75.034
G1 X74.46Y75.226
G1 X74.779Y75.346
G1 X75.007Y75.425
G1 X75.087Y75.447
G1 X75.145Y75.456
G1 X75.18Y75.451
G1 X75.193Y75.432
G1 X75.183Y75.398
G1 X75.151Y75.347
G1 X75.097Y75.279
G1 X75.02Y75.194
G1 X74.922Y75.09
G1 X74.801Y74.966
G1 X74.493Y74.657
G1 X74.262Y74.415
G1 X74.056Y74.177
G1 X73.876Y73.944
G1 X73.721Y73.718
G1 X73.592Y73.5
G1 X73.489Y73.292
G1 X73.413Y73.097
G1 X73.363Y72.914
G1 X73.341Y72.747
G1 X73.346Y72.597
G1 X73.38Y72.465
G1 X73.441Y72.354
G1 X73.531Y72.264
G1 X73.651Y72.198
G1 X73.799Y72.157
G1 X73.977Y72.143
G1 X74.56Y72.111
G1 X75.183Y72.017
G1 X75.84Y71.866
G1 X76.523Y71.66
G1 X77.226Y71.404
G1 X77.942Y71.101
G1 X78.665Y70.755
G1 X79.387Y70.371
G1 X80.102Y69.951
G1 X80.803Y69.5
G1 X81.483Y69.021
G1 X82.136Y68.518
G1 X82.755Y67.995
G1 X83.333Y67.456
G1 X83.864Y66.904
G1 X84.34Y66.343
G1 X84.54Y66.09
G1 X84.678Y65.906
G1 X84.753Y65.791
G1 X84.76Y65.741
G1 X84.695Y65.754
G1 X84.556Y65.829
G1 X84.337Y65.962
G1 X84.037Y66.151
G1 X83.701Y66.351
G1 X83.358Y66.528
G1 X83.022Y66.68
G1 X82.706Y66.801
G1 X82.422Y66.886
G1 X82.184Y66.933
G1 X82.003Y66.936
G1 X81.892Y66.89
G1 X81.895Y66.844
G1 X81.938Y66.747
G1 X82.017Y66.605
G1 X82.129Y66.425
G1 X82.27Y66.212
G1 X82.436Y65.972
G1 X82.623Y65.711
G1 X82.828Y65.435
G1 X83.482Y64.509
G1 X84.094Y63.529
G1 X84.662Y62.502
G1 X85.186Y61.434
G1 X85.662Y60.331
G1 X86.089Y59.2
G1 X86.467Y58.047
G1 X86.792Y56.879
G1 X87.064Y55.702
G1 X87.281Y54.523
G1 X87.441Y53.348
G1 X87.543Y52.184
G1 X87.585Y51.036
G1 X87.565Y49.912
G1 X87.481Y48.818
G1 X87.333Y47.76
G1 X87.243Y47.259
G1 X87.16Y46.816
G1 X87.083Y46.43
G1 X87.012Y46.1
G1 X86.944Y45.825
G1 X86.881Y45.603
G1 X86.821Y45.434
G1 X86.764Y45.316
G1 X86.709Y45.249
G1 X86.655Y45.232
G1 X86.602Y45.264
G1 X86.55Y45.343
G1 X86.497Y45.469
G1 X86.443Y45.64
G1 X86.387Y45.856
G1 X86.329Y46.115
G1 X86.235Y46.522
G1 X86.131Y46.9
G1 X86.021Y47.244
G1 X85.905Y47.554
G1 X85.787Y47.826
G1 X85.668Y48.059
G1 X85.55Y48.25
G1 X85.436Y48.397
G1 X85.327Y48.497
G1 X85.226Y48.548
G1 X85.135
G1 X85.056Y48.494
G1 X84.99Y48.384
G1 X84.941Y48.216
G1 X84.91Y47.988
G1 X84.899Y47.697
G1 X84.865Y46.882
G1 X84.762Y46.09
G1 X84.594Y45.32
G1 X84.36Y44.573
G1 X84.062Y43.85
G1 X83.7Y43.152
G1 X83.277Y42.478
G1 X82.793Y41.829
G1 X82.25Y41.206
G1 X81.649Y40.61
G1 X80.99Y40.04
G1 X80.276Y39.498
G1 X79.506Y38.983
G1 X78.684Y38.497
G1 X77.809Y38.039
G1 X76.882Y37.611
G1 X75.906Y37.213
G1 X74.881Y36.845
G1 X73.809Y36.509
G1 X72.69Y36.203
G1 X71.526Y35.93
G1 X70.317Y35.689
G1 X69.066Y35.481
G1 X67.774Y35.307
G1 X66.441Y35.167
G1 X65.068Y35.061
G1 X63.658Y34.99
G1 X62.21Y34.955
G1 X60.727
G1 X59.21Y34.993
G1 X57.659Y35.068
G1 X56.076Y35.18
G1 X54.835Y35.312
G1 X53.625Y35.499
G1 X52.445Y35.74
G1 X51.297Y36.033
G1 X50.179Y36.378
G1 X49.094Y36.771
G1 X48.04Y37.213
G1 X47.018Y37.701
G1 X46.028Y38.234
G1 X45.07Y38.809
G1 X44.145Y39.427
G1 X43.253Y40.084
G1 X42.394Y40.78
G1 X41.569Y41.513
G1 X40.776Y42.282
G1 X40.018Y43.084
G1 X39.294Y43.918
G1 X38.604Y44.784
G1 X37.948Y45.678
G1 X37.327Y46.6
G1 X36.741Y47.548
G1 X36.19Y48.521
G1 X35.675Y49.517
G1 X35.195Y50.534
G1 X34.751Y51.571
G1 X34.343Y52.626
G1 X33.971Y53.698
G1 X33.636Y54.786
G1 X33.337Y55.886
G1 X33.076Y57
G1 X32.852Y58.123
G1 X32.665Y59.256
G1 X32.516Y60.396
G1 X32.405Y61.542
G1 X32.332Y62.692
G1 X32.297Y63.845
G1 X32.301Y65
G1 X32.344Y66.154
G1 X32.425Y67.306
G1 X32.546Y68.455
G1 X32.707Y69.599
G1 X32.907Y70.736
G1 X33.148Y71.865
G1 X33.428Y72.985
G1 X33.749Y74.094
G1 X34.11Y75.189
G1 X34.513Y76.271
G1 X34.956Y77.336
G1 X35.441Y78.385
G1 X35.968Y79.414
G1 X36.536Y80.423
G1 X37.146Y81.409
G1 X37.799Y82.373
G1 X38.494Y83.311
G1 X39.232Y84.222
G1 X40.012Y85.105
G1 X40.836Y85.958
G1 X41.704Y86.78
G1 X42.614Y87.569
G1 X43.569Y88.323
G1 X44.568Y89.042
G1 X45.611Y89.723
G1 X46.699Y90.365
G1 X47.832Y90.966
G1 X48.801Y91.428
G1 X49.791Y91.853
G1 X50.8Y92.241
G1 X51.825Y92.592
G1 X52.865Y92.905
G1 X53.919Y93.181
G1 X54.985Y93.421
G1 X56.06Y93.624
G1 X57.144Y93.791
G1 X58.233Y93.921
G1 X59.328Y94.016
G1 X60.425Y94.074
G1 X61.523Y94.097
G1 X62.62Y94.084
G1 X63.715Y94.035
G1 X64.805Y93.952
G1 X65.889Y93.833
G1 X66.966Y93.679
G1 X68.033Y93.49
G1 X69.089Y93.267
G1 X70.131Y93.01
G1 X71.159Y92.718
G1 X72.169Y92.392
G1 X73.162Y92.032
G1 X74.134Y91.638
G1 X75.085Y91.211
G1 X76.011Y90.75
G1 X76.912Y90.256
G1 X77.786Y89.729
G1 X78.631Y89.168
G1 X79.445Y88.575
G1 X80.226Y87.949
G1 X80.464Y87.751
G1 X80.673Y87.578
G1 X80.858Y87.431
G1 X81.021Y87.311
G1 X81.166Y87.215
G1 X81.296Y87.146
G1 X81.416Y87.101
G1 X81.527Y87.081
G1 X81.741Y87.115
G1 X81.964Y87.246
G1 X82.088Y87.348
G1 X82.224Y87.473
G1 X82.376Y87.621
G1 X82.87Y88.112
G1 X83Y88.238
G1 X83.113Y88.343
G1 X83.29Y88.488
G1 X83.414Y88.55
G1 X83.498Y88.53
G1 X83.554Y88.433
G1 X83.596Y88.259
G1 X83.776Y87.107
G1 X83.919Y86.255
G1 X84.066Y85.452
G1 X84.218Y84.694
G1 X84.377Y83.976
G1 X84.543Y83.294
G1 X84.718Y82.644
G1 X84.904Y82.023
G1 X85.311Y80.847
G1 X85.776Y79.733
G1 X86.308Y78.647
G1 X86.918Y77.556
G1 X87.132Y77.194
G1 X87.511Y76.542
G1 X87.798Y76.038
G1 X87.896Y75.861
G1 X87.958Y75.743
G1 X87.98Y75.693
G1 X87.947Y75.699
G1 X87.854Y75.743
G1 X87.707Y75.819
G1 X87.512Y75.926
G1 X87.277Y76.058
G1 X87.007Y76.214
G1 X86.709Y76.388
G1 X86.389Y76.577
G1 X85.32Y77.172
G1 X84.222Y77.692
G1 X83.088Y78.141
G1 X81.908Y78.521
G1 X80.676Y78.834
G1 X79.383Y79.082
G1 X78.021Y79.268
G1 X76.582Y79.395
G1 X75.952Y79.438
G1 X75.701Y79.46
G1 X75.492Y79.484
G1 X75.323Y79.512
G1 X75.192Y79.546
G1 X75.098Y79.588
G1 X75.041Y79.64
G1 X75.019Y79.702
G1 X75.031Y79.778
G1 X75.075Y79.868
G1 X75.15Y79.975
G1 X75.256Y80.1
G1 X75.39Y80.245
G1 X75.552Y80.412
G1 X75.977Y80.843
G1 X76.182Y81.054
G1 X76.355Y81.241
G1 X76.494Y81.407
G1 X76.599Y81.556
G1 X76.67Y81.693
G1 X76.707Y81.823
G1 Y81.948
G1 X76.672Y82.073
G1 X76.6Y82.203
G1 X76.49Y82.341
G1 X76.343Y82.491
G1 X76.157Y82.658
G1 X75.933Y82.846
G1 X75.669Y83.059
G1 X75.365Y83.301
G1 X74.76Y83.763
G1 X74.136Y84.201
G1 X73.493Y84.616
G1 X72.834Y85.008
G1 X72.159Y85.376
G1 X71.47Y85.721
G1 X70.766Y86.042
G1 X70.05Y86.34
G1 X69.322Y86.613
G1 X68.584Y86.863
G1 X67.836Y87.088
G1 X67.079Y87.289
G1 X66.316Y87.465
G1 X65.546Y87.617
G1 X64.771Y87.744
G1 X63.992Y87.847
G1 X63.21Y87.924
G1 X62.426Y87.977
G1 X61.641Y88.004
G1 X60.856
G1 X60.072Y87.982
G1 X59.291Y87.934
G1 X58.513Y87.859
G1 X57.74Y87.759
G1 X56.972Y87.632
G1 X56.21Y87.48
G1 X55.456Y87.301
G1 X54.711Y87.097
G1 X53.976Y86.866
G1 X53.252Y86.608
G1 X52.54Y86.324
G1 X51.84Y86.012
G1 X50.812Y85.5
G1 X49.828Y84.95
G1 X48.888Y84.363
G1 X47.993Y83.74
G1 X47.141Y83.085
G1 X46.333Y82.398
G1 X45.567Y81.68
G1 X44.845Y80.934
G1 X44.164Y80.161
G1 X43.525Y79.363
G1 X42.928Y78.541
G1 X42.372Y77.697
G1 X41.857Y76.833
G1 X41.382Y75.95
G1 X40.947Y75.05
G1 X40.552Y74.134
G1 X40.196Y73.204
G1 X39.88Y72.263
G1 X39.601Y71.31
G1 X39.362Y70.348
G1 X39.16Y69.379
G1 X38.995Y68.404
G1 X38.868Y67.425
G1 X38.778Y66.443
G1 X38.724Y65.461
G1 X38.706Y64.479
G1 X38.724Y63.499
G1 X38.778Y62.524
G1 X38.866Y61.554
G1 X38.989Y60.591
G1 X39.147Y59.637
G1 X39.338Y58.693
G1 X39.563Y57.761
G1 X39.821Y56.844
G1 X40.112Y55.941
G1 X40.436Y55.055
G1 X40.791Y54.188
G1 X41.179Y53.341
G1 X41.598Y52.516
G1 X42.048Y51.714
G1 X42.528Y50.937
G1 X43.039Y50.187
G1 X43.58Y49.465
G1 X44.151Y48.774
G1 X44.751Y48.113
G1 X45.38Y47.486
G1 X46.037Y46.894
G1 X46.722Y46.337
G1 X47.436Y45.819
G1 X48.177Y45.341
G1 X48.944Y44.904
G1 X49.739Y44.51
G1 X50.56Y44.16
G1 X51.407Y43.857
G1 X52.28Y43.601
G1 X53.178Y43.394
G1 X54.101Y43.239
G1 X55.048Y43.136
G1 X56.02Y43.088
G1 X57.016Y43.095
G1 X58.035Y43.16
G1 X59.077Y43.284
G1 X60.142Y43.468
G1 X61.229Y43.716
G1 X61.889Y43.902
G1 X62.547Y44.126
G1 X63.202Y44.385
G1 X63.852Y44.676
G1 X64.494Y44.997
G1 X65.128Y45.346
G1 X65.75Y45.721
G1 X66.36Y46.119
G1 X67.532Y46.975
G1 X68.63Y47.898
G1 X69.147Y48.378
G1 X69.638Y48.868
G1 X70.104Y49.365
G1 X70.541Y49.867
G1 X70.948Y50.372
G1 X71.323Y50.877
G1 X71.664Y51.381
G1 X71.969Y51.88
G1 X72.236Y52.373
G1 X72.463Y52.857
G1 X72.648Y53.33
G1 X72.79Y53.789
G1 X72.887Y54.233
G1 X72.936Y54.66
G1 Y55.066
G1 X72.884Y55.449
G1 X72.779Y55.808
G1 X72.619Y56.14
G1 X72.401Y56.442
G1 X72.125Y56.713
G1 X72.051Y56.795
G1 X72.013Y56.899
G1 X72.016Y57.04
G1 X72.064Y57.231
G1 X72.163Y57.487
G1 X72.317Y57.821
G1 X72.416Y58.022
G1 X72.53Y58.247
G1 X73.026Y59.2
G1 X73.211Y59.565
G1 X73.363Y59.876
G1 X73.48Y60.132
G1 X73.563Y60.334
G1 X73.612Y60.482
G1 X73.626Y60.576
G1 X73.604Y60.615
G1 X73.547Y60.601
G1 X73.455Y60.533
G1 X73.326Y60.411
G1 X73.162Y60.236
G1 X72.96Y60.007
G1 X72.723Y59.724
G1 X72.448Y59.388
G1 X71.839Y58.631
G1 X71.566Y58.302
G1 X71.314Y58.012
G1 X71.08Y57.757
G1 X70.859Y57.536
G1 X70.65Y57.348
G1 X70.449Y57.19
G1 X70.253Y57.06
G1 X69.863Y56.878
G1 X69.454Y56.787
G1 X69.002Y56.772
G1 X68.481Y56.819
G1 X68.002Y56.879
G1 X67.57Y56.931
G1 X67.181Y56.976
G1 X66.832Y57.012
G1 X66.519Y57.041
G1 X66.238Y57.062
G1 X65.985Y57.075
G1 X65.756Y57.081
G1 X65.356Y57.068
G1 X65.006Y57.025
G1 X64.675Y56.952
G1 X64.333Y56.848
G1 X63.694Y56.603
G1 X63.078Y56.297
G1 X62.474Y55.923
G1 X61.874Y55.474
G1 X61.268Y54.94
G1 X60.647Y54.315
G1 X60.328Y53.967
G1 X60.002Y53.592
G1 X59.667Y53.191
G1 X59.323Y52.763
G1 X58.98Y52.379
G1 X58.588Y52.031
G1 X58.155Y51.721
G1 X57.686Y51.449
G1 X57.188Y51.217
G1 X56.666Y51.025
G1 X56.129Y50.875
G1 X55.581Y50.766
G1 X55.029Y50.702
G1 X54.48Y50.681
G1 X53.939Y50.706
G1 X53.413Y50.778
G1 X52.909Y50.896
G1 X52.432Y51.063
G1 X51.989Y51.28
G1 X51.587Y51.546
G1 X51.43Y51.669
G1 X51.329Y51.76
G1 X51.294Y51.826
G1 X51.334Y51.871
G1 X51.46Y51.899
G1 X51.681Y51.914
G1 X51.831Y51.918
G1 X52.009Y51.921
G1 X52.453Y51.925
G1 X52.855Y51.933
G1 X53.224Y51.953
G1 X53.564Y51.99
G1 X53.88Y52.046
G1 X54.179Y52.126
G1 X54.464Y52.233
G1 X54.742Y52.37
G1 X55.017Y52.542
G1 X55.295Y52.751
G1 X55.581Y53.001
G1 X55.879Y53.297
G1 X56.196Y53.64
G1 X56.536Y54.036
G1 X56.905Y54.487
G1 X57.307Y54.997
G1 X57.748Y55.57
G1 X58.252Y56.192
G1 X58.799Y56.799
G1 X59.385Y57.387
G1 X60.007Y57.952
G1 X60.664Y58.494
G1 X61.35Y59.009
G1 X62.064Y59.494
G1 X62.803Y59.948
G1 X63.103Y60.123
G1 X63.365Y60.281
G1 X63.591Y60.422
G1 X63.781Y60.547
G1 X63.936Y60.659
G1 X64.057Y60.76
G1 X64.145Y60.851
G1 X64.2Y60.933
G1 X64.224Y61.008
G1 X64.217Y61.078
G1 X64.181Y61.145
G1 X64.115Y61.21
G1 X64.021Y61.275
G1 X63.9Y61.342
G1 X63.752Y61.412
G1 X63.579Y61.487
G1 X63.252Y61.594
G1 X62.895Y61.656
G1 X62.512Y61.675
G1 X62.104Y61.652
G1 X61.675Y61.587
G1 X61.227Y61.482
G1 X60.764Y61.338
G1 X60.287Y61.156
G1 X59.799Y60.938
G1 X59.304Y60.683
G1 X58.804Y60.395
G1 X58.301Y60.072
G1 X57.799Y59.718
G1 X57.3Y59.333
G1 X56.807Y58.917
G1 X55.652Y57.861
G1 X54.979Y57.297
G1 X54.666Y57.052
G1 X54.382Y56.843
G1 X54.136Y56.678
G1 X53.938Y56.563
G1 X53.572Y56.359
G1 X53.282Y56.151
G1 X53.066Y55.934
G1 X52.921Y55.704
G1 X52.845Y55.456
G1 X52.836Y55.184
G1 X52.891Y54.884
G1 X53.058Y54.408
G1 X53.081Y54.293
G1 Y54.203
G1 X53.054Y54.137
G1 X53.009Y54.096
G1 X52.945Y54.078
G1 X52.866Y54.081
G1 X52.773Y54.106
G1 X52.556Y54.217
G1 X52.312Y54.404
G1 X52.06Y54.659
G1 X51.818Y54.977
G1 X51.704Y55.1
G1 X51.55Y55.193
G1 X51.364Y55.257
G1 X51.153Y55.295
G1 X50.682
G1 X50.194Y55.211
G1 X49.96Y55.141
G1 X49.742Y55.055
G1 X49.548Y54.954
G1 X49.383Y54.841
G1 X49.256Y54.717
G1 X49.173Y54.584
G1 X49.141Y54.443
G1 X49.166Y54.297
G1 X49.186Y54.217
G1 X49.157Y54.19
G1 X49.121Y54.199
G1 X49.069Y54.225
G1 X48.998Y54.268
G1 X48.908Y54.329
G1 X48.796Y54.41
G1 X48.662Y54.512
G1 X48.504Y54.635
G1 X48.32Y54.782
G1 X47.87Y55.147
G1 X47.299Y55.616
G1 X47.145Y55.761
G1 X47.011Y55.925
G1 X46.896Y56.105
G1 X46.799Y56.3
G1 X46.66Y56.728
G1 X46.588Y57.193
G1 X46.578Y57.682
G1 X46.624Y58.182
G1 X46.723Y58.676
G1 X46.868Y59.153
G1 X47.055Y59.596
G1 X47.278Y59.994
G1 X47.533Y60.33
G1 X47.814Y60.592
G1 X47.963Y60.69
G1 X48.117Y60.764
G1 X48.274Y60.813
G1 X48.435Y60.834
G1 X48.599Y60.826
G1 X48.765Y60.787
G1 X48.932Y60.714
G1 X49.101Y60.608
G1 X49.347Y60.432
G1 X49.55Y60.312
G1 X49.725Y60.252
G1 X49.891Y60.255
G1 X50.064Y60.325
G1 X50.26Y60.466
G1 X50.498Y60.682
G1 X51.026Y61.203
G1 X51.225Y61.382
G1 X51.405Y61.517
G1 X51.579Y61.615
G1 X51.757Y61.68
G1 X51.954Y61.72
G1 X52.18Y61.74
G1 X52.45Y61.745
G1 X52.599Y61.759
G1 X52.761Y61.801
G1 X52.935Y61.867
G1 X53.121Y61.959
G1 X53.519Y62.208
G1 X53.947Y62.537
G1 X54.395Y62.934
G1 X54.853Y63.388
G1 X55.312Y63.887
G1 X55.763Y64.419
G1 X56.197Y64.972
G1 X56.603Y65.536
G91
G0 Z11.5
G90
M9
M5
G90
M2
