;LightBurn 1.6.04
;Custom GCode device profile, absolute coords
;Bounds: X33.49 Y28.67 to X110.51 Y117.33
G00 G17 G40 G21 G54
G90
M4
;Cut @ 1500 mm/min, 90% power

M8
G0 Z3.5 F1000
G0 X60.175 Y46.02 Z3.5 
G1 Z0 F1000
;Layer Blue
G1 X60.075 Y46.079 Z0 S900 F1000
G1 X59.951 Y46.177 Z0 F1000
G1 X59.801 Y46.315 Z0 F1000
G1 X59.62 Y46.495 Z0 F1000
G1 X59.165 Y46.942 Z0 F1000
G1 X58.745 Y47.302 Z0 F1000
G1 X58.517 Y47.474 Z0 F1000
G1 X58.262 Y47.652 Z0 F1000
G1 X57.966 Y47.847 Z0 F1000
G1 X57.618 Y48.069 Z0 F1000
G1 X56.845 Y48.495 Z0 F1000
G1 X55.978 Y48.887 Z0 F1000
G1 X55.563 Y49.047 Z0 F1000
G1 X55.189 Y49.173 Z0 F1000
G1 X54.878 Y49.254 Z0 F1000
G1 X54.649 Y49.284 Z0 F1000
G1 X54.546 Y49.29 Z0 F1000
G1 X54.47 Y49.309 Z0 F1000
G1 X54.422 Y49.343 Z0 F1000
G1 X54.401 Y49.394 Z0 F1000
G1 X54.407 Y49.463 Z0 F1000
G1 X54.44 Y49.552 Z0 F1000
G1 X54.499 Y49.662 Z0 F1000
G1 X54.701 Y49.975 Z0 F1000
G1 X54.861 Y50.241 Z0 F1000
G1 X55.057 Y50.575 Z0 F1000
G1 X55.278 Y50.962 Z0 F1000
G1 X55.76 Y51.825 Z0 F1000
G1 X56.404 Y53.016 Z0 F1000
G1 X56.622 Y53.411 Z0 F1000
G1 X56.716 Y53.571 Z0 F1000
G1 X56.767 Y53.65 Z0 F1000
G1 X56.87 Y53.833 Z0 F1000
G1 X57.118 Y54.295 Z0 F1000
G1 X57.516 Y55.063 Z0 F1000
G1 X57.772 Y55.544 Z0 F1000
G1 X57.883 Y55.746 Z0 F1000
G1 X57.941 Y55.846 Z0 F1000
G1 X57.987 Y55.936 Z0 F1000
G1 X58.135 Y56.232 Z0 F1000
G1 X58.346 Y56.663 Z0 F1000
G1 X58.608 Y57.204 Z0 F1000
G1 X59.239 Y58.521 Z0 F1000
G1 X59.935 Y59.99 Z0 F1000
G1 X60.033 Y60.184 Z0 F1000
G1 X60.124 Y60.336 Z0 F1000
G1 X60.198 Y60.432 Z0 F1000
G1 X60.244 Y60.457 Z0 F1000
G1 X66.215 Y56.834 Z0 F1000
G1 X66.557 Y56.617 Z0 F1000
G1 X66.837 Y56.422 Z0 F1000
G1 X66.945 Y56.339 Z0 F1000
G1 X67.026 Y56.27 Z0 F1000
G1 X67.077 Y56.216 Z0 F1000
G1 X67.094 Y56.182 Z0 F1000
G1 X67.081 Y56.14 Z0 F1000
G1 X67.042 Y56.065 Z0 F1000
G1 X66.981 Y55.961 Z0 F1000
G1 X66.901 Y55.833 Z0 F1000
G1 X66.693 Y55.519 Z0 F1000
G1 X66.439 Y55.157 Z0 F1000
G1 X65.786 Y54.239 Z0 F1000
G1 X65.133 Y53.305 Z0 F1000
G1 X64.293 Y52.091 Z0 F1000
G1 X64.122 Y51.837 Z0 F1000
G1 X63.774 Y51.316 Z0 F1000
G1 X62.857 Y49.926 Z0 F1000
G1 X61.842 Y48.374 Z0 F1000
G1 X61.227 Y47.427 Z0 F1000
G1 X60.742 Y46.674 Z0 F1000
G1 X60.505 Y46.301 Z0 F1000
G1 X60.424 Y46.169 Z0 F1000
G1 X60.37 Y46.061 Z0 F1000
G1 X60.319 Y46.013 Z0 F1000
G1 X60.255 Y45.999 Z0 F1000
G1 X60.175 Y46.02 Z0 F1000
G0 Z3.5 F1000
G0 X68.514 Y57.532 Z3.5 F1500
G1 Z0 F1000
G1 X68.346 Y57.596 Z0 F1000
G1 X68.105 Y57.714 Z0 F1000
G1 X67.953 Y57.796 Z0 F1000
G1 X67.777 Y57.894 Z0 F1000
G1 X67.576 Y58.009 Z0 F1000
G1 X67.348 Y58.143 Z0 F1000
G1 X66.804 Y58.469 Z0 F1000
G1 X66.13 Y58.881 Z0 F1000
G1 X65.196 Y59.452 Z0 F1000
G1 X64.28 Y60.008 Z0 F1000
G1 X63.412 Y60.531 Z0 F1000
G1 X62.624 Y61.003 Z0 F1000
G1 X61.944 Y61.406 Z0 F1000
G1 X61.403 Y61.723 Z0 F1000
G1 X61.033 Y61.934 Z0 F1000
G1 X60.92 Y61.995 Z0 F1000
G1 X60.861 Y62.023 Z0 F1000
G1 X60.844 Y62.065 Z0 F1000
G1 X60.848 Y62.168 Z0 F1000
G1 X60.874 Y62.326 Z0 F1000
G1 X60.919 Y62.533 Z0 F1000
G1 X60.981 Y62.785 Z0 F1000
G1 X61.059 Y63.075 Z0 F1000
G1 X61.151 Y63.398 Z0 F1000
G1 X61.256 Y63.75 Z0 F1000
G1 X61.767 Y65.324 Z0 F1000
G1 X62.345 Y66.905 Z0 F1000
G1 X62.83 Y68.077 Z0 F1000
G1 X63.359 Y69.229 Z0 F1000
G1 X63.952 Y70.394 Z0 F1000
G1 X64.628 Y71.606 Z0 F1000
G1 X65.003 Y72.24 Z0 F1000
G1 X65.407 Y72.898 Z0 F1000
G1 X65.841 Y73.584 Z0 F1000
G1 X66.308 Y74.303 Z0 F1000
G1 X66.81 Y75.058 Z0 F1000
G1 X67.35 Y75.854 Z0 F1000
G1 X67.93 Y76.694 Z0 F1000
G1 X68.552 Y77.584 Z0 F1000
G1 X69.869 Y79.457 Z0 F1000
G1 X71.44 Y81.702 Z0 F1000
G1 X72.662 Y83.433 Z0 F1000
G1 X73.458 Y84.554 Z0 F1000
G1 X74.189 Y85.578 Z0 F1000
G1 X74.812 Y86.445 Z0 F1000
G1 X75.283 Y87.093 Z0 F1000
G1 X75.448 Y87.317 Z0 F1000
G1 X75.601 Y87.519 Z0 F1000
G1 X76.848 Y89.252 Z0 F1000
G1 X81.597 Y95.879 Z0 F1000
G1 X85.111 Y100.794 Z0 F1000
G1 X85.835 Y101.811 Z0 F1000
G1 X87.081 Y103.592 Z0 F1000
G1 X88.762 Y105.979 Z0 F1000
G1 X89.57 Y107.135 Z0 F1000
G1 X90.036 Y107.804 Z0 F1000
G1 X91.015 Y109.217 Z0 F1000
G1 X92.113 Y110.794 Z0 F1000
G1 X92.64 Y111.555 Z0 F1000
G1 X93.295 Y112.505 Z0 F1000
G1 X93.569 Y112.896 Z0 F1000
G1 X93.683 Y113.055 Z0 F1000
G1 X93.741 Y113.131 Z0 F1000
G1 X93.855 Y113.29 Z0 F1000
G1 X94.128 Y113.682 Z0 F1000
G1 X95.358 Y115.48 Z0 F1000
G1 X95.737 Y116.03 Z0 F1000
G1 X96.041 Y116.464 Z0 F1000
G1 X96.274 Y116.793 Z0 F1000
G1 X96.444 Y117.024 Z0 F1000
G1 X96.557 Y117.167 Z0 F1000
G1 X96.619 Y117.23 Z0 F1000
G1 X96.789 Y117.306 Z0 F1000
G1 X96.983 Y117.328 Z0 F1000
G1 X97.188 Y117.301 Z0 F1000
G1 X97.389 Y117.233 Z0 F1000
G1 X97.57 Y117.129 Z0 F1000
G1 X97.717 Y116.997 Z0 F1000
G1 X97.817 Y116.844 Z0 F1000
G1 X97.853 Y116.674 Z0 F1000
G1 X97.845 Y116.611 Z0 F1000
G1 X97.819 Y116.511 Z0 F1000
G1 X97.777 Y116.375 Z0 F1000
G1 X97.719 Y116.203 Z0 F1000
G1 X97.643 Y115.995 Z0 F1000
G1 X97.551 Y115.751 Z0 F1000
G1 X97.443 Y115.471 Z0 F1000
G1 X97.318 Y115.156 Z0 F1000
G1 X97.177 Y114.806 Z0 F1000
G1 X96.847 Y114.001 Z0 F1000
G1 X96.451 Y113.057 Z0 F1000
G1 X95.993 Y111.976 Z0 F1000
G1 X93.786 Y106.819 Z0 F1000
G1 X93.42 Y105.973 Z0 F1000
G1 X93.259 Y105.609 Z0 F1000
G1 X93.128 Y105.323 Z0 F1000
G1 X93.007 Y105.049 Z0 F1000
G1 X92.867 Y104.726 Z0 F1000
G1 X92.578 Y104.045 Z0 F1000
G1 X92.429 Y103.698 Z0 F1000
G1 X92.294 Y103.39 Z0 F1000
G1 X92.131 Y103.03 Z0 F1000
G1 X91.594 Y101.816 Z0 F1000
G1 X88.602 Y94.991 Z0 F1000
G1 X86.011 Y89.068 Z0 F1000
G1 X85.479 Y87.859 Z0 F1000
G1 X83.135 Y82.511 Z0 F1000
G1 X82.797 Y81.745 Z0 F1000
G1 X82.288 Y80.606 Z0 F1000
G1 X80.297 Y76.112 Z0 F1000
G1 X79.892 Y75.209 Z0 F1000
G1 X79.499 Y74.34 Z0 F1000
G1 X79.116 Y73.503 Z0 F1000
G1 X78.743 Y72.698 Z0 F1000
G1 X78.379 Y71.924 Z0 F1000
G1 X78.024 Y71.18 Z0 F1000
G1 X77.676 Y70.463 Z0 F1000
G1 X77.335 Y69.773 Z0 F1000
G1 X77.001 Y69.11 Z0 F1000
G1 X76.672 Y68.471 Z0 F1000
G1 X76.349 Y67.856 Z0 F1000
G1 X75.714 Y66.691 Z0 F1000
G1 X75.091 Y65.608 Z0 F1000
G1 X74.475 Y64.595 Z0 F1000
G1 X73.86 Y63.645 Z0 F1000
G1 X73.24 Y62.748 Z0 F1000
G1 X72.611 Y61.895 Z0 F1000
G1 X71.966 Y61.076 Z0 F1000
G1 X71.301 Y60.282 Z0 F1000
G1 X70.609 Y59.505 Z0 F1000
G1 X69.886 Y58.734 Z0 F1000
G1 X69.474 Y58.31 Z0 F1000
G1 X69.112 Y57.942 Z0 F1000
G1 X68.839 Y57.672 Z0 F1000
G1 X68.748 Y57.586 Z0 F1000
G1 X68.694 Y57.538 Z0 F1000
G1 X68.626 Y57.516 Z0 F1000
G1 X68.514 Y57.532 Z0 F1000
G0 Z3.5 F1000
G0 X73.352 Y59.467 Z3.5 
G1 Z0 F1000
G1 X73.201 Y59.665 Z0 F1000
G1 X73.111 Y59.825 Z0 F1000
G1 X73.079 Y59.951 Z0 F1000
G1 X73.103 Y60.047 Z0 F1000
G1 X73.177 Y60.119 Z0 F1000
G1 X73.282 Y60.209 Z0 F1000
G1 X73.434 Y60.375 Z0 F1000
G1 X73.626 Y60.608 Z0 F1000
G1 X73.853 Y60.899 Z0 F1000
G1 X74.108 Y61.239 Z0 F1000
G1 X74.385 Y61.62 Z0 F1000
G1 X74.679 Y62.034 Z0 F1000
G1 X74.984 Y62.47 Z0 F1000
G1 X75.6 Y63.379 Z0 F1000
G1 X76.186 Y64.277 Z0 F1000
G1 X76.452 Y64.701 Z0 F1000
G1 X76.693 Y65.095 Z0 F1000
G1 X76.902 Y65.452 Z0 F1000
G1 X77.074 Y65.763 Z0 F1000
G1 X77.873 Y67.272 Z0 F1000
G1 X78.437 Y68.348 Z0 F1000
G1 X78.869 Y69.184 Z0 F1000
G1 X79.464 Y70.356 Z0 F1000
G1 X79.615 Y70.646 Z0 F1000
G1 X79.731 Y70.854 Z0 F1000
G1 X79.818 Y70.987 Z0 F1000
G1 X79.882 Y71.056 Z0 F1000
G1 X79.929 Y71.069 Z0 F1000
G1 X79.968 Y71.033 Z0 F1000
G1 X80.003 Y70.959 Z0 F1000
G1 X80.082 Y70.76 Z0 F1000
G1 X81.142 Y68.161 Z0 F1000
G1 X81.49 Y67.299 Z0 F1000
G1 X81.742 Y66.653 Z0 F1000
G1 X81.99 Y65.997 Z0 F1000
G1 X82.167 Y65.511 Z0 F1000
G1 X82.365 Y64.946 Z0 F1000
G1 X82.57 Y64.345 Z0 F1000
G1 X82.768 Y63.75 Z0 F1000
G1 X82.946 Y63.202 Z0 F1000
G1 X83.09 Y62.742 Z0 F1000
G1 X83.145 Y62.559 Z0 F1000
G1 X83.186 Y62.414 Z0 F1000
G1 X83.212 Y62.312 Z0 F1000
G1 X83.22 Y62.258 Z0 F1000
G1 X83.207 Y62.24 Z0 F1000
G1 X83.168 Y62.206 Z0 F1000
G1 X83.105 Y62.158 Z0 F1000
G1 X83.02 Y62.096 Z0 F1000
G1 X82.785 Y61.937 Z0 F1000
G1 X82.475 Y61.734 Z0 F1000
G1 X82.099 Y61.494 Z0 F1000
G1 X81.668 Y61.224 Z0 F1000
G1 X81.193 Y60.931 Z0 F1000
G1 X78.518 Y59.309 Z0 F1000
G1 X77.566 Y58.73 Z0 F1000
G1 X76.868 Y58.303 Z0 F1000
G1 X76.361 Y57.997 Z0 F1000
G1 X75.926 Y57.746 Z0 F1000
G1 X75.751 Y57.649 Z0 F1000
G1 X75.611 Y57.575 Z0 F1000
G1 X75.513 Y57.528 Z0 F1000
G1 X75.462 Y57.511 Z0 F1000
G1 X75.414 Y57.532 Z0 F1000
G1 X75.324 Y57.595 Z0 F1000
G1 X75.199 Y57.694 Z0 F1000
G1 X75.042 Y57.825 Z0 F1000
G1 X74.656 Y58.167 Z0 F1000
G1 X74.207 Y58.586 Z0 F1000
G1 X73.852 Y58.932 Z0 F1000
G1 X73.568 Y59.224 Z0 F1000
G1 X73.352 Y59.467 Z0 F1000
G0 Z3.5 F1000
G0 X77.288 Y56.579 Z3.5 
G1 Z0 F1000
G1 X77.589 Y56.764 Z0 F1000
G1 X77.932 Y56.968 Z0 F1000
G1 X78.293 Y57.186 Z0 F1000
G1 X78.629 Y57.394 Z0 F1000
G1 X79.169 Y57.736 Z0 F1000
G1 X79.481 Y57.932 Z0 F1000
G1 X80.195 Y58.371 Z0 F1000
G1 X80.975 Y58.845 Z0 F1000
G1 X81.762 Y59.315 Z0 F1000
G1 X82.492 Y59.746 Z0 F1000
G1 X83.103 Y60.1 Z0 F1000
G1 X83.346 Y60.237 Z0 F1000
G1 X83.535 Y60.341 Z0 F1000
G1 X83.664 Y60.408 Z0 F1000
G1 X83.725 Y60.432 Z0 F1000
G1 X83.764 Y60.414 Z0 F1000
G1 X83.817 Y60.359 Z0 F1000
G1 X83.883 Y60.269 Z0 F1000
G1 X83.96 Y60.148 Z0 F1000
G1 X84.138 Y59.825 Z0 F1000
G1 X84.335 Y59.419 Z0 F1000
G1 X85.263 Y57.442 Z0 F1000
G1 X86.213 Y55.547 Z0 F1000
G1 X86.718 Y54.586 Z0 F1000
G1 X87.256 Y53.595 Z0 F1000
G1 X87.836 Y52.554 Z0 F1000
G1 X88.678 Y51.075 Z0 F1000
G1 X89.06 Y50.4 Z0 F1000
G1 X89.353 Y49.87 Z0 F1000
G1 X89.456 Y49.68 Z0 F1000
G1 X89.522 Y49.55 Z0 F1000
G1 X89.549 Y49.489 Z0 F1000
G1 X89.539 Y49.461 Z0 F1000
G1 X89.498 Y49.427 Z0 F1000
G1 X89.43 Y49.388 Z0 F1000
G1 X89.339 Y49.345 Z0 F1000
G1 X89.095 Y49.254 Z0 F1000
G1 X88.794 Y49.164 Z0 F1000
G1 X88.252 Y48.997 Z0 F1000
G1 X87.699 Y48.781 Z0 F1000
G1 X87.139 Y48.518 Z0 F1000
G1 X86.579 Y48.214 Z0 F1000
G1 X86.025 Y47.87 Z0 F1000
G1 X85.484 Y47.491 Z0 F1000
G1 X84.96 Y47.081 Z0 F1000
G1 X84.46 Y46.641 Z0 F1000
G1 X84.229 Y46.429 Z0 F1000
G1 X84.026 Y46.246 Z0 F1000
G1 X83.872 Y46.112 Z0 F1000
G1 X83.791 Y46.048 Z0 F1000
G1 X83.735 Y46.061 Z0 F1000
G1 X83.65 Y46.138 Z0 F1000
G1 X83.549 Y46.267 Z0 F1000
G1 X83.442 Y46.435 Z0 F1000
G1 X83.379 Y46.543 Z0 F1000
G1 X83.296 Y46.678 Z0 F1000
G1 X83.087 Y47.011 Z0 F1000
G1 X82.842 Y47.389 Z0 F1000
G1 X82.59 Y47.77 Z0 F1000
G1 X82.06 Y48.565 Z0 F1000
G1 X80.47 Y50.963 Z0 F1000
G1 X79.327 Y52.644 Z0 F1000
G1 X78.791 Y53.417 Z0 F1000
G1 X78.296 Y54.12 Z0 F1000
G1 X78.068 Y54.439 Z0 F1000
G1 X77.855 Y54.734 Z0 F1000
G1 X77.66 Y55.001 Z0 F1000
G1 X77.223 Y55.59 Z0 F1000
G1 X77.011 Y55.891 Z0 F1000
G1 X76.929 Y56.013 Z0 F1000
G1 X76.867 Y56.111 Z0 F1000
G1 X76.828 Y56.18 Z0 F1000
G1 X76.815 Y56.216 Z0 F1000
G1 X76.83 Y56.244 Z0 F1000
G1 X76.876 Y56.288 Z0 F1000
G1 X76.947 Y56.345 Z0 F1000
G1 X77.042 Y56.415 Z0 F1000
G1 X77.288 Y56.579 Z0 F1000
G0 Z3.5 F1000
G0 X64.523 Y74.488 Z3.5 
G1 Z0 F1000
G1 X64.493 Y74.525 Z0 F1000
G1 X64.432 Y74.633 Z0 F1000
G1 X64.345 Y74.803 Z0 F1000
G1 X64.234 Y75.028 Z0 F1000
G1 X64.103 Y75.301 Z0 F1000
G1 X63.956 Y75.614 Z0 F1000
G1 X63.796 Y75.959 Z0 F1000
G1 X63.628 Y76.329 Z0 F1000
G1 X63.295 Y77.07 Z0 F1000
G1 X62.705 Y78.39 Z0 F1000
G1 X62.501 Y78.858 Z0 F1000
G1 X61.843 Y80.33 Z0 F1000
G1 X61.627 Y80.83 Z0 F1000
G1 X61.553 Y81.013 Z0 F1000
G1 X61.518 Y81.12 Z0 F1000
G1 X61.451 Y81.281 Z0 F1000
G1 X61.352 Y81.506 Z0 F1000
G1 X61.075 Y82.112 Z0 F1000
G1 X60.671 Y83.011 Z0 F1000
G1 X58.448 Y88.054 Z0 F1000
G1 X57.224 Y90.816 Z0 F1000
G1 X56.376 Y92.74 Z0 F1000
G1 X55.817 Y94.012 Z0 F1000
G1 X54.91 Y96.091 Z0 F1000
G1 X54.761 Y96.429 Z0 F1000
G1 X54.567 Y96.86 Z0 F1000
G1 X54.215 Y97.65 Z0 F1000
G1 X53.783 Y98.631 Z0 F1000
G1 X53.275 Y99.792 Z0 F1000
G1 X52.664 Y101.196 Z0 F1000
G1 X52.176 Y102.311 Z0 F1000
G1 X51.652 Y103.501 Z0 F1000
G1 X51.469 Y103.929 Z0 F1000
G1 X51.406 Y104.087 Z0 F1000
G1 X51.391 Y104.139 Z0 F1000
G1 X51.343 Y104.259 Z0 F1000
G1 X51.202 Y104.581 Z0 F1000
G1 X50.953 Y105.128 Z0 F1000
G1 X50.851 Y105.364 Z0 F1000
G1 X50.782 Y105.536 Z0 F1000
G1 X50.732 Y105.7 Z0 F1000
G1 X50.666 Y105.865 Z0 F1000
G1 X50.568 Y106.089 Z0 F1000
G1 X50.448 Y106.35 Z0 F1000
G1 X50.285 Y106.714 Z0 F1000
G1 X49.995 Y107.381 Z0 F1000
G1 X49.593 Y108.312 Z0 F1000
G1 X49.096 Y109.47 Z0 F1000
G1 X47.883 Y112.312 Z0 F1000
G1 X46.487 Y115.603 Z0 F1000
G1 X46.334 Y116.003 Z0 F1000
G1 X46.237 Y116.349 Z0 F1000
G1 X46.195 Y116.642 Z0 F1000
G1 X46.208 Y116.882 Z0 F1000
G1 X46.277 Y117.068 Z0 F1000
G1 X46.402 Y117.202 Z0 F1000
G1 X46.582 Y117.282 Z0 F1000
G1 X46.818 Y117.31 Z0 F1000
G1 X47.014 Y117.297 Z0 F1000
G1 X47.208 Y117.222 Z0 F1000
G1 X47.317 Y117.145 Z0 F1000
G1 X47.441 Y117.034 Z0 F1000
G1 X47.585 Y116.881 Z0 F1000
G1 X47.754 Y116.682 Z0 F1000
G1 X47.954 Y116.429 Z0 F1000
G1 X48.189 Y116.117 Z0 F1000
G1 X48.465 Y115.738 Z0 F1000
G1 X48.787 Y115.287 Z0 F1000
G1 X49.161 Y114.757 Z0 F1000
G1 X49.59 Y114.142 Z0 F1000
G1 X52.139 Y110.467 Z0 F1000
G1 X52.887 Y109.392 Z0 F1000
G1 X53.898 Y107.958 Z0 F1000
G1 X54.661 Y106.873 Z0 F1000
G1 X55.288 Y105.975 Z0 F1000
G1 X56.388 Y104.388 Z0 F1000
G1 X57.105 Y103.363 Z0 F1000
G1 X57.889 Y102.247 Z0 F1000
G1 X61.495 Y97.151 Z0 F1000
G1 X62.57 Y95.623 Z0 F1000
G1 X63.012 Y94.999 Z0 F1000
G1 X64.092 Y93.482 Z0 F1000
G1 X66.757 Y89.747 Z0 F1000
G1 X68.624 Y87.117 Z0 F1000
G1 X68.905 Y86.723 Z0 F1000
G1 X69.569 Y85.81 Z0 F1000
G1 X69.948 Y85.285 Z0 F1000
G1 X70.249 Y84.861 Z0 F1000
G1 X70.478 Y84.528 Z0 F1000
G1 X70.644 Y84.275 Z0 F1000
G1 X70.754 Y84.092 Z0 F1000
G1 X70.813 Y83.968 Z0 F1000
G1 X70.831 Y83.893 Z0 F1000
G1 X70.815 Y83.815 Z0 F1000
G1 X70.756 Y83.689 Z0 F1000
G1 X70.706 Y83.601 Z0 F1000
G1 X70.638 Y83.49 Z0 F1000
G1 X70.552 Y83.354 Z0 F1000
G1 X70.443 Y83.19 Z0 F1000
G1 X70.311 Y82.995 Z0 F1000
G1 X69.967 Y82.495 Z0 F1000
G1 X69.502 Y81.829 Z0 F1000
G1 X68.184 Y79.958 Z0 F1000
G1 X67.527 Y79.021 Z0 F1000
G1 X66.94 Y78.175 Z0 F1000
G1 X66.424 Y77.422 Z0 F1000
G1 X65.978 Y76.763 Z0 F1000
G1 X65.605 Y76.198 Z0 F1000
G1 X65.446 Y75.952 Z0 F1000
G1 X65.304 Y75.73 Z0 F1000
G1 X65.181 Y75.532 Z0 F1000
G1 X65.077 Y75.358 Z0 F1000
G1 X64.829 Y74.929 Z0 F1000
G1 X64.687 Y74.7 Z0 F1000
G1 X64.628 Y74.612 Z0 F1000
G1 X64.579 Y74.545 Z0 F1000
G1 X64.544 Y74.503 Z0 F1000
G1 X64.523 Y74.488 Z0 F1000
;Offset @ 1500 mm/min, 90% power

M8
G0 Z3.5 F1000
G0 X52.544 Y39.456 Z3.5 
G1 Z0 F1000
;Layer Green
G1 X53.002 Y40.084 Z0 F1000
G1 X53.428 Y40.706 Z0 F1000
G1 X54.239 Y42.012 Z0 F1000
G1 X54.951 Y43.33 Z0 F1000
G1 X55.153 Y43.759 Z0 F1000
G1 X54.621 Y43.003 Z0 F1000
G1 X54.065 Y42.186 Z0 F1000
G1 X53.552 Y41.401 Z0 F1000
G1 X53.333 Y41.054 Z0 F1000
G1 X53.115 Y40.699 Z0 F1000
G1 X52.912 Y40.356 Z0 F1000
G1 X52.746 Y40.066 Z0 F1000
G1 X52.423 Y39.473 Z0 F1000
G1 X52.136 Y38.926 Z0 F1000
G1 X52.544 Y39.456 Z0 F1000
G0 Z3.5 F1000
G0 X55.758 Y42.931 Z3.5 
G1 Z0 F1000
G1 X56.175 Y43.817 Z0 F1000
G1 X56.557 Y44.722 Z0 F1000
G1 X56.722 Y45.15 Z0 F1000
G1 X56.813 Y45.407 Z0 F1000
G1 X56.583 Y45.584 Z0 F1000
G1 X56.306 Y45.777 Z0 F1000
G1 X56.029 Y45.953 Z0 F1000
G1 X55.796 Y46.084 Z0 F1000
G1 X55.708 Y45.979 Z0 F1000
G1 X55.484 Y45.704 Z0 F1000
G1 X55.243 Y45.394 Z0 F1000
G1 X54.994 Y45.066 Z0 F1000
G1 X54.438 Y44.308 Z0 F1000
G1 X53.876 Y43.509 Z0 F1000
G1 X53.321 Y42.692 Z0 F1000
G1 X52.799 Y41.893 Z0 F1000
G1 X52.561 Y41.516 Z0 F1000
G1 X52.338 Y41.154 Z0 F1000
G1 X52.138 Y40.816 Z0 F1000
G1 X51.969 Y40.521 Z0 F1000
G1 X51.625 Y39.889 Z0 F1000
G1 X51.278 Y39.229 Z0 F1000
G1 X50.927 Y38.539 Z0 F1000
G1 X50.578 Y37.83 Z0 F1000
G1 X49.904 Y36.396 Z0 F1000
G1 X49.285 Y34.986 Z0 F1000
G1 X49.003 Y34.324 Z0 F1000
G1 X48.832 Y33.929 Z0 F1000
G1 X48.914 Y34.019 Z0 F1000
G1 X49.065 Y34.179 Z0 F1000
G1 X49.433 Y34.556 Z0 F1000
G1 X49.953 Y35.085 Z0 F1000
G1 X50.366 Y35.51 Z0 F1000
G1 X50.7 Y35.858 Z0 F1000
G1 X50.986 Y36.166 Z0 F1000
G1 X51.262 Y36.472 Z0 F1000
G1 X51.528 Y36.778 Z0 F1000
G1 X51.842 Y37.147 Z0 F1000
G1 X52.213 Y37.591 Z0 F1000
G1 X52.758 Y38.259 Z0 F1000
G1 X53.26 Y38.91 Z0 F1000
G1 X53.742 Y39.572 Z0 F1000
G1 X54.184 Y40.216 Z0 F1000
G1 X55.013 Y41.552 Z0 F1000
G1 X55.758 Y42.931 Z0 F1000
G0 Z3.5 F1000
G0 X47.774 Y31.786 Z3.5 
G1 Z0 F1000
G1 X47.113 Y31.729 Z0 F1000
G1 X47.119 Y31.558 Z0 F1000
G1 X47.13 Y31.338 Z0 F1000
G1 X47.144 Y31.187 Z0 F1000
G1 X47.152 Y31.119 Z0 F1000
G1 X47.77 Y31.368 Z0 F1000
G1 X47.914 Y31.431 Z0 F1000
G1 X47.774 Y31.786 Z0 F1000
G0 Z3.5 F1000
G0 X46.749 Y33.885 Z3.5 
G1 Z0 F1000
G1 X46.78 Y34.269 Z0 F1000
G1 X46.836 Y34.739 Z0 F1000
G1 X47.001 Y35.792 Z0 F1000
G1 X47.21 Y36.8 Z0 F1000
G1 X47.542 Y38.029 Z0 F1000
G1 X47.915 Y39.207 Z0 F1000
G1 X48.334 Y40.344 Z0 F1000
G1 X48.805 Y41.449 Z0 F1000
G1 X49.327 Y42.525 Z0 F1000
G1 X49.904 Y43.578 Z0 F1000
G1 X50.538 Y44.614 Z0 F1000
G1 X51.229 Y45.637 Z0 F1000
G1 X51.834 Y46.464 Z0 F1000
G1 X52.222 Y46.97 Z0 F1000
G1 X51.973 Y46.945 Z0 F1000
G1 X51.712 Y46.901 Z0 F1000
G1 X51.476 Y46.834 Z0 F1000
G1 X51.226 Y46.728 Z0 F1000
G1 X50.947 Y46.57 Z0 F1000
G1 X50.645 Y46.361 Z0 F1000
G1 X50.307 Y46.086 Z0 F1000
G1 X49.933 Y45.741 Z0 F1000
G1 X49.528 Y45.328 Z0 F1000
G1 X49.098 Y44.855 Z0 F1000
G1 X48.985 Y44.712 Z0 F1000
G1 X48.821 Y44.479 Z0 F1000
G1 X48.632 Y44.19 Z0 F1000
G1 X48.421 Y43.852 Z0 F1000
G1 X47.999 Y43.124 Z0 F1000
G1 X47.632 Y42.426 Z0 F1000
G1 X47.412 Y41.942 Z0 F1000
G1 X47.21 Y41.432 Z0 F1000
G1 X47.024 Y40.877 Z0 F1000
G1 X46.858 Y40.296 Z0 F1000
G1 X46.703 Y39.648 Z0 F1000
G1 X46.561 Y38.942 Z0 F1000
G1 X46.427 Y38.157 Z0 F1000
G1 X46.307 Y37.326 Z0 F1000
G1 X46.287 Y37.135 Z0 F1000
G1 X46.269 Y36.863 Z0 F1000
G1 X46.251 Y36.523 Z0 F1000
G1 X46.236 Y36.124 Z0 F1000
G1 X46.212 Y35.192 Z0 F1000
G1 X46.197 Y34.177 Z0 F1000
G1 X46.193 Y33.173 Z0 F1000
G1 X46.2 Y32.253 Z0 F1000
G1 X46.208 Y31.849 Z0 F1000
G1 X46.219 Y31.53 Z0 F1000
G1 X46.233 Y31.264 Z0 F1000
G1 X46.249 Y31.093 Z0 F1000
G1 X46.405 Y29.874 Z0 F1000
G1 X47.112 Y30.133 Z0 F1000
G1 X48.134 Y30.544 Z0 F1000
G1 X49.167 Y30.994 Z0 F1000
G1 X50.2 Y31.475 Z0 F1000
G1 X51.189 Y31.967 Z0 F1000
G1 X52.136 Y32.471 Z0 F1000
G1 X52.56 Y32.71 Z0 F1000
G1 X52.98 Y32.957 Z0 F1000
G1 X53.355 Y33.187 Z0 F1000
G1 X53.718 Y33.421 Z0 F1000
G1 X54.386 Y33.885 Z0 F1000
G1 X55.032 Y34.372 Z0 F1000
G1 X55.621 Y34.854 Z0 F1000
G1 X56.17 Y35.347 Z0 F1000
G1 X56.688 Y35.856 Z0 F1000
G1 X57.145 Y36.352 Z0 F1000
G1 X57.573 Y36.868 Z0 F1000
G1 X57.948 Y37.375 Z0 F1000
G1 X58.279 Y37.88 Z0 F1000
G1 X58.571 Y38.396 Z0 F1000
G1 X58.813 Y38.9 Z0 F1000
G1 X59.01 Y39.398 Z0 F1000
G1 X59.164 Y39.896 Z0 F1000
G1 X59.273 Y40.384 Z0 F1000
G1 X59.339 Y40.874 Z0 F1000
G1 X59.361 Y41.357 Z0 F1000
G1 X59.35 Y41.723 Z0 F1000
G1 X59.316 Y42.053 Z0 F1000
G1 X59.261 Y42.337 Z0 F1000
G1 X59.233 Y42.437 Z0 F1000
G1 X59.186 Y42.326 Z0 F1000
G1 X58.839 Y41.598 Z0 F1000
G1 X58.452 Y40.857 Z0 F1000
G1 X58.033 Y40.117 Z0 F1000
G1 X57.59 Y39.394 Z0 F1000
G1 X57.131 Y38.703 Z0 F1000
G1 X56.664 Y38.058 Z0 F1000
G1 X55.993 Y37.22 Z0 F1000
G1 X55.282 Y36.416 Z0 F1000
G1 X54.539 Y35.651 Z0 F1000
G1 X53.765 Y34.927 Z0 F1000
G1 X52.966 Y34.251 Z0 F1000
G1 X52.145 Y33.624 Z0 F1000
G1 X51.305 Y33.05 Z0 F1000
G1 X50.462 Y32.541 Z0 F1000
G1 X50.262 Y32.429 Z0 F1000
G1 X50.092 Y32.336 Z0 F1000
G1 X49.937 Y32.255 Z0 F1000
G1 X49.792 Y32.186 Z0 F1000
G1 X49.632 Y32.12 Z0 F1000
G1 X49.365 Y32.047 Z0 F1000
G1 X48.614 Y32.111 Z0 F1000
G1 X48.317 Y32.87 Z0 F1000
G1 X48.238 Y32.729 Z0 F1000
G1 X47.008 Y32.624 Z0 F1000
G1 X46.757 Y33.472 Z0 F1000
G1 X46.744 Y33.699 Z0 F1000
G1 X46.749 Y33.885 Z0 F1000
G0 Z3.5 F1000
G0 X46.364 Y41.739 Z3.5 
G1 Z0 F1000
G1 X46.167 Y41.152 Z0 F1000
G1 X45.987 Y40.524 Z0 F1000
G1 X45.825 Y39.847 Z0 F1000
G1 X45.676 Y39.11 Z0 F1000
G1 X45.54 Y38.308 Z0 F1000
G1 X45.413 Y37.43 Z0 F1000
G1 X45.391 Y37.215 Z0 F1000
G1 X45.371 Y36.925 Z0 F1000
G1 X45.353 Y36.568 Z0 F1000
G1 X45.337 Y36.158 Z0 F1000
G1 X45.312 Y35.216 Z0 F1000
G1 X45.297 Y34.189 Z0 F1000
G1 X45.293 Y33.166 Z0 F1000
G1 X45.3 Y32.234 Z0 F1000
G1 X45.309 Y31.831 Z0 F1000
G1 X45.32 Y31.483 Z0 F1000
G1 X45.335 Y31.203 Z0 F1000
G1 X45.353 Y31 Z0 F1000
G1 X45.532 Y29.607 Z0 F1000
G1 X45.581 Y29.244 Z0 F1000
G1 X45.624 Y28.947 Z0 F1000
G1 X45.658 Y28.746 Z0 F1000
G1 X45.669 Y28.691 Z0 F1000
G1 X45.676 Y28.672 Z0 F1000
G1 X45.744 Y28.692 Z0 F1000
G1 X45.91 Y28.748 Z0 F1000
G1 X46.439 Y28.928 Z0 F1000
G1 X47.437 Y29.293 Z0 F1000
G1 X48.477 Y29.712 Z0 F1000
G1 X49.535 Y30.173 Z0 F1000
G1 X50.585 Y30.662 Z0 F1000
G1 X51.604 Y31.168 Z0 F1000
G1 X52.565 Y31.68 Z0 F1000
G1 X53.016 Y31.934 Z0 F1000
G1 X53.443 Y32.185 Z0 F1000
G1 X53.844 Y32.431 Z0 F1000
G1 X54.214 Y32.67 Z0 F1000
G1 X54.919 Y33.16 Z0 F1000
G1 X55.584 Y33.661 Z0 F1000
G1 X56.208 Y34.172 Z0 F1000
G1 X56.79 Y34.694 Z0 F1000
G1 X57.33 Y35.225 Z0 F1000
G1 X57.826 Y35.764 Z0 F1000
G1 X58.279 Y36.309 Z0 F1000
G1 X58.688 Y36.86 Z0 F1000
G1 X59.05 Y37.416 Z0 F1000
G1 X59.367 Y37.975 Z0 F1000
G1 X59.638 Y38.537 Z0 F1000
G1 X59.86 Y39.101 Z0 F1000
G1 X60.035 Y39.665 Z0 F1000
G1 X60.16 Y40.228 Z0 F1000
G1 X60.236 Y40.79 Z0 F1000
G1 X60.262 Y41.349 Z0 F1000
G1 X60.249 Y41.788 Z0 F1000
G1 X60.208 Y42.183 Z0 F1000
G1 X60.137 Y42.549 Z0 F1000
G1 X60.035 Y42.902 Z0 F1000
G1 X59.824 Y43.433 Z0 F1000
G1 X59.548 Y44.02 Z0 F1000
G1 X59.413 Y44.282 Z0 F1000
G1 X59.292 Y44.496 Z0 F1000
G1 X59.199 Y44.639 Z0 F1000
G1 X59.141 Y44.691 Z0 F1000
G1 X59.129 Y44.677 Z0 F1000
G1 X59.108 Y44.635 Z0 F1000
G1 X59.08 Y44.568 Z0 F1000
G1 X59.046 Y44.479 Z0 F1000
G1 X58.963 Y44.25 Z0 F1000
G1 X58.869 Y43.971 Z0 F1000
G1 X58.646 Y43.358 Z0 F1000
G1 X58.365 Y42.696 Z0 F1000
G1 X58.034 Y42 Z0 F1000
G1 X57.662 Y41.287 Z0 F1000
G1 X57.258 Y40.574 Z0 F1000
G1 X56.832 Y39.878 Z0 F1000
G1 X56.392 Y39.216 Z0 F1000
G1 X55.948 Y38.604 Z0 F1000
G1 X55.304 Y37.799 Z0 F1000
G1 X54.622 Y37.028 Z0 F1000
G1 X53.908 Y36.293 Z0 F1000
G1 X53.167 Y35.6 Z0 F1000
G1 X52.401 Y34.953 Z0 F1000
G1 X51.617 Y34.354 Z0 F1000
G1 X50.818 Y33.808 Z0 F1000
G1 X50.009 Y33.319 Z0 F1000
G1 X49.826 Y33.216 Z0 F1000
G1 X49.668 Y33.13 Z0 F1000
G1 X49.534 Y33.06 Z0 F1000
G1 X49.425 Y33.008 Z0 F1000
G1 X49.341 Y32.973 Z0 F1000
G1 X49.282 Y32.957 Z0 F1000
G1 X49.248 Y32.96 Z0 F1000
G1 X49.239 Y32.982 Z0 F1000
G1 X49.255 Y33.024 Z0 F1000
G1 X49.297 Y33.087 Z0 F1000
G1 X49.363 Y33.171 Z0 F1000
G1 X49.455 Y33.277 Z0 F1000
G1 X49.572 Y33.405 Z0 F1000
G1 X49.715 Y33.555 Z0 F1000
G1 X50.076 Y33.927 Z0 F1000
G1 X50.597 Y34.458 Z0 F1000
G1 X51.016 Y34.887 Z0 F1000
G1 X51.359 Y35.246 Z0 F1000
G1 X51.655 Y35.563 Z0 F1000
G1 X51.931 Y35.87 Z0 F1000
G1 X52.213 Y36.195 Z0 F1000
G1 X52.531 Y36.569 Z0 F1000
G1 X52.911 Y37.022 Z0 F1000
G1 X53.462 Y37.699 Z0 F1000
G1 X53.982 Y38.373 Z0 F1000
G1 X54.474 Y39.048 Z0 F1000
G1 X54.939 Y39.727 Z0 F1000
G1 X55.793 Y41.103 Z0 F1000
G1 X56.561 Y42.522 Z0 F1000
G1 X56.996 Y43.448 Z0 F1000
G1 X57.396 Y44.398 Z0 F1000
G1 X57.562 Y44.826 Z0 F1000
G1 X57.691 Y45.191 Z0 F1000
G1 X57.739 Y45.343 Z0 F1000
G1 X57.775 Y45.471 Z0 F1000
G1 X57.797 Y45.572 Z0 F1000
G1 X57.805 Y45.643 Z0 F1000
G1 X57.792 Y45.691 Z0 F1000
G1 X57.751 Y45.753 Z0 F1000
G1 X57.688 Y45.827 Z0 F1000
G1 X57.604 Y45.912 Z0 F1000
G1 X57.385 Y46.103 Z0 F1000
G1 X57.112 Y46.313 Z0 F1000
G1 X56.807 Y46.525 Z0 F1000
G1 X56.491 Y46.726 Z0 F1000
G1 X56.183 Y46.9 Z0 F1000
G1 X55.904 Y47.032 Z0 F1000
G1 X55.698 Y47.108 Z0 F1000
G1 X55.556 Z0 F1000
G1 X55.491 Y47.077 Z0 F1000
G1 X55.421 Y47.019 Z0 F1000
G1 X55.338 Y46.932 Z0 F1000
G1 X55.236 Y46.816 Z0 F1000
G1 X55.02 Y46.561 Z0 F1000
G1 X54.785 Y46.27 Z0 F1000
G1 X54.533 Y45.947 Z0 F1000
G1 X54.269 Y45.599 Z0 F1000
G1 X53.712 Y44.84 Z0 F1000
G1 X53.14 Y44.028 Z0 F1000
G1 X52.576 Y43.198 Z0 F1000
G1 X52.045 Y42.385 Z0 F1000
G1 X51.8 Y41.997 Z0 F1000
G1 X51.572 Y41.625 Z0 F1000
G1 X51.364 Y41.276 Z0 F1000
G1 X51.18 Y40.954 Z0 F1000
G1 X50.834 Y40.32 Z0 F1000
G1 X50.481 Y39.648 Z0 F1000
G1 X50.125 Y38.947 Z0 F1000
G1 X49.771 Y38.228 Z0 F1000
G1 X49.084 Y36.769 Z0 F1000
G1 X48.461 Y35.347 Z0 F1000
G1 X48.177 Y34.679 Z0 F1000
G1 X47.936 Y34.125 Z0 F1000
G1 X47.764 Y33.74 Z0 F1000
G1 X47.711 Y33.63 Z0 F1000
G1 X47.686 Y33.585 Z0 F1000
G1 X47.663 Z0 F1000
G1 X47.649 Y33.627 Z0 F1000
G1 X47.645 Y33.714 Z0 F1000
G1 Y33.837 Z0 F1000
G1 X47.675 Y34.179 Z0 F1000
G1 X47.728 Y34.616 Z0 F1000
G1 X47.887 Y35.63 Z0 F1000
G1 X48.086 Y36.591 Z0 F1000
G1 X48.406 Y37.776 Z0 F1000
G1 X48.767 Y38.915 Z0 F1000
G1 X49.171 Y40.012 Z0 F1000
G1 X49.624 Y41.076 Z0 F1000
G1 X50.126 Y42.112 Z0 F1000
G1 X50.683 Y43.126 Z0 F1000
G1 X51.294 Y44.127 Z0 F1000
G1 X51.966 Y45.119 Z0 F1000
G1 X52.555 Y45.925 Z0 F1000
G1 X53.151 Y46.703 Z0 F1000
G1 X53.414 Y47.033 Z0 F1000
G1 X53.633 Y47.298 Z0 F1000
G1 X53.722 Y47.4 Z0 F1000
G1 X53.793 Y47.479 Z0 F1000
G1 X53.847 Y47.532 Z0 F1000
G1 X53.88 Y47.557 Z0 F1000
G1 X53.937 Y47.626 Z0 F1000
G1 X53.96 Y47.744 Z0 F1000
G1 X53.942 Y47.777 Z0 F1000
G1 X53.889 Y47.807 Z0 F1000
G1 X53.805 Y47.833 Z0 F1000
G1 X53.694 Y47.854 Z0 F1000
G1 X53.403 Y47.885 Z0 F1000
G1 X53.046 Y47.899 Z0 F1000
G1 X52.649 Y47.896 Z0 F1000
G1 X52.243 Y47.876 Z0 F1000
G1 X51.855 Y47.837 Z0 F1000
G1 X51.514 Y47.781 Z0 F1000
G1 X51.174 Y47.684 Z0 F1000
G1 X50.828 Y47.537 Z0 F1000
G1 X50.472 Y47.336 Z0 F1000
G1 X50.102 Y47.08 Z0 F1000
G1 X49.714 Y46.764 Z0 F1000
G1 X49.306 Y46.388 Z0 F1000
G1 X48.874 Y45.947 Z0 F1000
G1 X48.413 Y45.439 Z0 F1000
G1 X48.263 Y45.25 Z0 F1000
G1 X48.08 Y44.99 Z0 F1000
G1 X47.874 Y44.675 Z0 F1000
G1 X47.653 Y44.32 Z0 F1000
G1 X47.209 Y43.555 Z0 F1000
G1 X46.824 Y42.823 Z0 F1000
G1 X46.583 Y42.293 Z0 F1000
G1 X46.364 Y41.739 Z0 F1000
G0 Z3.5 F1000
G0 X91.838 Y38.98 Z3.5 
G1 Z0 F1000
G1 X91.133 Y40.247 Z0 F1000
G1 X90.402 Y41.455 Z0 F1000
G1 X89.631 Y42.628 Z0 F1000
G1 X88.796 Y43.804 Z0 F1000
G1 X88.708 Y43.919 Z0 F1000
G1 X88.801 Y43.724 Z0 F1000
G1 X89.049 Y43.226 Z0 F1000
G1 X89.591 Y42.214 Z0 F1000
G1 X90.184 Y41.221 Z0 F1000
G1 X90.828 Y40.25 Z0 F1000
G1 X91.539 Y39.276 Z0 F1000
G1 X91.952 Y38.758 Z0 F1000
G1 X91.838 Y38.98 Z0 F1000
G0 Z3.5 F1000
G0 X90.371 Y43.141 Z3.5 
G1 Z0 F1000
G1 X89.529 Y44.326 Z0 F1000
G1 X88.608 Y45.534 Z0 F1000
G1 X88.183 Y46.075 Z0 F1000
G1 X88.109 Y46.036 Z0 F1000
G1 X87.725 Y45.804 Z0 F1000
G1 X87.345 Y45.55 Z0 F1000
G1 X87.103 Y45.369 Z0 F1000
G1 X87.174 Y45.171 Z0 F1000
G1 X87.322 Y44.802 Z0 F1000
G1 X87.521 Y44.342 Z0 F1000
G1 X87.742 Y43.855 Z0 F1000
G1 X87.982 Y43.35 Z0 F1000
G1 X88.248 Y42.815 Z0 F1000
G1 X88.816 Y41.755 Z0 F1000
G1 X89.417 Y40.749 Z0 F1000
G1 X90.095 Y39.728 Z0 F1000
G1 X90.825 Y38.728 Z0 F1000
G1 X91.635 Y37.711 Z0 F1000
G1 X92.542 Y36.661 Z0 F1000
G1 X93.028 Y36.125 Z0 F1000
G1 X93.528 Y35.592 Z0 F1000
G1 X94.073 Y35.028 Z0 F1000
G1 X94.638 Y34.458 Z0 F1000
G1 X94.954 Y34.135 Z0 F1000
G1 X95.216 Y33.844 Z0 F1000
G1 X95.22 Y33.84 Z0 F1000
G1 X95.189 Y33.905 Z0 F1000
G1 X95.023 Y34.28 Z0 F1000
G1 X94.692 Y35.051 Z0 F1000
G1 X94.006 Y36.611 Z0 F1000
G1 X93.334 Y38.033 Z0 F1000
G1 X92.63 Y39.409 Z0 F1000
G1 X91.917 Y40.69 Z0 F1000
G1 X91.166 Y41.931 Z0 F1000
G1 X90.371 Y43.141 Z0 F1000
G0 Z3.5 F1000
G0 X96.16 Y31.383 Z3.5 
G1 Z0 F1000
G1 X96.593 Y31.2 Z0 F1000
G1 X96.78 Y31.124 Z0 F1000
G1 X96.788 Y31.266 Z0 F1000
G1 X96.792 Y31.368 Z0 F1000
G1 X96.647 Y31.458 Z0 F1000
G1 X96.16 Y31.383 Z0 F1000
G0 Z3.5 F1000
G0 X94.237 Y31.235 Z3.5 
G1 Z0 F1000
G1 X95.261 Y30.786 Z0 F1000
G1 X96.243 Y30.371 Z0 F1000
G1 X96.685 Y30.191 Z0 F1000
G1 X97.11 Y30.023 Z0 F1000
G1 X97.468 Y29.889 Z0 F1000
G1 X97.598 Y29.843 Z0 F1000
G1 X97.618 Y30.081 Z0 F1000
G1 X97.643 Y30.421 Z0 F1000
G1 X97.688 Y31.231 Z0 F1000
G1 X97.722 Y32.138 Z0 F1000
G1 X97.745 Y33.123 Z0 F1000
G1 X97.752 Y34.116 Z0 F1000
G1 Y34.667 Z0 F1000
G1 X97.745 Y35.18 Z0 F1000
G1 X97.737 Y35.653 Z0 F1000
G1 X97.725 Y36.103 Z0 F1000
G1 X97.689 Y36.875 Z0 F1000
G1 X97.634 Y37.584 Z0 F1000
G1 X97.558 Y38.232 Z0 F1000
G1 X97.463 Y38.817 Z0 F1000
G1 X97.337 Y39.434 Z0 F1000
G1 X97.183 Y40.066 Z0 F1000
G1 X97.028 Y40.614 Z0 F1000
G1 X96.847 Y41.159 Z0 F1000
G1 X96.648 Y41.68 Z0 F1000
G1 X96.42 Y42.21 Z0 F1000
G1 X96.174 Y42.723 Z0 F1000
G1 X95.912 Y43.218 Z0 F1000
G1 X95.635 Y43.689 Z0 F1000
G1 X95.339 Y44.149 Z0 F1000
G1 X95.034 Y44.58 Z0 F1000
G1 X94.722 Y44.979 Z0 F1000
G1 X94.4 Y45.352 Z0 F1000
G1 X94.082 Y45.684 Z0 F1000
G1 X93.756 Y45.985 Z0 F1000
G1 X93.434 Y46.246 Z0 F1000
G1 X93.126 Y46.459 Z0 F1000
G1 X92.809 Y46.641 Z0 F1000
G1 X92.586 Y46.752 Z0 F1000
G1 X92.435 Y46.822 Z0 F1000
G1 X92.311 Y46.869 Z0 F1000
G1 X92.196 Y46.901 Z0 F1000
G1 X92.075 Y46.923 Z0 F1000
G1 X91.883 Y46.943 Z0 F1000
G1 X91.765 Y46.951 Z0 F1000
G1 X91.914 Y46.756 Z0 F1000
G1 X92.301 Y46.237 Z0 F1000
G1 X92.689 Y45.705 Z0 F1000
G1 X93.056 Y45.191 Z0 F1000
G1 X93.226 Y44.948 Z0 F1000
G1 X93.382 Y44.721 Z0 F1000
G1 X93.524 Y44.511 Z0 F1000
G1 X93.65 Y44.317 Z0 F1000
G1 X94.062 Y43.644 Z0 F1000
G1 X94.463 Y42.926 Z0 F1000
G1 X94.849 Y42.175 Z0 F1000
G1 X95.217 Y41.398 Z0 F1000
G1 X95.565 Y40.599 Z0 F1000
G1 X95.89 Y39.785 Z0 F1000
G1 X96.189 Y38.961 Z0 F1000
G1 X96.46 Y38.133 Z0 F1000
G1 X96.61 Y37.605 Z0 F1000
G1 X96.755 Y37.023 Z0 F1000
G1 X96.89 Y36.417 Z0 F1000
G1 X97.011 Y35.814 Z0 F1000
G1 X97.112 Y35.239 Z0 F1000
G1 X97.187 Y34.723 Z0 F1000
G1 X97.214 Y34.485 Z0 F1000
G1 X97.233 Y34.268 Z0 F1000
G1 X97.241 Y34.063 Z0 F1000
G1 X97.235 Y33.857 Z0 F1000
G1 X97.182 Y33.501 Z0 F1000
G1 X96.554 Y32.575 Z0 F1000
G1 X95.607 Y33.164 Z0 F1000
G1 X95.72 Y32.225 Z0 F1000
G1 X94.64 Y32.058 Z0 F1000
G1 X94.34 Y32.137 Z0 F1000
G1 X94.168 Y32.205 Z0 F1000
G1 X94.002 Y32.282 Z0 F1000
G1 X93.66 Y32.461 Z0 F1000
G1 X93.255 Y32.692 Z0 F1000
G1 X92.384 Y33.235 Z0 F1000
G1 X91.564 Y33.805 Z0 F1000
G1 X91.32 Y33.994 Z0 F1000
G1 X91.068 Y34.199 Z0 F1000
G1 X90.806 Y34.421 Z0 F1000
G1 X90.532 Y34.66 Z0 F1000
G1 X89.983 Y35.158 Z0 F1000
G1 X89.451 Y35.663 Z0 F1000
G1 X89.2 Y35.909 Z0 F1000
G1 X88.967 Y36.143 Z0 F1000
G1 X88.756 Y36.363 Z0 F1000
G1 X88.568 Y36.566 Z0 F1000
G1 X88.406 Y36.754 Z0 F1000
G1 X88.262 Y36.937 Z0 F1000
G1 X88.156 Y37.106 Z0 F1000
G1 X88.122 Y37.133 Z0 F1000
G1 X87.999 Y37.247 Z0 F1000
G1 X87.77 Y37.483 Z0 F1000
G1 X87.525 Y37.767 Z0 F1000
G1 X87.043 Y38.387 Z0 F1000
G1 X86.579 Y39.043 Z0 F1000
G1 X86.134 Y39.728 Z0 F1000
G1 X85.715 Y40.436 Z0 F1000
G1 X85.322 Y41.16 Z0 F1000
G1 X84.962 Y41.892 Z0 F1000
G1 X84.737 Y42.401 Z0 F1000
G1 X84.729 Y42.323 Z0 F1000
G1 X84.717 Y42.091 Z0 F1000
G1 X84.711 Y41.777 Z0 F1000
G1 Y41.387 Z0 F1000
G1 Y41.015 Z0 F1000
G1 X84.719 Y40.702 Z0 F1000
G1 X84.731 Y40.46 Z0 F1000
G1 X84.749 Y40.275 Z0 F1000
G1 X84.81 Y39.943 Z0 F1000
G1 X84.916 Y39.587 Z0 F1000
G1 X85.158 Y38.954 Z0 F1000
G1 X85.447 Y38.343 Z0 F1000
G1 X85.792 Y37.741 Z0 F1000
G1 X86.192 Y37.147 Z0 F1000
G1 X86.666 Y36.543 Z0 F1000
G1 X87.207 Y35.935 Z0 F1000
G1 X87.823 Y35.314 Z0 F1000
G1 X88.534 Y34.663 Z0 F1000
G1 X88.89 Y34.358 Z0 F1000
G1 X89.23 Y34.096 Z0 F1000
G1 X89.413 Y33.968 Z0 F1000
G1 X89.666 Y33.796 Z0 F1000
G1 X89.958 Y33.604 Z0 F1000
G1 X90.777 Y33.074 Z0 F1000
G1 X91.318 Y32.719 Z0 F1000
G1 X91.543 Y32.567 Z0 F1000
G1 X91.589 Y32.534 Z0 F1000
G1 X91.679 Y32.472 Z0 F1000
G1 X91.858 Y32.37 Z0 F1000
G1 X92.127 Y32.229 Z0 F1000
G1 X92.449 Y32.067 Z0 F1000
G1 X92.842 Y31.877 Z0 F1000
G1 X93.279 Y31.672 Z0 F1000
G1 X93.754 Y31.453 Z0 F1000
G1 X94.237 Y31.235 Z0 F1000
G0 Z3.5 F1000
G0 X98.458 Y29.385 Z3.5 
G1 Z0 F1000
G1 X98.487 Y29.675 Z0 F1000
G1 X98.515 Y30.005 Z0 F1000
G1 X98.542 Y30.372 Z0 F1000
G1 X98.587 Y31.197 Z0 F1000
G1 X98.622 Y32.118 Z0 F1000
G1 X98.645 Y33.103 Z0 F1000
G1 X98.652 Y34.119 Z0 F1000
G1 Y34.677 Z0 F1000
G1 X98.645 Y35.195 Z0 F1000
G1 X98.637 Y35.678 Z0 F1000
G1 X98.625 Y36.127 Z0 F1000
G1 X98.587 Y36.944 Z0 F1000
G1 X98.53 Y37.675 Z0 F1000
G1 X98.451 Y38.346 Z0 F1000
G1 X98.347 Y38.988 Z0 F1000
G1 X98.216 Y39.628 Z0 F1000
G1 X98.053 Y40.296 Z0 F1000
G1 X97.889 Y40.878 Z0 F1000
G1 X97.697 Y41.455 Z0 F1000
G1 X97.48 Y42.024 Z0 F1000
G1 X97.24 Y42.582 Z0 F1000
G1 X96.979 Y43.127 Z0 F1000
G1 X96.698 Y43.656 Z0 F1000
G1 X96.399 Y44.165 Z0 F1000
G1 X96.085 Y44.653 Z0 F1000
G1 X95.757 Y45.116 Z0 F1000
G1 X95.418 Y45.551 Z0 F1000
G1 X95.068 Y45.957 Z0 F1000
G1 X94.71 Y46.329 Z0 F1000
G1 X94.345 Y46.666 Z0 F1000
G1 X93.977 Y46.965 Z0 F1000
G1 X93.605 Y47.222 Z0 F1000
G1 X93.233 Y47.435 Z0 F1000
G1 X92.987 Y47.558 Z0 F1000
G1 X92.779 Y47.654 Z0 F1000
G1 X92.59 Y47.726 Z0 F1000
G1 X92.402 Y47.778 Z0 F1000
G1 X92.198 Y47.815 Z0 F1000
G1 X91.959 Y47.841 Z0 F1000
G1 X91.667 Y47.859 Z0 F1000
G1 X91.303 Y47.875 Z0 F1000
G1 X90.846 Y47.885 Z0 F1000
G1 X90.458 Y47.879 Z0 F1000
G1 X90.303 Y47.871 Z0 F1000
G1 X90.18 Y47.859 Z0 F1000
G1 X90.095 Y47.845 Z0 F1000
G1 X90.053 Y47.827 Z0 F1000
G1 X90.042 Y47.762 Z0 F1000
G1 X90.082 Y47.653 Z0 F1000
G1 X90.167 Y47.515 Z0 F1000
G1 X90.289 Y47.361 Z0 F1000
G1 X90.399 Y47.233 Z0 F1000
G1 X90.529 Y47.074 Z0 F1000
G1 X90.676 Y46.889 Z0 F1000
G1 X90.838 Y46.682 Z0 F1000
G1 X91.195 Y46.214 Z0 F1000
G1 X91.577 Y45.703 Z0 F1000
G1 X91.959 Y45.178 Z0 F1000
G1 X92.321 Y44.672 Z0 F1000
G1 X92.487 Y44.435 Z0 F1000
G1 X92.638 Y44.215 Z0 F1000
G1 X92.773 Y44.014 Z0 F1000
G1 X92.889 Y43.837 Z0 F1000
G1 X93.285 Y43.189 Z0 F1000
G1 X93.67 Y42.5 Z0 F1000
G1 X94.042 Y41.777 Z0 F1000
G1 X94.398 Y41.025 Z0 F1000
G1 X94.734 Y40.252 Z0 F1000
G1 X95.049 Y39.464 Z0 F1000
G1 X95.338 Y38.667 Z0 F1000
G1 X95.599 Y37.869 Z0 F1000
G1 X95.741 Y37.373 Z0 F1000
G1 X95.879 Y36.816 Z0 F1000
G1 X96.01 Y36.231 Z0 F1000
G1 X96.126 Y35.648 Z0 F1000
G1 X96.223 Y35.096 Z0 F1000
G1 X96.294 Y34.607 Z0 F1000
G1 X96.318 Y34.396 Z0 F1000
G1 X96.334 Y34.21 Z0 F1000
G1 X96.341 Y34.057 Z0 F1000
G1 X96.337 Y33.938 Z0 F1000
G1 X96.322 Y33.837 Z0 F1000
G1 X96.294 Y33.796 Z0 F1000
G1 X96.248 Y33.825 Z0 F1000
G1 X96.176 Y33.935 Z0 F1000
G1 X96.129 Y34.024 Z0 F1000
G1 X96.074 Y34.138 Z0 F1000
G1 X96.009 Y34.278 Z0 F1000
G1 X95.848 Y34.64 Z0 F1000
G1 X95.516 Y35.413 Z0 F1000
G1 X94.829 Y36.977 Z0 F1000
G1 X94.136 Y38.443 Z0 F1000
G1 X93.427 Y39.827 Z0 F1000
G1 X92.693 Y41.145 Z0 F1000
G1 X91.926 Y42.414 Z0 F1000
G1 X91.114 Y43.648 Z0 F1000
G1 X90.25 Y44.865 Z0 F1000
G1 X89.324 Y46.08 Z0 F1000
G1 X88.493 Y47.136 Z0 F1000
G1 X88.44 Y47.155 Z0 F1000
G1 X88.346 Y47.14 Z0 F1000
G1 X88.215 Y47.096 Z0 F1000
G1 X88.055 Y47.025 Z0 F1000
G1 X87.67 Y46.822 Z0 F1000
G1 X87.242 Y46.563 Z0 F1000
G1 X86.82 Y46.282 Z0 F1000
G1 X86.457 Y46.01 Z0 F1000
G1 X86.313 Y45.887 Z0 F1000
G1 X86.202 Y45.778 Z0 F1000
G1 X86.131 Y45.688 Z0 F1000
G1 X86.106 Y45.62 Z0 F1000
G1 X86.113 Y45.547 Z0 F1000
G1 X86.133 Y45.45 Z0 F1000
G1 X86.166 Y45.331 Z0 F1000
G1 X86.21 Y45.19 Z0 F1000
G1 X86.333 Y44.851 Z0 F1000
G1 X86.496 Y44.445 Z0 F1000
G1 X86.694 Y43.985 Z0 F1000
G1 X86.922 Y43.483 Z0 F1000
G1 X87.176 Y42.95 Z0 F1000
G1 X87.45 Y42.398 Z0 F1000
G1 X88.028 Y41.32 Z0 F1000
G1 X88.659 Y40.265 Z0 F1000
G1 X89.35 Y39.222 Z0 F1000
G1 X90.109 Y38.182 Z0 F1000
G1 X90.946 Y37.132 Z0 F1000
G1 X91.867 Y36.064 Z0 F1000
G1 X92.362 Y35.52 Z0 F1000
G1 X92.881 Y34.966 Z0 F1000
G1 X93.425 Y34.403 Z0 F1000
G1 X93.996 Y33.828 Z0 F1000
G1 X94.297 Y33.519 Z0 F1000
G1 X94.535 Y33.256 Z0 F1000
G1 X94.622 Y33.15 Z0 F1000
G1 X94.684 Y33.067 Z0 F1000
G1 X94.719 Y33.01 Z0 F1000
G1 X94.722 Y32.981 Z0 F1000
G1 X94.688 Y32.976 Z0 F1000
G1 X94.621 Y32.994 Z0 F1000
G1 X94.524 Y33.032 Z0 F1000
G1 X94.401 Y33.089 Z0 F1000
G1 X94.092 Y33.251 Z0 F1000
G1 X93.717 Y33.465 Z0 F1000
G1 X92.879 Y33.987 Z0 F1000
G1 X92.097 Y34.53 Z0 F1000
G1 X91.88 Y34.698 Z0 F1000
G1 X91.644 Y34.891 Z0 F1000
G1 X91.392 Y35.104 Z0 F1000
G1 X91.13 Y35.333 Z0 F1000
G1 X90.595 Y35.818 Z0 F1000
G1 X90.076 Y36.31 Z0 F1000
G1 X89.834 Y36.547 Z0 F1000
G1 X89.611 Y36.771 Z0 F1000
G1 X89.412 Y36.979 Z0 F1000
G1 X89.24 Y37.166 Z0 F1000
G1 X89.101 Y37.327 Z0 F1000
G1 X88.999 Y37.456 Z0 F1000
G1 X88.939 Y37.551 Z0 F1000
G1 X88.927 Y37.605 Z0 F1000
G1 X88.939 Y37.658 Z0 F1000
G1 X88.931 Y37.698 Z0 F1000
G1 X88.905 Y37.721 Z0 F1000
G1 X88.863 Z0 F1000
G1 X88.829 Y37.73 Z0 F1000
G1 X88.776 Y37.763 Z0 F1000
G1 X88.708 Y37.817 Z0 F1000
G1 X88.626 Y37.892 Z0 F1000
G1 X88.435 Y38.09 Z0 F1000
G1 X88.222 Y38.337 Z0 F1000
G1 X87.766 Y38.923 Z0 F1000
G1 X87.324 Y39.548 Z0 F1000
G1 X86.899 Y40.203 Z0 F1000
G1 X86.498 Y40.88 Z0 F1000
G1 X86.122 Y41.573 Z0 F1000
G1 X85.778 Y42.272 Z0 F1000
G1 X85.469 Y42.972 Z0 F1000
G1 X85.201 Y43.663 Z0 F1000
G1 X84.858 Y44.611 Z0 F1000
G1 X84.624 Y44.283 Z0 F1000
G1 X84.51 Y44.106 Z0 F1000
G1 X84.374 Y43.869 Z0 F1000
G1 X84.231 Y43.602 Z0 F1000
G1 X84.1 Y43.335 Z0 F1000
G1 X83.942 Y42.962 Z0 F1000
G1 X83.854 Y42.605 Z0 F1000
G1 X83.831 Y42.389 Z0 F1000
G1 X83.817 Y42.125 Z0 F1000
G1 X83.811 Y41.794 Z0 F1000
G1 Y41.381 Z0 F1000
G1 Y40.995 Z0 F1000
G1 X83.819 Y40.67 Z0 F1000
G1 X83.833 Y40.394 Z0 F1000
G1 X83.856 Y40.154 Z0 F1000
G1 X83.934 Y39.731 Z0 F1000
G1 X84.063 Y39.298 Z0 F1000
G1 X84.329 Y38.601 Z0 F1000
G1 X84.649 Y37.925 Z0 F1000
G1 X85.026 Y37.265 Z0 F1000
G1 X85.466 Y36.615 Z0 F1000
G1 X85.972 Y35.969 Z0 F1000
G1 X86.549 Y35.32 Z0 F1000
G1 X87.202 Y34.663 Z0 F1000
G1 X87.934 Y33.991 Z0 F1000
G1 X88.321 Y33.66 Z0 F1000
G1 X88.693 Y33.374 Z0 F1000
G1 X88.908 Y33.222 Z0 F1000
G1 X89.162 Y33.051 Z0 F1000
G1 X89.468 Y32.849 Z0 F1000
G1 X90.286 Y32.32 Z0 F1000
G1 X90.819 Y31.969 Z0 F1000
G1 X91.027 Y31.829 Z0 F1000
G1 X91.072 Y31.797 Z0 F1000
G1 X91.206 Y31.706 Z0 F1000
G1 X91.421 Y31.583 Z0 F1000
G1 X91.708 Y31.432 Z0 F1000
G1 X92.058 Y31.257 Z0 F1000
G1 X92.459 Y31.063 Z0 F1000
G1 X92.902 Y30.854 Z0 F1000
G1 X93.377 Y30.635 Z0 F1000
G1 X93.875 Y30.411 Z0 F1000
G1 X94.899 Y29.961 Z0 F1000
G1 X95.893 Y29.542 Z0 F1000
G1 X96.355 Y29.354 Z0 F1000
G1 X96.78 Y29.186 Z0 F1000
G1 X97.158 Y29.044 Z0 F1000
G1 X97.479 Y28.931 Z0 F1000
G1 X97.775 Y28.834 Z0 F1000
G1 X98.128 Y28.723 Z0 F1000
G1 X98.266 Y28.683 Z0 F1000
G1 X98.294 Y28.677 Z0 F1000
G1 X98.328 Y28.706 Z0 F1000
G1 X98.361 Y28.795 Z0 F1000
G1 X98.395 Y28.941 Z0 F1000
G1 X98.426 Y29.139 Z0 F1000
G1 X98.458 Y29.385 Z0 F1000
;Cut @ 1500 mm/min, 80% power

M8
G0 Z3.5 F1000
G0 X76.255 Y38.8 Z3.5 
G1 Z0 F1000
;Layer Red
G1 X76.223 Y38.791 Z0 S800 F1000
G1 X76.155 Y38.783 Z0 F1000
G1 X76.053 Y38.774 Z0 F1000
G1 X75.919 Y38.767 Z0 F1000
G1 X75.564 Y38.752 Z0 F1000
G1 X75.105 Y38.739 Z0 F1000
G1 X74.557 Y38.728 Z0 F1000
G1 X73.934 Y38.72 Z0 F1000
G1 X73.253 Y38.715 Z0 F1000
G1 X72.036 Z0 F1000
G1 X71.176 Z0 F1000
G1 X70.472 Y38.722 Z0 F1000
G1 X69.911 Y38.733 Z0 F1000
G1 X69.681 Y38.74 Z0 F1000
G1 X69.482 Y38.748 Z0 F1000
G1 X69.312 Y38.758 Z0 F1000
G1 X69.171 Y38.769 Z0 F1000
G1 X69.056 Y38.781 Z0 F1000
G1 X68.898 Y38.81 Z0 F1000
G1 X68.828 Y38.844 Z0 F1000
G1 X68.8 Y38.901 Z0 F1000
G1 X68.762 Y39.01 Z0 F1000
G1 X68.717 Y39.166 Z0 F1000
G1 X68.666 Y39.362 Z0 F1000
G1 X68.552 Y39.849 Z0 F1000
G1 X68.433 Y40.42 Z0 F1000
G1 X68.307 Y41.051 Z0 F1000
G1 X68.11 Y42.015 Z0 F1000
G1 X67.867 Y43.161 Z0 F1000
G1 X67.788 Y43.558 Z0 F1000
G1 X67.723 Y43.914 Z0 F1000
G1 X67.679 Y44.182 Z0 F1000
G1 X67.656 Y44.365 Z0 F1000
G1 X67.632 Y44.499 Z0 F1000
G1 X67.583 Y44.597 Z0 F1000
G1 X67.484 Y44.67 Z0 F1000
G1 X67.312 Y44.73 Z0 F1000
G1 X67.041 Y44.788 Z0 F1000
G1 X66.862 Y44.82 Z0 F1000
G1 X65.863 Y44.987 Z0 F1000
G1 X65.667 Y45.016 Z0 F1000
G1 X65.514 Y45.032 Z0 F1000
G1 X65.397 Y45.035 Z0 F1000
G1 X65.242 Y45.003 Z0 F1000
G1 X65.138 Y44.916 Z0 F1000
G1 X65.092 Y44.858 Z0 F1000
G1 X65.021 Y44.759 Z0 F1000
G1 X64.81 Y44.457 Z0 F1000
G1 X64.527 Y44.04 Z0 F1000
G1 X64.193 Y43.542 Z0 F1000
G1 X63.456 Y42.426 Z0 F1000
G1 X62.56 Y41.041 Z0 F1000
G1 X62.378 Y40.774 Z0 F1000
G1 X62.305 Y40.672 Z0 F1000
G1 X62.247 Y40.594 Z0 F1000
G1 X62.205 Y40.545 Z0 F1000
G1 X62.184 Y40.527 Z0 F1000
G1 X62.173 Y40.555 Z0 F1000
G1 X62.163 Y40.635 Z0 F1000
G1 X62.153 Y40.76 Z0 F1000
G1 X62.145 Y40.927 Z0 F1000
G1 X62.133 Y41.36 Z0 F1000
G1 X62.124 Y42.301 Z0 F1000
G1 X62.116 Y42.64 Z0 F1000
G1 X62.101 Y42.921 Z0 F1000
G1 X62.075 Y43.163 Z0 F1000
G1 X61.984 Y43.598 Z0 F1000
G1 X61.825 Y44.084 Z0 F1000
G1 X61.526 Y44.918 Z0 F1000
G1 X63.925 Y48.504 Z0 F1000
G1 X64.649 Y49.577 Z0 F1000
G1 X65.088 Y50.22 Z0 F1000
G1 X65.314 Y50.55 Z0 F1000
G1 X65.479 Y50.784 Z0 F1000
G1 X65.573 Y50.912 Z0 F1000
G1 X65.59 Y50.932 Z0 F1000
G1 X65.673 Z0 F1000
G1 X65.844 Y50.907 Z0 F1000
G1 X66.079 Y50.856 Z0 F1000
G1 X66.352 Y50.785 Z0 F1000
G1 X66.907 Y50.649 Z0 F1000
G1 X67.517 Y50.531 Z0 F1000
G1 X68.175 Y50.431 Z0 F1000
G1 X68.872 Y50.349 Z0 F1000
G1 X70.353 Y50.24 Z0 F1000
G1 X71.897 Y50.203 Z0 F1000
G1 X73.441 Y50.238 Z0 F1000
G1 X74.92 Y50.346 Z0 F1000
G1 X75.616 Y50.427 Z0 F1000
G1 X76.271 Y50.526 Z0 F1000
G1 X76.879 Y50.644 Z0 F1000
G1 X77.432 Y50.779 Z0 F1000
G1 X77.748 Y50.866 Z0 F1000
G1 X77.993 Y50.927 Z0 F1000
G1 X78.177 Y50.965 Z0 F1000
G1 X78.312 Y50.977 Z0 F1000
G1 X78.408 Y50.965 Z0 F1000
G1 X78.477 Y50.929 Z0 F1000
G1 X78.53 Y50.868 Z0 F1000
G1 X78.624 Y50.705 Z0 F1000
G1 X78.716 Y50.561 Z0 F1000
G1 X79.013 Y50.112 Z0 F1000
G1 X79.426 Y49.499 Z0 F1000
G1 X79.912 Y48.791 Z0 F1000
G1 X81.545 Y46.42 Z0 F1000
G1 X81.695 Y46.185 Z0 F1000
G1 X81.806 Y45.98 Z0 F1000
G1 X81.866 Y45.828 Z0 F1000
G1 Y45.749 Z0 F1000
G1 X81.825 Y45.729 Z0 F1000
G1 X81.737 Y45.697 Z0 F1000
G1 X81.607 Y45.655 Z0 F1000
G1 X81.439 Y45.605 Z0 F1000
G1 X81.008 Y45.484 Z0 F1000
G1 X80.481 Y45.343 Z0 F1000
G1 X79.288 Y45.041 Z0 F1000
G1 X78.158 Y44.777 Z0 F1000
G1 X77.526 Y44.638 Z0 F1000
G1 X76.715 Y40.534 Z0 F1000
G1 X76.647 Y40.201 Z0 F1000
G1 X76.578 Y39.887 Z0 F1000
G1 X76.51 Y39.599 Z0 F1000
G1 X76.446 Y39.344 Z0 F1000
G1 X76.386 Y39.13 Z0 F1000
G1 X76.333 Y38.963 Z0 F1000
G1 X76.289 Y38.851 Z0 F1000
G1 X76.255 Y38.8 Z0 F1000
G0 Z3.5 F1000
G0 X90.79 Y50.792 Z3.5 
G1 Z0 F1000
G1 X89.471 Y53.386 Z0 F1000
G1 X89.057 Y54.194 Z0 F1000
G1 X88.719 Y54.844 Z0 F1000
G1 X88.499 Y55.257 Z0 F1000
G1 X88.401 Y55.433 Z0 F1000
G1 X88.381 Y55.507 Z0 F1000
G1 X88.392 Y55.585 Z0 F1000
G1 X88.443 Y55.677 Z0 F1000
G1 X88.542 Y55.795 Z0 F1000
G1 X88.696 Y55.95 Z0 F1000
G1 X88.914 Y56.152 Z0 F1000
G1 X89.203 Y56.413 Z0 F1000
G1 X90.418 Y57.547 Z0 F1000
G1 X91.538 Y58.682 Z0 F1000
G1 X92.567 Y59.823 Z0 F1000
G1 X93.508 Y60.975 Z0 F1000
G1 X94.366 Y62.142 Z0 F1000
G1 X95.142 Y63.329 Z0 F1000
G1 X95.842 Y64.541 Z0 F1000
G1 X96.47 Y65.783 Z0 F1000
G1 X96.72 Y66.348 Z0 F1000
G1 X96.982 Y66.995 Z0 F1000
G1 X97.247 Y67.699 Z0 F1000
G1 X97.507 Y68.437 Z0 F1000
G1 X97.752 Y69.184 Z0 F1000
G1 X97.976 Y69.914 Z0 F1000
G1 X98.169 Y70.605 Z0 F1000
G1 X98.323 Y71.23 Z0 F1000
G1 X98.604 Y72.678 Z0 F1000
G1 X98.806 Y74.172 Z0 F1000
G1 X98.93 Y75.693 Z0 F1000
G1 X98.975 Y77.225 Z0 F1000
G1 X98.942 Y78.747 Z0 F1000
G1 X98.83 Y80.244 Z0 F1000
G1 X98.744 Y80.976 Z0 F1000
G1 X98.639 Y81.695 Z0 F1000
G1 X98.514 Y82.399 Z0 F1000
G1 X98.369 Y83.084 Z0 F1000
G1 X98.263 Y83.521 Z0 F1000
G1 X98.131 Y84.021 Z0 F1000
G1 X97.981 Y84.556 Z0 F1000
G1 X97.822 Y85.1 Z0 F1000
G1 X97.662 Y85.625 Z0 F1000
G1 X97.508 Y86.105 Z0 F1000
G1 X97.436 Y86.32 Z0 F1000
G1 X97.368 Y86.513 Z0 F1000
G1 X97.307 Y86.682 Z0 F1000
G1 X97.252 Y86.822 Z0 F1000
G1 X96.921 Y87.623 Z0 F1000
G1 X96.86 Y87.763 Z0 F1000
G1 X96.78 Y87.939 Z0 F1000
G1 X96.682 Y88.145 Z0 F1000
G1 X96.571 Y88.376 Z0 F1000
G1 X96.316 Y88.891 Z0 F1000
G1 X96.038 Y89.44 Z0 F1000
G1 X95.759 Y89.979 Z0 F1000
G1 X95.502 Y90.465 Z0 F1000
G1 X95.388 Y90.675 Z0 F1000
G1 X95.288 Y90.855 Z0 F1000
G1 X95.205 Y90.999 Z0 F1000
G1 X95.141 Y91.103 Z0 F1000
G1 X95.054 Y91.234 Z0 F1000
G1 X94.824 Y91.574 Z0 F1000
G1 X94.386 Y92.209 Z0 F1000
G1 X94.071 Y92.661 Z0 F1000
G1 X93.768 Y93.09 Z0 F1000
G1 X93.398 Y93.608 Z0 F1000
G1 X93.245 Y93.814 Z0 F1000
G1 X93.207 Y93.86 Z0 F1000
G1 X93.128 Y93.952 Z0 F1000
G1 X92.99 Y94.114 Z0 F1000
G1 X92.62 Y94.56 Z0 F1000
G1 X92.139 Y95.125 Z0 F1000
G1 X91.659 Y95.665 Z0 F1000
G1 X91.467 Y95.877 Z0 F1000
G1 X91.299 Y96.07 Z0 F1000
G1 X91.174 Y96.221 Z0 F1000
G1 X91.109 Y96.31 Z0 F1000
G1 X91.106 Y96.383 Z0 F1000
G1 X91.139 Y96.525 Z0 F1000
G1 X91.21 Y96.737 Z0 F1000
G1 X91.319 Y97.022 Z0 F1000
G1 X91.468 Y97.382 Z0 F1000
G1 X91.657 Y97.819 Z0 F1000
G1 X91.887 Y98.336 Z0 F1000
G1 X92.247 Y99.13 Z0 F1000
G1 X92.493 Y99.699 Z0 F1000
G1 X92.806 Y100.434 Z0 F1000
G1 X92.974 Y100.816 Z0 F1000
G1 X93.125 Y101.147 Z0 F1000
G1 X93.257 Y101.424 Z0 F1000
G1 X93.37 Y101.643 Z0 F1000
G1 X93.463 Y101.802 Z0 F1000
G1 X93.533 Y101.9 Z0 F1000
G1 X93.579 Y101.933 Z0 F1000
G1 X93.61 Y101.921 Z0 F1000
G1 X93.663 Y101.887 Z0 F1000
G1 X93.736 Y101.832 Z0 F1000
G1 X93.826 Y101.759 Z0 F1000
G1 X94.043 Y101.571 Z0 F1000
G1 X94.292 Y101.341 Z0 F1000
G1 X95.364 Y100.325 Z0 F1000
G1 X96.858 Y101.02 Z0 F1000
G1 X97.714 Y101.414 Z0 F1000
G1 X97.987 Y101.536 Z0 F1000
G1 X99.192 Y102.082 Z0 F1000
G1 X99.44 Y102.189 Z0 F1000
G1 X99.666 Y102.282 Z0 F1000
G1 X99.872 Y102.361 Z0 F1000
G1 X100.228 Y102.476 Z0 F1000
G1 X100.516 Y102.536 Z0 F1000
G1 X100.744 Y102.542 Z0 F1000
G1 X100.923 Y102.495 Z0 F1000
G1 X101.061 Y102.397 Z0 F1000
G1 X101.167 Y102.248 Z0 F1000
G1 X101.21 Y102.179 Z0 F1000
G1 X101.294 Y102.052 Z0 F1000
G1 X101.572 Y101.651 Z0 F1000
G1 X101.97 Y101.086 Z0 F1000
G1 X102.456 Y100.402 Z0 F1000
G1 X103.572 Y98.848 Z0 F1000
G1 X104.674 Y97.333 Z0 F1000
G1 X104.928 Y96.971 Z0 F1000
G1 X105.137 Y96.645 Z0 F1000
G1 X105.217 Y96.506 Z0 F1000
G1 X105.277 Y96.39 Z0 F1000
G1 X105.315 Y96.3 Z0 F1000
G1 X105.329 Y96.242 Z0 F1000
G1 X105.315 Y96.187 Z0 F1000
G1 X105.276 Y96.108 Z0 F1000
G1 X105.214 Y96.009 Z0 F1000
G1 X105.133 Y95.892 Z0 F1000
G1 X104.92 Y95.625 Z0 F1000
G1 X104.661 Y95.335 Z0 F1000
G1 X103.535 Y94.143 Z0 F1000
G1 X102.707 Y93.264 Z0 F1000
G1 X102.391 Y92.924 Z0 F1000
G1 X102.134 Y92.643 Z0 F1000
G1 X101.929 Y92.412 Z0 F1000
G1 X101.772 Y92.226 Z0 F1000
G1 X101.657 Y92.079 Z0 F1000
G1 X101.578 Y91.962 Z0 F1000
G1 X101.53 Y91.87 Z0 F1000
G1 X101.507 Y91.796 Z0 F1000
G1 X101.517 Y91.674 Z0 F1000
G1 X101.595 Y91.456 Z0 F1000
G1 X101.639 Y91.339 Z0 F1000
G1 X101.758 Y91.035 Z0 F1000
G1 X101.906 Y90.672 Z0 F1000
G1 X102.439 Y89.401 Z0 F1000
G1 X102.927 Y88.188 Z0 F1000
G1 X103.06 Y87.887 Z0 F1000
G1 X103.119 Y87.762 Z0 F1000
G1 X103.171 Y87.659 Z0 F1000
G1 X103.214 Y87.584 Z0 F1000
G1 X103.245 Y87.538 Z0 F1000
G1 X103.312 Y87.502 Z0 F1000
G1 X103.447 Y87.47 Z0 F1000
G1 X103.658 Y87.442 Z0 F1000
G1 X103.953 Y87.416 Z0 F1000
G1 X104.34 Y87.394 Z0 F1000
G1 X104.827 Y87.373 Z0 F1000
G1 X105.42 Y87.353 Z0 F1000
G1 X106.939 Y87.313 Z0 F1000
G1 X107.58 Y87.293 Z0 F1000
G1 X108.074 Y87.272 Z0 F1000
G1 X108.272 Y87.26 Z0 F1000
G1 X108.441 Y87.248 Z0 F1000
G1 X108.703 Y87.218 Z0 F1000
G1 X108.882 Y87.183 Z0 F1000
G1 X108.997 Y87.139 Z0 F1000
G1 X109.07 Y87.085 Z0 F1000
G1 X109.113 Y87.027 Z0 F1000
G1 X109.158 Y86.938 Z0 F1000
G1 X109.205 Y86.821 Z0 F1000
G1 X109.252 Y86.677 Z0 F1000
G1 X109.345 Y86.324 Z0 F1000
G1 X109.432 Y85.901 Z0 F1000
G1 X109.578 Y85.097 Z0 F1000
G1 X109.753 Y84.152 Z0 F1000
G1 X109.984 Y82.935 Z0 F1000
G1 X110.294 Y81.317 Z0 F1000
G1 X110.396 Y80.741 Z0 F1000
G1 X110.47 Y80.244 Z0 F1000
G1 X110.495 Y80.041 Z0 F1000
G1 X110.509 Y79.878 Z0 F1000
G1 X110.513 Y79.761 Z0 F1000
G1 X110.505 Y79.697 Z0 F1000
G1 X110.479 Y79.631 Z0 F1000
G1 X110.443 Y79.576 Z0 F1000
G1 X110.376 Y79.523 Z0 F1000
G1 X110.259 Y79.462 Z0 F1000
G1 X110.068 Y79.384 Z0 F1000
G1 X109.785 Y79.279 Z0 F1000
G1 X108.132 Y78.699 Z0 F1000
G1 X107.441 Y78.451 Z0 F1000
G1 X106.797 Y78.216 Z0 F1000
G1 X106.221 Y78.001 Z0 F1000
G1 X105.732 Y77.813 Z0 F1000
G1 X105.348 Y77.66 Z0 F1000
G1 X105.203 Y77.599 Z0 F1000
G1 X105.091 Y77.55 Z0 F1000
G1 X105.015 Y77.512 Z0 F1000
G1 X104.977 Y77.488 Z0 F1000
G1 X104.958 Y77.431 Z0 F1000
G1 X104.937 Y77.301 Z0 F1000
G1 X104.913 Y77.105 Z0 F1000
G1 X104.888 Y76.852 Z0 F1000
G1 X104.863 Y76.55 Z0 F1000
G1 X104.838 Y76.209 Z0 F1000
G1 X104.814 Y75.835 Z0 F1000
G1 X104.749 Y74.645 Z0 F1000
G1 X104.689 Y73.64 Z0 F1000
G1 X104.659 Y73.206 Z0 F1000
G1 X104.648 Y73.088 Z0 F1000
G1 X104.636 Y72.867 Z0 F1000
G1 X104.689 Y72.719 Z0 F1000
G1 X104.752 Y72.655 Z0 F1000
G1 X104.847 Y72.59 Z0 F1000
G1 X104.98 Y72.515 Z0 F1000
G1 X105.154 Y72.425 Z0 F1000
G1 X106.526 Y71.702 Z0 F1000
G1 X107.923 Y70.93 Z0 F1000
G1 X108.239 Y70.75 Z0 F1000
G1 X108.531 Y70.581 Z0 F1000
G1 X108.795 Y70.426 Z0 F1000
G1 X109.026 Y70.287 Z0 F1000
G1 X109.219 Y70.168 Z0 F1000
G1 X109.369 Y70.071 Z0 F1000
G1 X109.47 Y69.999 Z0 F1000
G1 X109.519 Y69.955 Z0 F1000
G1 X109.564 Y69.863 Z0 F1000
G1 X109.589 Y69.744 Z0 F1000
G1 X109.593 Y69.596 Z0 F1000
G1 X109.575 Y69.413 Z0 F1000
G1 X109.536 Y69.194 Z0 F1000
G1 X109.475 Y68.934 Z0 F1000
G1 X109.391 Y68.63 Z0 F1000
G1 X109.283 Y68.279 Z0 F1000
G1 X109.106 Y67.714 Z0 F1000
G1 X108.273 Y65.038 Z0 F1000
G1 X108.116 Y64.538 Z0 F1000
G1 X107.97 Y64.088 Z0 F1000
G1 X107.835 Y63.693 Z0 F1000
G1 X107.715 Y63.356 Z0 F1000
G1 X107.608 Y63.081 Z0 F1000
G1 X107.518 Y62.87 Z0 F1000
G1 X107.446 Y62.728 Z0 F1000
G1 X107.392 Y62.659 Z0 F1000
G1 X107.32 Y62.61 Z0 F1000
G1 X107.231 Y62.578 Z0 F1000
G1 X107.168 Y62.568 Z0 F1000
G1 X107.085 Y62.564 Z0 F1000
G1 X106.977 Z0 F1000
G1 X106.84 Y62.571 Z0 F1000
G1 X106.668 Y62.583 Z0 F1000
G1 X106.457 Y62.601 Z0 F1000
G1 X106.201 Y62.626 Z0 F1000
G1 X105.535 Y62.696 Z0 F1000
G1 X102.819 Y62.996 Z0 F1000
G1 X102.516 Y63.025 Z0 F1000
G1 X102.261 Y63.044 Z0 F1000
G1 X102.049 Y63.05 Z0 F1000
G1 X101.874 Y63.043 Z0 F1000
G1 X101.731 Y63.022 Z0 F1000
G1 X101.517 Y62.931 Z0 F1000
G1 X101.363 Y62.767 Z0 F1000
G1 X101.224 Y62.519 Z0 F1000
G1 X101.054 Y62.179 Z0 F1000
G1 X100.553 Y61.255 Z0 F1000
G1 X99.977 Y60.272 Z0 F1000
G1 X99.733 Y59.865 Z0 F1000
G1 X99.533 Y59.515 Z0 F1000
G1 X99.456 Y59.372 Z0 F1000
G1 X99.398 Y59.258 Z0 F1000
G1 X99.361 Y59.177 Z0 F1000
G1 X99.348 Y59.133 Z0 F1000
G1 X99.356 Y59.11 Z0 F1000
G1 X99.38 Y59.063 Z0 F1000
G1 X99.47 Y58.906 Z0 F1000
G1 X99.614 Y58.671 Z0 F1000
G1 X99.803 Y58.37 Z0 F1000
G1 X100.033 Y58.011 Z0 F1000
G1 X100.295 Y57.606 Z0 F1000
G1 X100.586 Y57.163 Z0 F1000
G1 X101.218 Y56.206 Z0 F1000
G1 X101.512 Y55.749 Z0 F1000
G1 X101.776 Y55.33 Z0 F1000
G1 X102.003 Y54.959 Z0 F1000
G1 X102.189 Y54.643 Z0 F1000
G1 X102.328 Y54.392 Z0 F1000
G1 X102.415 Y54.214 Z0 F1000
G1 X102.445 Y54.117 Z0 F1000
G1 X102.425 Y54.035 Z0 F1000
G1 X102.364 Y53.92 Z0 F1000
G1 X102.259 Y53.768 Z0 F1000
G1 X102.11 Y53.579 Z0 F1000
G1 X101.915 Y53.35 Z0 F1000
G1 X101.671 Y53.079 Z0 F1000
G1 X101.378 Y52.764 Z0 F1000
G1 X101.033 Y52.403 Z0 F1000
G1 X100.537 Y51.889 Z0 F1000
G1 X99.668 Y50.993 Z0 F1000
G1 X98.953 Y50.262 Z0 F1000
G1 X98.379 Y49.684 Z0 F1000
G1 X98.141 Y49.449 Z0 F1000
G1 X97.933 Y49.247 Z0 F1000
G1 X97.755 Y49.078 Z0 F1000
G1 X97.604 Y48.938 Z0 F1000
G1 X97.478 Y48.828 Z0 F1000
G1 X97.377 Y48.744 Z0 F1000
G1 X97.298 Y48.687 Z0 F1000
G1 X97.24 Y48.654 Z0 F1000
G1 X97.201 Y48.643 Z0 F1000
G1 X97.173 Y48.651 Z0 F1000
G1 X97.12 Y48.676 Z0 F1000
G1 X97.045 Y48.716 Z0 F1000
G1 X96.949 Y48.77 Z0 F1000
G1 X96.699 Y48.919 Z0 F1000
G1 X96.379 Y49.116 Z0 F1000
G1 X96.002 Y49.355 Z0 F1000
G1 X95.577 Y49.629 Z0 F1000
G1 X95.115 Y49.931 Z0 F1000
G1 X94.626 Y50.255 Z0 F1000
G1 X92.21 Y51.867 Z0 F1000
G1 X90.79 Y50.792 Z0 F1000
G0 Z3.5 F1000
G0 X55.66 Y55.551 Z3.5 
G1 Z0 F1000
G1 X55.632 Y55.486 Z0 F1000
G1 X55.589 Y55.394 Z0 F1000
G1 X55.532 Y55.279 Z0 F1000
G1 X55.383 Y54.992 Z0 F1000
G1 X55.091 Y54.457 Z0 F1000
G1 X54.807 Y53.929 Z0 F1000
G1 X54.296 Y52.966 Z0 F1000
G1 X53.519 Y51.483 Z0 F1000
G1 X53.3 Y51.069 Z0 F1000
G1 X53.17 Y50.829 Z0 F1000
G1 X53.147 Y50.79 Z0 F1000
G1 X53.128 Z0 F1000
G1 X53.089 Y50.812 Z0 F1000
G1 X53.031 Y50.849 Z0 F1000
G1 X52.956 Y50.901 Z0 F1000
G1 X52.77 Y51.043 Z0 F1000
G1 X52.548 Y51.225 Z0 F1000
G1 X52.319 Y51.416 Z0 F1000
G1 X52.111 Y51.585 Z0 F1000
G1 X51.947 Y51.713 Z0 F1000
G1 X51.85 Y51.781 Z0 F1000
G1 X51.797 Y51.775 Z0 F1000
G1 X51.69 Y51.731 Z0 F1000
G1 X51.535 Y51.652 Z0 F1000
G1 X51.336 Y51.542 Z0 F1000
G1 X51.101 Y51.405 Z0 F1000
G1 X50.834 Y51.245 Z0 F1000
G1 X50.542 Y51.065 Z0 F1000
G1 X50.231 Y50.869 Z0 F1000
G1 X49.572 Y50.444 Z0 F1000
G1 X48.903 Y49.998 Z0 F1000
G1 X48.272 Y49.561 Z0 F1000
G1 X47.462 Y48.973 Z0 F1000
G1 X47.242 Y48.837 Z0 F1000
G1 X47.054 Y48.753 Z0 F1000
G1 X46.885 Y48.722 Z0 F1000
G1 X46.725 Y48.742 Z0 F1000
G1 X46.563 Y48.813 Z0 F1000
G1 X46.387 Y48.936 Z0 F1000
G1 X46.188 Y49.109 Z0 F1000
G1 X46.128 Y49.165 Z0 F1000
G1 X45.949 Y49.34 Z0 F1000
G1 X45.555 Y49.735 Z0 F1000
G1 X45.224 Y50.072 Z0 F1000
G1 X44.444 Y50.871 Z0 F1000
G1 X43.579 Y51.766 Z0 F1000
G1 X42.968 Y52.405 Z0 F1000
G1 X42.485 Y52.917 Z0 F1000
G1 X42.287 Y53.131 Z0 F1000
G1 X42.116 Y53.318 Z0 F1000
G1 X41.971 Y53.482 Z0 F1000
G1 X41.849 Y53.624 Z0 F1000
G1 X41.669 Y53.851 Z0 F1000
G1 X41.565 Y54.015 Z0 F1000
G1 X41.521 Y54.132 Z0 F1000
G1 X41.526 Y54.217 Z0 F1000
G1 X41.556 Y54.287 Z0 F1000
G1 X41.613 Y54.396 Z0 F1000
G1 X41.693 Y54.539 Z0 F1000
G1 X41.794 Y54.711 Z0 F1000
G1 X42.043 Y55.116 Z0 F1000
G1 X42.334 Y55.567 Z0 F1000
G1 X42.619 Y56.003 Z0 F1000
G1 X42.942 Y56.505 Z0 F1000
G1 X43.053 Y56.685 Z0 F1000
G1 X43.084 Y56.745 Z0 F1000
G1 X43.204 Y56.934 Z0 F1000
G1 X43.556 Y57.464 Z0 F1000
G1 X43.866 Y57.923 Z0 F1000
G1 X44.664 Y59.098 Z0 F1000
G1 X44.213 Y59.787 Z0 F1000
G1 X44.108 Y59.952 Z0 F1000
G1 X43.983 Y60.156 Z0 F1000
G1 X43.842 Y60.392 Z0 F1000
G1 X43.69 Y60.652 Z0 F1000
G1 X43.373 Y61.211 Z0 F1000
G1 X42.883 Y62.104 Z0 F1000
G1 X42.725 Y62.383 Z0 F1000
G1 X42.591 Y62.607 Z0 F1000
G1 X42.476 Y62.781 Z0 F1000
G1 X42.379 Y62.909 Z0 F1000
G1 X42.296 Y62.994 Z0 F1000
G1 X42.224 Y63.043 Z0 F1000
G1 X42.16 Y63.058 Z0 F1000
G1 X42.064 Y63.053 Z0 F1000
G1 X41.595 Y63.014 Z0 F1000
G1 X40.835 Y62.942 Z0 F1000
G1 X38.783 Y62.737 Z0 F1000
G1 X38.268 Y62.69 Z0 F1000
G1 X37.81 Y62.652 Z0 F1000
G1 X37.415 Y62.624 Z0 F1000
G1 X37.088 Y62.606 Z0 F1000
G1 X36.836 Y62.599 Z0 F1000
G1 X36.666 Y62.603 Z0 F1000
G1 X36.582 Y62.619 Z0 F1000
G1 X36.514 Y62.692 Z0 F1000
G1 X36.428 Y62.848 Z0 F1000
G1 X36.378 Y62.96 Z0 F1000
G1 X36.322 Y63.096 Z0 F1000
G1 X36.261 Y63.256 Z0 F1000
G1 X36.193 Y63.443 Z0 F1000
G1 X36.119 Y63.657 Z0 F1000
G1 X36.038 Y63.899 Z0 F1000
G1 X35.949 Y64.17 Z0 F1000
G1 X35.75 Y64.803 Z0 F1000
G1 X35.516 Y65.565 Z0 F1000
G1 X35.234 Y66.499 Z0 F1000
G1 X35.009 Y67.23 Z0 F1000
G1 X34.886 Y67.617 Z0 F1000
G1 X34.714 Y68.154 Z0 F1000
G1 X34.603 Y68.519 Z0 F1000
G1 X34.51 Y68.851 Z0 F1000
G1 X34.435 Y69.143 Z0 F1000
G1 X34.38 Y69.392 Z0 F1000
G1 X34.346 Y69.593 Z0 F1000
G1 X34.334 Y69.741 Z0 F1000
G1 X34.345 Y69.83 Z0 F1000
G1 X34.38 Y69.887 Z0 F1000
G1 X34.446 Y69.958 Z0 F1000
G1 X34.543 Y70.042 Z0 F1000
G1 X34.67 Y70.138 Z0 F1000
G1 X34.826 Y70.248 Z0 F1000
G1 X35.012 Y70.369 Z0 F1000
G1 X35.226 Y70.502 Z0 F1000
G1 X35.468 Y70.647 Z0 F1000
G1 X35.738 Y70.804 Z0 F1000
G1 X36.035 Y70.971 Z0 F1000
G1 X36.359 Y71.15 Z0 F1000
G1 X36.708 Y71.338 Z0 F1000
G1 X37.083 Y71.537 Z0 F1000
G1 X37.484 Y71.746 Z0 F1000
G1 X37.909 Y71.965 Z0 F1000
G1 X39.361 Y72.698 Z0 F1000
G1 X39.23 Y74.914 Z0 F1000
G1 X39.185 Y75.639 Z0 F1000
G1 X39.145 Y76.232 Z0 F1000
G1 X39.11 Y76.7 Z0 F1000
G1 X39.08 Y77.054 Z0 F1000
G1 X39.054 Y77.301 Z0 F1000
G1 X39.03 Y77.45 Z0 F1000
G1 X39.009 Y77.51 Z0 F1000
G1 X38.963 Y77.536 Z0 F1000
G1 X38.86 Y77.582 Z0 F1000
G1 X38.706 Y77.645 Z0 F1000
G1 X38.507 Y77.723 Z0 F1000
G1 X38 Y77.917 Z0 F1000
G1 X37.388 Y78.146 Z0 F1000
G1 X36.72 Y78.39 Z0 F1000
G1 X36.046 Y78.632 Z0 F1000
G1 X35.415 Y78.853 Z0 F1000
G1 X34.876 Y79.036 Z0 F1000
G1 X34.417 Y79.198 Z0 F1000
G1 X34.02 Y79.358 Z0 F1000
G1 X33.858 Y79.431 Z0 F1000
G1 X33.728 Y79.496 Z0 F1000
G1 X33.634 Y79.552 Z0 F1000
G1 X33.582 Y79.596 Z0 F1000
G1 X33.531 Y79.683 Z0 F1000
G1 X33.499 Y79.802 Z0 F1000
G1 X33.487 Y79.968 Z0 F1000
G1 X33.497 Y80.196 Z0 F1000
G1 X33.53 Y80.501 Z0 F1000
G1 X33.587 Y80.895 Z0 F1000
G1 X33.669 Y81.396 Z0 F1000
G1 X34.315 Y85.06 Z0 F1000
G1 X34.396 Y85.508 Z0 F1000
G1 X34.472 Y85.9 Z0 F1000
G1 X34.542 Y86.235 Z0 F1000
G1 X34.608 Y86.515 Z0 F1000
G1 X34.669 Y86.74 Z0 F1000
G1 X34.725 Y86.913 Z0 F1000
G1 X34.777 Y87.033 Z0 F1000
G1 X34.825 Y87.103 Z0 F1000
G1 X34.896 Y87.153 Z0 F1000
G1 X35.008 Y87.195 Z0 F1000
G1 X35.176 Y87.229 Z0 F1000
G1 X35.416 Y87.257 Z0 F1000
G1 X35.567 Y87.27 Z0 F1000
G1 X35.743 Y87.281 Z0 F1000
G1 X35.944 Y87.292 Z0 F1000
G1 X36.432 Y87.312 Z0 F1000
G1 X37.047 Y87.332 Z0 F1000
G1 X37.899 Y87.355 Z0 F1000
G1 X39.596 Y87.396 Z0 F1000
G1 X40.118 Y87.406 Z0 F1000
G1 X40.404 Y87.41 Z0 F1000
G1 X40.518 Y87.418 Z0 F1000
G1 X40.606 Y87.442 Z0 F1000
G1 X40.675 Y87.486 Z0 F1000
G1 X40.735 Y87.56 Z0 F1000
G1 X40.793 Y87.669 Z0 F1000
G1 X40.856 Y87.821 Z0 F1000
G1 X41.032 Y88.287 Z0 F1000
G1 X41.136 Y88.551 Z0 F1000
G1 X41.23 Y88.785 Z0 F1000
G1 X41.772 Y90.053 Z0 F1000
G1 X42.55 Y91.895 Z0 F1000
G1 X41.233 Y93.306 Z0 F1000
G1 X40.138 Y94.476 Z0 F1000
G1 X39.675 Y94.967 Z0 F1000
G1 X39.352 Y95.307 Z0 F1000
G1 X39.128 Y95.555 Z0 F1000
G1 X38.935 Y95.794 Z0 F1000
G1 X38.795 Y95.997 Z0 F1000
G1 X38.727 Y96.136 Z0 F1000
G1 X38.707 Y96.239 Z0 F1000
G1 X38.717 Y96.352 Z0 F1000
G1 X38.741 Y96.425 Z0 F1000
G1 X38.782 Y96.515 Z0 F1000
G1 X38.842 Y96.627 Z0 F1000
G1 X38.926 Y96.765 Z0 F1000
G1 X39.035 Y96.936 Z0 F1000
G1 X39.172 Y97.143 Z0 F1000
G1 X39.342 Y97.392 Z0 F1000
G1 X39.546 Y97.687 Z0 F1000
G1 X40.071 Y98.436 Z0 F1000
G1 X42.049 Y101.244 Z0 F1000
G1 X42.493 Y101.88 Z0 F1000
G1 X42.722 Y102.211 Z0 F1000
G1 X42.849 Y102.381 Z0 F1000
G1 X42.981 Y102.5 Z0 F1000
G1 X43.132 Y102.566 Z0 F1000
G1 X43.319 Y102.58 Z0 F1000
G1 X43.556 Y102.54 Z0 F1000
G1 X43.859 Y102.446 Z0 F1000
G1 X44.04 Y102.378 Z0 F1000
G1 X44.243 Y102.295 Z0 F1000
G1 X44.47 Y102.199 Z0 F1000
G1 X44.723 Y102.088 Z0 F1000
G1 X45.292 Y101.835 Z0 F1000
G1 X46.261 Y101.398 Z0 F1000
G1 X47.009 Y101.056 Z0 F1000
G1 X48.625 Y100.313 Z0 F1000
G1 X49.023 Y100.658 Z0 F1000
G1 X49.445 Y101.038 Z0 F1000
G1 X50.091 Y101.649 Z0 F1000
G1 X50.261 Y101.797 Z0 F1000
G1 X50.391 Y101.896 Z0 F1000
G1 X50.462 Y101.933 Z0 F1000
G1 X50.504 Y101.91 Z0 F1000
G1 X50.556 Y101.847 Z0 F1000
G1 X50.609 Y101.754 Z0 F1000
G1 X50.659 Y101.64 Z0 F1000
G1 X50.721 Y101.483 Z0 F1000
G1 X50.81 Y101.275 Z0 F1000
G1 X50.914 Y101.042 Z0 F1000
G1 X51.274 Y100.263 Z0 F1000
G1 X51.927 Y98.839 Z0 F1000
G1 X52.145 Y98.356 Z0 F1000
G1 X52.525 Y97.501 Z0 F1000
G1 X52.699 Y97.113 Z0 F1000
G1 X52.767 Y96.958 Z0 F1000
G1 X52.821 Y96.823 Z0 F1000
G1 X52.884 Y96.599 Z0 F1000
G1 X52.88 Y96.408 Z0 F1000
G1 X52.802 Y96.218 Z0 F1000
G1 X52.645 Y95.998 Z0 F1000
G1 X52.534 Y95.867 Z0 F1000
G1 X52.4 Y95.716 Z0 F1000
G1 X52.062 Y95.34 Z0 F1000
G1 X51.316 Y94.477 Z0 F1000
G1 X50.615 Y93.611 Z0 F1000
G1 X49.957 Y92.738 Z0 F1000
G1 X49.344 Y91.858 Z0 F1000
G1 X48.773 Y90.969 Z0 F1000
G1 X48.244 Y90.069 Z0 F1000
G1 X47.756 Y89.157 Z0 F1000
G1 X47.308 Y88.23 Z0 F1000
G1 X46.9 Y87.288 Z0 F1000
G1 X46.531 Y86.329 Z0 F1000
G1 X46.2 Y85.351 Z0 F1000
G1 X45.906 Y84.352 Z0 F1000
G1 X45.649 Y83.331 Z0 F1000
G1 X45.428 Y82.286 Z0 F1000
G1 X45.241 Y81.215 Z0 F1000
G1 X45.09 Y80.118 Z0 F1000
G1 X45.057 Y79.791 Z0 F1000
G1 X45.031 Y79.416 Z0 F1000
G1 X45.012 Y79 Z0 F1000
G1 X45 Y78.548 Z0 F1000
G1 X44.996 Y77.568 Z0 F1000
G1 X45.015 Y76.53 Z0 F1000
G1 X45.058 Y75.488 Z0 F1000
G1 X45.122 Y74.497 Z0 F1000
G1 X45.161 Y74.038 Z0 F1000
G1 X45.205 Y73.611 Z0 F1000
G1 X45.253 Y73.225 Z0 F1000
G1 X45.306 Y72.885 Z0 F1000
G1 X45.463 Y72.051 Z0 F1000
G1 X45.639 Y71.233 Z0 F1000
G1 X45.836 Y70.432 Z0 F1000
G1 X46.053 Y69.647 Z0 F1000
G1 X46.29 Y68.875 Z0 F1000
G1 X46.55 Y68.117 Z0 F1000
G1 X46.831 Y67.372 Z0 F1000
G1 X47.134 Y66.637 Z0 F1000
G1 X47.808 Y65.199 Z0 F1000
G1 X48.576 Y63.794 Z0 F1000
G1 X48.997 Y63.102 Z0 F1000
G1 X49.442 Y62.416 Z0 F1000
G1 X49.912 Y61.733 Z0 F1000
G1 X50.408 Y61.055 Z0 F1000
G1 X50.6 Y60.808 Z0 F1000
G1 X50.831 Y60.527 Z0 F1000
G1 X51.096 Y60.215 Z0 F1000
G1 X51.39 Y59.88 Z0 F1000
G1 X52.042 Y59.161 Z0 F1000
G1 X52.742 Y58.414 Z0 F1000
G1 X53.448 Y57.686 Z0 F1000
G1 X54.115 Y57.023 Z0 F1000
G1 X54.421 Y56.729 Z0 F1000
G1 X54.701 Y56.469 Z0 F1000
G1 X54.95 Y56.247 Z0 F1000
G1 X55.359 Y55.906 Z0 F1000
G1 X55.52 Y55.761 Z0 F1000
G1 X55.629 Y55.648 Z0 F1000
G1 X55.669 Y55.585 Z0 F1000
G1 X55.66 Y55.551 Z0 F1000
G0 Z3.5 F1000
G0 X60.493 Y101.506 Z3.5 
G1 Z0 F1000
G1 X60.463 Y101.526 Z0 F1000
G1 X60.409 Y101.584 Z0 F1000
G1 X60.333 Y101.675 Z0 F1000
G1 X60.239 Y101.796 Z0 F1000
G1 X60.009 Y102.11 Z0 F1000
G1 X59.743 Y102.494 Z0 F1000
G1 X59.468 Y102.899 Z0 F1000
G1 X59.102 Y103.43 Z0 F1000
G1 X58.932 Y103.675 Z0 F1000
G1 X58.811 Y103.845 Z0 F1000
G1 X58.527 Y104.255 Z0 F1000
G1 X58.09 Y104.89 Z0 F1000
G1 X56.639 Y107.015 Z0 F1000
G1 X55.667 Y108.427 Z0 F1000
G1 X55.111 Y109.23 Z0 F1000
G1 X54.699 Y109.822 Z0 F1000
G1 X54.522 Y110.08 Z0 F1000
G1 X54.363 Y110.315 Z0 F1000
G1 X54.226 Y110.522 Z0 F1000
G1 X54.115 Y110.694 Z0 F1000
G1 X54.034 Y110.826 Z0 F1000
G1 X53.985 Y110.912 Z0 F1000
G1 X53.974 Y110.947 Z0 F1000
G1 X54.061 Y111.006 Z0 F1000
G1 X54.219 Y111.096 Z0 F1000
G1 X54.437 Y111.213 Z0 F1000
G1 X54.706 Y111.351 Z0 F1000
G1 X55.354 Y111.673 Z0 F1000
G1 X56.082 Y112.023 Z0 F1000
G1 X56.807 Y112.363 Z0 F1000
G1 X57.448 Y112.654 Z0 F1000
G1 X57.711 Y112.769 Z0 F1000
G1 X57.924 Y112.857 Z0 F1000
G1 X58.074 Y112.913 Z0 F1000
G1 X58.152 Y112.933 Z0 F1000
G1 X58.312 Y112.902 Z0 F1000
G1 X58.48 Y112.795 Z0 F1000
G1 X58.575 Y112.706 Z0 F1000
G1 X58.682 Y112.59 Z0 F1000
G1 X58.803 Y112.444 Z0 F1000
G1 X59.43 Y111.637 Z0 F1000
G1 X59.892 Y111.064 Z0 F1000
G1 X60.109 Y110.798 Z0 F1000
G1 X60.373 Y110.467 Z0 F1000
G1 X60.65 Y110.115 Z0 F1000
G1 X61.14 Y109.481 Z0 F1000
G1 X61.441 Y109.102 Z0 F1000
G1 X61.576 Y108.939 Z0 F1000
G1 X61.758 Y108.733 Z0 F1000
G1 X61.909 Y108.534 Z0 F1000
G1 X62.001 Y108.421 Z0 F1000
G1 X62.09 Y108.37 Z0 F1000
G1 X62.203 Y108.375 Z0 F1000
G1 X62.365 Y108.429 Z0 F1000
G1 X62.493 Y108.475 Z0 F1000
G1 X62.655 Y108.528 Z0 F1000
G1 X62.846 Y108.585 Z0 F1000
G1 X63.062 Y108.646 Z0 F1000
G1 X63.55 Y108.775 Z0 F1000
G1 X64.079 Y108.905 Z0 F1000
G1 X64.614 Y109.028 Z0 F1000
G1 X65.116 Y109.134 Z0 F1000
G1 X65.343 Y109.178 Z0 F1000
G1 X65.548 Y109.214 Z0 F1000
G1 X65.726 Y109.242 Z0 F1000
G1 X66.205 Y109.304 Z0 F1000
G1 X66.438 Y109.36 Z0 F1000
G1 X66.589 Y109.431 Z0 F1000
G1 X66.674 Y109.525 Z0 F1000
G1 X66.706 Y109.618 Z0 F1000
G1 X66.756 Y109.808 Z0 F1000
G1 X66.822 Y110.085 Z0 F1000
G1 X66.901 Y110.436 Z0 F1000
G1 X66.991 Y110.85 Z0 F1000
G1 X67.09 Y111.316 Z0 F1000
G1 X67.194 Y111.821 Z0 F1000
G1 X67.417 Y112.925 Z0 F1000
G1 X67.526 Y113.442 Z0 F1000
G1 X67.628 Y113.9 Z0 F1000
G1 X67.72 Y114.292 Z0 F1000
G1 X67.802 Y114.613 Z0 F1000
G1 X67.871 Y114.855 Z0 F1000
G1 X67.927 Y115.014 Z0 F1000
G1 X67.968 Y115.082 Z0 F1000
G1 X68.002 Y115.091 Z0 F1000
G1 X68.075 Y115.1 Z0 F1000
G1 X68.185 Y115.109 Z0 F1000
G1 X68.329 Y115.117 Z0 F1000
G1 X68.711 Y115.133 Z0 F1000
G1 X69.205 Y115.146 Z0 F1000
G1 X69.796 Y115.158 Z0 F1000
G1 X70.466 Y115.166 Z0 F1000
G1 X71.2 Y115.172 Z0 F1000
G1 X71.98 Z0 F1000
G1 X75.849 Y115.176 Z0 F1000
G1 X76.005 Y114.935 Z0 F1000
G1 X76.04 Y114.868 Z0 F1000
G1 X76.08 Y114.766 Z0 F1000
G1 X76.123 Y114.637 Z0 F1000
G1 X76.168 Y114.483 Z0 F1000
G1 X76.259 Y114.126 Z0 F1000
G1 X76.341 Y113.734 Z0 F1000
G1 X76.5 Y112.905 Z0 F1000
G1 X76.715 Y111.805 Z0 F1000
G1 X77.202 Y109.361 Z0 F1000
G1 X78.156 Y109.228 Z0 F1000
G1 X78.376 Y109.194 Z0 F1000
G1 X78.636 Y109.147 Z0 F1000
G1 X78.926 Y109.091 Z0 F1000
G1 X79.237 Y109.027 Z0 F1000
G1 X79.882 Y108.883 Z0 F1000
G1 X80.494 Y108.732 Z0 F1000
G1 X81.878 Y108.368 Z0 F1000
G1 X82.236 Y108.826 Z0 F1000
G1 X83.009 Y109.801 Z0 F1000
G1 X83.672 Y110.644 Z0 F1000
G1 X84.29 Y111.445 Z0 F1000
G1 X84.625 Y111.882 Z0 F1000
G1 X84.896 Y112.226 Z0 F1000
G1 X85.112 Y112.487 Z0 F1000
G1 X85.285 Y112.676 Z0 F1000
G1 X85.426 Y112.805 Z0 F1000
G1 X85.545 Y112.883 Z0 F1000
G1 X85.652 Y112.922 Z0 F1000
G1 X85.759 Y112.933 Z0 F1000
G1 X85.857 Y112.911 Z0 F1000
G1 X86.028 Y112.85 Z0 F1000
G1 X86.261 Y112.755 Z0 F1000
G1 X86.545 Y112.631 Z0 F1000
G1 X87.221 Y112.318 Z0 F1000
G1 X87.971 Y111.954 Z0 F1000
G1 X88.346 Y111.767 Z0 F1000
G1 X88.706 Y111.583 Z0 F1000
G1 X89.041 Y111.409 Z0 F1000
G1 X89.339 Y111.249 Z0 F1000
G1 X89.59 Y111.108 Z0 F1000
G1 X89.783 Y110.993 Z0 F1000
G1 X89.907 Y110.909 Z0 F1000
G1 X89.95 Y110.86 Z0 F1000
G1 X89.907 Y110.74 Z0 F1000
G1 X89.804 Y110.592 Z0 F1000
G1 X89.756 Y110.532 Z0 F1000
G1 X89.562 Y110.268 Z0 F1000
G1 X89.089 Y109.607 Z0 F1000
G1 X88.703 Y109.061 Z0 F1000
G1 X88.302 Y108.489 Z0 F1000
G1 X87.747 Y107.691 Z0 F1000
G1 X87.459 Y107.271 Z0 F1000
G1 X87.207 Y106.896 Z0 F1000
G1 X87.019 Y106.621 Z0 F1000
G1 X86.218 Y105.469 Z0 F1000
G1 X85.642 Y104.629 Z0 F1000
G1 X84.893 Y103.528 Z0 F1000
G1 X83.976 Y102.174 Z0 F1000
G1 X83.793 Y101.914 Z0 F1000
G1 X83.626 Y101.702 Z0 F1000
G1 X83.555 Y101.62 Z0 F1000
G1 X83.495 Y101.559 Z0 F1000
G1 X83.449 Y101.52 Z0 F1000
G1 X83.418 Y101.506 Z0 F1000
G1 X83.381 Y101.513 Z0 F1000
G1 X83.317 Y101.532 Z0 F1000
G1 X83.23 Y101.563 Z0 F1000
G1 X83.122 Y101.603 Z0 F1000
G1 X82.86 Y101.708 Z0 F1000
G1 X82.559 Y101.836 Z0 F1000
G1 X81.777 Y102.153 Z0 F1000
G1 X80.897 Y102.461 Z0 F1000
G1 X79.949 Y102.755 Z0 F1000
G1 X78.96 Y103.026 Z0 F1000
G1 X77.959 Y103.268 Z0 F1000
G1 X76.974 Y103.472 Z0 F1000
G1 X76.034 Y103.633 Z0 F1000
G1 X75.167 Y103.741 Z0 F1000
G1 X74.482 Y103.794 Z0 F1000
G1 X73.7 Y103.829 Z0 F1000
G1 X72.852 Y103.848 Z0 F1000
G1 X71.971 Z0 F1000
G1 X71.087 Y103.835 Z0 F1000
G1 X70.232 Y103.804 Z0 F1000
G1 X69.437 Y103.756 Z0 F1000
G1 X68.735 Y103.693 Z0 F1000
G1 X67.74 Y103.565 Z0 F1000
G1 X66.73 Y103.397 Z0 F1000
G1 X65.72 Y103.194 Z0 F1000
G1 X64.724 Y102.959 Z0 F1000
G1 X63.758 Y102.696 Z0 F1000
G1 X62.838 Y102.41 Z0 F1000
G1 X61.978 Y102.103 Z0 F1000
G1 X61.193 Y101.78 Z0 F1000
G1 X60.947 Y101.674 Z0 F1000
G1 X60.733 Y101.587 Z0 F1000
G1 X60.574 Y101.528 Z0 F1000
G1 X60.493 Y101.506 Z0 F1000
M9

G90
G1 Z10 F800
