;LightBurn 1.6.04
;Custom GCode device profile, absolute coords
;Bounds: X9.04 Y33.42 to X56.96 Y88.44
G00 G17 G40 G21 G54
G90
M3
G1 Z10 F1000
;Scan @ 1500 mm/min, 90% power

M8
G0 Z3.5 F1000
G0 X23.719 Y44.344 Z3.5 
G1 Z0 F1000
;Layer C1
G91
G1 X1.75 Z0 S0 F1600
G1 X0.352 Z0 S900 F1600
G1 X14.383 Z0 S0 F1600
G1 X0.266 Z0 S900 F1600
G1 X1.75 Z0 S0 F1600
G1 X1.093 Y0.9 Z0 F1600
G1 X-1.75 Z0 F1600
G1 X-1.936 Z0 S900 F1600
G1 X-13.229 Z0 S0 F1600
G1 X-1.968 Z0 S900 F1600
G1 X-1.75 Z0 S0 F1600
G1 X-1.795 Y0.9 Z0 F1600
G1 X1.75 Z0 F1600
G1 X4.35 Z0 S900 F1600
G1 X12.044 Z0 S0 F1600
G1 X4.335 Z0 S900 F1600
G1 X1.75 Z0 S0 F1600
G1 X0.19 Y0.9 Z0 F1600
G1 X-1.75 Z0 F1600
G1 X-5.122 Z0 S900 F1600
G1 X-10.856 Z0 S0 F1600
G1 X-5.12 Z0 S900 F1600
G1 X-1.75 Z0 S0 F1600
G1 X0.504 Y0.9 Z0 F1600
G1 X1.75 Z0 F1600
G1 X5.213 Z0 S900 F1600
G1 X9.651 Z0 S0 F1600
G1 X5.219 Z0 S900 F1600
G1 X1.75 Z0 S0 F1600
G1 X-0.505 Y0.9 Z0 F1600
G1 X-1.75 Z0 F1600
G1 X-5.333 Z0 S900 F1600
G1 X-8.409 Z0 S0 F1600
G1 X-5.345 Z0 S900 F1600
G1 X-1.75 Z0 S0 F1600
G1 X0.488 Y0.9 Z0 F1600
G1 X1.75 Z0 F1600
G1 X5.491 Z0 S900 F1600
G1 X7.133 Z0 S0 F1600
G1 X5.489 Z0 S900 F1600
G1 X1.75 Z0 S0 F1600
G1 X-0.461 Y0.9 Z0 F1600
G1 X-1.75 Z0 F1600
G1 X-5.503 Z0 S900 F1600
G1 X-6.249 Z0 S0 F1600
G1 X-5.428 Z0 S900 F1600
G1 X-1.75 Z0 S0 F1600
G1 X0.435 Y0.9 Z0 F1600
G1 X1.75 Z0 F1600
G1 X3.562 Z0 S900 F1600
G1 X2.069 Z0 S0 F1600
G1 X0.638 Z0 S900 F1600
G1 X3.795 Z0 S0 F1600
G1 X0.593 Z0 S900 F1600
G1 X2.023 Z0 S0 F1600
G1 X3.621 Z0 S900 F1600
G1 X1.75 Z0 S0 F1600
G1 X-0.423 Y0.9 Z0 F1600
G1 X-1.75 Z0 F1600
G1 X-1.72 Z0 S900 F1600
G1 X-2.011 Z0 S0 F1600
G1 X-3.031 Z0 S900 F1600
G1 X-1.985 Z0 S0 F1600
G1 X-3.003 Z0 S900 F1600
G1 X-2.049 Z0 S0 F1600
G1 X-1.65 Z0 S900 F1600
G1 X-1.75 Z0 S0 F1600
G1 X2.211 Y0.9 Z0 F1600
G1 X1.75 Z0 F1600
G1 X5.288 Z0 S900 F1600
G1 X1.28 Z0 S0 F1600
G1 X4.423 Z0 S900 F1600
G1 X1.75 Z0 S0 F1600
G1 X1.417 Y0.9 Z0 F1600
G1 X-1.75 Z0 F1600
G1 X-5.182 Z0 S900 F1600
G1 X-1.219 Z0 S0 F1600
G1 X-7.432 Z0 S900 F1600
G1 X-1.75 Z0 S0 F1600
G1 X0.225 Y0.9 Z0 F1600
G1 X1.75 Z0 F1600
G1 X7.847 Z0 S900 F1600
G1 X1.191 Z0 S0 F1600
G1 X4.408 Z0 S900 F1600
G1 X1.75 Z0 S0 F1600
G1 X-0.303 Y0.9 Z0 F1600
G1 X-1.75 Z0 F1600
G1 X-3.532 Z0 S900 F1600
G1 X-1.191 Z0 S0 F1600
G1 X-8.131 Z0 S900 F1600
G1 X-1.75 Z0 S0 F1600
G1 X0.322 Y0.9 Z0 F1600
G1 X1.75 Z0 F1600
G1 X8.339 Z0 S900 F1600
G1 X1.157 Z0 S0 F1600
G1 X2.709 Z0 S900 F1600
G1 X1.75 Z0 S0 F1600
G1 X-0.355 Y0.9 Z0 F1600
G1 X-1.75 Z0 F1600
G1 X-1.879 Z0 S900 F1600
G1 X-1.139 Z0 S0 F1600
G1 X-8.473 Z0 S900 F1600
G1 X-1.75 Z0 S0 F1600
G1 X0.414 Y0.9 Z0 F1600
G1 X1.75 Z0 F1600
G1 X8.523 Z0 S900 F1600
G1 X1.141 Z0 S0 F1600
G1 X1.046 Z0 S900 F1600
G1 X1.75 Z0 S0 F1600
G1 X-0.366 Y0.9 Z0 F1600
G1 X-1.75 Z0 F1600
G1 X-0.215 Z0 S900 F1600
G1 X-1.161 Z0 S0 F1600
G1 X-8.497 Z0 S900 F1600
G1 X-1.75 Z0 S0 F1600
G1 X0.517 Y0.9 Z0 F1600
G1 X1.75 Z0 F1600
G1 X8.41 Z0 S900 F1600
G1 X1.75 Z0 S0 F1600
G1 X0.419 Y0.9 Z0 F1600
G1 X-1.75 Z0 F1600
G1 X-8.266 Z0 S900 F1600
G1 X-1.75 Z0 S0 F1600
G1 X-1.092 Y0.9 Z0 F1600
G1 X1.75 Z0 F1600
G1 X0.494 Z0 S900 F1600
G1 X1.191 Z0 S0 F1600
G1 X8.083 Z0 S900 F1600
G1 X1.75 Z0 S0 F1600
G1 X0.401 Y0.9 Z0 F1600
G1 X-1.75 Z0 F1600
G1 X-7.868 Z0 S900 F1600
G1 X-1.24 Z0 S0 F1600
G1 X-1.476 Z0 S900 F1600
G1 X-1.75 Z0 S0 F1600
G1 X-0.404 Y0.9 Z0 F1600
G1 X1.75 Z0 F1600
G1 X2.49 Z0 S900 F1600
G1 X1.261 Z0 S0 F1600
G1 X7.636 Z0 S900 F1600
G1 X1.75 Z0 S0 F1600
G1 X0.399 Y0.9 Z0 F1600
G1 X-1.75 Z0 F1600
G1 X-7.404 Z0 S900 F1600
G1 X-1.266 Z0 S0 F1600
G1 X-3.515 Z0 S900 F1600
G1 X-1.75 Z0 S0 F1600
G1 X-0.394 Y0.9 Z0 F1600
G1 X1.75 Z0 F1600
G1 X4.542 Z0 S900 F1600
G1 X1.264 Z0 S0 F1600
G1 X7.173 Z0 S900 F1600
G1 X1.75 Z0 S0 F1600
G1 X0.399 Y0.9 Z0 F1600
G1 X-1.75 Z0 F1600
G1 X-6.94 Z0 S900 F1600
G1 X-1.264 Z0 S0 F1600
G1 X-5.567 Z0 S900 F1600
G1 X-1.75 Z0 S0 F1600
G1 X-0.4 Y0.9 Z0 F1600
G1 X1.75 Z0 F1600
G1 X6.542 Z0 S900 F1600
G1 X1.327 Z0 S0 F1600
G1 X6.697 Z0 S900 F1600
G1 X1.75 Z0 S0 F1600
G1 X0.395 Y0.9 Z0 F1600
G1 X-1.75 Z0 F1600
G1 X-6.453 Z0 S900 F1600
G1 X-2.51 Z0 S0 F1600
G1 X-6.395 Z0 S900 F1600
G1 X-1.75 Z0 S0 F1600
G1 X-0.396 Y0.9 Z0 F1600
G1 X1.75 Z0 F1600
G1 X6.139 Z0 S900 F1600
G1 X3.809 Z0 S0 F1600
G1 X6.201 Z0 S900 F1600
G1 X1.75 Z0 S0 F1600
G1 X0.394 Y0.9 Z0 F1600
G1 X-1.75 Z0 F1600
G1 X-5.938 Z0 S900 F1600
G1 X-5.106 Z0 S0 F1600
G1 X-5.896 Z0 S900 F1600
G1 X-1.75 Z0 S0 F1600
G1 X-0.399 Y0.9 Z0 F1600
G1 X1.75 Z0 F1600
G1 X5.656 Z0 S900 F1600
G1 X6.39 Z0 S0 F1600
G1 X5.688 Z0 S900 F1600
G1 X1.75 Z0 S0 F1600
G1 X0.394 Y0.9 Z0 F1600
G1 X-1.75 Z0 F1600
G1 X-5.436 Z0 S900 F1600
G1 X-7.678 Z0 S0 F1600
G1 X-5.412 Z0 S900 F1600
G1 X-1.75 Z0 S0 F1600
G1 X-0.397 Y0.9 Z0 F1600
G1 X1.75 Z0 F1600
G1 X5.168 Z0 S900 F1600
G1 X8.965 Z0 S0 F1600
G1 X5.184 Z0 S900 F1600
G1 X1.75 Z0 S0 F1600
G1 X0.394 Y0.9 Z0 F1600
G1 X-1.75 Z0 F1600
G1 X-4.933 Z0 S900 F1600
G1 X-10.252 Z0 S0 F1600
G1 X-4.921 Z0 S900 F1600
G1 X-1.75 Z0 S0 F1600
G1 X-0.393 Y0.9 Z0 F1600
G1 X1.75 Z0 F1600
G1 X4.675 Z0 S900 F1600
G1 X11.535 Z0 S0 F1600
G1 X4.683 Z0 S900 F1600
G1 X1.75 Z0 S0 F1600
G1 X0.394 Y0.9 Z0 F1600
G1 X-1.75 Z0 F1600
G1 X-4.432 Z0 S900 F1600
G1 X-12.815 Z0 S0 F1600
G1 X-4.438 Z0 S900 F1600
G1 X-1.75 Z0 S0 F1600
G1 X-0.399 Y0.9 Z0 F1600
G1 X1.75 Z0 F1600
G1 X4.201 Z0 S900 F1600
G1 X14.095 Z0 S0 F1600
G1 X4.183 Z0 S900 F1600
G1 X1.75 Z0 S0 F1600
G1 X0.394 Y0.9 Z0 F1600
G1 X-1.75 Z0 F1600
G1 X-3.934 Z0 S900 F1600
G1 X-15.375 Z0 S0 F1600
G1 X-3.958 Z0 S900 F1600
G1 X-1.75 Z0 S0 F1600
G1 X-0.392 Y0.9 Z0 F1600
G1 X1.75 Z0 F1600
G1 X3.713 Z0 S900 F1600
G1 X16.654 Z0 S0 F1600
G1 X3.687 Z0 S900 F1600
G1 X1.75 Z0 S0 F1600
G1 X0.396 Y0.9 Z0 F1600
G1 X-1.75 Z0 F1600
G1 X-3.448 Z0 S900 F1600
G1 X-17.925 Z0 S0 F1600
G1 X-3.472 Z0 S900 F1600
G1 X-1.75 Z0 S0 F1600
G1 X-0.387 Y0.9 Z0 F1600
G1 X1.75 Z0 F1600
G1 X3.229 Z0 S900 F1600
G1 X19.186 Z0 S0 F1600
G1 X3.213 Z0 S900 F1600
G1 X1.75 Z0 S0 F1600
G1 X0.391 Y0.9 Z0 F1600
G1 X-1.75 Z0 F1600
G1 X-2.97 Z0 S900 F1600
G1 X-20.445 Z0 S0 F1600
G1 X-2.992 Z0 S900 F1600
G1 X-1.75 Z0 S0 F1600
G1 X-0.383 Y0.9 Z0 F1600
G1 X1.75 Z0 F1600
G1 X2.746 Z0 S900 F1600
G1 X21.704 Z0 S0 F1600
G1 X2.732 Z0 S900 F1600
G1 X1.75 Z0 S0 F1600
G1 X0.385 Y0.9 Z0 F1600
G1 X-1.75 Z0 F1600
G1 X-2.492 Z0 S900 F1600
G1 X-22.962 Z0 S0 F1600
G1 X-2.501 Z0 S900 F1600
G1 X-1.75 Z0 S0 F1600
G1 X-0.386 Y0.9 Z0 F1600
G1 X1.75 Z0 F1600
G1 X2.257 Z0 S900 F1600
G1 X24.217 Z0 S0 F1600
G1 X2.252 Z0 S900 F1600
G1 X1.75 Z0 S0 F1600
G1 X0.385 Y0.9 Z0 F1600
G1 X-1.75 Z0 F1600
G1 X-2.011 Z0 S900 F1600
G1 X-25.469 Z0 S0 F1600
G1 X-2.015 Z0 S900 F1600
G1 X-1.75 Z0 S0 F1600
G1 X-0.384 Y0.9 Z0 F1600
G1 X1.75 Z0 F1600
G1 X1.775 Z0 S900 F1600
G1 X26.716 Z0 S0 F1600
G1 X1.772 Z0 S900 F1600
G1 X1.75 Z0 S0 F1600
G1 X0.377 Y0.9 Z0 F1600
G1 X-1.75 Z0 F1600
G1 X-1.518 Z0 S900 F1600
G1 X-27.973 Z0 S0 F1600
G1 X-1.53 Z0 S900 F1600
G1 X-1.75 Z0 S0 F1600
G1 X-0.381 Y0.9 Z0 F1600
G1 X1.75 Z0 F1600
G1 X1.278 Z0 S900 F1600
G1 X29.222 Z0 S0 F1600
G1 X1.264 Z0 S900 F1600
G1 X1.75 Z0 S0 F1600
G1 X0.045 Y0.9 Z0 F1600
G1 X-1.75 Z0 F1600
G1 X-0.67 Z0 S900 F1600
G1 X-30.585 Z0 S0 F1600
G1 X-0.644 Z0 S900 F1600
G1 X-1.75 Z0 S0 F1600
G90
;Offset @ 1500 mm/min, 90% power

M8
G0 Z3.5 F1000
G0 X17.457 Y39.338 Z3.5 F1500
G1 Z0 F1000
;Layer C2
G1 X17.693 Y40.085 Z0 S900 F1600
G1 X17.96 Y40.809 Z0 F1600
G1 X18.259 Y41.511 Z0 F1600
G1 X18.591 Y42.196 Z0 F1600
G1 X18.958 Y42.866 Z0 F1600
G1 X19.361 Y43.523 Z0 F1600
G1 X19.611 Y43.892 Z0 F1600
G1 X19.513 Y43.802 Z0 F1600
G1 X19.266 Y43.55 Z0 F1600
G1 X19.008 Y43.266 Z0 F1600
G1 X18.953 Y43.197 Z0 F1600
G1 X18.867 Y43.075 Z0 F1600
G1 X18.747 Y42.891 Z0 F1600
G1 X18.618 Y42.683 Z0 F1600
G1 X18.366 Y42.249 Z0 F1600
G1 X18.149 Y41.837 Z0 F1600
G1 X17.898 Y41.244 Z0 F1600
G1 X17.683 Y40.55 Z0 F1600
G1 X17.593 Y40.175 Z0 F1600
G1 X17.507 Y39.748 Z0 F1600
G1 X17.425 Y39.265 Z0 F1600
G1 X17.411 Y39.167 Z0 F1600
G1 X17.457 Y39.338 Z0 F1600
G0 Z3.5 F1000
G0 X21.669 Y41.965 Z3.5 
G1 Z0 F1000
G1 X21.338 Y41.46 Z0 F1600
G1 X21.059 Y41.011 Z0 F1600
G1 X20.836 Y40.629 Z0 F1600
G1 X20.413 Y39.839 Z0 F1600
G1 X19.975 Y38.964 Z0 F1600
G1 X19.663 Y38.299 Z0 F1600
G1 X19.672 Y38.31 Z0 F1600
G1 X19.844 Y38.5 Z0 F1600
G1 X20.003 Y38.683 Z0 F1600
G1 X20.198 Y38.913 Z0 F1600
G1 X20.425 Y39.184 Z0 F1600
G1 X21.072 Y39.999 Z0 F1600
G1 X21.634 Y40.795 Z0 F1600
G1 X22.137 Y41.604 Z0 F1600
G1 X22.59 Y42.443 Z0 F1600
G1 X22.844 Y42.984 Z0 F1600
G1 X23.077 Y43.536 Z0 F1600
G1 X23.144 Y43.709 Z0 F1600
G1 X22.995 Y43.809 Z0 F1600
G1 X22.99 Y43.804 Z0 F1600
G1 X22.681 Y43.403 Z0 F1600
G1 X22.355 Y42.958 Z0 F1600
G1 X22.002 Y42.457 Z0 F1600
G1 X21.669 Y41.965 Z0 F1600
G0 Z3.5 F1000
G0 X21.298 Y36.571 Z3.5 
G1 Z0 F1000
G1 X21.441 Y36.662 Z0 F1600
G1 X21.848 Y36.944 Z0 F1600
G1 X22.227 Y37.23 Z0 F1600
G1 X22.587 Y37.525 Z0 F1600
G1 X22.92 Y37.823 Z0 F1600
G1 X23.226 Y38.125 Z0 F1600
G1 X23.508 Y38.431 Z0 F1600
G1 X23.754 Y38.727 Z0 F1600
G1 X23.978 Y39.029 Z0 F1600
G1 X24.173 Y39.329 Z0 F1600
G1 X24.345 Y39.63 Z0 F1600
G1 X24.482 Y39.916 Z0 F1600
G1 X24.598 Y40.208 Z0 F1600
G1 X24.685 Y40.491 Z0 F1600
G1 X24.697 Y40.546 Z0 F1600
G1 X24.321 Y39.908 Z0 F1600
G1 X23.735 Y39.063 Z0 F1600
G1 X23.301 Y38.52 Z0 F1600
G1 X22.848 Y38.008 Z0 F1600
G1 X22.375 Y37.52 Z0 F1600
G1 X21.881 Y37.059 Z0 F1600
G1 X21.371 Y36.627 Z0 F1600
G1 X21.298 Y36.571 Z0 F1600
G0 Z3.5 F1000
G0 X18.647 Y35.173 Z3.5 
G1 Z0 F1000
G1 X17.947 Y35.581 Z0 F1600
G1 X17.291 Y35.535 Z0 F1600
G1 Y35.417 Z0 F1600
G1 X17.3 Y35.218 Z0 F1600
G1 X17.309 Y35.056 Z0 F1600
G1 X17.317 Y34.961 Z0 F1600
G1 X17.358 Y34.635 Z0 F1600
G1 X17.393 Y34.647 Z0 F1600
G1 X18.028 Y34.903 Z0 F1600
G1 X18.643 Y35.17 Z0 F1600
G1 X18.647 Y35.173 Z0 F1600
G0 Z3.5 F1000
G0 X23.537 Y37.168 Z3.5 
G1 Z0 F1000
G1 X23.873 Y37.498 Z0 F1600
G1 X24.182 Y37.833 Z0 F1600
G1 X24.463 Y38.172 Z0 F1600
G1 X24.717 Y38.515 Z0 F1600
G1 X24.943 Y38.861 Z0 F1600
G1 X25.141 Y39.209 Z0 F1600
G1 X25.309 Y39.559 Z0 F1600
G1 X25.447 Y39.909 Z0 F1600
G1 X25.556 Y40.26 Z0 F1600
G1 X25.634 Y40.611 Z0 F1600
G1 X25.681 Y40.96 Z0 F1600
G1 X25.697 Y41.308 Z0 F1600
G1 X25.688 Y41.581 Z0 F1600
G1 X25.664 Y41.827 Z0 F1600
G1 X25.62 Y42.055 Z0 F1600
G1 X25.556 Y42.274 Z0 F1600
G1 X25.424 Y42.605 Z0 F1600
G1 X25.253 Y42.97 Z0 F1600
G1 X25.168 Y43.133 Z0 F1600
G1 X25.094 Y43.266 Z0 F1600
G1 X25.036 Y43.355 Z0 F1600
G1 X25 Y43.388 Z0 F1600
G1 X24.979 Y43.352 Z0 F1600
G1 X24.94 Y43.256 Z0 F1600
G1 X24.889 Y43.113 Z0 F1600
G1 X24.831 Y42.939 Z0 F1600
G1 X24.692 Y42.559 Z0 F1600
G1 X24.517 Y42.146 Z0 F1600
G1 X24.311 Y41.713 Z0 F1600
G1 X24.079 Y41.27 Z0 F1600
G1 X23.563 Y40.393 Z0 F1600
G1 X23.013 Y39.601 Z0 F1600
G1 X22.612 Y39.1 Z0 F1600
G1 X22.188 Y38.62 Z0 F1600
G1 X21.744 Y38.163 Z0 F1600
G1 X21.283 Y37.731 Z0 F1600
G1 X20.807 Y37.329 Z0 F1600
G1 X20.319 Y36.956 Z0 F1600
G1 X19.822 Y36.616 Z0 F1600
G1 X19.318 Y36.312 Z0 F1600
G1 X19.106 Y36.194 Z0 F1600
G1 X18.955 Y36.119 Z0 F1600
G1 X18.866 Y36.087 Z0 F1600
G1 X18.839 Y36.103 Z0 F1600
G1 X18.875 Y36.168 Z0 F1600
G1 X18.974 Y36.286 Z0 F1600
G1 X19.135 Y36.459 Z0 F1600
G1 X19.944 Y37.288 Z0 F1600
G1 X20.158 Y37.511 Z0 F1600
G1 X20.342 Y37.708 Z0 F1600
G1 X20.514 Y37.899 Z0 F1600
G1 X20.69 Y38.102 Z0 F1600
G1 X20.887 Y38.334 Z0 F1600
G1 X21.124 Y38.616 Z0 F1600
G1 X21.791 Y39.457 Z0 F1600
G1 X22.385 Y40.298 Z0 F1600
G1 X22.917 Y41.155 Z0 F1600
G1 X23.394 Y42.038 Z0 F1600
G1 X23.665 Y42.614 Z0 F1600
G1 X23.915 Y43.205 Z0 F1600
G1 X24.017 Y43.471 Z0 F1600
G1 X24.098 Y43.698 Z0 F1600
G1 X24.15 Y43.873 Z0 F1600
G1 X24.168 Y43.979 Z0 F1600
G1 X24.135 Y44.048 Z0 F1600
G1 X24.044 Y44.147 Z0 F1600
G1 X23.907 Y44.266 Z0 F1600
G1 X23.737 Y44.396 Z0 F1600
G1 X23.351 Y44.653 Z0 F1600
G1 X22.985 Y44.844 Z0 F1600
G1 X22.857 Y44.891 Z0 F1600
G1 X22.769 Z0 F1600
G1 X22.685 Y44.835 Z0 F1600
G1 X22.57 Y44.709 Z0 F1600
G1 X22.29 Y44.369 Z0 F1600
G1 X21.968 Y43.952 Z0 F1600
G1 X21.622 Y43.48 Z0 F1600
G1 X21.266 Y42.975 Z0 F1600
G1 X20.916 Y42.458 Z0 F1600
G1 X20.585 Y41.953 Z0 F1600
G1 X20.291 Y41.48 Z0 F1600
G1 X20.047 Y41.062 Z0 F1600
G1 X19.612 Y40.25 Z0 F1600
G1 X19.17 Y39.366 Z0 F1600
G1 X18.743 Y38.458 Z0 F1600
G1 X18.355 Y37.574 Z0 F1600
G1 X18.178 Y37.159 Z0 F1600
G1 X17.968 Y36.678 Z0 F1600
G1 X17.889 Y36.506 Z0 F1600
G1 X17.873 Y36.478 Z0 F1600
G1 X17.858 Z0 F1600
G1 X17.85 Y36.504 Z0 F1600
G1 X17.847 Y36.558 Z0 F1600
G1 Y36.635 Z0 F1600
G1 X17.866 Y36.847 Z0 F1600
G1 X17.899 Y37.119 Z0 F1600
G1 X17.998 Y37.75 Z0 F1600
G1 X18.122 Y38.348 Z0 F1600
G1 X18.321 Y39.085 Z0 F1600
G1 X18.545 Y39.793 Z0 F1600
G1 X18.797 Y40.477 Z0 F1600
G1 X19.079 Y41.138 Z0 F1600
G1 X19.391 Y41.783 Z0 F1600
G1 X19.737 Y42.414 Z0 F1600
G1 X20.118 Y43.036 Z0 F1600
G1 X20.536 Y43.653 Z0 F1600
G1 X20.902 Y44.155 Z0 F1600
G1 X21.273 Y44.639 Z0 F1600
G1 X21.437 Y44.844 Z0 F1600
G1 X21.573 Y45.009 Z0 F1600
G1 X21.673 Y45.122 Z0 F1600
G1 X21.727 Y45.17 Z0 F1600
G1 X21.762 Y45.214 Z0 F1600
G1 X21.777 Y45.287 Z0 F1600
G1 X21.732 Y45.326 Z0 F1600
G1 X21.611 Y45.355 Z0 F1600
G1 X21.43 Y45.375 Z0 F1600
G1 X21.208 Y45.383 Z0 F1600
G1 X20.708 Y45.369 Z0 F1600
G1 X20.254 Y45.31 Z0 F1600
G1 X20.043 Y45.25 Z0 F1600
G1 X19.828 Y45.158 Z0 F1600
G1 X19.606 Y45.033 Z0 F1600
G1 X19.375 Y44.874 Z0 F1600
G1 X19.135 Y44.677 Z0 F1600
G1 X18.881 Y44.443 Z0 F1600
G1 X18.611 Y44.168 Z0 F1600
G1 X18.325 Y43.853 Z0 F1600
G1 X18.232 Y43.735 Z0 F1600
G1 X18.118 Y43.574 Z0 F1600
G1 X17.989 Y43.377 Z0 F1600
G1 X17.853 Y43.157 Z0 F1600
G1 X17.576 Y42.681 Z0 F1600
G1 X17.337 Y42.225 Z0 F1600
G1 X17.05 Y41.551 Z0 F1600
G1 X16.816 Y40.795 Z0 F1600
G1 X16.715 Y40.374 Z0 F1600
G1 X16.623 Y39.916 Z0 F1600
G1 X16.538 Y39.416 Z0 F1600
G1 X16.458 Y38.87 Z0 F1600
G1 X16.445 Y38.736 Z0 F1600
G1 X16.432 Y38.556 Z0 F1600
G1 X16.421 Y38.334 Z0 F1600
G1 X16.411 Y38.078 Z0 F1600
G1 X16.396 Y37.493 Z0 F1600
G1 X16.387 Y36.854 Z0 F1600
G1 X16.384 Y36.217 Z0 F1600
G1 X16.389 Y35.637 Z0 F1600
G1 X16.394 Y35.386 Z0 F1600
G1 X16.401 Y35.17 Z0 F1600
G1 X16.41 Y34.996 Z0 F1600
G1 X16.421 Y34.87 Z0 F1600
G1 X16.532 Y34.002 Z0 F1600
G1 X16.563 Y33.777 Z0 F1600
G1 X16.59 Y33.592 Z0 F1600
G1 X16.611 Y33.467 Z0 F1600
G1 X16.623 Y33.421 Z0 F1600
G1 X16.768 Y33.468 Z0 F1600
G1 X17.098 Y33.581 Z0 F1600
G1 X17.718 Y33.808 Z0 F1600
G1 X18.365 Y34.068 Z0 F1600
G1 X19.023 Y34.354 Z0 F1600
G1 X19.677 Y34.659 Z0 F1600
G1 X20.311 Y34.974 Z0 F1600
G1 X20.908 Y35.292 Z0 F1600
G1 X21.455 Y35.606 Z0 F1600
G1 X21.935 Y35.909 Z0 F1600
G1 X22.373 Y36.213 Z0 F1600
G1 X22.787 Y36.525 Z0 F1600
G1 X23.175 Y36.843 Z0 F1600
G1 X23.537 Y37.168 Z0 F1600
G0 Z3.5 F1000
G0 X48.505 Y39.681 Z3.5 
G1 Z0 F1000
G1 X48.34 Y40.416 Z0 F1600
G1 X48.137 Y41.077 Z0 F1600
G1 X47.883 Y41.702 Z0 F1600
G1 X47.581 Y42.3 Z0 F1600
G1 X47.237 Y42.86 Z0 F1600
G1 X46.874 Y43.349 Z0 F1600
G1 X46.487 Y43.775 Z0 F1600
G1 X46.414 Y43.842 Z0 F1600
G1 X46.585 Y43.596 Z0 F1600
G1 X46.76 Y43.332 Z0 F1600
G1 X47.275 Y42.451 Z0 F1600
G1 X47.755 Y41.479 Z0 F1600
G1 X48.182 Y40.456 Z0 F1600
G1 X48.543 Y39.406 Z0 F1600
G1 X48.505 Y39.681 Z0 F1600
G0 Z3.5 F1000
G0 X44.153 Y42.225 Z3.5 
G1 Z0 F1000
G1 X43.628 Y42.964 Z0 F1600
G1 X43.071 Y43.695 Z0 F1600
G1 X42.985 Y43.804 Z0 F1600
G1 X42.967 Y43.793 Z0 F1600
G1 X42.807 Y43.687 Z0 F1600
G1 X42.846 Y43.589 Z0 F1600
G1 X43.101 Y43.015 Z0 F1600
G1 X43.418 Y42.363 Z0 F1600
G1 X43.753 Y41.737 Z0 F1600
G1 X44.129 Y41.109 Z0 F1600
G1 X44.532 Y40.502 Z0 F1600
G1 X44.986 Y39.88 Z0 F1600
G1 X45.478 Y39.262 Z0 F1600
G1 X46.032 Y38.619 Z0 F1600
G1 X46.361 Y38.263 Z0 F1600
G1 X45.971 Y39.09 Z0 F1600
G1 X45.534 Y39.943 Z0 F1600
G1 X45.097 Y40.728 Z0 F1600
G1 X44.633 Y41.494 Z0 F1600
G1 X44.153 Y42.225 Z0 F1600
G0 Z3.5 F1000
G0 X41.327 Y40.425 Z3.5 
G1 Z0 F1000
G1 X41.358 Y40.322 Z0 F1600
G1 X41.5 Y39.951 Z0 F1600
G1 X41.667 Y39.596 Z0 F1600
G1 X41.87 Y39.243 Z0 F1600
G1 X42.107 Y38.891 Z0 F1600
G1 X42.383 Y38.539 Z0 F1600
G1 X42.705 Y38.176 Z0 F1600
G1 X43.084 Y37.794 Z0 F1600
G1 X43.508 Y37.406 Z0 F1600
G1 X43.722 Y37.223 Z0 F1600
G1 X43.926 Y37.066 Z0 F1600
G1 X44.024 Y36.997 Z0 F1600
G1 X44.168 Y36.899 Z0 F1600
G1 X44.711 Y36.546 Z0 F1600
G1 X44.647 Y36.597 Z0 F1600
G1 X44.306 Y36.89 Z0 F1600
G1 X43.957 Y37.207 Z0 F1600
G1 X43.619 Y37.527 Z0 F1600
G1 X43.312 Y37.833 Z0 F1600
G1 X43.059 Y38.102 Z0 F1600
G1 X42.944 Y38.233 Z0 F1600
G1 X42.84 Y38.367 Z0 F1600
G1 X42.789 Y38.448 Z0 F1600
G1 X42.726 Y38.502 Z0 F1600
G1 X42.56 Y38.674 Z0 F1600
G1 X42.389 Y38.872 Z0 F1600
G1 X41.789 Y39.681 Z0 F1600
G1 X41.327 Y40.425 Z0 F1600
G0 Z3.5 F1000
G0 X47.324 Y35.172 Z3.5 
G1 Z0 F1000
G1 X47.597 Y35.052 Z0 F1600
G1 X48.204 Y34.796 Z0 F1600
G1 X48.491 Y34.679 Z0 F1600
G1 X48.62 Y34.628 Z0 F1600
G1 X48.642 Y35.025 Z0 F1600
G1 X48.663 Y35.585 Z0 F1600
G1 X48.668 Y35.819 Z0 F1600
G1 X48.41 Y35.435 Z0 F1600
G1 X48.593 Y35.016 Z0 F1600
G1 X47.324 Y35.172 Z0 F1600
G0 Z3.5 F1000
G0 X44.949 Y35.309 Z3.5 
G1 Z0 F1000
G1 X45.083 Y35.232 Z0 F1600
G1 X45.262 Y35.138 Z0 F1600
G1 X45.479 Y35.029 Z0 F1600
G1 X46.004 Y34.779 Z0 F1600
G1 X46.61 Y34.503 Z0 F1600
G1 X47.247 Y34.223 Z0 F1600
G1 X47.865 Y33.962 Z0 F1600
G1 X48.152 Y33.845 Z0 F1600
G1 X48.417 Y33.741 Z0 F1600
G1 X48.652 Y33.652 Z0 F1600
G1 X48.852 Y33.582 Z0 F1600
G1 X49.193 Y33.472 Z0 F1600
G1 X49.306 Y33.438 Z0 F1600
G1 X49.359 Y33.424 Z0 F1600
G1 X49.38 Y33.442 Z0 F1600
G1 X49.401 Y33.498 Z0 F1600
G1 X49.421 Y33.588 Z0 F1600
G1 X49.441 Y33.711 Z0 F1600
G1 X49.479 Y34.045 Z0 F1600
G1 X49.513 Y34.479 Z0 F1600
G1 X49.542 Y34.992 Z0 F1600
G1 X49.563 Y35.564 Z0 F1600
G1 X49.577 Y36.177 Z0 F1600
G1 X49.582 Y36.81 Z0 F1600
G1 X49.578 Y37.479 Z0 F1600
G1 X49.564 Y38.06 Z0 F1600
G1 X49.542 Y38.568 Z0 F1600
G1 X49.506 Y39.022 Z0 F1600
G1 X49.392 Y39.839 Z0 F1600
G1 X49.209 Y40.653 Z0 F1600
G1 X48.987 Y41.374 Z0 F1600
G1 X48.703 Y42.075 Z0 F1600
G1 X48.366 Y42.743 Z0 F1600
G1 X47.985 Y43.363 Z0 F1600
G1 X47.569 Y43.922 Z0 F1600
G1 X47.129 Y44.407 Z0 F1600
G1 X46.902 Y44.616 Z0 F1600
G1 X46.673 Y44.802 Z0 F1600
G1 X46.442 Y44.962 Z0 F1600
G1 X46.21 Y45.095 Z0 F1600
G1 X45.928 Y45.23 Z0 F1600
G1 X45.693 Y45.308 Z0 F1600
G1 X45.566 Y45.331 Z0 F1600
G1 X45.417 Y45.347 Z0 F1600
G1 X45.236 Y45.358 Z0 F1600
G1 X45.009 Y45.368 Z0 F1600
G1 X44.725 Y45.375 Z0 F1600
G1 X44.484 Y45.371 Z0 F1600
G1 X44.311 Y45.358 Z0 F1600
G1 X44.232 Y45.338 Z0 F1600
G1 X44.225 Y45.298 Z0 F1600
G1 X44.25 Y45.23 Z0 F1600
G1 X44.303 Y45.145 Z0 F1600
G1 X44.379 Y45.048 Z0 F1600
G1 X44.528 Y44.87 Z0 F1600
G1 X44.721 Y44.625 Z0 F1600
G1 X44.942 Y44.335 Z0 F1600
G1 X45.18 Y44.017 Z0 F1600
G1 X45.418 Y43.69 Z0 F1600
G1 X45.643 Y43.375 Z0 F1600
G1 X45.84 Y43.091 Z0 F1600
G1 X45.996 Y42.856 Z0 F1600
G1 X46.482 Y42.024 Z0 F1600
G1 X46.935 Y41.107 Z0 F1600
G1 X47.34 Y40.135 Z0 F1600
G1 X47.682 Y39.143 Z0 F1600
G1 X47.857 Y38.488 Z0 F1600
G1 X48.01 Y37.761 Z0 F1600
G1 X48.071 Y37.418 Z0 F1600
G1 X48.115 Y37.114 Z0 F1600
G1 X48.14 Y36.867 Z0 F1600
G1 Y36.697 Z0 F1600
G1 X48.132 Y36.634 Z0 F1600
G1 X48.115 Y36.609 Z0 F1600
G1 X48.086 Y36.627 Z0 F1600
G1 X48.042 Y36.696 Z0 F1600
G1 X47.978 Y36.822 Z0 F1600
G1 X47.891 Y37.012 Z0 F1600
G1 X47.776 Y37.274 Z0 F1600
G1 X47.631 Y37.615 Z0 F1600
G1 X47.203 Y38.588 Z0 F1600
G1 X46.772 Y39.5 Z0 F1600
G1 X46.331 Y40.361 Z0 F1600
G1 X45.875 Y41.181 Z0 F1600
G1 X45.397 Y41.97 Z0 F1600
G1 X44.892 Y42.738 Z0 F1600
G1 X44.354 Y43.496 Z0 F1600
G1 X43.778 Y44.251 Z0 F1600
G1 X43.261 Y44.909 Z0 F1600
G1 X43.229 Y44.92 Z0 F1600
G1 X43.17 Y44.911 Z0 F1600
G1 X43.088 Y44.883 Z0 F1600
G1 X42.989 Y44.839 Z0 F1600
G1 X42.749 Y44.713 Z0 F1600
G1 X42.482 Y44.552 Z0 F1600
G1 X42.221 Y44.377 Z0 F1600
G1 X41.995 Y44.208 Z0 F1600
G1 X41.905 Y44.131 Z0 F1600
G1 X41.836 Y44.063 Z0 F1600
G1 X41.792 Y44.007 Z0 F1600
G1 X41.776 Y43.965 Z0 F1600
G1 X41.793 Y43.86 Z0 F1600
G1 X41.841 Y43.698 Z0 F1600
G1 X41.917 Y43.487 Z0 F1600
G1 X42.019 Y43.234 Z0 F1600
G1 X42.284 Y42.636 Z0 F1600
G1 X42.612 Y41.961 Z0 F1600
G1 X42.972 Y41.29 Z0 F1600
G1 X43.364 Y40.633 Z0 F1600
G1 X43.794 Y39.985 Z0 F1600
G1 X44.267 Y39.337 Z0 F1600
G1 X44.787 Y38.685 Z0 F1600
G1 X45.36 Y38.02 Z0 F1600
G1 X45.991 Y37.337 Z0 F1600
G1 X46.873 Y36.436 Z0 F1600
G1 X47.02 Y36.273 Z0 F1600
G1 X47.113 Y36.156 Z0 F1600
G1 X47.137 Y36.102 Z0 F1600
G1 X47.073 Y36.11 Z0 F1600
G1 X46.937 Y36.169 Z0 F1600
G1 X46.745 Y36.27 Z0 F1600
G1 X46.511 Y36.403 Z0 F1600
G1 X45.99 Y36.728 Z0 F1600
G1 X45.503 Y37.066 Z0 F1600
G1 X45.221 Y37.291 Z0 F1600
G1 X44.902 Y37.565 Z0 F1600
G1 X44.569 Y37.867 Z0 F1600
G1 X44.246 Y38.173 Z0 F1600
G1 X43.957 Y38.46 Z0 F1600
G1 X43.726 Y38.706 Z0 F1600
G1 X43.639 Y38.806 Z0 F1600
G1 X43.576 Y38.886 Z0 F1600
G1 X43.539 Y38.945 Z0 F1600
G1 X43.531 Y38.979 Z0 F1600
G1 X43.534 Y39.037 Z0 F1600
G1 X43.492 Y39.051 Z0 F1600
G1 X43.438 Y39.077 Z0 F1600
G1 X43.344 Y39.157 Z0 F1600
G1 X43.225 Y39.281 Z0 F1600
G1 X43.093 Y39.434 Z0 F1600
G1 X42.534 Y40.188 Z0 F1600
G1 X42.02 Y41.017 Z0 F1600
G1 X41.572 Y41.883 Z0 F1600
G1 X41.213 Y42.748 Z0 F1600
G1 X41 Y43.338 Z0 F1600
G1 X40.854 Y43.133 Z0 F1600
G1 X40.698 Y42.876 Z0 F1600
G1 X40.528 Y42.544 Z0 F1600
G1 X40.43 Y42.312 Z0 F1600
G1 X40.375 Y42.09 Z0 F1600
G1 X40.361 Y41.955 Z0 F1600
G1 X40.352 Y41.791 Z0 F1600
G1 X40.349 Y41.585 Z0 F1600
G1 Y41.328 Z0 F1600
G1 Y41.087 Z0 F1600
G1 X40.354 Y40.886 Z0 F1600
G1 X40.362 Y40.714 Z0 F1600
G1 X40.376 Y40.565 Z0 F1600
G1 X40.424 Y40.302 Z0 F1600
G1 X40.505 Y40.032 Z0 F1600
G1 X40.671 Y39.599 Z0 F1600
G1 X40.87 Y39.178 Z0 F1600
G1 X41.104 Y38.768 Z0 F1600
G1 X41.378 Y38.363 Z0 F1600
G1 X41.693 Y37.96 Z0 F1600
G1 X42.052 Y37.557 Z0 F1600
G1 X42.458 Y37.148 Z0 F1600
G1 X42.914 Y36.73 Z0 F1600
G1 X43.154 Y36.524 Z0 F1600
G1 X43.386 Y36.347 Z0 F1600
G1 X43.52 Y36.252 Z0 F1600
G1 X43.677 Y36.145 Z0 F1600
G1 X44.613 Y35.536 Z0 F1600
G1 X44.785 Y35.422 Z0 F1600
G1 X44.949 Y35.309 Z0 F1600
;Cut @ 1500 mm/min, 80% power

M8
G0 Z3.5 F1000
G0 X35.647 Y39.722 Z3.5 
G1 Z0 F1000
;Layer C3
G1 X35.585 Y39.711 Z0 S800 F1600
G1 X35.438 Y39.701 Z0 F1600
G1 X35.218 Y39.692 Z0 F1600
G1 X34.932 Y39.684 Z0 F1600
G1 X34.591 Y39.678 Z0 F1600
G1 X34.203 Y39.673 Z0 F1600
G1 X33.78 Y39.669 Z0 F1600
G1 X33.023 Z0 F1600
G1 X32.487 Z0 F1600
G1 X31.864 Y39.677 Z0 F1600
G1 X31.557 Y39.685 Z0 F1600
G1 X31.328 Y39.696 Z0 F1600
G1 X31.168 Y39.71 Z0 F1600
G1 X31.07 Y39.728 Z0 F1600
G1 X31.026 Y39.75 Z0 F1600
G1 X31.009 Y39.785 Z0 F1600
G1 X30.986 Y39.853 Z0 F1600
G1 X30.958 Y39.95 Z0 F1600
G1 X30.926 Y40.072 Z0 F1600
G1 X30.855 Y40.375 Z0 F1600
G1 X30.781 Y40.73 Z0 F1600
G1 X30.702 Y41.123 Z0 F1600
G1 X30.542 Y41.902 Z0 F1600
G1 X30.429 Y42.436 Z0 F1600
G1 X30.38 Y42.683 Z0 F1600
G1 X30.339 Y42.904 Z0 F1600
G1 X30.312 Y43.07 Z0 F1600
G1 X30.297 Y43.184 Z0 F1600
G1 X30.283 Y43.268 Z0 F1600
G1 X30.252 Y43.329 Z0 F1600
G1 X30.19 Y43.374 Z0 F1600
G1 X30.083 Y43.411 Z0 F1600
G1 X29.915 Y43.447 Z0 F1600
G1 X29.671 Y43.49 Z0 F1600
G1 X29.182 Y43.572 Z0 F1600
G1 X29.06 Y43.59 Z0 F1600
G1 X28.965 Y43.6 Z0 F1600
G1 X28.892 Z0 F1600
G1 X28.795 Y43.581 Z0 F1600
G1 X28.73 Y43.527 Z0 F1600
G1 X28.702 Y43.491 Z0 F1600
G1 X28.599 Y43.346 Z0 F1600
G1 X28.351 Y42.983 Z0 F1600
G1 X28.143 Y42.672 Z0 F1600
G1 X27.684 Y41.978 Z0 F1600
G1 X27.127 Y41.117 Z0 F1600
G1 X27.014 Y40.951 Z0 F1600
G1 X26.932 Y40.838 Z0 F1600
G1 X26.893 Y40.797 Z0 F1600
G1 X26.886 Y40.814 Z0 F1600
G1 X26.88 Y40.864 Z0 F1600
G1 X26.874 Y40.942 Z0 F1600
G1 X26.869 Y41.045 Z0 F1600
G1 X26.861 Y41.315 Z0 F1600
G1 X26.856 Y41.901 Z0 F1600
G1 X26.851 Y42.111 Z0 F1600
G1 X26.841 Y42.286 Z0 F1600
G1 X26.825 Y42.437 Z0 F1600
G1 X26.769 Y42.707 Z0 F1600
G1 X26.669 Y43.01 Z0 F1600
G1 X26.483 Y43.529 Z0 F1600
G1 X27.725 Y45.386 Z0 F1600
G1 X28.211 Y46.109 Z0 F1600
G1 X28.616 Y46.705 Z0 F1600
G1 X28.897 Y47.113 Z0 F1600
G1 X28.978 Y47.227 Z0 F1600
G1 X29.012 Y47.27 Z0 F1600
G1 X29.063 Z0 F1600
G1 X29.17 Y47.255 Z0 F1600
G1 X29.316 Y47.223 Z0 F1600
G1 X29.486 Y47.179 Z0 F1600
G1 X29.831 Y47.094 Z0 F1600
G1 X30.211 Y47.021 Z0 F1600
G1 X30.62 Y46.959 Z0 F1600
G1 X31.054 Y46.908 Z0 F1600
G1 X31.975 Y46.84 Z0 F1600
G1 X32.936 Y46.817 Z0 F1600
G1 X33.896 Y46.839 Z0 F1600
G1 X34.817 Y46.906 Z0 F1600
G1 X35.249 Y46.956 Z0 F1600
G1 X35.657 Y47.018 Z0 F1600
G1 X36.036 Y47.091 Z0 F1600
G1 X36.379 Y47.175 Z0 F1600
G1 X36.576 Y47.229 Z0 F1600
G1 X36.729 Y47.267 Z0 F1600
G1 X36.843 Y47.291 Z0 F1600
G1 X36.927 Y47.298 Z0 F1600
G1 X37.03 Y47.268 Z0 F1600
G1 X37.093 Y47.178 Z0 F1600
G1 X37.121 Y47.129 Z0 F1600
G1 X37.26 Y46.915 Z0 F1600
G1 X37.62 Y46.379 Z0 F1600
G1 X37.922 Y45.938 Z0 F1600
G1 X38.938 Y44.463 Z0 F1600
G1 X39.032 Y44.317 Z0 F1600
G1 X39.101 Y44.19 Z0 F1600
G1 X39.138 Y44.095 Z0 F1600
G1 Y44.046 Z0 F1600
G1 X39.112 Y44.033 Z0 F1600
G1 X39.058 Y44.013 Z0 F1600
G1 X38.873 Y43.956 Z0 F1600
G1 X38.604 Y43.881 Z0 F1600
G1 X38.277 Y43.793 Z0 F1600
G1 X37.534 Y43.605 Z0 F1600
G1 X36.831 Y43.441 Z0 F1600
G1 X36.438 Y43.355 Z0 F1600
G1 X35.934 Y40.801 Z0 F1600
G1 X35.848 Y40.398 Z0 F1600
G1 X35.766 Y40.061 Z0 F1600
G1 X35.729 Y39.928 Z0 F1600
G1 X35.696 Y39.824 Z0 F1600
G1 X35.668 Y39.754 Z0 F1600
G1 X35.647 Y39.722 Z0 F1600
G0 Z3.5 F1000
G0 X44.691 Y47.183 Z3.5 
G1 Z0 F1000
G1 X43.736 Y49.057 Z0 F1600
G1 X43.499 Y49.517 Z0 F1600
G1 X43.323 Y49.854 Z0 F1600
G1 X43.232 Y50.02 Z0 F1600
G1 X43.191 Y50.117 Z0 F1600
G1 X43.23 Y50.223 Z0 F1600
G1 X43.292 Y50.296 Z0 F1600
G1 X43.388 Y50.392 Z0 F1600
G1 X43.523 Y50.518 Z0 F1600
G1 X43.703 Y50.68 Z0 F1600
G1 X44.459 Y51.386 Z0 F1600
G1 X45.156 Y52.092 Z0 F1600
G1 X45.796 Y52.802 Z0 F1600
G1 X46.382 Y53.519 Z0 F1600
G1 X46.915 Y54.245 Z0 F1600
G1 X47.398 Y54.983 Z0 F1600
G1 X47.834 Y55.737 Z0 F1600
G1 X48.224 Y56.51 Z0 F1600
G1 X48.38 Y56.861 Z0 F1600
G1 X48.543 Y57.264 Z0 F1600
G1 X48.708 Y57.702 Z0 F1600
G1 X48.869 Y58.161 Z0 F1600
G1 X49.022 Y58.626 Z0 F1600
G1 X49.161 Y59.08 Z0 F1600
G1 X49.281 Y59.51 Z0 F1600
G1 X49.377 Y59.899 Z0 F1600
G1 X49.552 Y60.8 Z0 F1600
G1 X49.678 Y61.729 Z0 F1600
G1 X49.755 Y62.676 Z0 F1600
G1 X49.783 Y63.628 Z0 F1600
G1 X49.762 Y64.576 Z0 F1600
G1 X49.692 Y65.507 Z0 F1600
G1 X49.573 Y66.41 Z0 F1600
G1 X49.406 Y67.274 Z0 F1600
G1 X49.257 Y67.857 Z0 F1600
G1 X49.065 Y68.528 Z0 F1600
G1 X48.966 Y68.855 Z0 F1600
G1 X48.87 Y69.154 Z0 F1600
G1 X48.783 Y69.407 Z0 F1600
G1 X48.711 Y69.599 Z0 F1600
G1 X48.505 Y70.098 Z0 F1600
G1 X47.955 Y71.228 Z0 F1600
G1 X47.397 Y72.263 Z0 F1600
G1 X47.277 Y72.443 Z0 F1600
G1 X47.115 Y72.68 Z0 F1600
G1 X46.731 Y73.232 Z0 F1600
G1 X46.38 Y73.728 Z0 F1600
G1 X46.258 Y73.896 Z0 F1600
G1 X46.194 Y73.978 Z0 F1600
G1 X46.059 Y74.136 Z0 F1600
G1 X45.829 Y74.414 Z0 F1600
G1 X45.53 Y74.765 Z0 F1600
G1 X45.231 Y75.101 Z0 F1600
G1 X45.112 Y75.233 Z0 F1600
G1 X45.007 Y75.353 Z0 F1600
G1 X44.929 Y75.447 Z0 F1600
G1 X44.889 Y75.503 Z0 F1600
G1 Y75.548 Z0 F1600
G1 X44.907 Y75.636 Z0 F1600
G1 X44.951 Y75.768 Z0 F1600
G1 X45.019 Y75.946 Z0 F1600
G1 X45.112 Y76.17 Z0 F1600
G1 X45.23 Y76.442 Z0 F1600
G1 X45.373 Y76.763 Z0 F1600
G1 X45.542 Y77.134 Z0 F1600
G1 X45.669 Y77.423 Z0 F1600
G1 X45.944 Y78.068 Z0 F1600
G1 X46.049 Y78.306 Z0 F1600
G1 X46.143 Y78.512 Z0 F1600
G1 X46.225 Y78.684 Z0 F1600
G1 X46.296 Y78.82 Z0 F1600
G1 X46.353 Y78.92 Z0 F1600
G1 X46.397 Y78.98 Z0 F1600
G1 X46.426 Y79.001 Z0 F1600
G1 X46.478 Y78.972 Z0 F1600
G1 X46.579 Y78.893 Z0 F1600
G1 X46.714 Y78.776 Z0 F1600
G1 X46.869 Y78.633 Z0 F1600
G1 X47.536 Y78 Z0 F1600
G1 X48.717 Y78.55 Z0 F1600
G1 X49.749 Y79.018 Z0 F1600
G1 X50.072 Y79.16 Z0 F1600
G1 X50.341 Y79.267 Z0 F1600
G1 X50.562 Y79.339 Z0 F1600
G1 X50.741 Y79.376 Z0 F1600
G1 X50.883 Y79.38 Z0 F1600
G1 X50.995 Y79.351 Z0 F1600
G1 X51.08 Y79.29 Z0 F1600
G1 X51.146 Y79.197 Z0 F1600
G1 X51.173 Y79.154 Z0 F1600
G1 X51.302 Y78.965 Z0 F1600
G1 X51.646 Y78.474 Z0 F1600
G1 X51.949 Y78.048 Z0 F1600
G1 X52.643 Y77.082 Z0 F1600
G1 X53.329 Y76.139 Z0 F1600
G1 X53.487 Y75.914 Z0 F1600
G1 X53.616 Y75.711 Z0 F1600
G1 X53.704 Y75.552 Z0 F1600
G1 X53.736 Y75.46 Z0 F1600
G1 X53.703 Y75.377 Z0 F1600
G1 X53.614 Y75.243 Z0 F1600
G1 X53.482 Y75.076 Z0 F1600
G1 X53.32 Y74.896 Z0 F1600
G1 X52.34 Y73.859 Z0 F1600
G1 X51.908 Y73.396 Z0 F1600
G1 X51.748 Y73.221 Z0 F1600
G1 X51.621 Y73.077 Z0 F1600
G1 X51.523 Y72.962 Z0 F1600
G1 X51.402 Y72.797 Z0 F1600
G1 X51.358 Y72.694 Z0 F1600
G1 X51.364 Y72.618 Z0 F1600
G1 X51.44 Y72.41 Z0 F1600
G1 X51.514 Y72.22 Z0 F1600
G1 X51.606 Y71.995 Z0 F1600
G1 X51.938 Y71.204 Z0 F1600
G1 X52.242 Y70.449 Z0 F1600
G1 X52.324 Y70.262 Z0 F1600
G1 X52.393 Y70.12 Z0 F1600
G1 X52.439 Y70.045 Z0 F1600
G1 X52.481 Y70.023 Z0 F1600
G1 X52.565 Y70.003 Z0 F1600
G1 X52.696 Y69.985 Z0 F1600
G1 X52.88 Y69.969 Z0 F1600
G1 X53.121 Y69.955 Z0 F1600
G1 X53.423 Y69.942 Z0 F1600
G1 X53.793 Y69.93 Z0 F1600
G1 X54.737 Y69.905 Z0 F1600
G1 X55.136 Y69.893 Z0 F1600
G1 X55.444 Y69.879 Z0 F1600
G1 X55.672 Y69.864 Z0 F1600
G1 X55.835 Y69.846 Z0 F1600
G1 X55.946 Y69.824 Z0 F1600
G1 X56.018 Y69.797 Z0 F1600
G1 X56.064 Y69.763 Z0 F1600
G1 X56.118 Y69.672 Z0 F1600
G1 X56.177 Y69.51 Z0 F1600
G1 X56.235 Y69.29 Z0 F1600
G1 X56.288 Y69.026 Z0 F1600
G1 X56.379 Y68.526 Z0 F1600
G1 X56.489 Y67.938 Z0 F1600
G1 X56.825 Y66.174 Z0 F1600
G1 X56.889 Y65.816 Z0 F1600
G1 X56.935 Y65.507 Z0 F1600
G1 X56.95 Y65.381 Z0 F1600
G1 X56.959 Y65.279 Z0 F1600
G1 Y65.206 Z0 F1600
G1 X56.956 Y65.166 Z0 F1600
G1 X56.917 Y65.091 Z0 F1600
G1 X56.803 Y65.02 Z0 F1600
G1 X56.684 Y64.972 Z0 F1600
G1 X56.508 Y64.907 Z0 F1600
G1 X55.48 Y64.546 Z0 F1600
G1 X55.05 Y64.391 Z0 F1600
G1 X54.649 Y64.245 Z0 F1600
G1 X54.291 Y64.111 Z0 F1600
G1 X53.986 Y63.994 Z0 F1600
G1 X53.748 Y63.899 Z0 F1600
G1 X53.588 Y63.831 Z0 F1600
G1 X53.517 Y63.792 Z0 F1600
G1 X53.505 Y63.757 Z0 F1600
G1 X53.492 Y63.676 Z0 F1600
G1 X53.477 Y63.554 Z0 F1600
G1 X53.462 Y63.396 Z0 F1600
G1 X53.43 Y62.996 Z0 F1600
G1 X53.402 Y62.517 Z0 F1600
G1 X53.375 Y62.023 Z0 F1600
G1 X53.349 Y61.583 Z0 F1600
G1 X53.327 Y61.244 Z0 F1600
G1 X53.312 Y61.055 Z0 F1600
G1 X53.305 Y60.917 Z0 F1600
G1 X53.337 Y60.825 Z0 F1600
G1 X53.436 Y60.745 Z0 F1600
G1 X53.627 Y60.642 Z0 F1600
G1 X54.481 Y60.193 Z0 F1600
G1 X55.35 Y59.712 Z0 F1600
G1 X55.728 Y59.495 Z0 F1600
G1 X56.036 Y59.312 Z0 F1600
G1 X56.156 Y59.238 Z0 F1600
G1 X56.249 Y59.178 Z0 F1600
G1 X56.312 Y59.133 Z0 F1600
G1 X56.343 Y59.106 Z0 F1600
G1 X56.386 Y58.975 Z0 F1600
G1 X56.378 Y58.768 Z0 F1600
G1 X56.353 Y58.632 Z0 F1600
G1 X56.315 Y58.47 Z0 F1600
G1 X56.263 Y58.281 Z0 F1600
G1 X55.47 Y55.735 Z0 F1600
G1 X55.379 Y55.456 Z0 F1600
G1 X55.295 Y55.21 Z0 F1600
G1 X55.22 Y55 Z0 F1600
G1 X55.154 Y54.829 Z0 F1600
G1 X55.098 Y54.698 Z0 F1600
G1 X55.053 Y54.609 Z0 F1600
G1 X55.019 Y54.566 Z0 F1600
G1 X54.975 Y54.536 Z0 F1600
G1 X54.919 Y54.516 Z0 F1600
G1 X54.828 Y54.507 Z0 F1600
G1 X54.676 Y54.511 Z0 F1600
G1 X54.569 Y54.519 Z0 F1600
G1 X54.278 Y54.546 Z0 F1600
G1 X53.864 Y54.589 Z0 F1600
G1 X52.174 Y54.776 Z0 F1600
G1 X51.986 Y54.794 Z0 F1600
G1 X51.695 Y54.81 Z0 F1600
G1 X51.497 Y54.792 Z0 F1600
G1 X51.364 Y54.735 Z0 F1600
G1 X51.268 Y54.633 Z0 F1600
G1 X51.182 Y54.479 Z0 F1600
G1 X51.076 Y54.268 Z0 F1600
G1 X50.764 Y53.693 Z0 F1600
G1 X50.406 Y53.081 Z0 F1600
G1 X50.254 Y52.828 Z0 F1600
G1 X50.13 Y52.61 Z0 F1600
G1 X50.046 Y52.451 Z0 F1600
G1 X50.015 Y52.373 Z0 F1600
G1 X50.035 Y52.329 Z0 F1600
G1 X50.091 Y52.231 Z0 F1600
G1 X50.18 Y52.085 Z0 F1600
G1 X50.441 Y51.675 Z0 F1600
G1 X50.785 Y51.147 Z0 F1600
G1 X51.178 Y50.551 Z0 F1600
G1 X51.361 Y50.267 Z0 F1600
G1 X51.525 Y50.007 Z0 F1600
G1 X51.667 Y49.776 Z0 F1600
G1 X51.782 Y49.579 Z0 F1600
G1 X51.869 Y49.423 Z0 F1600
G1 X51.923 Y49.312 Z0 F1600
G1 X51.942 Y49.252 Z0 F1600
G1 X51.929 Y49.201 Z0 F1600
G1 X51.891 Y49.129 Z0 F1600
G1 X51.826 Y49.035 Z0 F1600
G1 X51.733 Y48.917 Z0 F1600
G1 X51.612 Y48.775 Z0 F1600
G1 X51.46 Y48.606 Z0 F1600
G1 X51.278 Y48.41 Z0 F1600
G1 X51.063 Y48.186 Z0 F1600
G1 X50.472 Y47.573 Z0 F1600
G1 X49.98 Y47.068 Z0 F1600
G1 X49.58 Y46.662 Z0 F1600
G1 X49.264 Y46.348 Z0 F1600
G1 X49.024 Y46.116 Z0 F1600
G1 X48.929 Y46.03 Z0 F1600
G1 X48.851 Y45.961 Z0 F1600
G1 X48.739 Y45.873 Z0 F1600
G1 X48.679 Y45.846 Z0 F1600
G1 X48.629 Y45.866 Z0 F1600
G1 X48.522 Y45.925 Z0 F1600
G1 X48.366 Y46.018 Z0 F1600
G1 X48.168 Y46.141 Z0 F1600
G1 X47.933 Y46.289 Z0 F1600
G1 X47.669 Y46.46 Z0 F1600
G1 X47.381 Y46.648 Z0 F1600
G1 X47.077 Y46.849 Z0 F1600
G1 X45.574 Y47.852 Z0 F1600
G1 X44.691 Y47.183 Z0 F1600
G0 Z3.5 F1000
G0 X22.84 Y50.165 Z3.5 
G1 Z0 F1000
G1 X22.817 Y50.104 Z0 F1600
G1 X22.754 Y49.975 Z0 F1600
G1 X22.662 Y49.796 Z0 F1600
G1 X22.397 Y49.31 Z0 F1600
G1 X21.985 Y48.536 Z0 F1600
G1 X21.428 Y47.473 Z0 F1600
G1 X21.317 Y47.265 Z0 F1600
G1 X21.27 Y47.182 Z0 F1600
G1 X21.234 Y47.195 Z0 F1600
G1 X21.152 Y47.251 Z0 F1600
G1 X21.036 Y47.339 Z0 F1600
G1 X20.755 Y47.572 Z0 F1600
G1 X20.626 Y47.676 Z0 F1600
G1 X20.524 Y47.756 Z0 F1600
G1 X20.464 Y47.799 Z0 F1600
G1 X20.431 Y47.795 Z0 F1600
G1 X20.364 Y47.767 Z0 F1600
G1 X20.267 Y47.718 Z0 F1600
G1 X20.144 Y47.65 Z0 F1600
G1 X19.832 Y47.465 Z0 F1600
G1 X19.456 Y47.231 Z0 F1600
G1 X18.63 Y46.689 Z0 F1600
G1 X17.897 Y46.169 Z0 F1600
G1 X17.734 Y46.052 Z0 F1600
G1 X17.597 Y45.967 Z0 F1600
G1 X17.479 Y45.915 Z0 F1600
G1 X17.374 Y45.895 Z0 F1600
G1 X17.275 Y45.908 Z0 F1600
G1 X17.174 Y45.952 Z0 F1600
G1 X17.065 Y46.028 Z0 F1600
G1 X16.941 Y46.136 Z0 F1600
G1 X16.854 Y46.219 Z0 F1600
G1 X16.72 Y46.351 Z0 F1600
G1 X16.341 Y46.735 Z0 F1600
G1 X15.856 Y47.232 Z0 F1600
G1 X15.318 Y47.789 Z0 F1600
G1 X14.938 Y48.187 Z0 F1600
G1 X14.637 Y48.505 Z0 F1600
G1 X14.407 Y48.755 Z0 F1600
G1 X14.241 Y48.945 Z0 F1600
G1 X14.13 Y49.086 Z0 F1600
G1 X14.065 Y49.188 Z0 F1600
G1 X14.037 Y49.261 Z0 F1600
G1 X14.04 Y49.314 Z0 F1600
G1 X14.059 Y49.358 Z0 F1600
G1 X14.094 Y49.426 Z0 F1600
G1 X14.144 Y49.515 Z0 F1600
G1 X14.207 Y49.621 Z0 F1600
G1 X14.362 Y49.873 Z0 F1600
G1 X14.543 Y50.154 Z0 F1600
G1 X14.72 Y50.425 Z0 F1600
G1 X14.921 Y50.738 Z0 F1600
G1 X14.99 Y50.85 Z0 F1600
G1 X15.01 Y50.887 Z0 F1600
G1 X15.085 Y51.005 Z0 F1600
G1 X15.303 Y51.334 Z0 F1600
G1 X15.992 Y52.351 Z0 F1600
G1 X15.712 Y52.779 Z0 F1600
G1 X15.569 Y53.009 Z0 F1600
G1 X15.387 Y53.318 Z0 F1600
G1 X15.189 Y53.665 Z0 F1600
G1 X14.885 Y54.221 Z0 F1600
G1 X14.787 Y54.395 Z0 F1600
G1 X14.703 Y54.534 Z0 F1600
G1 X14.632 Y54.642 Z0 F1600
G1 X14.519 Y54.775 Z0 F1600
G1 X14.435 Y54.815 Z0 F1600
G1 X14.375 Y54.812 Z0 F1600
G1 X14.083 Y54.787 Z0 F1600
G1 X13.323 Y54.714 Z0 F1600
G1 X12.334 Y54.615 Z0 F1600
G1 X12.013 Y54.585 Z0 F1600
G1 X11.728 Y54.562 Z0 F1600
G1 X11.482 Y54.545 Z0 F1600
G1 X11.279 Y54.534 Z0 F1600
G1 X11.123 Y54.529 Z0 F1600
G1 X11.017 Y54.532 Z0 F1600
G1 X10.965 Y54.541 Z0 F1600
G1 X10.922 Y54.587 Z0 F1600
G1 X10.869 Y54.684 Z0 F1600
G1 X10.803 Y54.838 Z0 F1600
G1 X10.722 Y55.054 Z0 F1600
G1 X10.626 Y55.338 Z0 F1600
G1 X10.511 Y55.693 Z0 F1600
G1 X10.377 Y56.127 Z0 F1600
G1 X10.03 Y57.267 Z0 F1600
G1 X9.733 Y58.212 Z0 F1600
G1 X9.629 Y58.6 Z0 F1600
G1 X9.595 Y58.755 Z0 F1600
G1 X9.573 Y58.88 Z0 F1600
G1 X9.566 Y58.972 Z0 F1600
G1 X9.573 Y59.028 Z0 F1600
G1 X9.636 Y59.107 Z0 F1600
G1 X9.775 Y59.22 Z0 F1600
G1 X9.987 Y59.363 Z0 F1600
G1 X10.271 Y59.536 Z0 F1600
G1 X10.624 Y59.738 Z0 F1600
G1 X11.043 Y59.966 Z0 F1600
G1 X11.526 Y60.22 Z0 F1600
G1 X12.069 Y60.497 Z0 F1600
G1 X12.694 Y60.812 Z0 F1600
G1 X12.612 Y62.191 Z0 F1600
G1 X12.559 Y63.011 Z0 F1600
G1 X12.537 Y63.302 Z0 F1600
G1 X12.519 Y63.522 Z0 F1600
G1 X12.502 Y63.676 Z0 F1600
G1 X12.488 Y63.769 Z0 F1600
G1 X12.475 Y63.806 Z0 F1600
G1 X12.446 Y63.822 Z0 F1600
G1 X12.382 Y63.85 Z0 F1600
G1 X12.162 Y63.939 Z0 F1600
G1 X11.846 Y64.059 Z0 F1600
G1 X11.466 Y64.201 Z0 F1600
G1 X11.05 Y64.353 Z0 F1600
G1 X10.631 Y64.504 Z0 F1600
G1 X10.238 Y64.642 Z0 F1600
G1 X9.903 Y64.756 Z0 F1600
G1 X9.618 Y64.856 Z0 F1600
G1 X9.371 Y64.956 Z0 F1600
G1 X9.189 Y65.042 Z0 F1600
G1 X9.098 Y65.103 Z0 F1600
G1 X9.066 Y65.158 Z0 F1600
G1 X9.046 Y65.232 Z0 F1600
G1 X9.039 Y65.335 Z0 F1600
G1 X9.045 Y65.477 Z0 F1600
G1 X9.066 Y65.667 Z0 F1600
G1 X9.101 Y65.912 Z0 F1600
G1 X9.152 Y66.223 Z0 F1600
G1 X9.326 Y67.217 Z0 F1600
G1 X9.604 Y68.782 Z0 F1600
G1 X9.652 Y69.026 Z0 F1600
G1 X9.696 Y69.234 Z0 F1600
G1 X9.736 Y69.408 Z0 F1600
G1 X9.774 Y69.549 Z0 F1600
G1 X9.809 Y69.656 Z0 F1600
G1 X9.841 Y69.731 Z0 F1600
G1 X9.871 Y69.774 Z0 F1600
G1 X9.916 Y69.805 Z0 F1600
G1 X9.985 Y69.831 Z0 F1600
G1 X10.09 Y69.853 Z0 F1600
G1 X10.239 Y69.87 Z0 F1600
G1 X10.442 Y69.885 Z0 F1600
G1 X10.71 Y69.898 Z0 F1600
G1 X11.052 Y69.911 Z0 F1600
G1 X11.478 Y69.923 Z0 F1600
G1 X12.615 Y69.952 Z0 F1600
G1 X13.251 Y69.964 Z0 F1600
G1 X13.413 Y69.971 Z0 F1600
G1 X13.511 Y70.013 Z0 F1600
G1 X13.548 Y70.058 Z0 F1600
G1 X13.584 Y70.126 Z0 F1600
G1 X13.623 Y70.221 Z0 F1600
G1 X13.798 Y70.675 Z0 F1600
G1 X13.902 Y70.928 Z0 F1600
G1 X14.01 Y71.179 Z0 F1600
G1 X14.677 Y72.756 Z0 F1600
G1 X13.858 Y73.634 Z0 F1600
G1 X13.177 Y74.361 Z0 F1600
G1 X12.688 Y74.879 Z0 F1600
G1 X12.548 Y75.033 Z0 F1600
G1 X12.429 Y75.182 Z0 F1600
G1 X12.341 Y75.308 Z0 F1600
G1 X12.299 Y75.394 Z0 F1600
G1 X12.286 Y75.458 Z0 F1600
G1 X12.293 Y75.529 Z0 F1600
G1 X12.333 Y75.63 Z0 F1600
G1 X12.422 Y75.786 Z0 F1600
G1 X12.49 Y75.892 Z0 F1600
G1 X12.576 Y76.021 Z0 F1600
G1 X12.809 Y76.359 Z0 F1600
G1 X13.135 Y76.825 Z0 F1600
G1 X14.366 Y78.572 Z0 F1600
G1 X14.642 Y78.968 Z0 F1600
G1 X14.785 Y79.174 Z0 F1600
G1 X14.864 Y79.28 Z0 F1600
G1 X14.946 Y79.353 Z0 F1600
G1 X15.04 Y79.395 Z0 F1600
G1 X15.156 Y79.404 Z0 F1600
G1 X15.303 Y79.379 Z0 F1600
G1 X15.492 Y79.32 Z0 F1600
G1 X15.731 Y79.226 Z0 F1600
G1 X16.029 Y79.098 Z0 F1600
G1 X16.384 Y78.94 Z0 F1600
G1 X17.212 Y78.565 Z0 F1600
G1 X18.457 Y77.993 Z0 F1600
G1 X18.705 Y78.208 Z0 F1600
G1 X18.967 Y78.444 Z0 F1600
G1 X19.369 Y78.824 Z0 F1600
G1 X19.475 Y78.916 Z0 F1600
G1 X19.556 Y78.978 Z0 F1600
G1 X19.6 Y79.001 Z0 F1600
G1 X19.658 Y78.947 Z0 F1600
G1 X19.722 Y78.818 Z0 F1600
G1 X19.817 Y78.592 Z0 F1600
G1 X19.947 Y78.303 Z0 F1600
G1 X20.312 Y77.512 Z0 F1600
G1 X20.684 Y76.692 Z0 F1600
G1 X20.992 Y76.002 Z0 F1600
G1 X21.068 Y75.822 Z0 F1600
G1 X21.107 Y75.682 Z0 F1600
G1 X21.104 Y75.563 Z0 F1600
G1 X21.056 Y75.445 Z0 F1600
G1 X20.958 Y75.309 Z0 F1600
G1 X20.806 Y75.133 Z0 F1600
G1 X20.595 Y74.899 Z0 F1600
G1 X20.131 Y74.362 Z0 F1600
G1 X19.695 Y73.823 Z0 F1600
G1 X19.286 Y73.28 Z0 F1600
G1 X18.904 Y72.733 Z0 F1600
G1 X18.549 Y72.179 Z0 F1600
G1 X18.22 Y71.62 Z0 F1600
G1 X17.916 Y71.052 Z0 F1600
G1 X17.638 Y70.476 Z0 F1600
G1 X17.384 Y69.89 Z0 F1600
G1 X17.154 Y69.293 Z0 F1600
G1 X16.948 Y68.684 Z0 F1600
G1 X16.765 Y68.063 Z0 F1600
G1 X16.605 Y67.427 Z0 F1600
G1 X16.468 Y66.777 Z0 F1600
G1 X16.352 Y66.111 Z0 F1600
G1 X16.257 Y65.428 Z0 F1600
G1 X16.237 Y65.225 Z0 F1600
G1 X16.221 Y64.992 Z0 F1600
G1 X16.209 Y64.733 Z0 F1600
G1 X16.202 Y64.452 Z0 F1600
G1 X16.199 Y63.842 Z0 F1600
G1 X16.211 Y63.196 Z0 F1600
G1 X16.238 Y62.548 Z0 F1600
G1 X16.277 Y61.931 Z0 F1600
G1 X16.329 Y61.38 Z0 F1600
G1 X16.392 Y60.929 Z0 F1600
G1 X16.599 Y59.901 Z0 F1600
G1 X16.857 Y58.914 Z0 F1600
G1 X17.166 Y57.962 Z0 F1600
G1 X17.529 Y57.042 Z0 F1600
G1 X17.949 Y56.147 Z0 F1600
G1 X18.427 Y55.273 Z0 F1600
G1 X18.965 Y54.415 Z0 F1600
G1 X19.566 Y53.568 Z0 F1600
G1 X19.686 Y53.415 Z0 F1600
G1 X19.829 Y53.24 Z0 F1600
G1 X19.995 Y53.046 Z0 F1600
G1 X20.177 Y52.837 Z0 F1600
G1 X20.583 Y52.39 Z0 F1600
G1 X21.019 Y51.925 Z0 F1600
G1 X21.458 Y51.473 Z0 F1600
G1 X21.873 Y51.06 Z0 F1600
G1 X22.063 Y50.877 Z0 F1600
G1 X22.238 Y50.715 Z0 F1600
G1 X22.392 Y50.577 Z0 F1600
G1 X22.647 Y50.365 Z0 F1600
G1 X22.747 Y50.274 Z0 F1600
G1 X22.815 Y50.204 Z0 F1600
G1 X22.84 Y50.165 Z0 F1600
G0 Z3.5 F1000
G0 X25.841 Y78.735 Z3.5 
G1 Z0 F1000
G1 X25.788 Y78.784 Z0 F1600
G1 X25.683 Y78.916 Z0 F1600
G1 X25.539 Y79.111 Z0 F1600
G1 X25.374 Y79.35 Z0 F1600
G1 X25.203 Y79.602 Z0 F1600
G1 X24.917 Y80.018 Z0 F1600
G1 X24.794 Y80.19 Z0 F1600
G1 X24.617 Y80.445 Z0 F1600
G1 X24.185 Y81.076 Z0 F1600
G1 X23.443 Y82.162 Z0 F1600
G1 X22.838 Y83.041 Z0 F1600
G1 X22.126 Y84.069 Z0 F1600
G1 X21.942 Y84.344 Z0 F1600
G1 X21.873 Y84.451 Z0 F1600
G1 X21.822 Y84.534 Z0 F1600
G1 X21.792 Y84.587 Z0 F1600
G1 X21.785 Y84.609 Z0 F1600
G1 X21.839 Y84.646 Z0 F1600
G1 X21.937 Y84.702 Z0 F1600
G1 X22.073 Y84.774 Z0 F1600
G1 X22.241 Y84.86 Z0 F1600
G1 X22.644 Y85.061 Z0 F1600
G1 X23.096 Y85.279 Z0 F1600
G1 X23.547 Y85.49 Z0 F1600
G1 X23.946 Y85.671 Z0 F1600
G1 X24.11 Y85.742 Z0 F1600
G1 X24.242 Y85.797 Z0 F1600
G1 X24.336 Y85.832 Z0 F1600
G1 X24.385 Y85.845 Z0 F1600
G1 X24.484 Y85.825 Z0 F1600
G1 X24.589 Y85.759 Z0 F1600
G1 X24.714 Y85.631 Z0 F1600
G1 X24.875 Y85.429 Z0 F1600
G1 X25.179 Y85.038 Z0 F1600
G1 X25.766 Y84.311 Z0 F1600
G1 X26.243 Y83.697 Z0 F1600
G1 X26.375 Y83.531 Z0 F1600
G1 X26.478 Y83.403 Z0 F1600
G1 X26.628 Y83.231 Z0 F1600
G1 X26.722 Y83.108 Z0 F1600
G1 X26.779 Y83.038 Z0 F1600
G1 X26.835 Y83.006 Z0 F1600
G1 X26.905 Y83.009 Z0 F1600
G1 X27.186 Y83.104 Z0 F1600
G1 X27.439 Y83.178 Z0 F1600
G1 X27.743 Y83.258 Z0 F1600
G1 X28.072 Y83.339 Z0 F1600
G1 X28.405 Y83.415 Z0 F1600
G1 X28.717 Y83.481 Z0 F1600
G1 X28.986 Y83.531 Z0 F1600
G1 X29.188 Y83.56 Z0 F1600
G1 X29.394 Y83.587 Z0 F1600
G1 X29.54 Y83.621 Z0 F1600
G1 X29.634 Y83.666 Z0 F1600
G1 X29.687 Y83.725 Z0 F1600
G1 X29.706 Y83.782 Z0 F1600
G1 X29.737 Y83.901 Z0 F1600
G1 X29.778 Y84.073 Z0 F1600
G1 X29.884 Y84.549 Z0 F1600
G1 X30.01 Y85.153 Z0 F1600
G1 X30.148 Y85.84 Z0 F1600
G1 X30.216 Y86.161 Z0 F1600
G1 X30.28 Y86.446 Z0 F1600
G1 X30.337 Y86.69 Z0 F1600
G1 X30.388 Y86.89 Z0 F1600
G1 X30.431 Y87.041 Z0 F1600
G1 X30.466 Y87.139 Z0 F1600
G1 X30.491 Y87.181 Z0 F1600
G1 X30.558 Y87.193 Z0 F1600
G1 X30.716 Y87.203 Z0 F1600
G1 X30.954 Y87.213 Z0 F1600
G1 X31.261 Y87.222 Z0 F1600
G1 X31.629 Y87.229 Z0 F1600
G1 X32.046 Y87.234 Z0 F1600
G1 X32.502 Y87.238 Z0 F1600
G1 X35.394 Z0 F1600
G1 X35.492 Y87.09 Z0 F1600
G1 X35.538 Y86.985 Z0 F1600
G1 X35.593 Y86.809 Z0 F1600
G1 X35.65 Y86.587 Z0 F1600
G1 X35.701 Y86.343 Z0 F1600
G1 X35.933 Y85.143 Z0 F1600
G1 X36.236 Y83.622 Z0 F1600
G1 X36.83 Y83.539 Z0 F1600
G1 X37.129 Y83.489 Z0 F1600
G1 X37.502 Y83.414 Z0 F1600
G1 X37.904 Y83.325 Z0 F1600
G1 X38.285 Y83.231 Z0 F1600
G1 X39.146 Y83.005 Z0 F1600
G1 X39.282 Y83.179 Z0 F1600
G1 X39.849 Y83.896 Z0 F1600
G1 X40.261 Y84.42 Z0 F1600
G1 X40.855 Y85.191 Z0 F1600
G1 X41.023 Y85.405 Z0 F1600
G1 X41.158 Y85.567 Z0 F1600
G1 X41.266 Y85.685 Z0 F1600
G1 X41.353 Y85.765 Z0 F1600
G1 X41.427 Y85.814 Z0 F1600
G1 X41.494 Y85.838 Z0 F1600
G1 X41.56 Y85.845 Z0 F1600
G1 X41.621 Y85.831 Z0 F1600
G1 X41.728 Y85.793 Z0 F1600
G1 X41.872 Y85.734 Z0 F1600
G1 X42.049 Y85.657 Z0 F1600
G1 X42.47 Y85.462 Z0 F1600
G1 X42.936 Y85.236 Z0 F1600
G1 X43.394 Y85.005 Z0 F1600
G1 X43.788 Y84.797 Z0 F1600
G1 X43.944 Y84.709 Z0 F1600
G1 X44.064 Y84.638 Z0 F1600
G1 X44.141 Y84.585 Z0 F1600
G1 X44.168 Y84.555 Z0 F1600
G1 X44.141 Y84.48 Z0 F1600
G1 X44.077 Y84.388 Z0 F1600
G1 X44.047 Y84.351 Z0 F1600
G1 X43.926 Y84.187 Z0 F1600
G1 X43.632 Y83.775 Z0 F1600
G1 X43.142 Y83.08 Z0 F1600
G1 X42.7 Y82.443 Z0 F1600
G1 X42.344 Y81.918 Z0 F1600
G1 X41.846 Y81.201 Z0 F1600
G1 X41.488 Y80.678 Z0 F1600
G1 X40.451 Y79.151 Z0 F1600
G1 X40.337 Y78.989 Z0 F1600
G1 X40.233 Y78.857 Z0 F1600
G1 X40.152 Y78.768 Z0 F1600
G1 X40.104 Y78.735 Z0 F1600
G1 X40.041 Y78.751 Z0 F1600
G1 X39.919 Y78.796 Z0 F1600
G1 X39.756 Y78.861 Z0 F1600
G1 X39.569 Y78.941 Z0 F1600
G1 X39.083 Y79.138 Z0 F1600
G1 X38.536 Y79.33 Z0 F1600
G1 X37.946 Y79.512 Z0 F1600
G1 X37.33 Y79.681 Z0 F1600
G1 X36.707 Y79.831 Z0 F1600
G1 X36.095 Y79.959 Z0 F1600
G1 X35.51 Y80.058 Z0 F1600
G1 X34.971 Y80.126 Z0 F1600
G1 X34.544 Y80.159 Z0 F1600
G1 X34.058 Y80.181 Z0 F1600
G1 X33.53 Y80.192 Z0 F1600
G1 X32.982 Z0 F1600
G1 X32.432 Y80.184 Z0 F1600
G1 X31.9 Y80.165 Z0 F1600
G1 X31.406 Y80.135 Z0 F1600
G1 X30.969 Y80.096 Z0 F1600
G1 X29.721 Y79.912 Z0 F1600
G1 X28.473 Y79.639 Z0 F1600
G1 X27.872 Y79.476 Z0 F1600
G1 X27.3 Y79.297 Z0 F1600
G1 X26.764 Y79.107 Z0 F1600
G1 X26.276 Y78.906 Z0 F1600
G1 X26.123 Y78.84 Z0 F1600
G1 X25.99 Y78.785 Z0 F1600
G1 X25.891 Y78.749 Z0 F1600
G1 X25.841 Y78.735 Z0 F1600
M9
M5
G1 Z10 F1000
G90
G1 Z10 F800
