;LightBurn 1.6.04
;Custom GCode device profile, absolute coords
;Bounds: X39.55 Y31.7 to X90.45 Y89.68
G00 G17 G40 G21 G54
G90
M3
G1 Z10 F500
;Scan @ 1600.002 mm/min, 80% power

M8
G0 Z4.8F800
G0 X55.849Y43.78Z4.8F1500
G1 Z0F800
;Layer C1
G91
G1 X0.667Z0S0F1200
G1 X1.159Z0S800F1200
G1 X14.68Z0S0F1200
G1 X1.121Z0S800F1200
G1 X0.666Z0S0F1200
G1 X1.272Y0.9Z0F1200
G1 X-0.667Z0F1200
G1 X-2.984Z0S800F1200
G1 X-13.505Z0S0F1200
G1 X-3.047Z0S800F1200
G1 X-0.667Z0S0F1200
G1 X-1.77Y0.9Z0F1200
G1 X0.667Z0F1200
G1 X5.405Z0S800F1200
G1 X12.32Z0S0F1200
G1 X5.374Z0S800F1200
G1 X0.667Z0S0F1200
G1 X-0.501Y0.9Z0F1200
G1 X-0.667Z0F1200
G1 X-5.471Z0S800F1200
G1 X-11.129Z0S0F1200
G1 X-5.465Z0S800F1200
G1 X-0.667Z0S0F1200
G1 X0.496Y0.9Z0F1200
G1 X0.667Z0F1200
G1 X5.575Z0S800F1200
G1 X9.911Z0S0F1200
G1 X5.571Z0S800F1200
G1 X0.666Z0S0F1200
G1 X-0.5Y0.9Z0F1200
G1 X-0.667Z0F1200
G1 X-5.694Z0S800F1200
G1 X-8.663Z0S0F1200
G1 X-5.697Z0S800F1200
G1 X-0.667Z0S0F1200
G1 X0.476Y0.9Z0F1200
G1 X0.666Z0F1200
G1 X5.858Z0S800F1200
G1 X7.379Z0S0F1200
G1 X5.859Z0S800F1200
G1 X0.667Z0S0F1200
G1 X-0.458Y0.9Z0F1200
G1 X-0.667Z0F1200
G1 X-5.691Z0S800F1200
G1 X-6.859Z0S0F1200
G1 X-5.619Z0S800F1200
G1 X-0.667Z0S0F1200
G1 X0.435Y0.9Z0F1200
G1 X0.666Z0F1200
G1 X3.732Z0S800F1200
G1 X2.193Z0S0F1200
G1 X0.747Z0S800F1200
G1 X3.978Z0S0F1200
G1 X0.701Z0S800F1200
G1 X2.146Z0S0F1200
G1 X3.795Z0S800F1200
G1 X0.667Z0S0F1200
G1 X-0.423Y0.9Z0F1200
G1 X-0.666Z0F1200
G1 X-1.895Z0S800F1200
G1 X-2.135Z0S0F1200
G1 X-3.139Z0S800F1200
G1 X-2.167Z0S0F1200
G1 X-3.109Z0S800F1200
G1 X-2.176Z0S0F1200
G1 X-1.82Z0S800F1200
G1 X-0.667Z0S0F1200
G1 X2.511Y0.9Z0F1200
G1 X0.667Z0F1200
G1 X5.398Z0S800F1200
G1 X1.362Z0S0F1200
G1 X4.623Z0S800F1200
G1 X0.667Z0S0F1200
G1 X1.442Y0.9Z0F1200
G1 X-0.667Z0F1200
G1 X-5.397Z0S800F1200
G1 X-1.3Z0S0F1200
G1 X-7.656Z0S800F1200
G1 X-0.667Z0S0F1200
G1 X0.048Y0.9Z0F1200
G1 X0.667Z0F1200
G1 X8.255Z0S800F1200
G1 X1.272Z0S0F1200
G1 X4.879Z0S800F1200
G1 X0.667Z0S0F1200
G1 X-0.3Y0.9Z0F1200
G1 X-0.667Z0F1200
G1 X-3.996Z0S800F1200
G1 X-1.263Z0S0F1200
G1 X-8.565Z0S800F1200
G1 X-0.667Z0S0F1200
G1 X0.311Y0.9Z0F1200
G1 X0.667Z0F1200
G1 X8.793Z0S800F1200
G1 X1.244Z0S0F1200
G1 X3.159Z0S800F1200
G1 X0.667Z0S0F1200
G1 X-0.347Y0.9Z0F1200
G1 X-0.666Z0F1200
G1 X-2.338Z0S800F1200
G1 X-1.215Z0S0F1200
G1 X-8.953Z0S800F1200
G1 X-0.667Z0S0F1200
G1 X0.392Y0.9Z0F1200
G1 X0.667Z0F1200
G1 X9.037Z0S800F1200
G1 X1.21Z0S0F1200
G1 X1.502Z0S800F1200
G1 X0.666Z0S0F1200
G1 X-0.367Y0.9Z0F1200
G1 X-0.667Z0F1200
G1 X-0.675Z0S800F1200
G1 X-1.215Z0S0F1200
G1 X-9.05Z0S800F1200
G1 X-0.666Z0S0F1200
G1 X0.492Y0.9Z0F1200
G1 X0.667Z0F1200
G1 X8.994Z0S800F1200
G1 X0.667Z0S0F1200
G1 X0.424Y0.9Z0F1200
G1 X-0.666Z0F1200
G1 X-8.881Z0S800F1200
G1 X-0.667Z0S0F1200
G1 X0.575Y0.9Z0F1200
G1 X0.667Z0F1200
G1 X8.721Z0S800F1200
G1 X0.666Z0S0F1200
G1 X0.408Y0.9Z0F1200
G1 X-0.667Z0F1200
G1 X-8.527Z0S800F1200
G1 X-1.289Z0S0F1200
G1 X-0.792Z0S800F1200
G1 X-0.666Z0S0F1200
G1 X-0.41Y0.9Z0F1200
G1 X0.667Z0F1200
G1 X1.787Z0S800F1200
G1 X1.323Z0S0F1200
G1 X8.308Z0S800F1200
G1 X0.667Z0S0F1200
G1 X0.399Y0.9Z0F1200
G1 X-0.667Z0F1200
G1 X-8.076Z0S800F1200
G1 X-1.34Z0S0F1200
G1 X-2.804Z0S800F1200
G1 X-0.666Z0S0F1200
G1 X-0.4Y0.9Z0F1200
G1 X0.667Z0F1200
G1 X3.83Z0S800F1200
G1 X1.345Z0S0F1200
G1 X7.842Z0S800F1200
G1 X0.667Z0S0F1200
G1 X0.4Y0.9Z0F1200
G1 X-0.667Z0F1200
G1 X-7.611Z0S800F1200
G1 X-1.343Z0S0F1200
G1 X-4.856Z0S800F1200
G1 X-0.667Z0S0F1200
G1 X-0.393Y0.9Z0F1200
G1 X0.667Z0F1200
G1 X5.881Z0S800F1200
G1 X1.342Z0S0F1200
G1 X7.38Z0S800F1200
G1 X0.666Z0S0F1200
G1 X0.396Y0.9Z0F1200
G1 X-0.667Z0F1200
G1 X-7.137Z0S800F1200
G1 X-1.385Z0S0F1200
G1 X-6.877Z0S800F1200
G1 X-0.666Z0S0F1200
G1 X-0.397Y0.9Z0F1200
G1 X0.667Z0F1200
G1 X6.83Z0S800F1200
G1 X2.468Z0S0F1200
G1 X6.892Z0S800F1200
G1 X0.666Z0S0F1200
G1 X0.395Y0.9Z0F1200
G1 X-0.667Z0F1200
G1 X-6.641Z0S800F1200
G1 X-3.763Z0S0F1200
G1 X-6.577Z0S800F1200
G1 X-0.666Z0S0F1200
G1 X-0.398Y0.9Z0F1200
G1 X0.667Z0F1200
G1 X6.331Z0S800F1200
G1 X5.064Z0S0F1200
G1 X6.377Z0S800F1200
G1 X0.667Z0S0F1200
G1 X0.395Y0.9Z0F1200
G1 X-0.667Z0F1200
G1 X-6.127Z0S800F1200
G1 X-6.347Z0S0F1200
G1 X-6.092Z0S800F1200
G1 X-0.667Z0S0F1200
G1 X-0.398Y0.9Z0F1200
G1 X0.667Z0F1200
G1 X5.848Z0S800F1200
G1 X7.635Z0S0F1200
G1 X5.875Z0S800F1200
G1 X0.667Z0S0F1200
G1 X0.394Y0.9Z0F1200
G1 X-0.666Z0F1200
G1 X-5.624Z0S800F1200
G1 X-8.922Z0S0F1200
G1 X-5.604Z0S800F1200
G1 X-0.667Z0S0F1200
G1 X-0.396Y0.9Z0F1200
G1 X0.667Z0F1200
G1 X5.358Z0S800F1200
G1 X10.21Z0S0F1200
G1 X5.372Z0S800F1200
G1 X0.667Z0S0F1200
G1 X0.394Y0.9Z0F1200
G1 X-0.667Z0F1200
G1 X-5.122Z0S800F1200
G1 X-11.496Z0S0F1200
G1 X-5.111Z0S800F1200
G1 X-0.667Z0S0F1200
G1 X-0.392Y0.9Z0F1200
G1 X0.666Z0F1200
G1 X4.868Z0S800F1200
G1 X12.776Z0S0F1200
G1 X4.873Z0S800F1200
G1 X0.666Z0S0F1200
G1 X0.395Y0.9Z0F1200
G1 X-0.667Z0F1200
G1 X-4.623Z0S800F1200
G1 X-14.055Z0S0F1200
G1 X-4.633Z0S800F1200
G1 X-0.666Z0S0F1200
G1 X-0.398Y0.9Z0F1200
G1 X0.667Z0F1200
G1 X4.393Z0S800F1200
G1 X15.336Z0S0F1200
G1 X4.374Z0S800F1200
G1 X0.666Z0S0F1200
G1 X0.395Y0.9Z0F1200
G1 X-0.667Z0F1200
G1 X-4.124Z0S800F1200
G1 X-16.616Z0S0F1200
G1 X-4.15Z0S800F1200
G1 X-0.667Z0S0F1200
G1 X-0.393Y0.9Z0F1200
G1 X0.667Z0F1200
G1 X3.906Z0S800F1200
G1 X17.895Z0S0F1200
G1 X3.876Z0S800F1200
G1 X0.667Z0S0F1200
G1 X0.397Y0.9Z0F1200
G1 X-0.667Z0F1200
G1 X-3.64Z0S800F1200
G1 X-19.163Z0S0F1200
G1 X-3.665Z0S800F1200
G1 X-0.667Z0S0F1200
G1 X-0.384Y0.9Z0F1200
G1 X0.667Z0F1200
G1 X3.418Z0S800F1200
G1 X20.425Z0S0F1200
G1 X3.404Z0S800F1200
G1 X0.667Z0S0F1200
G1 X0.391Y0.9Z0F1200
G1 X-0.667Z0F1200
G1 X-3.161Z0S800F1200
G1 X-21.683Z0S0F1200
G1 X-3.187Z0S800F1200
G1 X-0.666Z0S0F1200
G1 X-0.381Y0.9Z0F1200
G1 X0.667Z0F1200
G1 X2.938Z0S800F1200
G1 X22.943Z0S0F1200
G1 X2.924Z0S800F1200
G1 X0.666Z0S0F1200
G1 X0.385Y0.9Z0F1200
G1 X-0.666Z0F1200
G1 X-2.684Z0S800F1200
G1 X-24.201Z0S0F1200
G1 X-2.694Z0S800F1200
G1 X-0.667Z0S0F1200
G1 X-0.387Y0.9Z0F1200
G1 X0.667Z0F1200
G1 X2.449Z0S800F1200
G1 X25.458Z0S0F1200
G1 X2.443Z0S800F1200
G1 X0.667Z0S0F1200
G1 X0.385Y0.9Z0F1200
G1 X-0.667Z0F1200
G1 X-2.202Z0S800F1200
G1 X-26.71Z0S0F1200
G1 X-2.207Z0S800F1200
G1 X-0.667Z0S0F1200
G1 X-0.384Y0.9Z0F1200
G1 X0.667Z0F1200
G1 X1.967Z0S800F1200
G1 X27.956Z0S0F1200
G1 X1.965Z0S800F1200
G1 X0.667Z0S0F1200
G1 X0.379Y0.9Z0F1200
G1 X-0.666Z0F1200
G1 X-1.71Z0S800F1200
G1 X-29.216Z0S0F1200
G1 X-1.724Z0S800F1200
G1 X-0.667Z0S0F1200
G1 X-0.381Y0.9Z0F1200
G1 X0.666Z0F1200
G1 X1.478Z0S800F1200
G1 X30.459Z0S0F1200
G1 X1.465Z0S800F1200
G1 X0.666Z0S0F1200
G1 X0.341Y0.9Z0F1200
G1 X-0.667Z0F1200
G1 X-1.183Z0S800F1200
G1 X-31.732Z0S0F1200
G1 X-1.156Z0S800F1200
G1 X-0.667Z0S0F1200
G90
;Offset @ 1200 mm/min, 80% power

M8
G0 Z4.8F800
G0 X48.32Y37.146Z4.8F1500
G1 Z0F800
;Layer C3
G1 X48.543Y37.974Z0S800F1200
G1 X48.793Y38.765Z0F1200
G1 X49.076Y39.531Z0F1200
G1 X49.393Y40.274Z0F1200
G1 X49.744Y41Z0F1200
G1 X50.133Y41.708Z0F1200
G1 X50.559Y42.405Z0F1200
G1 X51.023Y43.092Z0F1200
G1 X51.062Y43.144Z0F1200
G1 X50.864Y42.983Z0F1200
G1 X50.624Y42.761Z0F1200
G1 X50.37Y42.502Z0F1200
G1 X50.102Y42.208Z0F1200
G1 X50.034Y42.121Z0F1200
G1 X49.932Y41.977Z0F1200
G1 X49.809Y41.788Z0F1200
G1 X49.68Y41.581Z0F1200
G1 X49.403Y41.104Z0F1200
G1 X49.172Y40.663Z0F1200
G1 X49.028Y40.347Z0F1200
G1 X48.906Y40.038Z0F1200
G1 X48.786Y39.684Z0F1200
G1 X48.677Y39.301Z0F1200
G1 X48.582Y38.901Z0F1200
G1 X48.488Y38.438Z0F1200
G1 X48.4Y37.921Z0F1200
G1 X48.322Y37.378Z0F1200
G1 X48.312Y37.28Z0F1200
G1 X48.299Y37.097Z0F1200
G1 X48.295Y37.029Z0F1200
G1 X48.32Y37.146Z0F1200
G0 Z4.8F800
G0 X52.267Y39.796Z4.8F1500
G1 Z0F800
G1 X52.029Y39.388Z0F1200
G1 X51.572Y38.533Z0F1200
G1 X51.119Y37.628Z0F1200
G1 X50.675Y36.683Z0F1200
G1 X50.637Y36.596Z0F1200
G1 X50.7Y36.662Z0F1200
G1 X50.895Y36.872Z0F1200
G1 X51.057Y37.051Z0F1200
G1 X51.237Y37.259Z0F1200
G1 X51.447Y37.506Z0F1200
G1 X51.687Y37.791Z0F1200
G1 X52.371Y38.654Z0F1200
G1 X52.974Y39.507Z0F1200
G1 X53.509Y40.369Z0F1200
G1 X53.994Y41.266Z0F1200
G1 X54.261Y41.834Z0F1200
G1 X54.514Y42.435Z0F1200
G1 X54.599Y42.655Z0F1200
G1 X54.36Y42.814Z0F1200
G1 X54.322Y42.768Z0F1200
G1 X54.003Y42.354Z0F1200
G1 X53.64Y41.857Z0F1200
G1 X53.28Y41.346Z0F1200
G1 X52.908Y40.798Z0F1200
G1 X52.569Y40.28Z0F1200
G1 X52.267Y39.796Z0F1200
G0 Z4.8F800
G0 X51.597Y34.415Z4.8F1500
G1 Z0F800
G1 X51.717Y34.479Z0F1200
G1 X52.277Y34.8Z0F1200
G1 X52.752Y35.099Z0F1200
G1 X53.184Y35.399Z0F1200
G1 X53.587Y35.703Z0F1200
G1 X53.98Y36.026Z0F1200
G1 X54.331Y36.34Z0F1200
G1 X54.663Y36.666Z0F1200
G1 X54.951Y36.979Z0F1200
G1 X55.225Y37.309Z0F1200
G1 X55.465Y37.633Z0F1200
G1 X55.668Y37.943Z0F1200
G1 X55.854Y38.272Z0F1200
G1 X56.003Y38.583Z0F1200
G1 X56.128Y38.898Z0F1200
G1 X56.222Y39.2Z0F1200
G1 X56.288Y39.497Z0F1200
G1 X56.3Y39.585Z0F1200
G1 X55.733Y38.625Z0F1200
G1 X55.113Y37.729Z0F1200
G1 X54.654Y37.157Z0F1200
G1 X54.175Y36.614Z0F1200
G1 X53.673Y36.098Z0F1200
G1 X53.151Y35.61Z0F1200
G1 X52.612Y35.154Z0F1200
G1 X52.057Y34.729Z0F1200
G1 X51.597Y34.415Z0F1200
G0 Z4.8F800
G0 X49.877Y33.56Z4.8F1500
G1 Z0F800
G1 X49.018Y34.055Z0F1200
G1 X48.279Y33.981Z0F1200
G1 X48.255Y34.057Z0F1200
G1 X48.259Y33.822Z0F1200
G1 X48.267Y33.609Z0F1200
G1 X48.276Y33.433Z0F1200
G1 X48.284Y33.338Z0F1200
G1 X48.338Y32.917Z0F1200
G1 X48.457Y32.96Z0F1200
G1 X49.099Y33.219Z0F1200
G1 X49.785Y33.517Z0F1200
G1 X49.877Y33.56Z0F1200
G0 Z4.8F800
G0 X54.563Y35.339Z4.8F1500
G1 Z0F800
G1 X54.948Y35.684Z0F1200
G1 X55.305Y36.035Z0F1200
G1 X55.633Y36.391Z0F1200
G1 X55.932Y36.751Z0F1200
G1 X56.202Y37.116Z0F1200
G1 X56.442Y37.483Z0F1200
G1 X56.651Y37.853Z0F1200
G1 X56.83Y38.224Z0F1200
G1 X56.977Y38.596Z0F1200
G1 X57.092Y38.969Z0F1200
G1 X57.175Y39.341Z0F1200
G1 X57.226Y39.713Z0F1200
G1 X57.242Y40.082Z0F1200
G1 X57.233Y40.372Z0F1200
G1 X57.207Y40.633Z0F1200
G1 X57.16Y40.875Z0F1200
G1 X57.092Y41.109Z0F1200
G1 X56.953Y41.459Z0F1200
G1 X56.771Y41.848Z0F1200
G1 X56.681Y42.021Z0F1200
G1 X56.602Y42.162Z0F1200
G1 X56.54Y42.256Z0F1200
G1 X56.501Y42.291Z0F1200
G1 X56.48Y42.253Z0F1200
G1 X56.439Y42.151Z0F1200
G1 X56.384Y42Z0F1200
G1 X56.322Y41.815Z0F1200
G1 X56.175Y41.41Z0F1200
G1 X55.989Y40.973Z0F1200
G1 X55.77Y40.512Z0F1200
G1 X55.524Y40.041Z0F1200
G1 X54.975Y39.11Z0F1200
G1 X54.392Y38.268Z0F1200
G1 X53.965Y37.736Z0F1200
G1 X53.515Y37.226Z0F1200
G1 X53.043Y36.741Z0F1200
G1 X52.553Y36.283Z0F1200
G1 X52.047Y35.855Z0F1200
G1 X51.529Y35.459Z0F1200
G1 X51.001Y35.098Z0F1200
G1 X50.467Y34.775Z0F1200
G1 X50.241Y34.65Z0F1200
G1 X50.081Y34.57Z0F1200
G1 X49.986Y34.536Z0F1200
G1 X49.958Y34.553Z0F1200
G1 X49.996Y34.622Z0F1200
G1 X50.1Y34.748Z0F1200
G1 X50.272Y34.932Z0F1200
G1 X51.132Y35.812Z0F1200
G1 X51.359Y36.049Z0F1200
G1 X51.554Y36.259Z0F1200
G1 X51.736Y36.461Z0F1200
G1 X51.923Y36.676Z0F1200
G1 X52.133Y36.923Z0F1200
G1 X52.384Y37.223Z0F1200
G1 X53.092Y38.116Z0F1200
G1 X53.725Y39.01Z0F1200
G1 X54.29Y39.919Z0F1200
G1 X54.796Y40.858Z0F1200
G1 X55.083Y41.469Z0F1200
G1 X55.349Y42.097Z0F1200
G1 X55.458Y42.38Z0F1200
G1 X55.543Y42.621Z0F1200
G1 X55.599Y42.806Z0F1200
G1 X55.619Y42.92Z0F1200
G1 X55.583Y42.993Z0F1200
G1 X55.486Y43.098Z0F1200
G1 X55.341Y43.224Z0F1200
G1 X55.161Y43.362Z0F1200
G1 X54.75Y43.636Z0F1200
G1 X54.362Y43.838Z0F1200
G1 X54.226Y43.888Z0F1200
G1 X54.132Z0F1200
G1 X54.043Y43.829Z0F1200
G1 X53.921Y43.695Z0F1200
G1 X53.623Y43.334Z0F1200
G1 X53.282Y42.891Z0F1200
G1 X52.914Y42.389Z0F1200
G1 X52.536Y41.853Z0F1200
G1 X52.163Y41.304Z0F1200
G1 X51.812Y40.767Z0F1200
G1 X51.499Y40.265Z0F1200
G1 X51.24Y39.821Z0F1200
G1 X50.778Y38.958Z0F1200
G1 X50.309Y38.019Z0F1200
G1 X49.855Y37.055Z0F1200
G1 X49.443Y36.116Z0F1200
G1 X49.255Y35.674Z0F1200
G1 X49.033Y35.164Z0F1200
G1 X48.948Y34.981Z0F1200
G1 X48.931Y34.951Z0F1200
G1 X48.916Z0F1200
G1 X48.907Y34.979Z0F1200
G1 X48.904Y35.036Z0F1200
G1 Y35.118Z0F1200
G1 X48.924Y35.344Z0F1200
G1 X48.958Y35.632Z0F1200
G1 X49.064Y36.302Z0F1200
G1 X49.196Y36.938Z0F1200
G1 X49.407Y37.721Z0F1200
G1 X49.645Y38.473Z0F1200
G1 X49.913Y39.199Z0F1200
G1 X50.212Y39.902Z0F1200
G1 X50.544Y40.586Z0F1200
G1 X50.912Y41.257Z0F1200
G1 X51.316Y41.918Z0F1200
G1 X51.76Y42.574Z0F1200
G1 X52.149Y43.107Z0F1200
G1 X52.543Y43.621Z0F1200
G1 X52.717Y43.839Z0F1200
G1 X52.861Y44.014Z0F1200
G1 X52.968Y44.133Z0F1200
G1 X53.025Y44.185Z0F1200
G1 X53.063Y44.231Z0F1200
G1 X53.078Y44.309Z0F1200
G1 X53.031Y44.35Z0F1200
G1 X52.902Y44.381Z0F1200
G1 X52.709Y44.402Z0F1200
G1 X52.473Y44.411Z0F1200
G1 X51.943Y44.396Z0F1200
G1 X51.461Y44.333Z0F1200
G1 X51.236Y44.269Z0F1200
G1 X51.007Y44.171Z0F1200
G1 X50.772Y44.039Z0F1200
G1 X50.527Y43.87Z0F1200
G1 X50.271Y43.661Z0F1200
G1 X50.002Y43.412Z0F1200
G1 X49.716Y43.121Z0F1200
G1 X49.411Y42.785Z0F1200
G1 X49.313Y42.661Z0F1200
G1 X49.191Y42.489Z0F1200
G1 X49.055Y42.28Z0F1200
G1 X48.909Y42.046Z0F1200
G1 X48.616Y41.54Z0F1200
G1 X48.362Y41.056Z0F1200
G1 X48.202Y40.706Z0F1200
G1 X48.058Y40.34Z0F1200
G1 X47.927Y39.952Z0F1200
G1 X47.809Y39.537Z0F1200
G1 X47.701Y39.089Z0F1200
G1 X47.603Y38.603Z0F1200
G1 X47.513Y38.072Z0F1200
G1 X47.429Y37.492Z0F1200
G1 X47.414Y37.351Z0F1200
G1 X47.401Y37.158Z0F1200
G1 X47.389Y36.923Z0F1200
G1 X47.378Y36.651Z0F1200
G1 X47.362Y36.029Z0F1200
G1 X47.353Y35.351Z0F1200
G1 X47.35Y34.674Z0F1200
G1 X47.354Y34.059Z0F1200
G1 X47.36Y33.792Z0F1200
G1 X47.368Y33.562Z0F1200
G1 X47.377Y33.376Z0F1200
G1 X47.389Y33.243Z0F1200
G1 X47.507Y32.322Z0F1200
G1 X47.54Y32.082Z0F1200
G1 X47.568Y31.886Z0F1200
G1 X47.591Y31.753Z0F1200
G1 X47.603Y31.704Z0F1200
G1 X47.758Y31.754Z0F1200
G1 X48.107Y31.874Z0F1200
G1 X48.767Y32.115Z0F1200
G1 X49.454Y32.392Z0F1200
G1 X50.153Y32.696Z0F1200
G1 X50.847Y33.019Z0F1200
G1 X51.521Y33.354Z0F1200
G1 X52.155Y33.692Z0F1200
G1 X52.736Y34.026Z0F1200
G1 X53.246Y34.347Z0F1200
G1 X53.711Y34.67Z0F1200
G1 X54.151Y35.001Z0F1200
G1 X54.563Y35.339Z0F1200
G0 Z4.8F800
G0 X81.639Y37.555Z4.8F1500
G1 Z0F800
G1 X81.525Y38.366Z0F1200
G1 X81.349Y39.153Z0F1200
G1 X81.134Y39.85Z0F1200
G1 X80.861Y40.523Z0F1200
G1 X80.535Y41.168Z0F1200
G1 X80.172Y41.761Z0F1200
G1 X79.779Y42.289Z0F1200
G1 X79.372Y42.736Z0F1200
G1 X79.178Y42.916Z0F1200
G1 X78.984Y43.072Z0F1200
G1 X78.954Y43.093Z0F1200
G1 X79.166Y42.796Z0F1200
G1 X79.384Y42.481Z0F1200
G1 X79.569Y42.203Z0F1200
G1 X80.114Y41.27Z0F1200
G1 X80.623Y40.241Z0F1200
G1 X81.075Y39.157Z0F1200
G1 X81.458Y38.045Z0F1200
G1 X81.657Y37.295Z0F1200
G1 X81.66Y37.284Z0F1200
G1 X81.639Y37.555Z0F1200
G0 Z4.8F800
G0 X77.899Y39.493Z4.8F1500
G1 Z0F800
G1 X77.401Y40.315Z0F1200
G1 X76.893Y41.088Z0F1200
G1 X76.34Y41.867Z0F1200
G1 X75.742Y42.652Z0F1200
G1 X75.62Y42.807Z0F1200
G1 X75.554Y42.768Z0F1200
G1 X75.348Y42.63Z0F1200
G1 X75.407Y42.484Z0F1200
G1 X75.53Y42.198Z0F1200
G1 X75.682Y41.865Z0F1200
G1 X75.835Y41.541Z0F1200
G1 X76.009Y41.193Z0F1200
G1 X76.376Y40.507Z0F1200
G1 X76.774Y39.84Z0F1200
G1 X77.204Y39.193Z0F1200
G1 X77.684Y38.535Z0F1200
G1 X78.21Y37.875Z0F1200
G1 X78.812Y37.177Z0F1200
G1 X79.382Y36.559Z0F1200
G1 X79.268Y36.82Z0F1200
G1 X78.822Y37.763Z0F1200
G1 X78.366Y38.653Z0F1200
G1 X77.899Y39.493Z0F1200
G0 Z4.8F800
G0 X73.723Y39.473Z4.8F1500
G1 Z0F800
G1 X73.729Y39.413Z0F1200
G1 X73.763Y39.224Z0F1200
G1 X73.824Y39.02Z0F1200
G1 X73.977Y38.62Z0F1200
G1 X74.159Y38.234Z0F1200
G1 X74.374Y37.859Z0F1200
G1 X74.628Y37.482Z0F1200
G1 X74.924Y37.104Z0F1200
G1 X75.273Y36.713Z0F1200
G1 X75.668Y36.314Z0F1200
G1 X76.124Y35.896Z0F1200
G1 X76.357Y35.697Z0F1200
G1 X76.561Y35.541Z0F1200
G1 X76.68Y35.456Z0F1200
G1 X76.848Y35.342Z0F1200
G1 X77.832Y34.702Z0F1200
G1 X78.023Y34.574Z0F1200
G1 X78.173Y34.471Z0F1200
G1 X78.262Y34.421Z0F1200
G1 X78.445Y34.324Z0F1200
G1 X78.653Y34.22Z0F1200
G1 X78.842Y34.13Z0F1200
G1 X78.304Y34.465Z0F1200
G1 X77.744Y34.854Z0F1200
G1 X77.408Y35.121Z0F1200
G1 X77.047Y35.431Z0F1200
G1 X76.677Y35.767Z0F1200
G1 X76.319Y36.106Z0F1200
G1 X75.994Y36.429Z0F1200
G1 X75.726Y36.714Z0F1200
G1 X75.607Y36.851Z0F1200
G1 X75.498Y36.991Z0F1200
G1 X75.441Y37.081Z0F1200
G1 X75.37Y37.143Z0F1200
G1 X75.196Y37.322Z0F1200
G1 X75.018Y37.529Z0F1200
G1 X74.382Y38.385Z0F1200
G1 X73.798Y39.328Z0F1200
G1 X73.723Y39.473Z0F1200
G0 Z4.8F800
G0 X79.843Y33.667Z4.8F1500
G1 Z0F800
G1 X80.495Y33.38Z0F1200
G1 X81.13Y33.112Z0F1200
G1 X81.436Y32.988Z0F1200
G1 X81.644Y32.905Z0F1200
G1 X81.672Y33.406Z0F1200
G1 X81.694Y34.001Z0F1200
G1 X81.704Y34.438Z0F1200
G1 X81.32Y33.857Z0F1200
G1 X80.971Y34.078Z0F1200
G1 X81.029Y33.528Z0F1200
G1 X79.843Y33.667Z0F1200
G0 Z4.8F800
G0 X77.518Y33.83Z4.8F1500
G1 Z0F800
G1 X77.693Y33.709Z0F1200
G1 X77.835Y33.628Z0F1200
G1 X78.025Y33.528Z0F1200
G1 X78.256Y33.412Z0F1200
G1 X78.814Y33.146Z0F1200
G1 X79.457Y32.853Z0F1200
G1 X80.133Y32.556Z0F1200
G1 X80.791Y32.279Z0F1200
G1 X81.096Y32.154Z0F1200
G1 X81.376Y32.044Z0F1200
G1 X81.626Y31.95Z0F1200
G1 X81.839Y31.875Z0F1200
G1 X82.201Y31.758Z0F1200
G1 X82.321Y31.722Z0F1200
G1 X82.377Y31.708Z0F1200
G1 X82.4Y31.727Z0F1200
G1 X82.422Y31.786Z0F1200
G1 X82.444Y31.882Z0F1200
G1 X82.465Y32.013Z0F1200
G1 X82.485Y32.175Z0F1200
G1 X82.505Y32.367Z0F1200
G1 X82.523Y32.585Z0F1200
G1 X82.541Y32.828Z0F1200
G1 X82.571Y33.373Z0F1200
G1 X82.594Y33.981Z0F1200
G1 X82.609Y34.632Z0F1200
G1 X82.614Y35.304Z0F1200
G1 X82.609Y36.015Z0F1200
G1 X82.596Y36.631Z0F1200
G1 X82.571Y37.171Z0F1200
G1 X82.534Y37.654Z0F1200
G1 X82.413Y38.522Z0F1200
G1 X82.218Y39.386Z0F1200
G1 X81.983Y40.152Z0F1200
G1 X81.681Y40.897Z0F1200
G1 X81.322Y41.606Z0F1200
G1 X80.918Y42.266Z0F1200
G1 X80.477Y42.859Z0F1200
G1 X80.009Y43.374Z0F1200
G1 X79.768Y43.596Z0F1200
G1 X79.524Y43.793Z0F1200
G1 X79.279Y43.963Z0F1200
G1 X79.033Y44.104Z0F1200
G1 X78.732Y44.249Z0F1200
G1 X78.484Y44.331Z0F1200
G1 X78.349Y44.355Z0F1200
G1 X78.191Y44.373Z0F1200
G1 X77.998Y44.385Z0F1200
G1 X77.757Y44.395Z0F1200
G1 X77.455Y44.402Z0F1200
G1 X77.199Y44.398Z0F1200
G1 X77.096Y44.393Z0F1200
G1 X77.015Y44.385Z0F1200
G1 X76.959Y44.375Z0F1200
G1 X76.931Y44.363Z0F1200
G1 X76.923Y44.32Z0F1200
G1 X76.95Y44.249Z0F1200
G1 X77.006Y44.157Z0F1200
G1 X77.087Y44.056Z0F1200
G1 X77.246Y43.866Z0F1200
G1 X77.45Y43.606Z0F1200
G1 X77.686Y43.297Z0F1200
G1 X77.938Y42.959Z0F1200
G1 X78.191Y42.613Z0F1200
G1 X78.43Y42.278Z0F1200
G1 X78.64Y41.976Z0F1200
G1 X78.805Y41.727Z0F1200
G1 X79.321Y40.843Z0F1200
G1 X79.803Y39.868Z0F1200
G1 X80.233Y38.836Z0F1200
G1 X80.596Y37.782Z0F1200
G1 X80.782Y37.086Z0F1200
G1 X80.945Y36.314Z0F1200
G1 X81.009Y35.95Z0F1200
G1 X81.056Y35.626Z0F1200
G1 X81.082Y35.365Z0F1200
G1 Y35.184Z0F1200
G1 X81.074Y35.118Z0F1200
G1 X81.056Y35.09Z0F1200
G1 X81.025Y35.11Z0F1200
G1 X80.978Y35.183Z0F1200
G1 X80.91Y35.316Z0F1200
G1 X80.817Y35.519Z0F1200
G1 X80.696Y35.797Z0F1200
G1 X80.542Y36.159Z0F1200
G1 X80.087Y37.192Z0F1200
G1 X79.629Y38.162Z0F1200
G1 X79.161Y39.076Z0F1200
G1 X78.676Y39.947Z0F1200
G1 X78.168Y40.786Z0F1200
G1 X77.632Y41.602Z0F1200
G1 X77.062Y42.406Z0F1200
G1 X76.449Y43.208Z0F1200
G1 X75.9Y43.907Z0F1200
G1 X75.865Y43.919Z0F1200
G1 X75.803Y43.91Z0F1200
G1 X75.716Y43.88Z0F1200
G1 X75.61Y43.833Z0F1200
G1 X75.356Y43.699Z0F1200
G1 X75.073Y43.528Z0F1200
G1 X74.794Y43.342Z0F1200
G1 X74.555Y43.163Z0F1200
G1 X74.459Y43.081Z0F1200
G1 X74.386Y43.009Z0F1200
G1 X74.339Y42.95Z0F1200
G1 X74.322Y42.905Z0F1200
G1 X74.34Y42.792Z0F1200
G1 X74.391Y42.621Z0F1200
G1 X74.472Y42.396Z0F1200
G1 X74.58Y42.128Z0F1200
G1 X74.711Y41.825Z0F1200
G1 X74.862Y41.492Z0F1200
G1 X75.03Y41.14Z0F1200
G1 X75.211Y40.776Z0F1200
G1 X75.593Y40.063Z0F1200
G1 X76.01Y39.366Z0F1200
G1 X76.466Y38.677Z0F1200
G1 X76.968Y37.989Z0F1200
G1 X77.521Y37.295Z0F1200
G1 X78.13Y36.589Z0F1200
G1 X78.8Y35.864Z0F1200
G1 X79.736Y34.907Z0F1200
G1 X79.893Y34.733Z0F1200
G1 X79.951Y34.664Z0F1200
G1 X79.992Y34.609Z0F1200
G1 X80.015Y34.571Z0F1200
G1 Y34.552Z0F1200
G1 X79.95Y34.56Z0F1200
G1 X79.805Y34.623Z0F1200
G1 X79.6Y34.73Z0F1200
G1 X79.353Y34.872Z0F1200
G1 X78.798Y35.217Z0F1200
G1 X78.282Y35.576Z0F1200
G1 X77.982Y35.814Z0F1200
G1 X77.643Y36.106Z0F1200
G1 X77.289Y36.427Z0F1200
G1 X76.946Y36.752Z0F1200
G1 X76.639Y37.057Z0F1200
G1 X76.394Y37.318Z0F1200
G1 X76.302Y37.424Z0F1200
G1 X76.234Y37.51Z0F1200
G1 X76.195Y37.572Z0F1200
G1 X76.187Y37.608Z0F1200
G1 Y37.669Z0F1200
G1 X76.145Y37.685Z0F1200
G1 X76.087Y37.712Z0F1200
G1 X75.988Y37.797Z0F1200
G1 X75.861Y37.929Z0F1200
G1 X75.721Y38.092Z0F1200
G1 X75.127Y38.892Z0F1200
G1 X74.581Y39.772Z0F1200
G1 X74.106Y40.692Z0F1200
G1 X73.724Y41.611Z0F1200
G1 X73.498Y42.238Z0F1200
G1 X73.343Y42.021Z0F1200
G1 X73.178Y41.748Z0F1200
G1 X72.997Y41.395Z0F1200
G1 X72.892Y41.148Z0F1200
G1 X72.834Y40.912Z0F1200
G1 X72.819Y40.77Z0F1200
G1 X72.81Y40.595Z0F1200
G1 X72.806Y40.376Z0F1200
G1 Y40.103Z0F1200
G1 Y39.848Z0F1200
G1 X72.811Y39.633Z0F1200
G1 X72.821Y39.451Z0F1200
G1 X72.836Y39.292Z0F1200
G1 X72.887Y39.013Z0F1200
G1 X72.972Y38.727Z0F1200
G1 X73.148Y38.266Z0F1200
G1 X73.359Y37.819Z0F1200
G1 X73.609Y37.383Z0F1200
G1 X73.899Y36.954Z0F1200
G1 X74.234Y36.526Z0F1200
G1 X74.616Y36.098Z0F1200
G1 X75.047Y35.663Z0F1200
G1 X75.531Y35.22Z0F1200
G1 X75.787Y35.001Z0F1200
G1 X76.032Y34.812Z0F1200
G1 X76.174Y34.711Z0F1200
G1 X76.342Y34.598Z0F1200
G1 X77.336Y33.951Z0F1200
G1 X77.518Y33.83Z0F1200
;Cut @ 1600.002 mm/min, 90% power

M8
G0 Z4.8F800
G0 X67.812Y38.397Z4.8F1500
G1 Z0F800
;Layer C2
G1 X67.746Y38.386Z0S900F1200
G1 X67.59Y38.375Z0F1200
G1 X67.356Y38.366Z0F1200
G1 X67.052Y38.357Z0F1200
G1 X66.69Y38.35Z0F1200
G1 X66.278Y38.345Z0F1200
G1 X65.828Y38.341Z0F1200
G1 X65.024Z0F1200
G1 X64.455Z0F1200
G1 X63.793Y38.349Z0F1200
G1 X63.467Y38.358Z0F1200
G1 X63.224Y38.37Z0F1200
G1 X63.054Y38.385Z0F1200
G1 X62.95Y38.404Z0F1200
G1 X62.903Y38.427Z0F1200
G1 X62.885Y38.464Z0F1200
G1 X62.86Y38.536Z0F1200
G1 X62.83Y38.64Z0F1200
G1 X62.797Y38.769Z0F1200
G1 X62.721Y39.091Z0F1200
G1 X62.643Y39.468Z0F1200
G1 X62.559Y39.885Z0F1200
G1 X62.389Y40.713Z0F1200
G1 X62.269Y41.28Z0F1200
G1 X62.216Y41.542Z0F1200
G1 X62.173Y41.777Z0F1200
G1 X62.144Y41.954Z0F1200
G1 X62.129Y42.075Z0F1200
G1 X62.113Y42.164Z0F1200
G1 X62.081Y42.229Z0F1200
G1 X62.015Y42.277Z0F1200
G1 X61.901Y42.316Z0F1200
G1 X61.723Y42.355Z0F1200
G1 X61.464Y42.4Z0F1200
G1 X60.944Y42.487Z0F1200
G1 X60.814Y42.506Z0F1200
G1 X60.713Y42.516Z0F1200
G1 X60.636Y42.519Z0F1200
G1 X60.534Y42.497Z0F1200
G1 X60.465Y42.44Z0F1200
G1 X60.435Y42.401Z0F1200
G1 X60.325Y42.247Z0F1200
G1 X60.061Y41.861Z0F1200
G1 X59.84Y41.531Z0F1200
G1 X59.353Y40.794Z0F1200
G1 X58.761Y39.879Z0F1200
G1 X58.641Y39.702Z0F1200
G1 X58.554Y39.583Z0F1200
G1 X58.513Y39.539Z0F1200
G1 X58.505Y39.557Z0F1200
G1 X58.499Y39.61Z0F1200
G1 X58.493Y39.693Z0F1200
G1 X58.487Y39.803Z0F1200
G1 X58.479Y40.089Z0F1200
G1 X58.473Y40.712Z0F1200
G1 X58.468Y40.935Z0F1200
G1 X58.458Y41.121Z0F1200
G1 X58.441Y41.281Z0F1200
G1 X58.381Y41.568Z0F1200
G1 X58.275Y41.89Z0F1200
G1 X58.078Y42.441Z0F1200
G1 X59.397Y44.414Z0F1200
G1 X59.913Y45.182Z0F1200
G1 X60.343Y45.816Z0F1200
G1 X60.641Y46.249Z0F1200
G1 X60.728Y46.37Z0F1200
G1 X60.764Y46.416Z0F1200
G1 X60.818Z0F1200
G1 X60.931Y46.399Z0F1200
G1 X61.087Y46.365Z0F1200
G1 X61.268Y46.319Z0F1200
G1 X61.634Y46.229Z0F1200
G1 X62.037Y46.151Z0F1200
G1 X62.472Y46.085Z0F1200
G1 X62.933Y46.03Z0F1200
G1 X63.912Y45.958Z0F1200
G1 X64.932Y45.934Z0F1200
G1 X65.952Y45.957Z0F1200
G1 X66.93Y46.028Z0F1200
G1 X67.389Y46.082Z0F1200
G1 X67.823Y46.147Z0F1200
G1 X68.225Y46.225Z0F1200
G1 X68.59Y46.315Z0F1200
G1 X68.799Y46.372Z0F1200
G1 X68.961Y46.413Z0F1200
G1 X69.083Y46.437Z0F1200
G1 X69.172Y46.445Z0F1200
G1 X69.281Y46.414Z0F1200
G1 X69.347Y46.317Z0F1200
G1 X69.378Y46.265Z0F1200
G1 X69.525Y46.038Z0F1200
G1 X69.908Y45.469Z0F1200
G1 X70.229Y45Z0F1200
G1 X71.308Y43.433Z0F1200
G1 X71.407Y43.278Z0F1200
G1 X71.48Y43.143Z0F1200
G1 X71.52Y43.042Z0F1200
G1 Y42.99Z0F1200
G1 X71.493Y42.977Z0F1200
G1 X71.435Y42.956Z0F1200
G1 X71.238Y42.895Z0F1200
G1 X70.953Y42.815Z0F1200
G1 X70.605Y42.722Z0F1200
G1 X69.817Y42.522Z0F1200
G1 X69.07Y42.348Z0F1200
G1 X68.652Y42.256Z0F1200
G1 X68.116Y39.543Z0F1200
G1 X68.026Y39.116Z0F1200
G1 X67.938Y38.757Z0F1200
G1 X67.899Y38.616Z0F1200
G1 X67.864Y38.505Z0F1200
G1 X67.834Y38.431Z0F1200
G1 X67.812Y38.397Z0F1200
G0 Z4.8F800
G0 X77.418Y46.323Z4.8F1500
G1 Z0F800
G1 X76.405Y48.314Z0F1200
G1 X76.153Y48.802Z0F1200
G1 X75.965Y49.16Z0F1200
G1 X75.869Y49.336Z0F1200
G1 X75.826Y49.439Z0F1200
G1 X75.867Y49.552Z0F1200
G1 X75.932Y49.63Z0F1200
G1 X76.034Y49.732Z0F1200
G1 X76.178Y49.866Z0F1200
G1 X76.369Y50.038Z0F1200
G1 X77.172Y50.787Z0F1200
G1 X77.913Y51.538Z0F1200
G1 X78.593Y52.292Z0F1200
G1 X79.215Y53.053Z0F1200
G1 X79.781Y53.824Z0F1200
G1 X80.294Y54.609Z0F1200
G1 X80.757Y55.41Z0F1200
G1 X81.172Y56.231Z0F1200
G1 X81.337Y56.604Z0F1200
G1 X81.511Y57.031Z0F1200
G1 X81.686Y57.497Z0F1200
G1 X81.857Y57.984Z0F1200
G1 X82.02Y58.478Z0F1200
G1 X82.167Y58.961Z0F1200
G1 X82.295Y59.417Z0F1200
G1 X82.397Y59.83Z0F1200
G1 X82.582Y60.787Z0F1200
G1 X82.716Y61.774Z0F1200
G1 X82.798Y62.78Z0F1200
G1 X82.828Y63.792Z0F1200
G1 X82.806Y64.798Z0F1200
G1 X82.731Y65.787Z0F1200
G1 X82.605Y66.747Z0F1200
G1 X82.427Y67.664Z0F1200
G1 X82.357Y67.953Z0F1200
G1 X82.269Y68.284Z0F1200
G1 X82.171Y68.637Z0F1200
G1 X82.065Y68.997Z0F1200
G1 X81.959Y69.344Z0F1200
G1 X81.858Y69.661Z0F1200
G1 X81.766Y69.931Z0F1200
G1 X81.689Y70.135Z0F1200
G1 X81.47Y70.664Z0F1200
G1 X81.377Y70.873Z0F1200
G1 X81.238Y71.162Z0F1200
G1 X81.07Y71.502Z0F1200
G1 X80.886Y71.865Z0F1200
G1 X80.702Y72.222Z0F1200
G1 X80.532Y72.543Z0F1200
G1 X80.457Y72.681Z0F1200
G1 X80.336Y72.896Z0F1200
G1 X80.293Y72.964Z0F1200
G1 X80.166Y73.155Z0F1200
G1 X79.994Y73.407Z0F1200
G1 X79.586Y73.993Z0F1200
G1 X79.213Y74.521Z0F1200
G1 X79.083Y74.699Z0F1200
G1 X79.016Y74.786Z0F1200
G1 X78.872Y74.954Z0F1200
G1 X78.627Y75.249Z0F1200
G1 X78.31Y75.622Z0F1200
G1 X77.992Y75.979Z0F1200
G1 X77.866Y76.119Z0F1200
G1 X77.755Y76.247Z0F1200
G1 X77.672Y76.347Z0F1200
G1 X77.629Y76.405Z0F1200
G1 Y76.454Z0F1200
G1 X77.649Y76.547Z0F1200
G1 X77.695Y76.687Z0F1200
G1 X77.768Y76.876Z0F1200
G1 X77.866Y77.114Z0F1200
G1 X77.991Y77.403Z0F1200
G1 X78.143Y77.744Z0F1200
G1 X78.323Y78.139Z0F1200
G1 X78.458Y78.445Z0F1200
G1 X78.75Y79.131Z0F1200
G1 X78.861Y79.384Z0F1200
G1 X78.961Y79.602Z0F1200
G1 X79.049Y79.785Z0F1200
G1 X79.123Y79.93Z0F1200
G1 X79.184Y80.035Z0F1200
G1 X79.231Y80.1Z0F1200
G1 X79.262Y80.122Z0F1200
G1 X79.317Y80.091Z0F1200
G1 X79.424Y80.007Z0F1200
G1 X79.568Y79.882Z0F1200
G1 X79.733Y79.73Z0F1200
G1 X80.441Y79.059Z0F1200
G1 X81.696Y79.642Z0F1200
G1 X82.792Y80.139Z0F1200
G1 X83.135Y80.291Z0F1200
G1 X83.421Y80.404Z0F1200
G1 X83.656Y80.48Z0F1200
G1 X83.846Y80.52Z0F1200
G1 X83.997Y80.524Z0F1200
G1 X84.115Y80.493Z0F1200
G1 X84.206Y80.428Z0F1200
G1 X84.276Y80.33Z0F1200
G1 X84.304Y80.284Z0F1200
G1 X84.441Y80.083Z0F1200
G1 X84.807Y79.562Z0F1200
G1 X85.128Y79.11Z0F1200
G1 X85.866Y78.083Z0F1200
G1 X86.594Y77.082Z0F1200
G1 X86.762Y76.842Z0F1200
G1 X86.9Y76.627Z0F1200
G1 X86.992Y76.458Z0F1200
G1 X87.027Y76.36Z0F1200
G1 X86.992Y76.272Z0F1200
G1 X86.897Y76.129Z0F1200
G1 X86.757Y75.952Z0F1200
G1 X86.585Y75.761Z0F1200
G1 X85.544Y74.659Z0F1200
G1 X85.085Y74.168Z0F1200
G1 X84.915Y73.982Z0F1200
G1 X84.78Y73.829Z0F1200
G1 X84.676Y73.707Z0F1200
G1 X84.6Y73.609Z0F1200
G1 X84.548Y73.532Z0F1200
G1 X84.516Y73.471Z0F1200
G1 X84.501Y73.422Z0F1200
G1 X84.508Y73.342Z0F1200
G1 X84.588Y73.12Z0F1200
G1 X84.667Y72.919Z0F1200
G1 X84.765Y72.679Z0F1200
G1 X85.117Y71.839Z0F1200
G1 X85.44Y71.038Z0F1200
G1 X85.527Y70.838Z0F1200
G1 X85.6Y70.688Z0F1200
G1 X85.65Y70.608Z0F1200
G1 X85.693Y70.584Z0F1200
G1 X85.783Y70.563Z0F1200
G1 X85.922Y70.544Z0F1200
G1 X86.118Y70.528Z0F1200
G1 X86.373Y70.513Z0F1200
G1 X86.695Y70.499Z0F1200
G1 X87.087Y70.486Z0F1200
G1 X88.091Y70.46Z0F1200
G1 X88.514Y70.446Z0F1200
G1 X88.841Y70.432Z0F1200
G1 X89.084Y70.416Z0F1200
G1 X89.257Y70.397Z0F1200
G1 X89.375Y70.373Z0F1200
G1 X89.451Y70.344Z0F1200
G1 X89.499Y70.309Z0F1200
G1 X89.557Y70.212Z0F1200
G1 X89.619Y70.039Z0F1200
G1 X89.681Y69.806Z0F1200
G1 X89.738Y69.526Z0F1200
G1 X89.835Y68.995Z0F1200
G1 X89.951Y68.37Z0F1200
G1 X90.308Y66.497Z0F1200
G1 X90.376Y66.116Z0F1200
G1 X90.425Y65.788Z0F1200
G1 X90.441Y65.654Z0F1200
G1 X90.45Y65.546Z0F1200
G1 X90.453Y65.468Z0F1200
G1 X90.447Y65.426Z0F1200
G1 X90.406Y65.346Z0F1200
G1 X90.285Y65.271Z0F1200
G1 X90.159Y65.219Z0F1200
G1 X89.971Y65.15Z0F1200
G1 X88.879Y64.766Z0F1200
G1 X88.422Y64.602Z0F1200
G1 X87.997Y64.447Z0F1200
G1 X87.616Y64.305Z0F1200
G1 X87.293Y64.181Z0F1200
G1 X87.04Y64.08Z0F1200
G1 X86.869Y64.007Z0F1200
G1 X86.819Y63.982Z0F1200
G1 X86.794Y63.966Z0F1200
G1 X86.782Y63.929Z0F1200
G1 X86.767Y63.842Z0F1200
G1 X86.752Y63.713Z0F1200
G1 X86.735Y63.546Z0F1200
G1 X86.702Y63.121Z0F1200
G1 X86.672Y62.612Z0F1200
G1 X86.643Y62.087Z0F1200
G1 X86.616Y61.619Z0F1200
G1 X86.593Y61.259Z0F1200
G1 X86.577Y61.058Z0F1200
G1 X86.569Y60.912Z0F1200
G1 X86.604Y60.814Z0F1200
G1 X86.646Y60.772Z0F1200
G1 X86.709Y60.729Z0F1200
G1 X86.796Y60.68Z0F1200
G1 X87.818Y60.142Z0F1200
G1 X88.741Y59.632Z0F1200
G1 X89.143Y59.401Z0F1200
G1 X89.47Y59.207Z0F1200
G1 X89.598Y59.129Z0F1200
G1 X89.697Y59.064Z0F1200
G1 X89.764Y59.017Z0F1200
G1 X89.796Y58.988Z0F1200
G1 X89.842Y58.848Z0F1200
G1 X89.833Y58.629Z0F1200
G1 X89.807Y58.484Z0F1200
G1 X89.767Y58.313Z0F1200
G1 X89.711Y58.112Z0F1200
G1 X88.869Y55.407Z0F1200
G1 X88.772Y55.11Z0F1200
G1 X88.683Y54.849Z0F1200
G1 X88.603Y54.627Z0F1200
G1 X88.533Y54.445Z0F1200
G1 X88.474Y54.305Z0F1200
G1 X88.426Y54.212Z0F1200
G1 X88.39Y54.166Z0F1200
G1 X88.343Y54.134Z0F1200
G1 X88.284Y54.112Z0F1200
G1 X88.187Y54.103Z0F1200
G1 X88.025Y54.108Z0F1200
G1 X87.912Y54.116Z0F1200
G1 X87.603Y54.144Z0F1200
G1 X87.163Y54.19Z0F1200
G1 X85.368Y54.389Z0F1200
G1 X85.167Y54.408Z0F1200
G1 X84.999Y54.42Z0F1200
G1 X84.859Y54.424Z0F1200
G1 X84.743Y54.42Z0F1200
G1 X84.649Y54.406Z0F1200
G1 X84.508Y54.345Z0F1200
G1 X84.406Y54.237Z0F1200
G1 X84.313Y54.074Z0F1200
G1 X84.202Y53.849Z0F1200
G1 X83.87Y53.238Z0F1200
G1 X83.49Y52.588Z0F1200
G1 X83.328Y52.319Z0F1200
G1 X83.196Y52.088Z0F1200
G1 X83.145Y51.994Z0F1200
G1 X83.107Y51.918Z0F1200
G1 X83.083Y51.865Z0F1200
G1 X83.074Y51.836Z0F1200
G1 X83.095Y51.789Z0F1200
G1 X83.155Y51.685Z0F1200
G1 X83.25Y51.53Z0F1200
G1 X83.375Y51.331Z0F1200
G1 X83.526Y51.094Z0F1200
G1 X83.892Y50.533Z0F1200
G1 X84.31Y49.901Z0F1200
G1 X84.504Y49.599Z0F1200
G1 X84.679Y49.322Z0F1200
G1 X84.829Y49.077Z0F1200
G1 X84.951Y48.868Z0F1200
G1 X85.043Y48.702Z0F1200
G1 X85.101Y48.584Z0F1200
G1 X85.121Y48.52Z0F1200
G1 X85.108Y48.466Z0F1200
G1 X85.067Y48.39Z0F1200
G1 X84.998Y48.29Z0F1200
G1 X84.9Y48.165Z0F1200
G1 X84.77Y48.014Z0F1200
G1 X84.609Y47.835Z0F1200
G1 X84.416Y47.626Z0F1200
G1 X84.188Y47.388Z0F1200
G1 X83.559Y46.738Z0F1200
G1 X83.037Y46.201Z0F1200
G1 X82.612Y45.77Z0F1200
G1 X82.276Y45.435Z0F1200
G1 X82.021Y45.19Z0F1200
G1 X81.921Y45.098Z0F1200
G1 X81.838Y45.025Z0F1200
G1 X81.719Y44.932Z0F1200
G1 X81.655Y44.903Z0F1200
G1 X81.602Y44.924Z0F1200
G1 X81.488Y44.987Z0F1200
G1 X81.323Y45.085Z0F1200
G1 X81.112Y45.216Z0F1200
G1 X80.863Y45.373Z0F1200
G1 X80.582Y45.554Z0F1200
G1 X80.276Y45.754Z0F1200
G1 X79.953Y45.968Z0F1200
G1 X78.357Y47.033Z0F1200
G1 X77.418Y46.323Z0F1200
G0 Z4.8F800
G0 X54.207Y49.49Z4.8F1500
G1 Z0F800
G1 X54.183Y49.425Z0F1200
G1 X54.116Y49.288Z0F1200
G1 X54.018Y49.099Z0F1200
G1 X53.637Y48.396Z0F1200
G1 X53.299Y47.76Z0F1200
G1 X52.707Y46.63Z0F1200
G1 X52.59Y46.41Z0F1200
G1 X52.54Y46.322Z0F1200
G1 X52.502Y46.336Z0F1200
G1 X52.414Y46.395Z0F1200
G1 X52.291Y46.489Z0F1200
G1 X51.993Y46.736Z0F1200
G1 X51.855Y46.847Z0F1200
G1 X51.747Y46.931Z0F1200
G1 X51.683Y46.977Z0F1200
G1 X51.648Y46.973Z0F1200
G1 X51.577Y46.943Z0F1200
G1 X51.475Y46.891Z0F1200
G1 X51.344Y46.819Z0F1200
G1 X51.012Y46.623Z0F1200
G1 X50.613Y46.374Z0F1200
G1 X50.177Y46.093Z0F1200
G1 X49.736Y45.798Z0F1200
G1 X49.318Y45.509Z0F1200
G1 X48.783Y45.121Z0F1200
G1 X48.638Y45.031Z0F1200
G1 X48.513Y44.976Z0F1200
G1 X48.402Y44.955Z0F1200
G1 X48.296Y44.968Z0F1200
G1 X48.189Y45.015Z0F1200
G1 X48.073Y45.096Z0F1200
G1 X47.941Y45.21Z0F1200
G1 X47.849Y45.299Z0F1200
G1 X47.707Y45.439Z0F1200
G1 X47.304Y45.847Z0F1200
G1 X46.788Y46.375Z0F1200
G1 X46.217Y46.967Z0F1200
G1 X45.813Y47.389Z0F1200
G1 X45.494Y47.728Z0F1200
G1 X45.25Y47.993Z0F1200
G1 X45.073Y48.195Z0F1200
G1 X44.955Y48.345Z0F1200
G1 X44.886Y48.453Z0F1200
G1 X44.857Y48.53Z0F1200
G1 X44.86Y48.587Z0F1200
G1 X44.88Y48.633Z0F1200
G1 X44.917Y48.705Z0F1200
G1 X44.971Y48.8Z0F1200
G1 X45.037Y48.913Z0F1200
G1 X45.202Y49.181Z0F1200
G1 X45.394Y49.479Z0F1200
G1 X45.582Y49.767Z0F1200
G1 X45.796Y50.099Z0F1200
G1 X45.869Y50.218Z0F1200
G1 X45.89Y50.257Z0F1200
G1 X45.969Y50.382Z0F1200
G1 X46.202Y50.732Z0F1200
G1 X46.934Y51.812Z0F1200
G1 X46.636Y52.268Z0F1200
G1 X46.484Y52.512Z0F1200
G1 X46.29Y52.84Z0F1200
G1 X46.081Y53.209Z0F1200
G1 X45.757Y53.799Z0F1200
G1 X45.653Y53.983Z0F1200
G1 X45.564Y54.132Z0F1200
G1 X45.488Y54.246Z0F1200
G1 X45.424Y54.331Z0F1200
G1 X45.369Y54.387Z0F1200
G1 X45.321Y54.419Z0F1200
G1 X45.279Y54.43Z0F1200
G1 X45.216Y54.426Z0F1200
G1 X44.906Y54.4Z0F1200
G1 X44.403Y54.353Z0F1200
G1 X43.047Y54.217Z0F1200
G1 X42.707Y54.186Z0F1200
G1 X42.404Y54.161Z0F1200
G1 X42.143Y54.143Z0F1200
G1 X41.927Y54.131Z0F1200
G1 X41.761Y54.126Z0F1200
G1 X41.648Y54.129Z0F1200
G1 X41.593Y54.139Z0F1200
G1 X41.548Y54.187Z0F1200
G1 X41.491Y54.291Z0F1200
G1 X41.421Y54.454Z0F1200
G1 X41.336Y54.684Z0F1200
G1 X41.233Y54.985Z0F1200
G1 X41.111Y55.363Z0F1200
G1 X40.968Y55.824Z0F1200
G1 X40.702Y56.704Z0F1200
G1 X40.51Y57.324Z0F1200
G1 X40.358Y57.797Z0F1200
G1 X40.285Y58.039Z0F1200
G1 X40.223Y58.258Z0F1200
G1 X40.174Y58.451Z0F1200
G1 X40.138Y58.616Z0F1200
G1 X40.115Y58.748Z0F1200
G1 X40.107Y58.846Z0F1200
G1 X40.114Y58.905Z0F1200
G1 X40.181Y58.99Z0F1200
G1 X40.329Y59.109Z0F1200
G1 X40.555Y59.261Z0F1200
G1 X40.857Y59.445Z0F1200
G1 X41.231Y59.659Z0F1200
G1 X41.676Y59.902Z0F1200
G1 X42.189Y60.171Z0F1200
G1 X42.766Y60.466Z0F1200
G1 X43.429Y60.801Z0F1200
G1 X43.343Y62.265Z0F1200
G1 X43.286Y63.136Z0F1200
G1 X43.264Y63.445Z0F1200
G1 X43.244Y63.679Z0F1200
G1 X43.226Y63.842Z0F1200
G1 X43.211Y63.941Z0F1200
G1 X43.197Y63.981Z0F1200
G1 X43.166Y63.998Z0F1200
G1 X43.098Y64.028Z0F1200
G1 X42.865Y64.122Z0F1200
G1 X42.529Y64.25Z0F1200
G1 X42.125Y64.401Z0F1200
G1 X41.684Y64.562Z0F1200
G1 X41.238Y64.722Z0F1200
G1 X40.821Y64.868Z0F1200
G1 X40.465Y64.989Z0F1200
G1 X40.162Y65.096Z0F1200
G1 X39.9Y65.202Z0F1200
G1 X39.792Y65.25Z0F1200
G1 X39.706Y65.293Z0F1200
G1 X39.644Y65.33Z0F1200
G1 X39.61Y65.359Z0F1200
G1 X39.576Y65.416Z0F1200
G1 X39.555Y65.495Z0F1200
G1 X39.547Y65.605Z0F1200
G1 X39.554Y65.756Z0F1200
G1 X39.576Y65.957Z0F1200
G1 X39.613Y66.218Z0F1200
G1 X39.667Y66.549Z0F1200
G1 X39.853Y67.604Z0F1200
G1 X40.148Y69.267Z0F1200
G1 X40.198Y69.525Z0F1200
G1 X40.245Y69.747Z0F1200
G1 X40.288Y69.932Z0F1200
G1 X40.328Y70.081Z0F1200
G1 X40.365Y70.195Z0F1200
G1 X40.399Y70.274Z0F1200
G1 X40.431Y70.321Z0F1200
G1 X40.479Y70.354Z0F1200
G1 X40.552Y70.381Z0F1200
G1 X40.663Y70.404Z0F1200
G1 X40.822Y70.422Z0F1200
G1 X41.038Y70.438Z0F1200
G1 X41.323Y70.452Z0F1200
G1 X41.686Y70.465Z0F1200
G1 X42.138Y70.479Z0F1200
G1 X43.346Y70.509Z0F1200
G1 X44.021Y70.522Z0F1200
G1 X44.194Y70.529Z0F1200
G1 X44.298Y70.574Z0F1200
G1 X44.337Y70.622Z0F1200
G1 X44.375Y70.694Z0F1200
G1 X44.417Y70.795Z0F1200
G1 X44.602Y71.278Z0F1200
G1 X44.713Y71.546Z0F1200
G1 X44.828Y71.813Z0F1200
G1 X45.537Y73.487Z0F1200
G1 X44.667Y74.42Z0F1200
G1 X43.943Y75.193Z0F1200
G1 X43.423Y75.743Z0F1200
G1 X43.275Y75.906Z0F1200
G1 X43.148Y76.064Z0F1200
G1 X43.055Y76.198Z0F1200
G1 X43.01Y76.291Z0F1200
G1 X42.997Y76.358Z0F1200
G1 X43.004Y76.433Z0F1200
G1 X43.046Y76.541Z0F1200
G1 X43.141Y76.706Z0F1200
G1 X43.213Y76.819Z0F1200
G1 X43.305Y76.956Z0F1200
G1 X43.552Y77.316Z0F1200
G1 X43.899Y77.811Z0F1200
G1 X45.206Y79.666Z0F1200
G1 X45.499Y80.086Z0F1200
G1 X45.651Y80.305Z0F1200
G1 X45.735Y80.418Z0F1200
G1 X45.822Y80.496Z0F1200
G1 X45.922Y80.54Z0F1200
G1 X46.045Y80.549Z0F1200
G1 X46.202Y80.523Z0F1200
G1 X46.402Y80.46Z0F1200
G1 X46.656Y80.361Z0F1200
G1 X46.973Y80.224Z0F1200
G1 X47.349Y80.057Z0F1200
G1 X48.229Y79.659Z0F1200
G1 X49.552Y79.051Z0F1200
G1 X49.815Y79.279Z0F1200
G1 X50.094Y79.53Z0F1200
G1 X50.521Y79.934Z0F1200
G1 X50.633Y80.031Z0F1200
G1 X50.719Y80.097Z0F1200
G1 X50.766Y80.122Z0F1200
G1 X50.828Y80.065Z0F1200
G1 X50.896Y79.928Z0F1200
G1 X50.996Y79.687Z0F1200
G1 X51.134Y79.381Z0F1200
G1 X51.522Y78.54Z0F1200
G1 X51.917Y77.669Z0F1200
G1 X52.244Y76.936Z0F1200
G1 X52.325Y76.745Z0F1200
G1 X52.366Y76.596Z0F1200
G1 Y76.47Z0F1200
G1 X52.312Y76.345Z0F1200
G1 X52.208Y76.199Z0F1200
G1 X52.047Y76.013Z0F1200
G1 X51.823Y75.764Z0F1200
G1 X51.33Y75.194Z0F1200
G1 X50.867Y74.621Z0F1200
G1 X50.432Y74.045Z0F1200
G1 X50.027Y73.463Z0F1200
G1 X49.649Y72.875Z0F1200
G1 X49.3Y72.281Z0F1200
G1 X48.977Y71.678Z0F1200
G1 X48.681Y71.066Z0F1200
G1 X48.412Y70.443Z0F1200
G1 X48.168Y69.809Z0F1200
G1 X47.949Y69.163Z0F1200
G1 X47.755Y68.502Z0F1200
G1 X47.585Y67.828Z0F1200
G1 X47.439Y67.137Z0F1200
G1 X47.316Y66.429Z0F1200
G1 X47.215Y65.704Z0F1200
G1 X47.194Y65.488Z0F1200
G1 X47.177Y65.24Z0F1200
G1 X47.164Y64.965Z0F1200
G1 X47.156Y64.667Z0F1200
G1 X47.153Y64.019Z0F1200
G1 X47.166Y63.333Z0F1200
G1 X47.194Y62.644Z0F1200
G1 X47.236Y61.989Z0F1200
G1 X47.262Y61.686Z0F1200
G1 X47.291Y61.404Z0F1200
G1 X47.323Y61.149Z0F1200
G1 X47.358Y60.924Z0F1200
G1 X47.578Y59.832Z0F1200
G1 X47.852Y58.784Z0F1200
G1 X48.18Y57.773Z0F1200
G1 X48.566Y56.795Z0F1200
G1 X49.012Y55.844Z0F1200
G1 X49.52Y54.916Z0F1200
G1 X50.091Y54.005Z0F1200
G1 X50.73Y53.105Z0F1200
G1 X50.857Y52.943Z0F1200
G1 X51.01Y52.756Z0F1200
G1 X51.185Y52.551Z0F1200
G1 X51.379Y52.329Z0F1200
G1 X51.81Y51.854Z0F1200
G1 X52.273Y51.36Z0F1200
G1 X52.739Y50.879Z0F1200
G1 X53.18Y50.441Z0F1200
G1 X53.382Y50.247Z0F1200
G1 X53.568Y50.075Z0F1200
G1 X53.732Y49.928Z0F1200
G1 X54.002Y49.703Z0F1200
G1 X54.109Y49.607Z0F1200
G1 X54.181Y49.532Z0F1200
G1 X54.207Y49.49Z0F1200
G0 Z4.8F800
G0 X57.395Y79.839Z4.8F1500
G1 Z0F800
G1 X57.375Y79.853Z0F1200
G1 X57.339Y79.891Z0F1200
G1 X57.289Y79.951Z0F1200
G1 X57.227Y80.031Z0F1200
G1 X57.075Y80.239Z0F1200
G1 X56.899Y80.492Z0F1200
G1 X56.718Y80.76Z0F1200
G1 X56.413Y81.201Z0F1200
G1 X56.283Y81.385Z0F1200
G1 X56.096Y81.656Z0F1200
G1 X55.636Y82.326Z0F1200
G1 X54.848Y83.48Z0F1200
G1 X54.206Y84.414Z0F1200
G1 X53.449Y85.506Z0F1200
G1 X53.254Y85.798Z0F1200
G1 X53.18Y85.911Z0F1200
G1 X53.126Y85.999Z0F1200
G1 X53.094Y86.056Z0F1200
G1 X53.087Y86.079Z0F1200
G1 X53.144Y86.118Z0F1200
G1 X53.249Y86.177Z0F1200
G1 X53.393Y86.254Z0F1200
G1 X53.571Y86.346Z0F1200
G1 X53.999Y86.558Z0F1200
G1 X54.48Y86.79Z0F1200
G1 X54.959Y87.015Z0F1200
G1 X55.383Y87.207Z0F1200
G1 X55.557Y87.283Z0F1200
G1 X55.697Y87.341Z0F1200
G1 X55.796Y87.378Z0F1200
G1 X55.848Y87.391Z0F1200
G1 X55.954Y87.371Z0F1200
G1 X56.065Y87.3Z0F1200
G1 X56.198Y87.164Z0F1200
G1 X56.37Y86.95Z0F1200
G1 X56.693Y86.535Z0F1200
G1 X57.316Y85.762Z0F1200
G1 X57.823Y85.11Z0F1200
G1 X57.962Y84.933Z0F1200
G1 X58.072Y84.798Z0F1200
G1 X58.231Y84.615Z0F1200
G1 X58.331Y84.484Z0F1200
G1 X58.392Y84.409Z0F1200
G1 X58.451Y84.376Z0F1200
G1 X58.525Y84.379Z0F1200
G1 X58.824Y84.48Z0F1200
G1 X59.093Y84.558Z0F1200
G1 X59.415Y84.643Z0F1200
G1 X59.765Y84.729Z0F1200
G1 X60.119Y84.81Z0F1200
G1 X60.451Y84.88Z0F1200
G1 X60.736Y84.934Z0F1200
G1 X60.951Y84.964Z0F1200
G1 X61.17Y84.993Z0F1200
G1 X61.324Y85.03Z0F1200
G1 X61.424Y85.077Z0F1200
G1 X61.48Y85.139Z0F1200
G1 X61.501Y85.2Z0F1200
G1 X61.534Y85.326Z0F1200
G1 X61.578Y85.509Z0F1200
G1 X61.63Y85.741Z0F1200
G1 X61.69Y86.015Z0F1200
G1 X61.824Y86.656Z0F1200
G1 X61.971Y87.386Z0F1200
G1 X62.043Y87.728Z0F1200
G1 X62.11Y88.03Z0F1200
G1 X62.171Y88.29Z0F1200
G1 X62.225Y88.501Z0F1200
G1 X62.271Y88.662Z0F1200
G1 X62.308Y88.766Z0F1200
G1 X62.335Y88.811Z0F1200
G1 X62.406Y88.823Z0F1200
G1 X62.574Y88.835Z0F1200
G1 X62.826Y88.845Z0F1200
G1 X63.153Y88.854Z0F1200
G1 X63.543Y88.861Z0F1200
G1 X63.986Y88.867Z0F1200
G1 X64.471Y88.871Z0F1200
G1 X64.987Z0F1200
G1 X67.543Z0F1200
G1 X67.647Y88.715Z0F1200
G1 X67.696Y88.603Z0F1200
G1 X67.755Y88.416Z0F1200
G1 X67.815Y88.18Z0F1200
G1 X67.869Y87.921Z0F1200
G1 X68.116Y86.646Z0F1200
G1 X68.438Y85.03Z0F1200
G1 X69.069Y84.942Z0F1200
G1 X69.386Y84.889Z0F1200
G1 X69.783Y84.81Z0F1200
G1 X70.209Y84.715Z0F1200
G1 X70.614Y84.615Z0F1200
G1 X71.528Y84.375Z0F1200
G1 X71.673Y84.559Z0F1200
G1 X72.276Y85.321Z0F1200
G1 X72.714Y85.878Z0F1200
G1 X73.344Y86.697Z0F1200
G1 X73.523Y86.924Z0F1200
G1 X73.666Y87.096Z0F1200
G1 X73.78Y87.222Z0F1200
G1 X73.873Y87.307Z0F1200
G1 X73.952Y87.358Z0F1200
G1 X74.023Y87.384Z0F1200
G1 X74.093Y87.391Z0F1200
G1 X74.158Y87.377Z0F1200
G1 X74.271Y87.337Z0F1200
G1 X74.425Y87.274Z0F1200
G1 X74.612Y87.191Z0F1200
G1 X75.06Y86.985Z0F1200
G1 X75.555Y86.744Z0F1200
G1 X76.041Y86.499Z0F1200
G1 X76.459Y86.278Z0F1200
G1 X76.625Y86.185Z0F1200
G1 X76.753Y86.109Z0F1200
G1 X76.834Y86.054Z0F1200
G1 X76.863Y86.021Z0F1200
G1 X76.835Y85.942Z0F1200
G1 X76.766Y85.844Z0F1200
G1 X76.735Y85.804Z0F1200
G1 X76.607Y85.63Z0F1200
G1 X76.294Y85.193Z0F1200
G1 X75.774Y84.455Z0F1200
G1 X75.407Y83.927Z0F1200
G1 X74.926Y83.22Z0F1200
G1 X74.396Y82.458Z0F1200
G1 X74.016Y81.903Z0F1200
G1 X73.521Y81.175Z0F1200
G1 X72.915Y80.28Z0F1200
G1 X72.794Y80.109Z0F1200
G1 X72.684Y79.969Z0F1200
G1 X72.597Y79.874Z0F1200
G1 X72.546Y79.839Z0F1200
G1 X72.48Y79.857Z0F1200
G1 X72.35Y79.903Z0F1200
G1 X72.177Y79.973Z0F1200
G1 X71.978Y80.058Z0F1200
G1 X71.461Y80.267Z0F1200
G1 X70.88Y80.471Z0F1200
G1 X70.253Y80.665Z0F1200
G1 X69.6Y80.844Z0F1200
G1 X68.938Y81.004Z0F1200
G1 X68.287Y81.139Z0F1200
G1 X67.666Y81.245Z0F1200
G1 X67.093Y81.317Z0F1200
G1 X66.641Y81.351Z0F1200
G1 X66.124Y81.375Z0F1200
G1 X65.563Y81.387Z0F1200
G1 X64.981Z0F1200
G1 X64.396Y81.378Z0F1200
G1 X63.831Y81.358Z0F1200
G1 X63.306Y81.327Z0F1200
G1 X62.842Y81.285Z0F1200
G1 X61.517Y81.089Z0F1200
G1 X60.191Y80.799Z0F1200
G1 X59.553Y80.626Z0F1200
G1 X58.945Y80.437Z0F1200
G1 X58.376Y80.234Z0F1200
G1 X57.858Y80.021Z0F1200
G1 X57.695Y79.95Z0F1200
G1 X57.554Y79.893Z0F1200
G1 X57.449Y79.854Z0F1200
G1 X57.395Y79.839Z0F1200
M9
M5
G1 Z10 F500
G90
G1 Z10 F800
