
G0 Z10 F500;      ; Move to clearance level - Z motion limited to 500
; G0 X-10 Y-10 F1200; Homing
; G0 X-5 Y-5 F1200; go in
; G10 P0 L20 X0 Y0; set to zero
G1 F1200;           ; Set feed rate to 1000
;LightBurn 1.6.04
;Custom GCode device profile, absolute coords
;Bounds: X32.67 Y20.67 to X97.33 Y85.33
G00 G17 G40 G21 G54
G90
M3
G1 Z10 F500
;Cut @ 1200 mm/min, 90% power

M8

; Washing sequence (no color)
G1 Z10 F1000;        ; Raise brush to safe height
G0 X5 Y5 F1200;     ; Rapid move to brush cleaning position
G1 Z-1 F800;         ; Lower brush for cleaning - controlled movement
G1 X10 Y12 Z8 F1200;     ; Rapid move to brush cleaning position
G1 Z-1 F800;         ; Lower brush for cleaning - controlled movement
G1 X25 Y14 Z6 F800;     ; Move across cleaning area - controlled movement
G1 Z8 F800;         ; Maintain brush height - controlled movement
G0 X5 Y5 F1200;     ; Rapid move to brush cleaning position
G1 Z-1 F800;         ; Lower brush for cleaning - controlled movement
G1 X15 Y12 Z8 F1200;     ; Rapid move to brush cleaning position
G1 Z-1 F800;         ; Lower brush for cleaning - controlled movement
G1 X25 Y14 Z6 F800;     ; Move across cleaning area - controlled movement
G1 Z10 F800;         ; Maintain brush height - controlled movement
G1 F1200;           ; Set feed rate to 1000

; Color 1 picking sequence
G1 Z10 F500;         ; Raise brush to safe height
G0 X86 Y5 F1200;    ; Rapid move to color 1 position
G1 Z0 F500;         ; Lower into color - controlled movement
G1 X85.102Y7.295Z0S800F1200
G1 X85.026Y7.642Z0F1200
G1 X85Y8Z0F1200
G1 X85.026Y8.358Z0F1200
G1 X85.102Y8.705Z0F1200
G1 X85.225Y9.041Z0F1200
G1 X85.393Y9.362Z0F1200
G1 X85.603Y9.668Z0F1200
G1 X85.854Y9.957Z0F1200
G1 X86.142Y10.226Z0F1200
G1 X86.464Y10.475Z0F1200
G1 X86.82Y10.701Z0F1200
G1 X87.204Y10.902Z0F1200
G1 X87.617Y11.078Z0F1200
G1 X88.054Y11.225Z0F1200
G1 X88.513Y11.343Z0F1200
G1 X88.992Y11.429Z0F1200
G1 X89.489Y11.482Z0F1200
G1 X90Y11.5Z0F1200
G1 X90.511Y11.482Z0F1200
G1 X91.008Y11.429Z0F1200
G1 X91.487Y11.343Z0F1200
G1 X91.946Y11.225Z0F1200
G1 X92.383Y11.078Z0F1200
G1 X92.796Y10.902Z0F1200
G1 X93.18Y10.701Z0F1200
G1 X93.536Y10.475Z0F1200
G1 X93.858Y10.226Z0F1200
G1 X94.146Y9.957Z0F1200
G1 X94.397Y9.668Z0F1200
G1 X94.607Y9.362Z0F1200
G1 X94.775Y9.041Z0F1200
G1 X94.898Y8.705Z0F1200
G1 X94.974Y8.358Z0F1200
G1 X95Y8Z0F1200
G1 X94.974Y7.642Z0F1200
G1 X94.898Y7.295Z0F1200
G1 X94.775Y6.959Z0F1200
G1 X94.607Y6.638Z0F1200
G1 X94.397Y6.332Z0F1200
G1 X94.146Y6.043Z0F1200
G1 X93.858Y5.774Z0F1200
G1 X93.536Y5.525Z0F1200
G1 X93.18Y5.299Z0F1200
G1 X92.796Y5.098Z0F1200
G1 X92.383Y4.922Z0F1200
G1 X91.946Y4.775Z0F1200
G1 X91.487Y4.657Z0F1200
G1 X91.008Y4.571Z0F1200
G1 X90.511Y4.518Z0F1200
G1 X90Y4.5Z0F1200
G1 X89.489Y4.518Z0F1200
G1 X88.992Y4.571Z0F1200
G1 X88.513Y4.657Z0F1200
G1 X88.054Y4.775Z0F1200
G1 X87.617Y4.922Z0F1200
G1 X87.204Y5.098Z0F1200
G1 X86.82Y5.299Z0F1200
G1 X86.464Y5.525Z0F1200
G1 X86.142Y5.774Z0F1200
G1 X85.854Y6.043Z0F1200
G1 X85.603Y6.332Z0F1200
G1 X85.393Y6.638Z0F1200
G1 X85.225Y6.959Z0F1200
G1 Z7 F800;         ; Raise from color - controlled movement
G1 X79 Y8 Z1 F1200;     ; Movement in paint - controlled movement
G1 X69 Y12 Z8 F500;     ; Move in paint - controlled movement
G1 F1200;           ; Set feed rate to 1000
G0 Z2.8F500
G0 X42.953Y45.548Z2.8F1500
G1 Z0F500
;Layer Blue
G1 X42.82Y45.623Z0S900F1200
G1 X42.706Y45.746Z0F1200
G1 X42.607Y45.925Z0F1200
G1 X42.524Y46.166Z0F1200
G1 X42.455Y46.476Z0F1200
G1 X42.399Y46.862Z0F1200
G1 X42.354Y47.332Z0F1200
G1 X42.32Y47.89Z0F1200
G1 X42.294Y48.546Z0F1200
G1 X42.285Y48.912Z0F1200
G1 X42.277Y49.305Z0F1200
G1 X42.266Y50.174Z0F1200
G1 X42.26Y51.161Z0F1200
G1 Y52.271Z0F1200
G1 X42.255Y53.682Z0F1200
G1 X42.245Y55.018Z0F1200
G1 X42.229Y56.249Z0F1200
G1 X42.208Y57.345Z0F1200
G1 X42.195Y57.833Z0F1200
G1 X42.182Y58.275Z0F1200
G1 X42.168Y58.668Z0F1200
G1 X42.153Y59.007Z0F1200
G1 X42.137Y59.29Z0F1200
G1 X42.12Y59.512Z0F1200
G1 X42.103Y59.67Z0F1200
G1 X42.085Y59.759Z0F1200
G1 X42.095Y59.867Z0F1200
G1 X42.19Y59.977Z0F1200
G1 X42.363Y60.084Z0F1200
G1 X42.604Y60.187Z0F1200
G1 X42.906Y60.282Z0F1200
G1 X43.26Y60.366Z0F1200
G1 X43.659Y60.436Z0F1200
G1 X44.093Y60.489Z0F1200
G1 X44.474Y60.524Z0F1200
G1 X44.81Y60.546Z0F1200
G1 X45.107Z0F1200
G1 X45.371Y60.521Z0F1200
G1 X45.606Y60.46Z0F1200
G1 X45.818Y60.358Z0F1200
G1 X46.011Y60.207Z0F1200
G1 X46.193Y59.999Z0F1200
G1 X46.367Y59.729Z0F1200
G1 X46.539Y59.389Z0F1200
G1 X46.714Y58.971Z0F1200
G1 X46.898Y58.469Z0F1200
G1 X46.995Y58.184Z0F1200
G1 X47.096Y57.875Z0F1200
G1 X47.202Y57.542Z0F1200
G1 X47.313Y57.183Z0F1200
G1 X47.555Y56.385Z0F1200
G1 X47.826Y55.474Z0F1200
G1 X48.147Y54.424Z0F1200
G1 X48.464Y53.444Z0F1200
G1 X48.619Y52.988Z0F1200
G1 X48.77Y52.557Z0F1200
G1 X48.916Y52.154Z0F1200
G1 X49.056Y51.782Z0F1200
G1 X49.189Y51.444Z0F1200
G1 X49.314Y51.143Z0F1200
G1 X49.43Y50.88Z0F1200
G1 X49.536Y50.659Z0F1200
G1 X49.63Y50.483Z0F1200
G1 X49.712Y50.354Z0F1200
G1 X49.781Y50.274Z0F1200
G1 X49.836Y50.247Z0F1200
G1 X49.891Y50.274Z0F1200
G1 X49.96Y50.354Z0F1200
G1 X50.043Y50.483Z0F1200
G1 X50.138Y50.659Z0F1200
G1 X50.244Y50.88Z0F1200
G1 X50.361Y51.143Z0F1200
G1 X50.487Y51.445Z0F1200
G1 X50.621Y51.783Z0F1200
G1 X50.763Y52.154Z0F1200
G1 X50.91Y52.557Z0F1200
G1 X51.063Y52.988Z0F1200
G1 X51.219Y53.445Z0F1200
G1 X51.54Y54.425Z0F1200
G1 X51.865Y55.475Z0F1200
G1 X52.265Y56.8Z0F1200
G1 X52.497Y57.545Z0F1200
G1 X52.604Y57.878Z0F1200
G1 X52.706Y58.187Z0F1200
G1 X52.804Y58.472Z0F1200
G1 X52.989Y58.975Z0F1200
G1 X53.166Y59.392Z0F1200
G1 X53.34Y59.733Z0F1200
G1 X53.515Y60.003Z0F1200
G1 X53.698Y60.21Z0F1200

; Color 1 picking sequence
G1 Z10 F500;         ; Raise brush to safe height
G0 X86 Y5 F1200;    ; Rapid move to color 1 position
G1 Z0 F500;         ; Lower into color - controlled movement
G1 X85.102Y7.295Z0S800F1200
G1 X85.026Y7.642Z0F1200
G1 X85Y8Z0F1200
G1 X85.026Y8.358Z0F1200
G1 X85.102Y8.705Z0F1200
G1 X85.225Y9.041Z0F1200
G1 X85.393Y9.362Z0F1200
G1 X85.603Y9.668Z0F1200
G1 X85.854Y9.957Z0F1200
G1 X86.142Y10.226Z0F1200
G1 X86.464Y10.475Z0F1200
G1 X86.82Y10.701Z0F1200
G1 X87.204Y10.902Z0F1200
G1 X87.617Y11.078Z0F1200
G1 X88.054Y11.225Z0F1200
G1 X88.513Y11.343Z0F1200
G1 X88.992Y11.429Z0F1200
G1 X89.489Y11.482Z0F1200
G1 X90Y11.5Z0F1200
G1 X90.511Y11.482Z0F1200
G1 X91.008Y11.429Z0F1200
G1 X91.487Y11.343Z0F1200
G1 X91.946Y11.225Z0F1200
G1 X92.383Y11.078Z0F1200
G1 X92.796Y10.902Z0F1200
G1 X93.18Y10.701Z0F1200
G1 X93.536Y10.475Z0F1200
G1 X93.858Y10.226Z0F1200
G1 X94.146Y9.957Z0F1200
G1 X94.397Y9.668Z0F1200
G1 X94.607Y9.362Z0F1200
G1 X94.775Y9.041Z0F1200
G1 X94.898Y8.705Z0F1200
G1 X94.974Y8.358Z0F1200
G1 X95Y8Z0F1200
G1 X94.974Y7.642Z0F1200
G1 X94.898Y7.295Z0F1200
G1 X94.775Y6.959Z0F1200
G1 X94.607Y6.638Z0F1200
G1 X94.397Y6.332Z0F1200
G1 X94.146Y6.043Z0F1200
G1 X93.858Y5.774Z0F1200
G1 X93.536Y5.525Z0F1200
G1 X93.18Y5.299Z0F1200
G1 X92.796Y5.098Z0F1200
G1 X92.383Y4.922Z0F1200
G1 X91.946Y4.775Z0F1200
G1 X91.487Y4.657Z0F1200
G1 X91.008Y4.571Z0F1200
G1 X90.511Y4.518Z0F1200
G1 X90Y4.5Z0F1200
G1 X89.489Y4.518Z0F1200
G1 X88.992Y4.571Z0F1200
G1 X88.513Y4.657Z0F1200
G1 X88.054Y4.775Z0F1200
G1 X87.617Y4.922Z0F1200
G1 X87.204Y5.098Z0F1200
G1 X86.82Y5.299Z0F1200
G1 X86.464Y5.525Z0F1200
G1 X86.142Y5.774Z0F1200
G1 X85.854Y6.043Z0F1200
G1 X85.603Y6.332Z0F1200
G1 X85.393Y6.638Z0F1200
G1 X85.225Y6.959Z0F1200
G1 Z7 F800;         ; Raise from color - controlled movement
G1 X79 Y8 Z1 F1200;     ; Movement in paint - controlled movement
G1 X69 Y12 Z8 F500;     ; Move in paint - controlled movement
G1 F1200;           ; Set feed rate to 1000

; Return to drawing position
G0 X53.698 Y60.210 F1200;  ; Return to position with raised Z
G1 Z0 F1000;                       ; Lower Z to drawing position
G1 X53.893Y60.361Z0F1200
G1 X54.107Y60.463Z0F1200
G1 X54.343Y60.523Z0F1200
G1 X54.608Y60.549Z0F1200
G1 X54.907Z0F1200
G1 X55.246Y60.525Z0F1200
G1 X55.629Y60.49Z0F1200
G1 X56.066Y60.437Z0F1200
G1 X56.467Y60.367Z0F1200
G1 X56.824Y60.282Z0F1200
G1 X57.128Y60.187Z0F1200
G1 X57.371Y60.085Z0F1200
G1 X57.544Y59.977Z0F1200
G1 X57.64Y59.867Z0F1200
G1 X57.65Y59.759Z0F1200
G1 X57.632Y59.67Z0F1200
G1 X57.615Y59.513Z0F1200
G1 X57.599Y59.292Z0F1200
G1 X57.583Y59.011Z0F1200
G1 X57.568Y58.674Z0F1200
G1 X57.553Y58.283Z0F1200
G1 X57.54Y57.844Z0F1200
G1 X57.528Y57.36Z0F1200
G1 X57.507Y56.272Z0F1200
G1 X57.491Y55.049Z0F1200
G1 X57.481Y53.722Z0F1200
G1 X57.476Y51.18Z0F1200
G1 X57.471Y50.171Z0F1200
G1 X57.46Y49.286Z0F1200
G1 X57.452Y48.888Z0F1200
G1 X57.442Y48.517Z0F1200
G1 X57.431Y48.174Z0F1200
G1 X57.416Y47.857Z0F1200
G1 X57.399Y47.564Z0F1200
G1 X57.38Y47.296Z0F1200
G1 X57.331Y46.827Z0F1200
G1 X57.27Y46.442Z0F1200
G1 X57.193Y46.133Z0F1200
G1 X57.099Y45.891Z0F1200
G1 X56.987Y45.708Z0F1200
G1 X56.854Y45.577Z0F1200
G1 X56.701Y45.49Z0F1200
G1 X56.524Y45.437Z0F1200
G1 X56.322Y45.411Z0F1200
G1 X56.094Y45.404Z0F1200
G1 X55.873Y45.411Z0F1200
G1 X55.677Y45.433Z0F1200
G1 X55.504Y45.476Z0F1200
G1 X55.352Y45.545Z0F1200
G1 X55.22Y45.644Z0F1200
G1 X55.106Y45.777Z0F1200
G1 X55.009Y45.95Z0F1200
G1 X54.927Y46.168Z0F1200
G1 X54.86Y46.435Z0F1200
G1 X54.805Y46.755Z0F1200
G1 X54.761Y47.134Z0F1200
G1 X54.726Y47.577Z0F1200
G1 X54.7Y48.087Z0F1200
G1 X54.681Y48.67Z0F1200
G1 X54.666Y49.331Z0F1200
G1 X54.656Y50.074Z0F1200
G1 X54.602Y54.743Z0F1200
G1 X53.041Y50.247Z0F1200
G1 X52.802Y49.57Z0F1200
G1 X52.581Y48.962Z0F1200
G1 X52.374Y48.42Z0F1200
G1 X52.18Y47.941Z0F1200
G1 X51.994Y47.52Z0F1200
G1 X51.816Y47.154Z0F1200
G1 X51.642Y46.839Z0F1200
G1 X51.47Y46.573Z0F1200
G1 X51.298Y46.352Z0F1200
G1 X51.122Y46.171Z0F1200
G1 X50.941Y46.028Z0F1200
G1 X50.752Y45.918Z0F1200
G1 X50.553Y45.84Z0F1200
G1 X50.341Y45.788Z0F1200
G1 X50.113Y45.759Z0F1200
G1 X49.867Y45.75Z0F1200

; Color 1 picking sequence
G1 Z10 F500;         ; Raise brush to safe height
G0 X86 Y5 F1200;    ; Rapid move to color 1 position
G1 Z0 F500;         ; Lower into color - controlled movement
G1 X85.102Y7.295Z0S800F1200
G1 X85.026Y7.642Z0F1200
G1 X85Y8Z0F1200
G1 X85.026Y8.358Z0F1200
G1 X85.102Y8.705Z0F1200
G1 X85.225Y9.041Z0F1200
G1 X85.393Y9.362Z0F1200
G1 X85.603Y9.668Z0F1200
G1 X85.854Y9.957Z0F1200
G1 X86.142Y10.226Z0F1200
G1 X86.464Y10.475Z0F1200
G1 X86.82Y10.701Z0F1200
G1 X87.204Y10.902Z0F1200
G1 X87.617Y11.078Z0F1200
G1 X88.054Y11.225Z0F1200
G1 X88.513Y11.343Z0F1200
G1 X88.992Y11.429Z0F1200
G1 X89.489Y11.482Z0F1200
G1 X90Y11.5Z0F1200
G1 X90.511Y11.482Z0F1200
G1 X91.008Y11.429Z0F1200
G1 X91.487Y11.343Z0F1200
G1 X91.946Y11.225Z0F1200
G1 X92.383Y11.078Z0F1200
G1 X92.796Y10.902Z0F1200
G1 X93.18Y10.701Z0F1200
G1 X93.536Y10.475Z0F1200
G1 X93.858Y10.226Z0F1200
G1 X94.146Y9.957Z0F1200
G1 X94.397Y9.668Z0F1200
G1 X94.607Y9.362Z0F1200
G1 X94.775Y9.041Z0F1200
G1 X94.898Y8.705Z0F1200
G1 X94.974Y8.358Z0F1200
G1 X95Y8Z0F1200
G1 X94.974Y7.642Z0F1200
G1 X94.898Y7.295Z0F1200
G1 X94.775Y6.959Z0F1200
G1 X94.607Y6.638Z0F1200
G1 X94.397Y6.332Z0F1200
G1 X94.146Y6.043Z0F1200
G1 X93.858Y5.774Z0F1200
G1 X93.536Y5.525Z0F1200
G1 X93.18Y5.299Z0F1200
G1 X92.796Y5.098Z0F1200
G1 X92.383Y4.922Z0F1200
G1 X91.946Y4.775Z0F1200
G1 X91.487Y4.657Z0F1200
G1 X91.008Y4.571Z0F1200
G1 X90.511Y4.518Z0F1200
G1 X90Y4.5Z0F1200
G1 X89.489Y4.518Z0F1200
G1 X88.992Y4.571Z0F1200
G1 X88.513Y4.657Z0F1200
G1 X88.054Y4.775Z0F1200
G1 X87.617Y4.922Z0F1200
G1 X87.204Y5.098Z0F1200
G1 X86.82Y5.299Z0F1200
G1 X86.464Y5.525Z0F1200
G1 X86.142Y5.774Z0F1200
G1 X85.854Y6.043Z0F1200
G1 X85.603Y6.332Z0F1200
G1 X85.393Y6.638Z0F1200
G1 X85.225Y6.959Z0F1200
G1 Z7 F800;         ; Raise from color - controlled movement
G1 X79 Y8 Z1 F1200;     ; Movement in paint - controlled movement
G1 X69 Y12 Z8 F500;     ; Move in paint - controlled movement
G1 F1200;           ; Set feed rate to 1000

; Return to drawing position
G0 X49.867 Y45.750 F1200;  ; Return to position with raised Z
G1 Z0 F1000;                       ; Lower Z to drawing position
G1 X49.616Y45.76Z0F1200
G1 X49.383Y45.791Z0F1200
G1 X49.166Y45.849Z0F1200
G1 X48.963Y45.938Z0F1200
G1 X48.769Y46.064Z0F1200
G1 X48.582Y46.23Z0F1200
G1 X48.4Y46.443Z0F1200
G1 X48.218Y46.707Z0F1200
G1 X48.034Y47.026Z0F1200
G1 X47.844Y47.406Z0F1200
G1 X47.646Y47.851Z0F1200
G1 X47.438Y48.367Z0F1200
G1 X47.214Y48.957Z0F1200
G1 X46.974Y49.627Z0F1200
G1 X46.713Y50.382Z0F1200
G1 X46.428Y51.227Z0F1200
G1 X44.601Y56.703Z0F1200
G1 X44.64Y51.244Z0F1200
G1 X44.644Y50.414Z0F1200
G1 Y49.669Z0F1200
G1 X44.633Y49.004Z0F1200
G1 X44.617Y48.415Z0F1200
G1 X44.592Y47.897Z0F1200
G1 X44.557Y47.446Z0F1200
G1 X44.512Y47.056Z0F1200
G1 X44.455Y46.723Z0F1200
G1 X44.386Y46.442Z0F1200
G1 X44.303Y46.209Z0F1200
G1 X44.206Y46.018Z0F1200
G1 X44.093Y45.866Z0F1200
G1 X43.964Y45.747Z0F1200
G1 X43.818Y45.657Z0F1200
G1 X43.653Y45.591Z0F1200
G1 X43.469Y45.544Z0F1200
G1 X43.276Y45.515Z0F1200
G1 X43.104Z0F1200
G1 X42.953Y45.548Z0F1200

; Color 1 picking sequence
G1 Z10 F500;         ; Raise brush to safe height
G0 X86 Y5 F1200;    ; Rapid move to color 1 position
G1 Z0 F500;         ; Lower into color - controlled movement
G1 X85.102Y7.295Z0S800F1200
G1 X85.026Y7.642Z0F1200
G1 X85Y8Z0F1200
G1 X85.026Y8.358Z0F1200
G1 X85.102Y8.705Z0F1200
G1 X85.225Y9.041Z0F1200
G1 X85.393Y9.362Z0F1200
G1 X85.603Y9.668Z0F1200
G1 X85.854Y9.957Z0F1200
G1 X86.142Y10.226Z0F1200
G1 X86.464Y10.475Z0F1200
G1 X86.82Y10.701Z0F1200
G1 X87.204Y10.902Z0F1200
G1 X87.617Y11.078Z0F1200
G1 X88.054Y11.225Z0F1200
G1 X88.513Y11.343Z0F1200
G1 X88.992Y11.429Z0F1200
G1 X89.489Y11.482Z0F1200
G1 X90Y11.5Z0F1200
G1 X90.511Y11.482Z0F1200
G1 X91.008Y11.429Z0F1200
G1 X91.487Y11.343Z0F1200
G1 X91.946Y11.225Z0F1200
G1 X92.383Y11.078Z0F1200
G1 X92.796Y10.902Z0F1200
G1 X93.18Y10.701Z0F1200
G1 X93.536Y10.475Z0F1200
G1 X93.858Y10.226Z0F1200
G1 X94.146Y9.957Z0F1200
G1 X94.397Y9.668Z0F1200
G1 X94.607Y9.362Z0F1200
G1 X94.775Y9.041Z0F1200
G1 X94.898Y8.705Z0F1200
G1 X94.974Y8.358Z0F1200
G1 X95Y8Z0F1200
G1 X94.974Y7.642Z0F1200
G1 X94.898Y7.295Z0F1200
G1 X94.775Y6.959Z0F1200
G1 X94.607Y6.638Z0F1200
G1 X94.397Y6.332Z0F1200
G1 X94.146Y6.043Z0F1200
G1 X93.858Y5.774Z0F1200
G1 X93.536Y5.525Z0F1200
G1 X93.18Y5.299Z0F1200
G1 X92.796Y5.098Z0F1200
G1 X92.383Y4.922Z0F1200
G1 X91.946Y4.775Z0F1200
G1 X91.487Y4.657Z0F1200
G1 X91.008Y4.571Z0F1200
G1 X90.511Y4.518Z0F1200
G1 X90Y4.5Z0F1200
G1 X89.489Y4.518Z0F1200
G1 X88.992Y4.571Z0F1200
G1 X88.513Y4.657Z0F1200
G1 X88.054Y4.775Z0F1200
G1 X87.617Y4.922Z0F1200
G1 X87.204Y5.098Z0F1200
G1 X86.82Y5.299Z0F1200
G1 X86.464Y5.525Z0F1200
G1 X86.142Y5.774Z0F1200
G1 X85.854Y6.043Z0F1200
G1 X85.603Y6.332Z0F1200
G1 X85.393Y6.638Z0F1200
G1 X85.225Y6.959Z0F1200
G1 Z7 F800;         ; Raise from color - controlled movement
G1 X79 Y8 Z1 F1200;     ; Movement in paint - controlled movement
G1 X69 Y12 Z8 F500;     ; Move in paint - controlled movement
G1 F1200;           ; Set feed rate to 1000
G0 Z2.8F500
G0 X64.405Y51.803Z2.8F1500
G1 Z0F500
G1 X64.438Y51.769Z0F1200
G1 X64.538Y51.736Z0F1200
G1 X64.696Y51.707Z0F1200
G1 X64.906Y51.681Z0F1200
G1 X65.161Y51.66Z0F1200
G1 X65.453Y51.644Z0F1200
G1 X65.777Y51.634Z0F1200
G1 X66.124Y51.63Z0F1200
G1 X66.472Y51.642Z0F1200
G1 X66.796Y51.677Z0F1200
G1 X67.089Y51.731Z0F1200
G1 X67.346Y51.803Z0F1200
G1 X67.557Y51.89Z0F1200
G1 X67.717Y51.99Z0F1200
G1 X67.818Y52.101Z0F1200
G1 X67.854Y52.219Z0F1200
G1 X67.837Y52.383Z0F1200
G1 X67.791Y52.626Z0F1200
G1 X67.719Y52.935Z0F1200
G1 X67.622Y53.298Z0F1200
G1 X67.372Y54.143Z0F1200
G1 X67.066Y55.067Z0F1200
G1 X66.278Y57.326Z0F1200
G1 X65.16Y54.11Z0F1200
G1 X64.825Y53.129Z0F1200
G1 X64.686Y52.711Z0F1200
G1 X64.571Y52.358Z0F1200
G1 X64.45Y51.975Z0F1200
G1 X64.411Y51.835Z0F1200
G1 X64.405Y51.803Z0F1200
G0 Z2.8F500
G0 X61.684Y52.368Z2.8F1500
G1 Z0F500
G1 X62.201Y53.706Z0F1200
G1 X62.559Y54.61Z0F1200
G1 X62.894Y55.436Z0F1200
G1 X63.208Y56.188Z0F1200
G1 X63.503Y56.867Z0F1200
G1 X63.78Y57.477Z0F1200
G1 X64.042Y58.022Z0F1200
G1 X64.29Y58.503Z0F1200
G1 X64.526Y58.924Z0F1200
G1 X64.751Y59.287Z0F1200
G1 X64.968Y59.597Z0F1200
G1 X65.178Y59.855Z0F1200
G1 X65.382Y60.065Z0F1200
G1 X65.583Y60.23Z0F1200
G1 X65.783Y60.352Z0F1200
G1 X65.983Y60.435Z0F1200
G1 X66.184Y60.482Z0F1200
G1 X66.439Z0F1200
G1 X66.701Y60.397Z0F1200
G1 X66.973Y60.225Z0F1200
G1 X67.259Y59.958Z0F1200
G1 X67.409Y59.786Z0F1200
G1 X67.563Y59.587Z0F1200
G1 X67.722Y59.361Z0F1200
G1 X67.888Y59.106Z0F1200
G1 X68.059Y58.822Z0F1200
G1 X68.237Y58.507Z0F1200
G1 X68.422Y58.161Z0F1200
G1 X68.614Y57.783Z0F1200
G1 X68.815Y57.372Z0F1200
G1 X69.024Y56.927Z0F1200
G1 X69.242Y56.447Z0F1200
G1 X69.469Y55.931Z0F1200
G1 X69.706Y55.378Z0F1200
G1 X69.953Y54.788Z0F1200
G1 X70.211Y54.159Z0F1200
G1 X70.481Y53.491Z0F1200
G1 X70.761Y52.782Z0F1200
G1 X71.054Y52.032Z0F1200
G1 X71.36Y51.24Z0F1200
G1 X71.678Y50.405Z0F1200
G1 X72.01Y49.526Z0F1200
G1 X72.356Y48.602Z0F1200
G1 X72.716Y47.632Z0F1200
G1 X73.091Y46.615Z0F1200

; Color 1 picking sequence
G1 Z10 F500;         ; Raise brush to safe height
G0 X86 Y5 F1200;    ; Rapid move to color 1 position
G1 Z0 F500;         ; Lower into color - controlled movement
G1 X85.102Y7.295Z0S800F1200
G1 X85.026Y7.642Z0F1200
G1 X85Y8Z0F1200
G1 X85.026Y8.358Z0F1200
G1 X85.102Y8.705Z0F1200
G1 X85.225Y9.041Z0F1200
G1 X85.393Y9.362Z0F1200
G1 X85.603Y9.668Z0F1200
G1 X85.854Y9.957Z0F1200
G1 X86.142Y10.226Z0F1200
G1 X86.464Y10.475Z0F1200
G1 X86.82Y10.701Z0F1200
G1 X87.204Y10.902Z0F1200
G1 X87.617Y11.078Z0F1200
G1 X88.054Y11.225Z0F1200
G1 X88.513Y11.343Z0F1200
G1 X88.992Y11.429Z0F1200
G1 X89.489Y11.482Z0F1200
G1 X90Y11.5Z0F1200
G1 X90.511Y11.482Z0F1200
G1 X91.008Y11.429Z0F1200
G1 X91.487Y11.343Z0F1200
G1 X91.946Y11.225Z0F1200
G1 X92.383Y11.078Z0F1200
G1 X92.796Y10.902Z0F1200
G1 X93.18Y10.701Z0F1200
G1 X93.536Y10.475Z0F1200
G1 X93.858Y10.226Z0F1200
G1 X94.146Y9.957Z0F1200
G1 X94.397Y9.668Z0F1200
G1 X94.607Y9.362Z0F1200
G1 X94.775Y9.041Z0F1200
G1 X94.898Y8.705Z0F1200
G1 X94.974Y8.358Z0F1200
G1 X95Y8Z0F1200
G1 X94.974Y7.642Z0F1200
G1 X94.898Y7.295Z0F1200
G1 X94.775Y6.959Z0F1200
G1 X94.607Y6.638Z0F1200
G1 X94.397Y6.332Z0F1200
G1 X94.146Y6.043Z0F1200
G1 X93.858Y5.774Z0F1200
G1 X93.536Y5.525Z0F1200
G1 X93.18Y5.299Z0F1200
G1 X92.796Y5.098Z0F1200
G1 X92.383Y4.922Z0F1200
G1 X91.946Y4.775Z0F1200
G1 X91.487Y4.657Z0F1200
G1 X91.008Y4.571Z0F1200
G1 X90.511Y4.518Z0F1200
G1 X90Y4.5Z0F1200
G1 X89.489Y4.518Z0F1200
G1 X88.992Y4.571Z0F1200
G1 X88.513Y4.657Z0F1200
G1 X88.054Y4.775Z0F1200
G1 X87.617Y4.922Z0F1200
G1 X87.204Y5.098Z0F1200
G1 X86.82Y5.299Z0F1200
G1 X86.464Y5.525Z0F1200
G1 X86.142Y5.774Z0F1200
G1 X85.854Y6.043Z0F1200
G1 X85.603Y6.332Z0F1200
G1 X85.393Y6.638Z0F1200
G1 X85.225Y6.959Z0F1200
G1 Z7 F800;         ; Raise from color - controlled movement
G1 X79 Y8 Z1 F1200;     ; Movement in paint - controlled movement
G1 X69 Y12 Z8 F500;     ; Move in paint - controlled movement
G1 F1200;           ; Set feed rate to 1000

; Return to drawing position
G0 X73.091 Y46.615 F1200;  ; Return to position with raised Z
G1 Z0 F1000;                       ; Lower Z to drawing position
G1 X73.189Y46.299Z0F1200
G1 X73.228Y46.038Z0F1200
G1 X73.204Y45.828Z0F1200
G1 X73.114Y45.665Z0F1200
G1 X72.954Y45.545Z0F1200
G1 X72.72Y45.464Z0F1200
G1 X72.409Y45.419Z0F1200
G1 X72.018Y45.404Z0F1200
G1 X71.64Y45.435Z0F1200
G1 X71.291Y45.527Z0F1200
G1 X70.971Y45.682Z0F1200
G1 X70.677Y45.903Z0F1200
G1 X70.406Y46.192Z0F1200
G1 X70.158Y46.549Z0F1200
G1 X69.929Y46.978Z0F1200
G1 X69.717Y47.48Z0F1200
G1 X69.591Y47.801Z0F1200
G1 X69.468Y48.088Z0F1200
G1 X69.345Y48.343Z0F1200
G1 X69.217Y48.567Z0F1200
G1 X69.083Y48.763Z0F1200
G1 X68.94Y48.931Z0F1200
G1 X68.783Y49.075Z0F1200
G1 X68.61Y49.196Z0F1200
G1 X68.418Y49.295Z0F1200
G1 X68.205Y49.375Z0F1200
G1 X67.965Y49.438Z0F1200
G1 X67.698Y49.485Z0F1200
G1 X67.399Y49.519Z0F1200
G1 X67.065Y49.54Z0F1200
G1 X66.694Y49.552Z0F1200
G1 X66.282Y49.555Z0F1200
G1 X65.868Y49.552Z0F1200
G1 X65.496Y49.54Z0F1200
G1 X65.162Y49.519Z0F1200
G1 X64.864Y49.487Z0F1200
G1 X64.598Y49.44Z0F1200
G1 X64.36Y49.378Z0F1200
G1 X64.149Y49.299Z0F1200
G1 X63.961Y49.2Z0F1200
G1 X63.793Y49.079Z0F1200
G1 X63.641Y48.936Z0F1200
G1 X63.503Y48.767Z0F1200
G1 X63.376Y48.571Z0F1200
G1 X63.255Y48.347Z0F1200
G1 X63.139Y48.091Z0F1200
G1 X63.024Y47.803Z0F1200
G1 X62.908Y47.48Z0F1200
G1 X62.751Y47.106Z0F1200
G1 X62.555Y46.761Z0F1200
G1 X62.327Y46.445Z0F1200
G1 X62.075Y46.163Z0F1200
G1 X61.803Y45.916Z0F1200
G1 X61.521Y45.708Z0F1200
G1 X61.234Y45.54Z0F1200
G1 X60.949Y45.415Z0F1200
G1 X60.674Y45.335Z0F1200
G1 X60.415Y45.304Z0F1200
G1 X60.179Y45.324Z0F1200
G1 X59.974Y45.396Z0F1200
G1 X59.805Y45.525Z0F1200
G1 X59.681Y45.711Z0F1200
G1 X59.607Y45.959Z0F1200
G1 X59.591Y46.269Z0F1200
G1 X59.608Y46.391Z0F1200
G1 X59.651Y46.577Z0F1200
G1 X59.719Y46.822Z0F1200
G1 X59.809Y47.123Z0F1200
G1 X59.921Y47.477Z0F1200
G1 X60.054Y47.878Z0F1200
G1 X60.205Y48.324Z0F1200
G1 X60.374Y48.81Z0F1200
G1 X60.559Y49.334Z0F1200
G1 X60.759Y49.89Z0F1200
G1 X60.973Y50.475Z0F1200
G1 X61.2Y51.086Z0F1200
G1 X61.684Y52.368Z0F1200

; Color 1 picking sequence
G1 Z10 F500;         ; Raise brush to safe height
G0 X86 Y5 F1200;    ; Rapid move to color 1 position
G1 Z0 F500;         ; Lower into color - controlled movement
G1 X85.102Y7.295Z0S800F1200
G1 X85.026Y7.642Z0F1200
G1 X85Y8Z0F1200
G1 X85.026Y8.358Z0F1200
G1 X85.102Y8.705Z0F1200
G1 X85.225Y9.041Z0F1200
G1 X85.393Y9.362Z0F1200
G1 X85.603Y9.668Z0F1200
G1 X85.854Y9.957Z0F1200
G1 X86.142Y10.226Z0F1200
G1 X86.464Y10.475Z0F1200
G1 X86.82Y10.701Z0F1200
G1 X87.204Y10.902Z0F1200
G1 X87.617Y11.078Z0F1200
G1 X88.054Y11.225Z0F1200
G1 X88.513Y11.343Z0F1200
G1 X88.992Y11.429Z0F1200
G1 X89.489Y11.482Z0F1200
G1 X90Y11.5Z0F1200
G1 X90.511Y11.482Z0F1200
G1 X91.008Y11.429Z0F1200
G1 X91.487Y11.343Z0F1200
G1 X91.946Y11.225Z0F1200
G1 X92.383Y11.078Z0F1200
G1 X92.796Y10.902Z0F1200
G1 X93.18Y10.701Z0F1200
G1 X93.536Y10.475Z0F1200
G1 X93.858Y10.226Z0F1200
G1 X94.146Y9.957Z0F1200
G1 X94.397Y9.668Z0F1200
G1 X94.607Y9.362Z0F1200
G1 X94.775Y9.041Z0F1200
G1 X94.898Y8.705Z0F1200
G1 X94.974Y8.358Z0F1200
G1 X95Y8Z0F1200
G1 X94.974Y7.642Z0F1200
G1 X94.898Y7.295Z0F1200
G1 X94.775Y6.959Z0F1200
G1 X94.607Y6.638Z0F1200
G1 X94.397Y6.332Z0F1200
G1 X94.146Y6.043Z0F1200
G1 X93.858Y5.774Z0F1200
G1 X93.536Y5.525Z0F1200
G1 X93.18Y5.299Z0F1200
G1 X92.796Y5.098Z0F1200
G1 X92.383Y4.922Z0F1200
G1 X91.946Y4.775Z0F1200
G1 X91.487Y4.657Z0F1200
G1 X91.008Y4.571Z0F1200
G1 X90.511Y4.518Z0F1200
G1 X90Y4.5Z0F1200
G1 X89.489Y4.518Z0F1200
G1 X88.992Y4.571Z0F1200
G1 X88.513Y4.657Z0F1200
G1 X88.054Y4.775Z0F1200
G1 X87.617Y4.922Z0F1200
G1 X87.204Y5.098Z0F1200
G1 X86.82Y5.299Z0F1200
G1 X86.464Y5.525Z0F1200
G1 X86.142Y5.774Z0F1200
G1 X85.854Y6.043Z0F1200
G1 X85.603Y6.332Z0F1200
G1 X85.393Y6.638Z0F1200
G1 X85.225Y6.959Z0F1200
G1 Z7 F800;         ; Raise from color - controlled movement
G1 X79 Y8 Z1 F1200;     ; Movement in paint - controlled movement
G1 X69 Y12 Z8 F500;     ; Move in paint - controlled movement
G1 F1200;           ; Set feed rate to 1000
G0 Z2.8F500
G0 X73.75Y52.51Z2.8F1500
G1 Z0F500
G1 X73.788Y53.43Z0F1200
G1 X73.906Y54.342Z0F1200
G1 X74.104Y55.234Z0F1200
G1 X74.383Y56.091Z0F1200
G1 X74.552Y56.502Z0F1200
G1 X74.741Y56.9Z0F1200
G1 X74.951Y57.283Z0F1200
G1 X75.181Y57.649Z0F1200
G1 X75.431Y57.997Z0F1200
G1 X75.701Y58.324Z0F1200
G1 X75.991Y58.629Z0F1200
G1 X76.301Y58.911Z0F1200
G1 X76.879Y59.357Z0F1200
G1 X77.474Y59.739Z0F1200
G1 X78.083Y60.057Z0F1200
G1 X78.704Y60.312Z0F1200
G1 X79.334Y60.503Z0F1200
G1 X79.97Y60.63Z0F1200
G1 X80.61Y60.695Z0F1200
G1 X81.249Z0F1200
G1 X81.887Y60.634Z0F1200
G1 X82.519Y60.509Z0F1200
G1 X83.143Y60.322Z0F1200
G1 X83.757Y60.071Z0F1200
G1 X84.357Y59.759Z0F1200
G1 X84.94Y59.384Z0F1200
G1 X85.504Y58.947Z0F1200
G1 X86.047Y58.447Z0F1200
G1 X86.426Y58.067Z0F1200
G1 X86.756Y57.733Z0F1200
G1 X87.037Y57.441Z0F1200
G1 X87.27Y57.188Z0F1200
G1 X87.457Y56.969Z0F1200
G1 X87.598Y56.78Z0F1200
G1 X87.694Y56.618Z0F1200
G1 X87.747Y56.478Z0F1200
G1 X87.756Y56.357Z0F1200
G1 X87.723Y56.251Z0F1200
G1 X87.649Y56.155Z0F1200
G1 X87.534Y56.067Z0F1200
G1 X87.38Y55.982Z0F1200
G1 X87.188Y55.895Z0F1200
G1 X86.958Y55.805Z0F1200
G1 X86.692Y55.705Z0F1200
G1 X86.267Y55.575Z0F1200
G1 X85.871Y55.515Z0F1200
G1 X85.491Y55.531Z0F1200
G1 X85.115Y55.626Z0F1200
G1 X84.732Y55.804Z0F1200
G1 X84.329Y56.071Z0F1200
G1 X84.116Y56.239Z0F1200
G1 X83.893Y56.43Z0F1200
G1 X83.66Y56.646Z0F1200
G1 X83.413Y56.886Z0F1200
G1 X83.129Y57.154Z0F1200
G1 X82.843Y57.391Z0F1200
G1 X82.555Y57.599Z0F1200
G1 X82.266Y57.779Z0F1200
G1 X81.977Y57.929Z0F1200
G1 X81.688Y58.052Z0F1200
G1 X81.401Y58.147Z0F1200
G1 X81.116Y58.214Z0F1200
G1 X80.833Y58.255Z0F1200
G1 X80.555Y58.27Z0F1200
G1 X80.28Y58.259Z0F1200
G1 X80.011Y58.223Z0F1200
G1 X79.748Y58.162Z0F1200
G1 X79.491Y58.076Z0F1200
G1 X79.241Y57.967Z0F1200
G1 X79Y57.834Z0F1200
G1 X78.544Y57.499Z0F1200
G1 X78.13Y57.076Z0F1200
G1 X77.762Y56.568Z0F1200
G1 X77.449Y55.978Z0F1200
G1 X77.194Y55.311Z0F1200
G1 X77.005Y54.57Z0F1200
G1 X76.937Y54.173Z0F1200
G1 X76.887Y53.759Z0F1200
G1 X76.857Y53.329Z0F1200
G1 X76.846Y52.882Z0F1200
G1 X76.86Y52.445Z0F1200
G1 X76.901Y52.021Z0F1200
G1 X76.968Y51.611Z0F1200
G1 X77.058Y51.217Z0F1200
G1 X77.172Y50.838Z0F1200
G1 X77.307Y50.475Z0F1200
G1 X77.463Y50.129Z0F1200
G1 X77.637Y49.8Z0F1200
G1 X78.038Y49.199Z0F1200

; Color 1 picking sequence
G1 Z10 F500;         ; Raise brush to safe height
G0 X86 Y5 F1200;    ; Rapid move to color 1 position
G1 Z0 F500;         ; Lower into color - controlled movement
G1 X85.102Y7.295Z0S800F1200
G1 X85.026Y7.642Z0F1200
G1 X85Y8Z0F1200
G1 X85.026Y8.358Z0F1200
G1 X85.102Y8.705Z0F1200
G1 X85.225Y9.041Z0F1200
G1 X85.393Y9.362Z0F1200
G1 X85.603Y9.668Z0F1200
G1 X85.854Y9.957Z0F1200
G1 X86.142Y10.226Z0F1200
G1 X86.464Y10.475Z0F1200
G1 X86.82Y10.701Z0F1200
G1 X87.204Y10.902Z0F1200
G1 X87.617Y11.078Z0F1200
G1 X88.054Y11.225Z0F1200
G1 X88.513Y11.343Z0F1200
G1 X88.992Y11.429Z0F1200
G1 X89.489Y11.482Z0F1200
G1 X90Y11.5Z0F1200
G1 X90.511Y11.482Z0F1200
G1 X91.008Y11.429Z0F1200
G1 X91.487Y11.343Z0F1200
G1 X91.946Y11.225Z0F1200
G1 X92.383Y11.078Z0F1200
G1 X92.796Y10.902Z0F1200
G1 X93.18Y10.701Z0F1200
G1 X93.536Y10.475Z0F1200
G1 X93.858Y10.226Z0F1200
G1 X94.146Y9.957Z0F1200
G1 X94.397Y9.668Z0F1200
G1 X94.607Y9.362Z0F1200
G1 X94.775Y9.041Z0F1200
G1 X94.898Y8.705Z0F1200
G1 X94.974Y8.358Z0F1200
G1 X95Y8Z0F1200
G1 X94.974Y7.642Z0F1200
G1 X94.898Y7.295Z0F1200
G1 X94.775Y6.959Z0F1200
G1 X94.607Y6.638Z0F1200
G1 X94.397Y6.332Z0F1200
G1 X94.146Y6.043Z0F1200
G1 X93.858Y5.774Z0F1200
G1 X93.536Y5.525Z0F1200
G1 X93.18Y5.299Z0F1200
G1 X92.796Y5.098Z0F1200
G1 X92.383Y4.922Z0F1200
G1 X91.946Y4.775Z0F1200
G1 X91.487Y4.657Z0F1200
G1 X91.008Y4.571Z0F1200
G1 X90.511Y4.518Z0F1200
G1 X90Y4.5Z0F1200
G1 X89.489Y4.518Z0F1200
G1 X88.992Y4.571Z0F1200
G1 X88.513Y4.657Z0F1200
G1 X88.054Y4.775Z0F1200
G1 X87.617Y4.922Z0F1200
G1 X87.204Y5.098Z0F1200
G1 X86.82Y5.299Z0F1200
G1 X86.464Y5.525Z0F1200
G1 X86.142Y5.774Z0F1200
G1 X85.854Y6.043Z0F1200
G1 X85.603Y6.332Z0F1200
G1 X85.393Y6.638Z0F1200
G1 X85.225Y6.959Z0F1200
G1 Z7 F800;         ; Raise from color - controlled movement
G1 X79 Y8 Z1 F1200;     ; Movement in paint - controlled movement
G1 X69 Y12 Z8 F500;     ; Move in paint - controlled movement
G1 F1200;           ; Set feed rate to 1000

; Return to drawing position
G0 X78.038 Y49.199 F1200;  ; Return to position with raised Z
G1 Z0 F1000;                       ; Lower Z to drawing position
G1 X78.499Y48.678Z0F1200
G1 X79.009Y48.24Z0F1200
G1 X79.559Y47.893Z0F1200
G1 X79.845Y47.755Z0F1200
G1 X80.136Y47.642Z0F1200
G1 X80.433Y47.554Z0F1200
G1 X80.732Y47.492Z0F1200
G1 X81.033Y47.457Z0F1200
G1 X81.335Y47.449Z0F1200
G1 X81.636Y47.469Z0F1200
G1 X81.935Y47.519Z0F1200
G1 X82.23Y47.598Z0F1200
G1 X82.521Y47.707Z0F1200
G1 X82.805Y47.847Z0F1200
G1 X83.082Y48.019Z0F1200
G1 X83.351Y48.223Z0F1200
G1 X83.609Y48.46Z0F1200
G1 X83.856Y48.731Z0F1200
G1 X84.09Y49.036Z0F1200
G1 X84.277Y49.303Z0F1200
G1 X84.436Y49.538Z0F1200
G1 X84.566Y49.744Z0F1200
G1 X84.666Y49.924Z0F1200
G1 X84.733Y50.079Z0F1200
G1 X84.768Y50.214Z0F1200
G1 Y50.329Z0F1200
G1 X84.729Y50.428Z0F1200
G1 X84.653Y50.513Z0F1200
G1 X84.537Y50.587Z0F1200
G1 X84.38Y50.653Z0F1200
G1 X84.18Y50.712Z0F1200
G1 X83.936Y50.768Z0F1200
G1 X83.645Y50.822Z0F1200
G1 X83.306Y50.878Z0F1200
G1 X82.919Y50.939Z0F1200
G1 X82.419Y51.033Z0F1200
G1 X81.974Y51.155Z0F1200
G1 X81.586Y51.301Z0F1200
G1 X81.26Y51.47Z0F1200
G1 X80.999Y51.659Z0F1200
G1 X80.808Y51.866Z0F1200
G1 X80.691Y52.087Z0F1200
G1 X80.651Y52.322Z0F1200
G1 X80.663Y52.46Z0F1200
G1 X80.698Y52.589Z0F1200
G1 X80.757Y52.708Z0F1200
G1 X80.843Y52.818Z0F1200
G1 X80.955Y52.919Z0F1200
G1 X81.095Y53.012Z0F1200
G1 X81.265Y53.097Z0F1200
G1 X81.464Y53.174Z0F1200
G1 X81.695Y53.245Z0F1200
G1 X81.959Y53.308Z0F1200
G1 X82.256Y53.365Z0F1200
G1 X82.587Y53.416Z0F1200
G1 X82.955Y53.462Z0F1200
G1 X83.359Y53.502Z0F1200
G1 X83.801Y53.538Z0F1200
G1 X84.283Y53.569Z0F1200
G1 X87.915Y53.778Z0F1200
G1 Y49.591Z0F1200
G1 Y48.93Z0F1200
G1 X87.906Y48.342Z0F1200
G1 X87.892Y47.821Z0F1200
G1 X87.872Y47.365Z0F1200
G1 X87.842Y46.969Z0F1200
G1 X87.802Y46.629Z0F1200
G1 X87.75Y46.341Z0F1200
G1 X87.685Y46.101Z0F1200
G1 X87.605Y45.904Z0F1200
G1 X87.51Y45.747Z0F1200
G1 X87.398Y45.625Z0F1200
G1 X87.267Y45.535Z0F1200
G1 X87.116Y45.471Z0F1200
G1 X86.944Y45.431Z0F1200
G1 X86.75Y45.41Z0F1200
G1 X86.531Y45.404Z0F1200
G1 X86.253Y45.421Z0F1200
G1 X85.994Y45.47Z0F1200
G1 X85.759Y45.547Z0F1200
G1 X85.554Y45.648Z0F1200
G1 X85.385Y45.771Z0F1200
G1 X85.257Y45.912Z0F1200
G1 X85.176Y46.068Z0F1200
G1 X85.148Y46.234Z0F1200
G1 X85.138Y46.446Z0F1200
G1 X85.109Y46.598Z0F1200
G1 X85.055Y46.688Z0F1200
G1 X84.975Y46.719Z0F1200
G1 X84.864Y46.688Z0F1200
G1 X84.72Y46.598Z0F1200
G1 X84.539Y46.446Z0F1200
G1 X84.317Y46.234Z0F1200
G1 X84.054Y46.03Z0F1200
G1 X83.711Y45.856Z0F1200
G1 X83.299Y45.712Z0F1200
G1 X82.828Y45.598Z0F1200
G1 X82.308Y45.514Z0F1200
G1 X81.75Y45.459Z0F1200
G1 X81.164Y45.433Z0F1200
G1 X80.56Y45.436Z0F1200
G1 X79.949Y45.468Z0F1200
G1 X79.341Y45.528Z0F1200
G1 X78.747Y45.615Z0F1200
G1 X78.176Y45.731Z0F1200
G1 X77.639Y45.873Z0F1200

; Color 1 picking sequence
G1 Z10 F500;         ; Raise brush to safe height
G0 X86 Y5 F1200;    ; Rapid move to color 1 position
G1 Z0 F500;         ; Lower into color - controlled movement
G1 X85.102Y7.295Z0S800F1200
G1 X85.026Y7.642Z0F1200
G1 X85Y8Z0F1200
G1 X85.026Y8.358Z0F1200
G1 X85.102Y8.705Z0F1200
G1 X85.225Y9.041Z0F1200
G1 X85.393Y9.362Z0F1200
G1 X85.603Y9.668Z0F1200
G1 X85.854Y9.957Z0F1200
G1 X86.142Y10.226Z0F1200
G1 X86.464Y10.475Z0F1200
G1 X86.82Y10.701Z0F1200
G1 X87.204Y10.902Z0F1200
G1 X87.617Y11.078Z0F1200
G1 X88.054Y11.225Z0F1200
G1 X88.513Y11.343Z0F1200
G1 X88.992Y11.429Z0F1200
G1 X89.489Y11.482Z0F1200
G1 X90Y11.5Z0F1200
G1 X90.511Y11.482Z0F1200
G1 X91.008Y11.429Z0F1200
G1 X91.487Y11.343Z0F1200
G1 X91.946Y11.225Z0F1200
G1 X92.383Y11.078Z0F1200
G1 X92.796Y10.902Z0F1200
G1 X93.18Y10.701Z0F1200
G1 X93.536Y10.475Z0F1200
G1 X93.858Y10.226Z0F1200
G1 X94.146Y9.957Z0F1200
G1 X94.397Y9.668Z0F1200
G1 X94.607Y9.362Z0F1200
G1 X94.775Y9.041Z0F1200
G1 X94.898Y8.705Z0F1200
G1 X94.974Y8.358Z0F1200
G1 X95Y8Z0F1200
G1 X94.974Y7.642Z0F1200
G1 X94.898Y7.295Z0F1200
G1 X94.775Y6.959Z0F1200
G1 X94.607Y6.638Z0F1200
G1 X94.397Y6.332Z0F1200
G1 X94.146Y6.043Z0F1200
G1 X93.858Y5.774Z0F1200
G1 X93.536Y5.525Z0F1200
G1 X93.18Y5.299Z0F1200
G1 X92.796Y5.098Z0F1200
G1 X92.383Y4.922Z0F1200
G1 X91.946Y4.775Z0F1200
G1 X91.487Y4.657Z0F1200
G1 X91.008Y4.571Z0F1200
G1 X90.511Y4.518Z0F1200
G1 X90Y4.5Z0F1200
G1 X89.489Y4.518Z0F1200
G1 X88.992Y4.571Z0F1200
G1 X88.513Y4.657Z0F1200
G1 X88.054Y4.775Z0F1200
G1 X87.617Y4.922Z0F1200
G1 X87.204Y5.098Z0F1200
G1 X86.82Y5.299Z0F1200
G1 X86.464Y5.525Z0F1200
G1 X86.142Y5.774Z0F1200
G1 X85.854Y6.043Z0F1200
G1 X85.603Y6.332Z0F1200
G1 X85.393Y6.638Z0F1200
G1 X85.225Y6.959Z0F1200
G1 Z7 F800;         ; Raise from color - controlled movement
G1 X79 Y8 Z1 F1200;     ; Movement in paint - controlled movement
G1 X69 Y12 Z8 F500;     ; Move in paint - controlled movement
G1 F1200;           ; Set feed rate to 1000

; Return to drawing position
G0 X77.639 Y45.873 F1200;  ; Return to position with raised Z
G1 Z0 F1000;                       ; Lower Z to drawing position
G1 X77.146Y46.043Z0F1200
G1 X76.708Y46.24Z0F1200
G1 X76.336Y46.463Z0F1200
G1 X76.024Y46.702Z0F1200
G1 X75.732Y46.967Z0F1200
G1 X75.46Y47.257Z0F1200
G1 X75.209Y47.57Z0F1200
G1 X74.977Y47.904Z0F1200
G1 X74.765Y48.257Z0F1200
G1 X74.574Y48.629Z0F1200
G1 X74.402Y49.017Z0F1200
G1 X74.119Y49.836Z0F1200
G1 X73.916Y50.699Z0F1200
G1 X73.793Y51.595Z0F1200
G1 X73.75Y52.51Z0F1200
;Cut @ 1200 mm/min, 90% power

M8

; Washing sequence (no color)
G1 Z10 F1000;        ; Raise brush to safe height
G0 X5 Y5 F1200;     ; Rapid move to brush cleaning position
G1 Z-1 F800;         ; Lower brush for cleaning - controlled movement
G1 X10 Y12 Z8 F1200;     ; Rapid move to brush cleaning position
G1 Z-1 F800;         ; Lower brush for cleaning - controlled movement
G1 X25 Y14 Z6 F800;     ; Move across cleaning area - controlled movement
G1 Z8 F800;         ; Maintain brush height - controlled movement
G0 X5 Y5 F1200;     ; Rapid move to brush cleaning position
G1 Z-1 F800;         ; Lower brush for cleaning - controlled movement
G1 X15 Y12 Z8 F1200;     ; Rapid move to brush cleaning position
G1 Z-1 F800;         ; Lower brush for cleaning - controlled movement
G1 X25 Y14 Z6 F800;     ; Move across cleaning area - controlled movement
G1 Z10 F800;         ; Maintain brush height - controlled movement
G1 F1200;           ; Set feed rate to 1000

; Color 1 picking sequence
G1 Z10 F500;         ; Raise brush to safe height
G0 X41 Y5 F1200;    ; Rapid move to color 1 position
G1 Z0 F500;         ; Lower into color - controlled movement
G1 X40.102Y7.295Z0S800F1200
G1 X40.026Y7.642Z0F1200
G1 X40Y8Z0F1200
G1 X40.026Y8.358Z0F1200
G1 X40.102Y8.705Z0F1200
G1 X40.225Y9.041Z0F1200
G1 X40.393Y9.362Z0F1200
G1 X40.603Y9.668Z0F1200
G1 X40.854Y9.957Z0F1200
G1 X41.142Y10.226Z0F1200
G1 X41.464Y10.475Z0F1200
G1 X41.82Y10.701Z0F1200
G1 X42.204Y10.902Z0F1200
G1 X42.617Y11.078Z0F1200
G1 X43.054Y11.225Z0F1200
G1 X43.513Y11.343Z0F1200
G1 X43.992Y11.429Z0F1200
G1 X44.489Y11.482Z0F1200
G1 X45Y11.5Z0F1200
G1 X45.511Y11.482Z0F1200
G1 X46.008Y11.429Z0F1200
G1 X46.487Y11.343Z0F1200
G1 X46.946Y11.225Z0F1200
G1 X47.383Y11.078Z0F1200
G1 X47.796Y10.902Z0F1200
G1 X48.18Y10.701Z0F1200
G1 X48.536Y10.475Z0F1200
G1 X48.858Y10.226Z0F1200
G1 X49.146Y9.957Z0F1200
G1 X49.397Y9.668Z0F1200
G1 X49.607Y9.362Z0F1200
G1 X49.775Y9.041Z0F1200
G1 X49.898Y8.705Z0F1200
G1 X49.974Y8.358Z0F1200
G1 X50Y8Z0F1200
G1 X49.974Y7.642Z0F1200
G1 X49.898Y7.295Z0F1200
G1 X49.775Y6.959Z0F1200
G1 X49.607Y6.638Z0F1200
G1 X49.397Y6.332Z0F1200
G1 X49.146Y6.043Z0F1200
G1 X48.858Y5.774Z0F1200
G1 X48.536Y5.525Z0F1200
G1 X48.18Y5.299Z0F1200
G1 X47.796Y5.098Z0F1200
G1 X47.383Y4.922Z0F1200
G1 X46.946Y4.775Z0F1200
G1 X46.487Y4.657Z0F1200
G1 X46.008Y4.571Z0F1200
G1 X45.511Y4.518Z0F1200
G1 X45Y4.5Z0F1200
G1 X44.489Y4.518Z0F1200
G1 X43.992Y4.571Z0F1200
G1 X43.513Y4.657Z0F1200
G1 X43.054Y4.775Z0F1200
G1 X42.617Y4.922Z0F1200
G1 X42.204Y5.098Z0F1200
G1 X41.82Y5.299Z0F1200
G1 X41.464Y5.525Z0F1200
G1 X41.142Y5.774Z0F1200
G1 X40.854Y6.043Z0F1200
G1 X40.603Y6.332Z0F1200
G1 X40.393Y6.638Z0F1200
G1 X40.225Y6.959Z0F1200
G1 Z7 F800;         ; Raise from color - controlled movement
G1 X34 Y8 Z1 F1200;     ; Movement in paint - controlled movement
G1 X24 Y12 Z8 F500;     ; Move in paint - controlled movement
G1 F1200;           ; Set feed rate to 1000
G0 Z2.8F500
G0 X32.666Y53Z2.8F1500
G1 Z0F500
;Layer Green
G1 Y85.334Z0F1200
G1 X97.334Z0F1200
G1 Y20.666Z0F1200
G1 X32.666Z0F1200
G1 Y53Z0F1200
M9
M5
G1 Z10 F500
G90
G1 Z10 F500

; Return to 2,0 wash and park
G1 Z10 F1000;        ; Raise brush to safe height
G0 X5 Y5 F1200;     ; Rapid move to brush cleaning position
G1 Z-1 F800;         ; Lower brush for cleaning - controlled movement
G1 X10 Y12 Z8 F1200;     ; Rapid move to brush cleaning position
G1 Z-1 F800;         ; Lower brush for cleaning - controlled movement
G1 X25 Y14 Z6 F800;     ; Move across cleaning area - controlled movement
G0 X5 Y5 F1200;     ; Rapid move to brush cleaning position
G1 Z-1 F800;         ; Lower brush for cleaning - controlled movement
G1 X15 Y12 Z8 F1200;     ; Rapid move to brush cleaning position
G1 Z-1 F800;         ; Lower brush for cleaning - controlled movement
G1 X25 Y14 Z6 F800;     ; Move across cleaning area - controlled movement
G1 Z10 F800;         ; Maintain brush height - controlled movement
G0 X20 Y110 Z10 F500;; Move to parking position with Z at safe height
M2;                 ; End program
