;LightBurn 1.6.04
;Custom GCode device profile, absolute coords
;Bounds: X26.23 Y63.1 to X61.77 Y100.9
G00 G17 G40 G21 G54
G90
M3
G1 Z10 F500
;Cut @ 333 mm/min, 80% power

M8
G0 Z3.5 F500
G0 X35.878 Y64.391 Z3.5 
G1 Z0 F500
;Layer C3
G1 X35.813 Z0 S800 F800
G1 X35.231 Y64.65 Z0 F800
G1 X36.266 Y65.557 Z0 F800
G1 X36.434 Y65.147 Z0 F800
G1 X36.534 Y64.893 Z0 F800
G1 X36.636 Y64.621 Z0 F800
G1 X36.731 Y64.355 Z0 F800
G1 X36.805 Y64.119 Z0 F800
G1 X36.849 Y63.938 Z0 F800
G1 X36.829 Y63.799 Z0 F800
G1 X36.735 Y63.673 Z0 F800
G1 X36.591 Y63.563 Z0 F800
G1 X36.42 Y63.469 Z0 F800
G1 X36.247 Y63.393 Z0 F800
G1 X36.094 Y63.337 Z0 F800
G1 X35.943 Y63.291 Z0 F800
G1 X35.89 Y63.303 Z0 F800
G1 X35.749 Y63.339 Z0 F800
G1 X35.547 Y63.4 Z0 F800
G1 X35.312 Y63.485 Z0 F800
G1 X35.07 Y63.594 Z0 F800
G1 X34.85 Y63.728 Z0 F800
G1 X34.679 Y63.885 Z0 F800
G1 X34.583 Y64.068 Z0 F800
G1 X34.513 Y64.286 Z0 F800
G1 X34.407 Y64.539 Z0 F800
G1 X34.281 Y64.807 Z0 F800
G1 X34.146 Y65.071 Z0 F800
G1 X34.018 Y65.31 Z0 F800
G1 X33.91 Y65.506 Z0 F800
G1 X33.806 Y65.686 Z0 F800
G1 X34.065 Y65.767 Z0 F800
G1 X34.339 Y65.85 Z0 F800
G1 X34.664 Y65.945 Z0 F800
G1 X35.008 Y66.04 Z0 F800
G1 X35.336 Y66.123 Z0 F800
G1 X35.616 Y66.182 Z0 F800
G1 X35.813 Y66.204 Z0 F800
G1 X37.367 Z0 F800
G1 X37.495 Y66.238 Z0 F800
G1 X37.592 Y66.331 Z0 F800
G1 X37.661 Y66.47 Z0 F800
G1 X37.707 Y66.641 Z0 F800
G1 X37.749 Y67.023 Z0 F800
G1 X37.755 Y67.369 Z0 F800
G1 X37.789 Y67.561 Z0 F800
G1 X37.877 Y67.826 Z0 F800
G1 X38.001 Y68.134 Z0 F800
G1 X38.144 Y68.454 Z0 F800
G1 X38.287 Y68.755 Z0 F800
G1 X38.461 Y69.107 Z0 F800
G1 X38.532 Y69.247 Z0 F800
G1 X38.662 Y69.318 Z0 F800
G1 X38.805 Y69.393 Z0 F800
G1 X38.985 Y69.481 Z0 F800
G1 X39.406 Y69.656 Z0 F800
G1 X39.827 Y69.764 Z0 F800
G1 X40.031 Y69.814 Z0 F800
G1 X40.248 Y69.903 Z0 F800
G1 X40.464 Y70.018 Z0 F800
G1 X40.669 Y70.145 Z0 F800
G1 X40.849 Y70.268 Z0 F800
G1 X40.992 Y70.374 Z0 F800
G1 X41.122 Y70.477 Z0 F800
G1 X41.64 Y71.642 Z0 F800
G1 X42.158 Y72.419 Z0 F800
G1 X41.963 Y77.468 Z0 F800
G0 Z3.5 F500
G0 X47.531 Y77.048 Z3.5 F333
G1 Z0 F500
G1 X47.466 Y73.034 Z0 F800
G0 Z3.5 F500
G0 X50.023 Z3.5 
G1 Z0 F500
G1 X49.797 Y77.145 Z0 F800
G0 Z3.5 F500
G0 X52.386 Y76.95 Z3.5 
G1 Z0 F500
G1 X52.322 Y72.678 Z0 F800
G0 Z3.5 F500
G0 X53.726 Y66.02 Z3.5 
G1 Z0 F500
G1 X54.686 Y65.871 Z0 F800
G1 X54.643 Y66.556 Z0 F800
G1 X54.221 Y67.513 Z0 F800
G1 X53.721 Y67.045 Z0 F800
G1 X52.706 Y65.406 Z0 F800
G1 X55.179 Y64.515 Z0 F800
G1 X55.594 Y66.021 Z0 F800
G1 X55.115 Y67.494 Z0 F800
G1 X54.231 Y68.936 Z0 F800
G1 X52.857 Y67.434 Z0 F800
G1 X51.689 Y65.728 Z0 F800
G0 Z3.5 F500
G0 X47.078 Y64.521 Z3.5 
G1 Z0 F500
G1 X46.99 Y64.496 Z0 F800
G1 X46.89 Y64.464 Z0 F800
G1 X46.762 Y64.42 Z0 F800
G1 X46.45 Y64.289 Z0 F800
G1 X46.107 Y64.1 Z0 F800
G1 X45.933 Y64.012 Z0 F800
G1 X45.757 Y63.962 Z0 F800
G1 X45.583 Y63.941 Z0 F800
G1 X45.419 Z0 F800
G1 X45.27 Y63.957 Z0 F800
G1 X45.142 Y63.977 Z0 F800
G1 X45.041 Y63.995 Z0 F800
G1 X44.974 Y64.003 Z0 F800
G1 X44.44 Y63.922 Z0 F800
G1 X44.003 Y63.841 Z0 F800
G1 X43.55 Y64.521 Z0 F800
G1 X44.557 Y64.658 Z0 F800
G1 X44.939 Y64.714 Z0 F800
G1 X45.284 Y64.767 Z0 F800
G1 X45.548 Y64.812 Z0 F800
G1 X45.635 Y64.83 Z0 F800
G1 X45.686 Y64.844 Z0 F800
G1 X45.79 Y64.884 Z0 F800
G1 X45.968 Y64.948 Z0 F800
G1 X46.197 Y65.026 Z0 F800
G1 X46.459 Y65.111 Z0 F800
G1 X46.731 Y65.193 Z0 F800
G1 X46.992 Y65.263 Z0 F800
G1 X47.223 Y65.312 Z0 F800
G1 X47.401 Y65.33 Z0 F800
G1 X47.544 Y65.292 Z0 F800
G1 X47.677 Y65.19 Z0 F800
G1 X47.797 Y65.041 Z0 F800
G1 X47.903 Y64.865 Z0 F800
G1 X47.991 Y64.677 Z0 F800
G1 X48.057 Y64.497 Z0 F800
G1 X48.099 Y64.342 Z0 F800
G1 X48.114 Y64.229 Z0 F800
G1 X48.058 Y64.012 Z0 F800
G1 X47.936 Y63.756 Z0 F800
G1 X47.87 Y63.639 Z0 F800
G1 X47.758 Y63.453 Z0 F800
G1 X46.807 Y63.274 Z0 F800
G1 X46.441 Y63.209 Z0 F800
G1 X46.105 Y63.152 Z0 F800
G1 X45.84 Y63.112 Z0 F800
G1 X45.746 Y63.1 Z0 F800
G1 X45.686 Y63.096 Z0 F800
G1 X45.459 Y63.13 Z0 F800
G1 X45.156 Y63.218 Z0 F800
G1 X44.835 Y63.342 Z0 F800
G1 X44.553 Y63.485 Z0 F800
G1 X44.391 Y63.563 Z0 F800
G1 X44.164 Y63.649 Z0 F800
G1 X43.894 Y63.738 Z0 F800
G1 X43.602 Y63.825 Z0 F800
G1 X43.312 Y63.906 Z0 F800
G1 X43.046 Y63.977 Z0 F800
G1 X42.827 Y64.032 Z0 F800
G1 X42.676 Y64.068 Z0 F800
G1 X42.438 Y64.173 Z0 F800
G1 X42.186 Y64.355 Z0 F800
G1 X41.952 Y64.555 Z0 F800
G1 X41.769 Y64.715 Z0 F800
G1 X41.72 Y64.788 Z0 F800
G1 X41.713 Y64.879 Z0 F800
G1 X41.735 Y64.981 Z0 F800
G1 X41.777 Y65.083 Z0 F800
G1 X41.829 Y65.178 Z0 F800
G1 X41.878 Y65.257 Z0 F800
G1 X41.931 Y65.33 Z0 F800
G1 X42.574 Y65.225 Z0 F800
G1 X43.119 Y65.139 Z0 F800
G1 X43.582 Y65.071 Z0 F800
G1 X43.93 Y65.075 Z0 F800
G1 X44.233 Y65.152 Z0 F800
G1 X44.47 Y65.253 Z0 F800
G1 X44.618 Y65.33 Z0 F800
G1 X44.652 Y65.396 Z0 F800
G1 X44.662 Y65.529 Z0 F800
G1 X44.654 Y65.707 Z0 F800
G1 X44.634 Y65.904 Z0 F800
G1 X44.608 Y66.099 Z0 F800
G1 X44.581 Y66.268 Z0 F800
G1 X44.553 Y66.43 Z0 F800
G1 X44.535 Y66.629 Z0 F800
G1 X44.514 Y66.84 Z0 F800
G1 X44.484 Y67.094 Z0 F800
G1 X44.447 Y67.366 Z0 F800
G1 X44.403 Y67.632 Z0 F800
G1 X44.352 Y67.868 Z0 F800
G1 X44.294 Y68.049 Z0 F800
G1 X44.221 Y68.39 Z0 F800
G1 X44.217 Y68.761 Z0 F800
G1 X44.229 Y68.926 Z0 F800
G1 X44.244 Y69.059 Z0 F800
G1 X44.262 Y69.182 Z0 F800
G1 X45.168 Y69.538 Z0 F800
G1 X45.649 Y69.291 Z0 F800
G1 X46.056 Y69.087 Z0 F800
G1 X46.398 Y68.923 Z0 F800
G1 X46.546 Y68.89 Z0 F800
G1 X46.715 Y68.905 Z0 F800
G1 X46.892 Y68.954 Z0 F800
G1 X47.066 Y69.024 Z0 F800
G1 X47.222 Y69.101 Z0 F800
G1 X47.349 Y69.173 Z0 F800
G1 X47.466 Y69.247 Z0 F800
G1 X46.992 Y69.325 Z0 F800
G1 X46.706 Y69.376 Z0 F800
G1 X46.407 Y69.433 Z0 F800
G1 X46.128 Y69.492 Z0 F800
G1 X45.899 Y69.55 Z0 F800
G1 X45.751 Y69.603 Z0 F800
G1 X45.635 Y69.627 Z0 F800
G1 X45.487 Y69.612 Z0 F800
G1 X45.312 Y69.567 Z0 F800
G1 X44.704 Y69.375 Z0 F800
G1 X44.294 Y69.311 Z0 F800
G1 X44.133 Y69.331 Z0 F800
G1 X44.03 Y69.388 Z0 F800
G1 X43.974 Y69.473 Z0 F800
G1 X43.954 Y69.582 Z0 F800
G1 X43.975 Y69.844 Z0 F800
G1 X44.003 Y70.121 Z0 F800
G1 X44.024 Y70.269 Z0 F800
G1 X44.08 Y70.441 Z0 F800
G1 X44.161 Y70.627 Z0 F800
G1 X44.258 Y70.816 Z0 F800
G1 X44.358 Y71 Z0 F800
G1 X44.532 Y71.309 Z0 F800
G1 X44.585 Y71.415 Z0 F800
G1 X44.62 Y71.527 Z0 F800
G1 X44.652 Y71.681 Z0 F800
G1 X44.681 Y71.863 Z0 F800
G1 X44.707 Y72.059 Z0 F800
G1 X44.766 Y72.577 Z0 F800
G1 X44.78 Y72.678 Z0 F800
G1 X44.812 Y73.058 Z0 F800
G1 X44.844 Y73.39 Z0 F800
G1 X44.85 Y73.535 Z0 F800
G1 X44.82 Y73.754 Z0 F800
G1 X44.753 Y74.009 Z0 F800
G1 X44.65 Y74.264 Z0 F800
G1 X44.597 Y74.406 Z0 F800
G1 X44.557 Y74.583 Z0 F800
G1 X44.529 Y74.783 Z0 F800
G1 X44.512 Y74.996 Z0 F800
G1 X44.504 Y75.415 Z0 F800
G1 X44.521 Y75.753 Z0 F800
G1 X44.602 Y76.538 Z0 F800
G1 X44.682 Y77.274 Z0 F800
G1 X44.687 Y77.417 Z0 F800
G1 X44.68 Y77.619 Z0 F800
G1 X44.664 Y77.863 Z0 F800
G1 X44.642 Y78.136 Z0 F800
G1 X44.591 Y78.708 Z0 F800
G1 X44.553 Y79.216 Z0 F800
G1 X44.484 Y79.629 Z0 F800
G1 X44.363 Y79.969 Z0 F800
G1 X44.301 Y80.1 Z0 F800
G1 X44.248 Y80.199 Z0 F800
G1 X44.197 Y80.284 Z0 F800
G1 X43.323 Z0 F800
G1 X42.74 Y80.204 Z0 F800
G1 X42.061 Y80.123 Z0 F800
G1 X41.925 Y80.188 Z0 F800
G1 X41.753 Y80.333 Z0 F800
G1 X41.672 Y80.41 Z0 F800
G1 X41.543 Y80.543 Z0 F800
G1 X41.769 Y81.32 Z0 F800
G1 X41.996 Y82.356 Z0 F800
G0 Z3.5 F500
G0 X42.002 Y82.186 Z3.5 
G1 Z0 F500
G1 X41.865 Y87.313 Z0 F800
G0 Z3.5 F500
G0 X41.956 Y87.176 Z3.5 
G1 Z0 F500
G1 X41.911 Y84.429 Z0 F800
G1 X42.185 Y82.918 Z0 F800
G1 X41.865 Y81.225 Z0 F800
G0 Z3.5 F500
G0 X44.52 Y82.918 Z3.5 
G1 Z0 F500
G1 X44.611 Y85.573 Z0 F800
G1 X44.52 Y87.725 Z0 F800
G1 X44.515 Y87.956 Z0 F800
G1 X44.503 Y88.196 Z0 F800
G1 X44.48 Y88.475 Z0 F800
G1 X44.442 Y88.76 Z0 F800
G1 X44.385 Y89.019 Z0 F800
G1 X44.305 Y89.219 Z0 F800
G1 X44.199 Y89.327 Z0 F800
G1 X44.047 Y89.396 Z0 F800
G1 X43.843 Y89.492 Z0 F800
G1 X43.37 Y89.722 Z0 F800
G1 X42.78 Y90.014 Z0 F800
G1 X40.995 Y89.785 Z0 F800
G1 X39.53 Y90.197 Z0 F800
G1 X38.844 Y90.975 Z0 F800
G1 X38.798 Y92.12 Z0 F800
G1 X40.585 Y92.707 Z0 F800
G1 X38.798 Y92.989 Z0 F800
G1 X39.329 Y94.27 Z0 F800
G1 X38.02 Y92.669 Z0 F800
G1 X37.623 Y94.426 Z0 F800
G1 X37.425 Y92.532 Z0 F800
G1 X36.327 Y93.61 Z0 F800
G1 X37.791 Y92.028 Z0 F800
G1 X36.072 Y91.295 Z0 F800
G1 X38.157 Y91.708 Z0 F800
G1 X38.065 Y90.197 Z0 F800
G1 X38.981 Y89.922 Z0 F800
G0 Z3.5 F500
G0 X32.285 Y90.416 Z3.5 
G1 Z0 F500
G1 X32.373 Y90.591 Z0 F800
G1 X32.467 Y90.766 Z0 F800
G1 X32.58 Y90.961 Z0 F800
G1 X32.701 Y91.148 Z0 F800
G1 X32.82 Y91.296 Z0 F800
G1 X32.926 Y91.378 Z0 F800
G1 X33.008 Y91.365 Z0 F800
G1 X33.154 Y91.208 Z0 F800
G1 X33.292 Y91.053 Z0 F800
G1 X33.407 Y90.913 Z0 F800
G1 X33.483 Y90.804 Z0 F800
G1 X33.503 Y90.668 Z0 F800
G1 X33.477 Y90.451 Z0 F800
G1 X33.417 Y90.183 Z0 F800
G1 X33.337 Y89.894 Z0 F800
G1 X33.251 Y89.616 Z0 F800
G1 X33.141 Y89.287 Z0 F800
G1 X33.094 Y89.154 Z0 F800
G1 X32.888 Y89.228 Z0 F800
G1 X32.671 Y89.311 Z0 F800
G1 X32.415 Y89.413 Z0 F800
G1 X32.146 Y89.527 Z0 F800
G1 X31.893 Y89.645 Z0 F800
G1 X31.682 Y89.761 Z0 F800
G1 X31.541 Y89.866 Z0 F800
G1 X31.472 Y89.991 Z0 F800
G1 X31.453 Y90.164 Z0 F800
G1 X31.473 Y90.37 Z0 F800
G1 X31.52 Y90.598 Z0 F800
G1 X31.767 Y91.452 Z0 F800
G1 X31.814 Y91.584 Z0 F800
G1 X31.878 Y91.674 Z0 F800
G1 X31.952 Y91.734 Z0 F800
G1 X32.026 Y91.775 Z0 F800
G1 X32.095 Y91.811 Z0 F800
G1 X32.15 Y91.852 Z0 F800
G1 X32.183 Y91.912 Z0 F800
G1 X32.188 Y92.002 Z0 F800
G1 X32.163 Y92.148 Z0 F800
G1 X32.114 Y92.358 Z0 F800
G1 X32.046 Y92.617 Z0 F800
G1 X31.961 Y92.908 Z0 F800
G1 X31.76 Y93.531 Z0 F800
G1 X31.541 Y94.106 Z0 F800
G1 X31.427 Y94.345 Z0 F800
G1 X31.309 Y94.552 Z0 F800
G1 X31.189 Y94.731 Z0 F800
G1 X31.071 Y94.883 Z0 F800
G1 X30.858 Y95.117 Z0 F800
G1 X30.699 Y95.271 Z0 F800
G1 X30.254 Y95.85 Z0 F800
G1 X29.76 Y96.501 Z0 F800
G1 X29.609 Y96.744 Z0 F800
G1 X29.497 Y97.056 Z0 F800
G1 X29.428 Y97.398 Z0 F800
G1 X29.404 Y97.731 Z0 F800
G1 X29.438 Y98.093 Z0 F800
G1 X29.505 Y98.512 Z0 F800
G1 X29.554 Y98.938 Z0 F800
G1 X29.534 Y99.317 Z0 F800
G1 X29.488 Y99.756 Z0 F800
G1 X29.481 Y100.28 Z0 F800
G1 X29.486 Y100.521 Z0 F800
G1 X29.501 Y100.904 Z0 F800
G0 Z3.5 F500
G0 X27.397 Y100.871 Z3.5 
G1 Z0 F500
G1 X27.353 Y99.847 Z0 F800
G1 X27.339 Y99.45 Z0 F800
G1 X27.329 Y99.082 Z0 F800
G1 X27.326 Y98.786 Z0 F800
G1 Y98.679 Z0 F800
G1 X27.333 Y98.605 Z0 F800
G1 X27.396 Y98.056 Z0 F800
G1 X27.422 Y97.812 Z0 F800
G1 X27.46 Y97.322 Z0 F800
G1 Y96.922 Z0 F800
G1 X27.443 Y96.723 Z0 F800
G1 X27.413 Y96.461 Z0 F800
G1 X27.337 Y95.858 Z0 F800
G1 X27.235 Y95.109 Z0 F800
G1 X27.192 Y94.931 Z0 F800
G1 X27.15 Y94.748 Z0 F800
G1 X27.106 Y94.535 Z0 F800
G1 X27.068 Y94.319 Z0 F800
G1 X27.044 Y94.126 Z0 F800
G1 Y93.982 Z0 F800
G1 X27.074 Y93.912 Z0 F800
G1 X27.235 Y93.878 Z0 F800
G1 X27.49 Y93.859 Z0 F800
G1 X27.788 Y93.834 Z0 F800
G1 X28.077 Y93.782 Z0 F800
G1 X28.399 Y93.662 Z0 F800
G1 X28.761 Y93.475 Z0 F800
G1 X28.923 Y93.369 Z0 F800
G1 X29.056 Y93.263 Z0 F800
G1 X29.145 Y93.162 Z0 F800
G1 X29.178 Y93.07 Z0 F800
G1 X29.188 Y92.963 Z0 F800
G1 X29.215 Y92.819 Z0 F800
G1 X29.249 Y92.65 Z0 F800
G1 X29.283 Y92.467 Z0 F800
G1 X29.307 Y92.283 Z0 F800
G1 X29.314 Y92.11 Z0 F800
G1 X29.295 Y91.958 Z0 F800
G1 X29.242 Y91.84 Z0 F800
G1 X29.138 Y91.745 Z0 F800
G1 X28.981 Y91.656 Z0 F800
G1 X28.792 Y91.576 Z0 F800
G1 X28.587 Y91.508 Z0 F800
G1 X28.385 Y91.456 Z0 F800
G1 X28.205 Y91.421 Z0 F800
G1 X28.063 Y91.408 Z0 F800
G1 X27.98 Y91.419 Z0 F800
G1 X27.62 Y91.634 Z0 F800
G1 X27.235 Y91.873 Z0 F800
G1 X27.146 Y91.942 Z0 F800
G1 X27.01 Y92.065 Z0 F800
G1 X26.847 Y92.222 Z0 F800
G1 X26.673 Y92.394 Z0 F800
G1 X26.366 Y92.706 Z0 F800
G1 X26.232 Y92.844 Z0 F800
G1 X26.371 Y92.889 Z0 F800
G1 X26.685 Y92.985 Z0 F800
G1 X26.861 Y93.035 Z0 F800
G1 X27.024 Y93.076 Z0 F800
G1 X27.155 Y93.101 Z0 F800
G1 X27.235 Z0 F800
G1 X27.305 Y93.071 Z0 F800
G1 X27.406 Y93.008 Z0 F800
G1 X27.528 Y92.924 Z0 F800
G1 X27.656 Y92.831 Z0 F800
G1 X27.882 Y92.661 Z0 F800
G1 X27.98 Y92.585 Z0 F800
G1 X28.271 Y92.293 Z0 F800
G0 Z3.5 F500
G0 X33.463 Y83.126 Z3.5 
G1 Z0 F500
G1 X33.062 Y80.061 Z0 F800
G1 X32.818 Y80.446 Z0 F800
G1 X32.827 Y83.989 Z0 F800
G1 X32.35 Y84.222 Z0 F800
G1 X32.275 Y82.582 Z0 F800
G1 X32.252 Y80.858 Z0 F800
G1 X31.84 Y79.577 Z0 F800
G1 X31.519 Y83.285 Z0 F800
G1 X31.657 Y86.077 Z0 F800
G1 X32.435 Y86.123 Z0 F800
G1 X33.076 Y85.161 Z0 F800
G1 X34.266 Y83.697 Z0 F800
G1 X35.914 Y83.239 Z0 F800
G1 X37.928 Y83.376 Z0 F800
G1 X39.118 Y82.552 Z0 F800
G1 Y87.267 Z0 F800
G1 X39.805 Y87.038 Z0 F800
G1 X39.439 Y83.468 Z0 F800
G1 X39.713 Y81.911 Z0 F800
G1 X39.393 Y80.813 Z0 F800
G1 X39.347 Y80.63 Z0 F800
G1 X39.622 Y79.531 Z0 F800
G1 X39.484 Y78.02 Z0 F800
G1 Y72.71 Z0 F800
G0 Z3.5 F500
G0 X47.221 Y82.69 Z3.5 
G1 Z0 F500
G1 X47.358 Y85.894 Z0 F800
G1 X47.083 Y87.771 Z0 F800
G1 X47.495 Y89.007 Z0 F800
G1 X47.707 Y89.63 Z0 F800
G1 X47.837 Y90.03 Z0 F800
G1 X48.024 Y90.667 Z0 F800
G1 X48.36 Y91.753 Z0 F800
G1 X48.471 Y92.128 Z0 F800
G1 X48.56 Y92.455 Z0 F800
G1 X48.592 Y92.59 Z0 F800
G1 X48.615 Y92.701 Z0 F800
G1 X48.625 Y92.784 Z0 F800
G1 X48.622 Y92.834 Z0 F800
G1 X48.136 Y94.363 Z0 F800
G1 X46.671 Y94.5 Z0 F800
G1 X46.541 Y94.39 Z0 F800
G1 X46.225 Y94.115 Z0 F800
G1 X45.966 Y93.88 Z0 F800
G1 X45.708 Y93.632 Z0 F800
G1 X45.482 Y93.395 Z0 F800
G1 X45.392 Y93.289 Z0 F800
G1 X45.322 Y93.194 Z0 F800
G1 X45.277 Y93.115 Z0 F800
G1 X45.262 Y93.053 Z0 F800
G1 Y92.957 Z0 F800
G1 X45.265 Y92.793 Z0 F800
G1 X45.275 Y92.583 Z0 F800
G1 X45.298 Y92.352 Z0 F800
G1 X45.337 Y92.124 Z0 F800
G1 X45.398 Y91.923 Z0 F800
G1 X45.484 Y91.772 Z0 F800
G1 X45.6 Y91.697 Z0 F800
G1 X46.219 Y91.567 Z0 F800
G1 X46.722 Y91.458 Z0 F800
G1 X46.934 Y91.408 Z0 F800
G1 X47.091 Y91.365 Z0 F800
G1 X47.17 Y91.334 Z0 F800
G1 X47.206 Y91.347 Z0 F800
G1 X47.235 Y91.435 Z0 F800
G1 X47.258 Y91.587 Z0 F800
G1 X47.276 Y91.791 Z0 F800
G1 X47.298 Y92.304 Z0 F800
G1 X47.307 Y92.876 Z0 F800
G1 X47.297 Y92.973 Z0 F800
G1 X47.268 Y93.049 Z0 F800
G1 X47.221 Y93.106 Z0 F800
G1 X47.161 Y93.146 Z0 F800
G1 X47.01 Y93.182 Z0 F800
G1 X46.836 Y93.174 Z0 F800
G1 X46.662 Y93.139 Z0 F800
G1 X46.511 Y93.093 Z0 F800
G1 X46.403 Y93.054 Z0 F800
G1 X46.362 Y93.037 Z0 F800
G0 Z3.5 F500
G0 X49.967 Y88.045 Z3.5 
G1 Z0 F500
G1 X49.784 Y87.405 Z0 F800
G1 X49.555 Y83.513 Z0 F800
G0 Z3.5 F500
G0 X52.394 Y83.605 Z3.5 
G1 Z0 F500
G1 X52.165 Y86.26 Z0 F800
G1 X52.302 Y87.862 Z0 F800
G0 Z3.5 F500
G0 X54.682 Y88.045 Z3.5 
G1 Z0 F500
G1 X54.741 Y87.705 Z0 F800
G1 X54.877 Y86.935 Z0 F800
G1 X54.955 Y86.508 Z0 F800
G1 X55.03 Y86.114 Z0 F800
G1 X55.094 Y85.802 Z0 F800
G1 X55.12 Y85.692 Z0 F800
G1 X55.14 Y85.619 Z0 F800
G1 X55.156 Y85.55 Z0 F800
G1 X55.168 Y85.448 Z0 F800
G1 X55.178 Y85.319 Z0 F800
G1 X55.186 Y85.167 Z0 F800
G1 X55.195 Y84.818 Z0 F800
G1 Y84.44 Z0 F800
G1 Y84.076 Z0 F800
G1 X55.186 Y83.468 Z0 F800
G0 Z3.5 F500
G0 X57.63 Y94.009 Z3.5 
G1 Z0 F500
G1 X57.902 Y93.672 Z0 F800
G1 X58.152 Y93.277 Z0 F800
G1 X58.255 Y93.096 Z0 F800
G1 X58.336 Y92.948 Z0 F800
G1 X58.407 Y92.811 Z0 F800
G1 X58.277 Y91.743 Z0 F800
G1 X58.147 Y91.671 Z0 F800
G1 X58.021 Y91.595 Z0 F800
G1 X57.889 Y91.504 Z0 F800
G1 X57.775 Y91.41 Z0 F800
G1 X57.704 Y91.32 Z0 F800
G1 X57.701 Y91.244 Z0 F800
G1 X57.792 Y91.193 Z0 F800
G1 X57.969 Y91.166 Z0 F800
G1 X58.194 Y91.157 Z0 F800
G1 X58.444 Y91.16 Z0 F800
G1 X58.698 Y91.173 Z0 F800
G1 X58.934 Y91.189 Z0 F800
G1 X59.13 Y91.206 Z0 F800
G1 X59.313 Y91.225 Z0 F800
G1 X59.532 Y91.451 Z0 F800
G1 X59.661 Y91.589 Z0 F800
G1 X59.794 Y91.737 Z0 F800
G1 X59.914 Y91.881 Z0 F800
G1 X60.007 Y92.006 Z0 F800
G1 X60.058 Y92.099 Z0 F800
G1 X60.113 Y92.26 Z0 F800
G1 X60.187 Y92.435 Z0 F800
G1 X60.285 Y92.604 Z0 F800
G1 X60.414 Y92.747 Z0 F800
G1 X60.521 Y92.786 Z0 F800
G1 X60.683 Y92.79 Z0 F800
G1 X60.878 Y92.766 Z0 F800
G1 X61.085 Y92.726 Z0 F800
G1 X61.284 Y92.679 Z0 F800
G1 X61.452 Y92.633 Z0 F800
G1 X61.611 Y92.585 Z0 F800
G1 X61.662 Y92.615 Z0 F800
G1 X61.745 Y92.702 Z0 F800
G1 X61.768 Y92.766 Z0 F800
G1 X61.762 Y92.844 Z0 F800
G1 X61.714 Y92.935 Z0 F800
G1 X61.611 Y93.038 Z0 F800
G1 X61.325 Y93.291 Z0 F800
G1 X61.041 Y93.584 Z0 F800
G1 X60.92 Y93.731 Z0 F800
G1 X60.824 Y93.871 Z0 F800
G1 X60.76 Y93.998 Z0 F800
G1 X60.738 Y94.106 Z0 F800
G1 X60.711 Y94.342 Z0 F800
G1 X60.624 Y94.608 Z0 F800
G1 X60.554 Y94.728 Z0 F800
G1 X60.464 Y94.825 Z0 F800
G1 X60.353 Y94.891 Z0 F800
G1 X60.22 Y94.915 Z0 F800
G1 X59.853 Y94.875 Z0 F800
G1 X59.427 Y94.786 Z0 F800
G1 X59.232 Y94.738 Z0 F800
G1 X59.073 Y94.697 Z0 F800
G1 X58.925 Y94.656 Z0 F800
G1 X58.277 Y94.138 Z0 F800
G1 X58.345 Y94.075 Z0 F800
G1 X58.504 Y93.92 Z0 F800
G1 X58.687 Y93.729 Z0 F800
G1 X58.828 Y93.556 Z0 F800
G1 X58.876 Y93.451 Z0 F800
G1 X58.923 Y93.297 Z0 F800
G1 X58.967 Y93.112 Z0 F800
G1 X59.006 Y92.916 Z0 F800
G1 X59.039 Y92.73 Z0 F800
G1 X59.064 Y92.573 Z0 F800
G1 X59.087 Y92.423 Z0 F800
G1 X59.637 Y93.167 Z0 F800
G1 X59.831 Y94.041 Z0 F800
G1 X59.184 Y94.106 Z0 F800
G1 X59.119 Y94.009 Z0 F800
M9
M5
G1 Z10 F500
G90
G1 Z10 F800
