;LightBurn 1.6.04
;Custom GCode device profile, absolute coords
;Bounds: X23.34 Y11.05 to X66.66 Y54.95
G00 G17 G40 G21 G54
G90
M3
G1 Z10 F500
;Cut @ 333 mm/min, 80% power

M8
G0 Z3.5 F500
G0 X34.878 Y18.391 Z3.5 
G1 Z0 F500
;Layer C3 Pass 1 of 2
G1 X34.813 Z0 S800 F800
G1 X34.231 Y18.65 Z0 F800
G1 X35.266 Y19.557 Z0 F800
G1 X35.434 Y19.147 Z0 F800
G1 X35.534 Y18.893 Z0 F800
G1 X35.636 Y18.621 Z0 F800
G1 X35.731 Y18.355 Z0 F800
G1 X35.805 Y18.119 Z0 F800
G1 X35.849 Y17.938 Z0 F800
G1 X35.829 Y17.799 Z0 F800
G1 X35.735 Y17.673 Z0 F800
G1 X35.591 Y17.563 Z0 F800
G1 X35.42 Y17.469 Z0 F800
G1 X35.247 Y17.393 Z0 F800
G1 X35.094 Y17.337 Z0 F800
G1 X34.943 Y17.291 Z0 F800
G1 X34.89 Y17.303 Z0 F800
G1 X34.749 Y17.339 Z0 F800
G1 X34.547 Y17.4 Z0 F800
G1 X34.312 Y17.485 Z0 F800
G1 X34.07 Y17.594 Z0 F800
G1 X33.85 Y17.728 Z0 F800
G1 X33.679 Y17.885 Z0 F800
G1 X33.583 Y18.068 Z0 F800
G1 X33.513 Y18.286 Z0 F800
G1 X33.407 Y18.539 Z0 F800
G1 X33.281 Y18.807 Z0 F800
G1 X33.146 Y19.071 Z0 F800
G1 X33.018 Y19.31 Z0 F800
G1 X32.91 Y19.506 Z0 F800
G1 X32.806 Y19.686 Z0 F800
G1 X33.065 Y19.767 Z0 F800
G1 X33.339 Y19.85 Z0 F800
G1 X33.664 Y19.945 Z0 F800
G1 X34.008 Y20.04 Z0 F800
G1 X34.336 Y20.123 Z0 F800
G1 X34.616 Y20.182 Z0 F800
G1 X34.813 Y20.204 Z0 F800
G1 X36.367 Z0 F800
G1 X36.495 Y20.238 Z0 F800
G1 X36.592 Y20.331 Z0 F800
G1 X36.661 Y20.47 Z0 F800
G1 X36.707 Y20.641 Z0 F800
G1 X36.749 Y21.023 Z0 F800
G1 X36.755 Y21.369 Z0 F800
G1 X36.789 Y21.561 Z0 F800
G1 X36.877 Y21.826 Z0 F800
G1 X37.001 Y22.134 Z0 F800
G1 X37.144 Y22.454 Z0 F800
G1 X37.287 Y22.755 Z0 F800
G1 X37.461 Y23.107 Z0 F800
G1 X37.532 Y23.247 Z0 F800
G1 X37.662 Y23.318 Z0 F800
G1 X37.805 Y23.393 Z0 F800
G1 X37.985 Y23.481 Z0 F800
G1 X38.406 Y23.656 Z0 F800
G1 X38.827 Y23.764 Z0 F800
G1 X39.031 Y23.814 Z0 F800
G1 X39.248 Y23.903 Z0 F800
G1 X39.464 Y24.018 Z0 F800
G1 X39.669 Y24.145 Z0 F800
G1 X39.849 Y24.268 Z0 F800
G1 X39.992 Y24.374 Z0 F800
G1 X40.122 Y24.477 Z0 F800
G1 X40.64 Y25.642 Z0 F800
G1 X41.158 Y26.419 Z0 F800
G1 X40.963 Y31.468 Z0 F800
;Layer C3 Pass 2 of 2
G1 X41.158 Y26.419 Z0 F800
G1 X40.64 Y25.642 Z0 F800
G1 X40.122 Y24.477 Z0 F800
G1 X39.992 Y24.374 Z0 F800
G1 X39.849 Y24.268 Z0 F800
G1 X39.669 Y24.145 Z0 F800
G1 X39.464 Y24.018 Z0 F800
G1 X39.248 Y23.903 Z0 F800
G1 X39.031 Y23.814 Z0 F800
G1 X38.827 Y23.764 Z0 F800
G1 X38.406 Y23.656 Z0 F800
G1 X37.985 Y23.481 Z0 F800
G1 X37.805 Y23.393 Z0 F800
G1 X37.662 Y23.318 Z0 F800
G1 X37.532 Y23.247 Z0 F800
G1 X37.461 Y23.107 Z0 F800
G1 X37.287 Y22.755 Z0 F800
G1 X37.144 Y22.454 Z0 F800
G1 X37.001 Y22.134 Z0 F800
G1 X36.877 Y21.826 Z0 F800
G1 X36.789 Y21.561 Z0 F800
G1 X36.755 Y21.369 Z0 F800
G1 X36.749 Y21.023 Z0 F800
G1 X36.707 Y20.641 Z0 F800
G1 X36.661 Y20.47 Z0 F800
G1 X36.592 Y20.331 Z0 F800
G1 X36.495 Y20.238 Z0 F800
G1 X36.367 Y20.204 Z0 F800
G1 X34.813 Z0 F800
G1 X34.616 Y20.182 Z0 F800
G1 X34.336 Y20.123 Z0 F800
G1 X34.008 Y20.04 Z0 F800
G1 X33.664 Y19.945 Z0 F800
G1 X33.339 Y19.85 Z0 F800
G1 X33.065 Y19.767 Z0 F800
G1 X32.806 Y19.686 Z0 F800
G1 X32.91 Y19.506 Z0 F800
G1 X33.018 Y19.31 Z0 F800
G1 X33.146 Y19.071 Z0 F800
G1 X33.281 Y18.807 Z0 F800
G1 X33.407 Y18.539 Z0 F800
G1 X33.513 Y18.286 Z0 F800
G1 X33.583 Y18.068 Z0 F800
G1 X33.679 Y17.885 Z0 F800
G1 X33.85 Y17.728 Z0 F800
G1 X34.07 Y17.594 Z0 F800
G1 X34.312 Y17.485 Z0 F800
G1 X34.547 Y17.4 Z0 F800
G1 X34.749 Y17.339 Z0 F800
G1 X34.89 Y17.303 Z0 F800
G1 X34.943 Y17.291 Z0 F800
G1 X35.094 Y17.337 Z0 F800
G1 X35.247 Y17.393 Z0 F800
G1 X35.42 Y17.469 Z0 F800
G1 X35.591 Y17.563 Z0 F800
G1 X35.735 Y17.673 Z0 F800
G1 X35.829 Y17.799 Z0 F800
G1 X35.849 Y17.938 Z0 F800
G1 X35.805 Y18.119 Z0 F800
G1 X35.731 Y18.355 Z0 F800
G1 X35.636 Y18.621 Z0 F800
G1 X35.534 Y18.893 Z0 F800
G1 X35.434 Y19.147 Z0 F800
G1 X35.266 Y19.557 Z0 F800
G1 X34.231 Y18.65 Z0 F800
G1 X34.813 Y18.391 Z0 F800
G1 X34.878 Z0 F800
G0 Z3.5 F500
G0 X46.531 Y31.048 Z3.5 F333
G1 Z0 F500
;Layer C3 Pass 1 of 2
G1 X46.466 Y27.034 Z0 F800
;Layer C3 Pass 2 of 2
G1 X46.531 Y31.048 Z0 F800
G0 Z3.5 F500
G0 X49.023 Y27.034 Z3.5 
G1 Z0 F500
;Layer C3 Pass 1 of 2
G1 X48.797 Y31.145 Z0 F800
;Layer C3 Pass 2 of 2
G1 X49.023 Y27.034 Z0 F800
G0 Z3.5 F500
G0 X51.386 Y30.95 Z3.5 
G1 Z0 F500
;Layer C3 Pass 1 of 2
G1 X51.322 Y26.678 Z0 F800
;Layer C3 Pass 2 of 2
G1 X51.386 Y30.95 Z0 F800
G0 Z3.5 F500
G0 X52.726 Y20.02 Z3.5 
G1 Z0 F500
;Layer C3 Pass 1 of 2
G1 X53.686 Y19.871 Z0 F800
G1 X53.643 Y20.556 Z0 F800
G1 X53.221 Y21.513 Z0 F800
G1 X52.721 Y21.045 Z0 F800
G1 X51.706 Y19.406 Z0 F800
G1 X54.179 Y18.515 Z0 F800
G1 X54.594 Y20.021 Z0 F800
G1 X54.115 Y21.494 Z0 F800
G1 X53.231 Y22.936 Z0 F800
G1 X51.857 Y21.434 Z0 F800
G1 X50.689 Y19.728 Z0 F800
;Layer C3 Pass 2 of 2
G1 X51.857 Y21.434 Z0 F800
G1 X53.231 Y22.936 Z0 F800
G1 X54.115 Y21.494 Z0 F800
G1 X54.594 Y20.021 Z0 F800
G1 X54.179 Y18.515 Z0 F800
G1 X51.706 Y19.406 Z0 F800
G1 X52.721 Y21.045 Z0 F800
G1 X53.221 Y21.513 Z0 F800
G1 X53.643 Y20.556 Z0 F800
G1 X53.686 Y19.871 Z0 F800
G1 X52.726 Y20.02 Z0 F800
G0 Z3.5 F500
G0 X46.078 Y18.521 Z3.5 
G1 Z0 F500
;Layer C3 Pass 1 of 2
G1 X45.99 Y18.496 Z0 F800
G1 X45.89 Y18.464 Z0 F800
G1 X45.762 Y18.42 Z0 F800
G1 X45.45 Y18.289 Z0 F800
G1 X45.107 Y18.1 Z0 F800
G1 X44.933 Y18.012 Z0 F800
G1 X44.757 Y17.962 Z0 F800
G1 X44.583 Y17.941 Z0 F800
G1 X44.419 Z0 F800
G1 X44.27 Y17.957 Z0 F800
G1 X44.142 Y17.977 Z0 F800
G1 X44.041 Y17.995 Z0 F800
G1 X43.974 Y18.003 Z0 F800
G1 X43.44 Y17.922 Z0 F800
G1 X43.003 Y17.841 Z0 F800
G1 X42.55 Y18.521 Z0 F800
G1 X43.557 Y18.658 Z0 F800
G1 X43.939 Y18.714 Z0 F800
G1 X44.284 Y18.767 Z0 F800
G1 X44.548 Y18.812 Z0 F800
G1 X44.635 Y18.83 Z0 F800
G1 X44.686 Y18.844 Z0 F800
G1 X44.79 Y18.884 Z0 F800
G1 X44.968 Y18.948 Z0 F800
G1 X45.197 Y19.026 Z0 F800
G1 X45.459 Y19.111 Z0 F800
G1 X45.731 Y19.193 Z0 F800
G1 X45.992 Y19.263 Z0 F800
G1 X46.223 Y19.312 Z0 F800
G1 X46.401 Y19.33 Z0 F800
G1 X46.544 Y19.292 Z0 F800
G1 X46.677 Y19.19 Z0 F800
G1 X46.797 Y19.041 Z0 F800
G1 X46.903 Y18.865 Z0 F800
G1 X46.991 Y18.677 Z0 F800
G1 X47.057 Y18.497 Z0 F800
G1 X47.099 Y18.342 Z0 F800
G1 X47.114 Y18.229 Z0 F800
G1 X47.058 Y18.012 Z0 F800
G1 X46.936 Y17.756 Z0 F800
G1 X46.87 Y17.639 Z0 F800
G1 X46.758 Y17.453 Z0 F800
G1 X45.807 Y17.274 Z0 F800
G1 X45.441 Y17.209 Z0 F800
G1 X45.105 Y17.152 Z0 F800
G1 X44.84 Y17.112 Z0 F800
G1 X44.746 Y17.1 Z0 F800
G1 X44.686 Y17.096 Z0 F800
G1 X44.459 Y17.13 Z0 F800
G1 X44.156 Y17.218 Z0 F800
G1 X43.835 Y17.342 Z0 F800
G1 X43.553 Y17.485 Z0 F800
G1 X43.391 Y17.563 Z0 F800
G1 X43.164 Y17.649 Z0 F800
G1 X42.894 Y17.738 Z0 F800
G1 X42.602 Y17.825 Z0 F800
G1 X42.312 Y17.906 Z0 F800
G1 X42.046 Y17.976 Z0 F800
G1 X41.827 Y18.032 Z0 F800
G1 X41.676 Y18.068 Z0 F800
G1 X41.438 Y18.173 Z0 F800
G1 X41.186 Y18.355 Z0 F800
G1 X40.952 Y18.555 Z0 F800
G1 X40.769 Y18.715 Z0 F800
G1 X40.72 Y18.788 Z0 F800
G1 X40.713 Y18.879 Z0 F800
G1 X40.735 Y18.981 Z0 F800
G1 X40.777 Y19.083 Z0 F800
G1 X40.829 Y19.178 Z0 F800
G1 X40.878 Y19.257 Z0 F800
G1 X40.931 Y19.33 Z0 F800
G1 X41.574 Y19.225 Z0 F800
G1 X42.119 Y19.139 Z0 F800
G1 X42.582 Y19.071 Z0 F800
G1 X42.93 Y19.075 Z0 F800
G1 X43.233 Y19.152 Z0 F800
G1 X43.47 Y19.253 Z0 F800
G1 X43.618 Y19.33 Z0 F800
G1 X43.652 Y19.396 Z0 F800
G1 X43.662 Y19.529 Z0 F800
G1 X43.654 Y19.707 Z0 F800
G1 X43.634 Y19.904 Z0 F800
G1 X43.608 Y20.099 Z0 F800
G1 X43.581 Y20.268 Z0 F800
G1 X43.553 Y20.43 Z0 F800
G1 X43.535 Y20.629 Z0 F800
G1 X43.514 Y20.84 Z0 F800
G1 X43.484 Y21.094 Z0 F800
G1 X43.447 Y21.366 Z0 F800
G1 X43.403 Y21.632 Z0 F800
G1 X43.352 Y21.868 Z0 F800
G1 X43.294 Y22.049 Z0 F800
G1 X43.221 Y22.39 Z0 F800
G1 X43.217 Y22.761 Z0 F800
G1 X43.229 Y22.926 Z0 F800
G1 X43.244 Y23.059 Z0 F800
G1 X43.262 Y23.182 Z0 F800
G1 X44.168 Y23.538 Z0 F800
G1 X44.649 Y23.291 Z0 F800
G1 X45.056 Y23.087 Z0 F800
G1 X45.398 Y22.923 Z0 F800
G1 X45.546 Y22.89 Z0 F800
G1 X45.715 Y22.905 Z0 F800
G1 X45.892 Y22.954 Z0 F800
G1 X46.066 Y23.024 Z0 F800
G1 X46.222 Y23.101 Z0 F800
G1 X46.349 Y23.173 Z0 F800
G1 X46.466 Y23.247 Z0 F800
G1 X45.992 Y23.325 Z0 F800
G1 X45.706 Y23.376 Z0 F800
G1 X45.407 Y23.433 Z0 F800
G1 X45.128 Y23.492 Z0 F800
G1 X44.899 Y23.55 Z0 F800
G1 X44.751 Y23.603 Z0 F800
G1 X44.635 Y23.627 Z0 F800
G1 X44.487 Y23.612 Z0 F800
G1 X44.312 Y23.567 Z0 F800
G1 X43.704 Y23.375 Z0 F800
G1 X43.294 Y23.311 Z0 F800
G1 X43.133 Y23.331 Z0 F800
G1 X43.03 Y23.388 Z0 F800
G1 X42.974 Y23.473 Z0 F800
G1 X42.954 Y23.582 Z0 F800
G1 X42.975 Y23.844 Z0 F800
G1 X43.003 Y24.121 Z0 F800
G1 X43.024 Y24.269 Z0 F800
G1 X43.08 Y24.441 Z0 F800
G1 X43.161 Y24.627 Z0 F800
G1 X43.258 Y24.816 Z0 F800
G1 X43.358 Y25 Z0 F800
G1 X43.532 Y25.309 Z0 F800
G1 X43.585 Y25.415 Z0 F800
G1 X43.62 Y25.527 Z0 F800
G1 X43.652 Y25.681 Z0 F800
G1 X43.681 Y25.863 Z0 F800
G1 X43.707 Y26.059 Z0 F800
G1 X43.766 Y26.577 Z0 F800
G1 X43.78 Y26.678 Z0 F800
G1 X43.812 Y27.058 Z0 F800
G1 X43.844 Y27.39 Z0 F800
G1 X43.85 Y27.535 Z0 F800
G1 X43.82 Y27.754 Z0 F800
G1 X43.753 Y28.009 Z0 F800
G1 X43.65 Y28.264 Z0 F800
G1 X43.597 Y28.406 Z0 F800
G1 X43.557 Y28.583 Z0 F800
G1 X43.529 Y28.783 Z0 F800
G1 X43.512 Y28.996 Z0 F800
G1 X43.504 Y29.415 Z0 F800
G1 X43.521 Y29.753 Z0 F800
G1 X43.602 Y30.538 Z0 F800
G1 X43.682 Y31.274 Z0 F800
G1 X43.687 Y31.417 Z0 F800
G1 X43.68 Y31.619 Z0 F800
G1 X43.664 Y31.863 Z0 F800
G1 X43.642 Y32.136 Z0 F800
G1 X43.591 Y32.708 Z0 F800
G1 X43.553 Y33.216 Z0 F800
G1 X43.484 Y33.629 Z0 F800
G1 X43.363 Y33.969 Z0 F800
G1 X43.301 Y34.1 Z0 F800
G1 X43.248 Y34.199 Z0 F800
G1 X43.197 Y34.284 Z0 F800
G1 X42.323 Z0 F800
G1 X41.74 Y34.204 Z0 F800
G1 X41.061 Y34.123 Z0 F800
G1 X40.925 Y34.188 Z0 F800
G1 X40.753 Y34.333 Z0 F800
G1 X40.672 Y34.41 Z0 F800
G1 X40.543 Y34.543 Z0 F800
G1 X40.769 Y35.32 Z0 F800
G1 X40.996 Y36.356 Z0 F800
;Layer C3 Pass 2 of 2
G1 X40.769 Y35.32 Z0 F800
G1 X40.543 Y34.543 Z0 F800
G1 X40.672 Y34.41 Z0 F800
G1 X40.753 Y34.333 Z0 F800
G1 X40.925 Y34.188 Z0 F800
G1 X41.061 Y34.123 Z0 F800
G1 X41.74 Y34.204 Z0 F800
G1 X42.323 Y34.284 Z0 F800
G1 X43.197 Z0 F800
G1 X43.248 Y34.199 Z0 F800
G1 X43.301 Y34.1 Z0 F800
G1 X43.363 Y33.969 Z0 F800
G1 X43.484 Y33.629 Z0 F800
G1 X43.553 Y33.216 Z0 F800
G1 X43.591 Y32.708 Z0 F800
G1 X43.642 Y32.136 Z0 F800
G1 X43.664 Y31.863 Z0 F800
G1 X43.68 Y31.619 Z0 F800
G1 X43.687 Y31.417 Z0 F800
G1 X43.682 Y31.274 Z0 F800
G1 X43.602 Y30.538 Z0 F800
G1 X43.521 Y29.753 Z0 F800
G1 X43.504 Y29.415 Z0 F800
G1 X43.512 Y28.996 Z0 F800
G1 X43.529 Y28.783 Z0 F800
G1 X43.557 Y28.583 Z0 F800
G1 X43.597 Y28.406 Z0 F800
G1 X43.65 Y28.264 Z0 F800
G1 X43.753 Y28.009 Z0 F800
G1 X43.82 Y27.754 Z0 F800
G1 X43.85 Y27.535 Z0 F800
G1 X43.844 Y27.39 Z0 F800
G1 X43.812 Y27.058 Z0 F800
G1 X43.78 Y26.678 Z0 F800
G1 X43.766 Y26.577 Z0 F800
G1 X43.707 Y26.059 Z0 F800
G1 X43.681 Y25.863 Z0 F800
G1 X43.652 Y25.681 Z0 F800
G1 X43.62 Y25.527 Z0 F800
G1 X43.585 Y25.415 Z0 F800
G1 X43.532 Y25.309 Z0 F800
G1 X43.358 Y25 Z0 F800
G1 X43.258 Y24.816 Z0 F800
G1 X43.161 Y24.627 Z0 F800
G1 X43.08 Y24.441 Z0 F800
G1 X43.024 Y24.269 Z0 F800
G1 X43.003 Y24.121 Z0 F800
G1 X42.975 Y23.844 Z0 F800
G1 X42.954 Y23.582 Z0 F800
G1 X42.974 Y23.473 Z0 F800
G1 X43.03 Y23.388 Z0 F800
G1 X43.133 Y23.331 Z0 F800
G1 X43.294 Y23.311 Z0 F800
G1 X43.704 Y23.375 Z0 F800
G1 X44.312 Y23.567 Z0 F800
G1 X44.487 Y23.612 Z0 F800
G1 X44.635 Y23.627 Z0 F800
G1 X44.751 Y23.603 Z0 F800
G1 X44.899 Y23.55 Z0 F800
G1 X45.128 Y23.492 Z0 F800
G1 X45.407 Y23.433 Z0 F800
G1 X45.706 Y23.376 Z0 F800
G1 X45.992 Y23.325 Z0 F800
G1 X46.466 Y23.247 Z0 F800
G1 X46.349 Y23.173 Z0 F800
G1 X46.222 Y23.101 Z0 F800
G1 X46.066 Y23.024 Z0 F800
G1 X45.892 Y22.954 Z0 F800
G1 X45.715 Y22.905 Z0 F800
G1 X45.546 Y22.89 Z0 F800
G1 X45.398 Y22.923 Z0 F800
G1 X45.056 Y23.087 Z0 F800
G1 X44.649 Y23.291 Z0 F800
G1 X44.168 Y23.538 Z0 F800
G1 X43.262 Y23.182 Z0 F800
G1 X43.244 Y23.059 Z0 F800
G1 X43.229 Y22.926 Z0 F800
G1 X43.217 Y22.761 Z0 F800
G1 X43.221 Y22.39 Z0 F800
G1 X43.294 Y22.049 Z0 F800
G1 X43.352 Y21.868 Z0 F800
G1 X43.403 Y21.632 Z0 F800
G1 X43.447 Y21.366 Z0 F800
G1 X43.484 Y21.094 Z0 F800
G1 X43.514 Y20.84 Z0 F800
G1 X43.535 Y20.629 Z0 F800
G1 X43.553 Y20.43 Z0 F800
G1 X43.581 Y20.268 Z0 F800
G1 X43.608 Y20.099 Z0 F800
G1 X43.634 Y19.904 Z0 F800
G1 X43.654 Y19.707 Z0 F800
G1 X43.662 Y19.529 Z0 F800
G1 X43.652 Y19.396 Z0 F800
G1 X43.618 Y19.33 Z0 F800
G1 X43.47 Y19.253 Z0 F800
G1 X43.233 Y19.152 Z0 F800
G1 X42.93 Y19.075 Z0 F800
G1 X42.582 Y19.071 Z0 F800
G1 X42.119 Y19.139 Z0 F800
G1 X41.574 Y19.225 Z0 F800
G1 X40.931 Y19.33 Z0 F800
G1 X40.878 Y19.257 Z0 F800
G1 X40.829 Y19.178 Z0 F800
G1 X40.777 Y19.083 Z0 F800
G1 X40.735 Y18.981 Z0 F800
G1 X40.713 Y18.879 Z0 F800
G1 X40.72 Y18.788 Z0 F800
G1 X40.769 Y18.715 Z0 F800
G1 X40.952 Y18.555 Z0 F800
G1 X41.186 Y18.355 Z0 F800
G1 X41.438 Y18.173 Z0 F800
G1 X41.676 Y18.068 Z0 F800
G1 X41.827 Y18.032 Z0 F800
G1 X42.046 Y17.976 Z0 F800
G1 X42.312 Y17.906 Z0 F800
G1 X42.602 Y17.825 Z0 F800
G1 X42.894 Y17.738 Z0 F800
G1 X43.164 Y17.649 Z0 F800
G1 X43.391 Y17.563 Z0 F800
G1 X43.553 Y17.485 Z0 F800
G1 X43.835 Y17.342 Z0 F800
G1 X44.156 Y17.218 Z0 F800
G1 X44.459 Y17.13 Z0 F800
G1 X44.686 Y17.096 Z0 F800
G1 X44.746 Y17.1 Z0 F800
G1 X44.84 Y17.112 Z0 F800
G1 X45.105 Y17.152 Z0 F800
G1 X45.441 Y17.209 Z0 F800
G1 X45.807 Y17.274 Z0 F800
G1 X46.758 Y17.453 Z0 F800
G1 X46.87 Y17.639 Z0 F800
G1 X46.936 Y17.756 Z0 F800
G1 X47.058 Y18.012 Z0 F800
G1 X47.114 Y18.229 Z0 F800
G1 X47.099 Y18.342 Z0 F800
G1 X47.057 Y18.497 Z0 F800
G1 X46.991 Y18.677 Z0 F800
G1 X46.903 Y18.865 Z0 F800
G1 X46.797 Y19.041 Z0 F800
G1 X46.677 Y19.19 Z0 F800
G1 X46.544 Y19.292 Z0 F800
G1 X46.401 Y19.33 Z0 F800
G1 X46.223 Y19.312 Z0 F800
G1 X45.992 Y19.263 Z0 F800
G1 X45.731 Y19.193 Z0 F800
G1 X45.459 Y19.111 Z0 F800
G1 X45.197 Y19.026 Z0 F800
G1 X44.968 Y18.948 Z0 F800
G1 X44.79 Y18.884 Z0 F800
G1 X44.686 Y18.844 Z0 F800
G1 X44.635 Y18.83 Z0 F800
G1 X44.548 Y18.812 Z0 F800
G1 X44.284 Y18.767 Z0 F800
G1 X43.939 Y18.714 Z0 F800
G1 X43.557 Y18.658 Z0 F800
G1 X42.55 Y18.521 Z0 F800
G1 X43.003 Y17.841 Z0 F800
G1 X43.44 Y17.922 Z0 F800
G1 X43.974 Y18.003 Z0 F800
G1 X44.041 Y17.995 Z0 F800
G1 X44.142 Y17.977 Z0 F800
G1 X44.27 Y17.957 Z0 F800
G1 X44.419 Y17.942 Z0 F800
G1 X44.583 Z0 F800
G1 X44.757 Y17.962 Z0 F800
G1 X44.933 Y18.012 Z0 F800
G1 X45.107 Y18.1 Z0 F800
G1 X45.45 Y18.289 Z0 F800
G1 X45.762 Y18.42 Z0 F800
G1 X45.89 Y18.464 Z0 F800
G1 X45.99 Y18.496 Z0 F800
G1 X46.078 Y18.521 Z0 F800
G0 Z3.5 F500
G0 X41.002 Y36.186 Z3.5 
G1 Z0 F500
;Layer C3 Pass 1 of 2
G1 X40.865 Y41.313 Z0 F800
;Layer C3 Pass 2 of 2
G1 X41.002 Y36.186 Z0 F800
G0 Z3.5 F500
G0 X40.956 Y41.176 Z3.5 
G1 Z0 F500
;Layer C3 Pass 1 of 2
G1 X40.911 Y38.429 Z0 F800
G1 X41.185 Y36.918 Z0 F800
G1 X40.865 Y35.225 Z0 F800
;Layer C3 Pass 2 of 2
G1 X41.185 Y36.918 Z0 F800
G1 X40.911 Y38.429 Z0 F800
G1 X40.956 Y41.176 Z0 F800
G0 Z3.5 F500
G0 X43.52 Y36.918 Z3.5 
G1 Z0 F500
;Layer C3 Pass 1 of 2
G1 X43.611 Y39.573 Z0 F800
G1 X43.52 Y41.725 Z0 F800
G1 X43.515 Y41.956 Z0 F800
G1 X43.503 Y42.196 Z0 F800
G1 X43.48 Y42.475 Z0 F800
G1 X43.442 Y42.76 Z0 F800
G1 X43.385 Y43.019 Z0 F800
G1 X43.305 Y43.219 Z0 F800
G1 X43.199 Y43.327 Z0 F800
G1 X43.047 Y43.396 Z0 F800
G1 X42.843 Y43.492 Z0 F800
G1 X42.37 Y43.722 Z0 F800
G1 X41.78 Y44.014 Z0 F800
G1 X39.995 Y43.785 Z0 F800
G1 X38.53 Y44.197 Z0 F800
G1 X37.844 Y44.975 Z0 F800
G1 X37.798 Y46.12 Z0 F800
G1 X39.585 Y46.707 Z0 F800
G1 X37.798 Y46.989 Z0 F800
G1 X38.329 Y48.27 Z0 F800
G1 X37.02 Y46.669 Z0 F800
G1 X36.623 Y48.426 Z0 F800
G1 X36.425 Y46.532 Z0 F800
G1 X35.327 Y47.61 Z0 F800
G1 X36.791 Y46.028 Z0 F800
G1 X35.072 Y45.295 Z0 F800
G1 X37.157 Y45.708 Z0 F800
G1 X37.065 Y44.197 Z0 F800
G1 X37.981 Y43.922 Z0 F800
;Layer C3 Pass 2 of 2
G1 X37.065 Y44.197 Z0 F800
G1 X37.157 Y45.708 Z0 F800
G1 X35.072 Y45.295 Z0 F800
G1 X36.791 Y46.028 Z0 F800
G1 X35.327 Y47.61 Z0 F800
G1 X36.425 Y46.532 Z0 F800
G1 X36.623 Y48.426 Z0 F800
G1 X37.02 Y46.669 Z0 F800
G1 X38.329 Y48.27 Z0 F800
G1 X37.798 Y46.989 Z0 F800
G1 X39.585 Y46.707 Z0 F800
G1 X37.798 Y46.12 Z0 F800
G1 X37.844 Y44.975 Z0 F800
G1 X38.53 Y44.197 Z0 F800
G1 X39.995 Y43.785 Z0 F800
G1 X41.78 Y44.014 Z0 F800
G1 X42.37 Y43.722 Z0 F800
G1 X42.843 Y43.492 Z0 F800
G1 X43.047 Y43.396 Z0 F800
G1 X43.199 Y43.327 Z0 F800
G1 X43.305 Y43.219 Z0 F800
G1 X43.385 Y43.019 Z0 F800
G1 X43.442 Y42.76 Z0 F800
G1 X43.48 Y42.475 Z0 F800
G1 X43.503 Y42.196 Z0 F800
G1 X43.515 Y41.956 Z0 F800
G1 X43.52 Y41.725 Z0 F800
G1 X43.611 Y39.573 Z0 F800
G1 X43.52 Y36.918 Z0 F800
G0 Z3.5 F500
G0 X31.285 Y44.416 Z3.5 
G1 Z0 F500
;Layer C3 Pass 1 of 2
G1 X31.373 Y44.591 Z0 F800
G1 X31.467 Y44.766 Z0 F800
G1 X31.58 Y44.961 Z0 F800
G1 X31.701 Y45.148 Z0 F800
G1 X31.82 Y45.296 Z0 F800
G1 X31.926 Y45.378 Z0 F800
G1 X32.008 Y45.365 Z0 F800
G1 X32.154 Y45.208 Z0 F800
G1 X32.292 Y45.053 Z0 F800
G1 X32.407 Y44.913 Z0 F800
G1 X32.483 Y44.804 Z0 F800
G1 X32.503 Y44.668 Z0 F800
G1 X32.477 Y44.451 Z0 F800
G1 X32.417 Y44.183 Z0 F800
G1 X32.337 Y43.894 Z0 F800
G1 X32.251 Y43.616 Z0 F800
G1 X32.141 Y43.287 Z0 F800
G1 X32.094 Y43.154 Z0 F800
G1 X31.888 Y43.228 Z0 F800
G1 X31.671 Y43.311 Z0 F800
G1 X31.415 Y43.413 Z0 F800
G1 X31.146 Y43.527 Z0 F800
G1 X30.893 Y43.645 Z0 F800
G1 X30.682 Y43.761 Z0 F800
G1 X30.541 Y43.866 Z0 F800
G1 X30.472 Y43.991 Z0 F800
G1 X30.453 Y44.164 Z0 F800
G1 X30.473 Y44.37 Z0 F800
G1 X30.52 Y44.598 Z0 F800
G1 X30.767 Y45.452 Z0 F800
G1 X30.814 Y45.584 Z0 F800
G1 X30.878 Y45.674 Z0 F800
G1 X30.952 Y45.734 Z0 F800
G1 X31.026 Y45.775 Z0 F800
G1 X31.095 Y45.811 Z0 F800
G1 X31.15 Y45.852 Z0 F800
G1 X31.183 Y45.912 Z0 F800
G1 X31.188 Y46.002 Z0 F800
G1 X31.163 Y46.148 Z0 F800
G1 X31.114 Y46.358 Z0 F800
G1 X31.046 Y46.617 Z0 F800
G1 X30.961 Y46.908 Z0 F800
G1 X30.76 Y47.531 Z0 F800
G1 X30.541 Y48.106 Z0 F800
G1 X30.427 Y48.345 Z0 F800
G1 X30.309 Y48.552 Z0 F800
G1 X30.189 Y48.731 Z0 F800
G1 X30.071 Y48.883 Z0 F800
G1 X29.858 Y49.117 Z0 F800
G1 X29.699 Y49.271 Z0 F800
G1 X29.254 Y49.85 Z0 F800
G1 X28.76 Y50.501 Z0 F800
G1 X28.609 Y50.744 Z0 F800
G1 X28.497 Y51.056 Z0 F800
G1 X28.428 Y51.398 Z0 F800
G1 X28.404 Y51.731 Z0 F800
G1 X28.438 Y52.093 Z0 F800
G1 X28.505 Y52.512 Z0 F800
G1 X28.554 Y52.938 Z0 F800
G1 X28.534 Y53.317 Z0 F800
G1 X28.488 Y53.756 Z0 F800
G1 X28.481 Y54.28 Z0 F800
G1 X28.486 Y54.521 Z0 F800
G1 X28.501 Y54.904 Z0 F800
;Layer C3 Pass 2 of 2
G1 X28.486 Y54.521 Z0 F800
G1 X28.481 Y54.28 Z0 F800
G1 X28.488 Y53.756 Z0 F800
G1 X28.534 Y53.317 Z0 F800
G1 X28.554 Y52.938 Z0 F800
G1 X28.505 Y52.512 Z0 F800
G1 X28.438 Y52.093 Z0 F800
G1 X28.404 Y51.731 Z0 F800
G1 X28.428 Y51.398 Z0 F800
G1 X28.497 Y51.056 Z0 F800
G1 X28.609 Y50.744 Z0 F800
G1 X28.76 Y50.501 Z0 F800
G1 X29.254 Y49.85 Z0 F800
G1 X29.699 Y49.271 Z0 F800
G1 X29.858 Y49.117 Z0 F800
G1 X30.071 Y48.883 Z0 F800
G1 X30.189 Y48.731 Z0 F800
G1 X30.309 Y48.552 Z0 F800
G1 X30.427 Y48.345 Z0 F800
G1 X30.541 Y48.106 Z0 F800
G1 X30.76 Y47.531 Z0 F800
G1 X30.961 Y46.908 Z0 F800
G1 X31.046 Y46.617 Z0 F800
G1 X31.114 Y46.358 Z0 F800
G1 X31.163 Y46.148 Z0 F800
G1 X31.188 Y46.002 Z0 F800
G1 X31.183 Y45.912 Z0 F800
G1 X31.15 Y45.852 Z0 F800
G1 X31.095 Y45.811 Z0 F800
G1 X31.026 Y45.775 Z0 F800
G1 X30.952 Y45.734 Z0 F800
G1 X30.878 Y45.674 Z0 F800
G1 X30.814 Y45.584 Z0 F800
G1 X30.767 Y45.452 Z0 F800
G1 X30.52 Y44.598 Z0 F800
G1 X30.473 Y44.37 Z0 F800
G1 X30.453 Y44.164 Z0 F800
G1 X30.472 Y43.991 Z0 F800
G1 X30.541 Y43.866 Z0 F800
G1 X30.682 Y43.761 Z0 F800
G1 X30.893 Y43.645 Z0 F800
G1 X31.146 Y43.527 Z0 F800
G1 X31.415 Y43.413 Z0 F800
G1 X31.671 Y43.311 Z0 F800
G1 X31.888 Y43.228 Z0 F800
G1 X32.094 Y43.154 Z0 F800
G1 X32.141 Y43.287 Z0 F800
G1 X32.251 Y43.616 Z0 F800
G1 X32.337 Y43.894 Z0 F800
G1 X32.417 Y44.183 Z0 F800
G1 X32.477 Y44.451 Z0 F800
G1 X32.503 Y44.668 Z0 F800
G1 X32.483 Y44.804 Z0 F800
G1 X32.407 Y44.913 Z0 F800
G1 X32.292 Y45.053 Z0 F800
G1 X32.154 Y45.208 Z0 F800
G1 X32.008 Y45.365 Z0 F800
G1 X31.926 Y45.378 Z0 F800
G1 X31.82 Y45.296 Z0 F800
G1 X31.701 Y45.148 Z0 F800
G1 X31.58 Y44.961 Z0 F800
G1 X31.467 Y44.766 Z0 F800
G1 X31.373 Y44.591 Z0 F800
G1 X31.285 Y44.416 Z0 F800
G0 Z3.5 F500
G0 X26.397 Y54.871 Z3.5 
G1 Z0 F500
;Layer C3 Pass 1 of 2
G1 X26.353 Y53.847 Z0 F800
G1 X26.339 Y53.45 Z0 F800
G1 X26.329 Y53.082 Z0 F800
G1 X26.326 Y52.786 Z0 F800
G1 Y52.679 Z0 F800
G1 X26.333 Y52.605 Z0 F800
G1 X26.396 Y52.056 Z0 F800
G1 X26.422 Y51.812 Z0 F800
G1 X26.46 Y51.322 Z0 F800
G1 Y50.922 Z0 F800
G1 X26.443 Y50.723 Z0 F800
G1 X26.413 Y50.461 Z0 F800
G1 X26.337 Y49.858 Z0 F800
G1 X26.235 Y49.109 Z0 F800
G1 X26.192 Y48.931 Z0 F800
G1 X26.15 Y48.748 Z0 F800
G1 X26.106 Y48.535 Z0 F800
G1 X26.068 Y48.319 Z0 F800
G1 X26.044 Y48.126 Z0 F800
G1 Y47.982 Z0 F800
G1 X26.074 Y47.912 Z0 F800
G1 X26.235 Y47.878 Z0 F800
G1 X26.49 Y47.859 Z0 F800
G1 X26.788 Y47.834 Z0 F800
G1 X27.077 Y47.782 Z0 F800
G1 X27.399 Y47.662 Z0 F800
G1 X27.761 Y47.475 Z0 F800
G1 X27.923 Y47.37 Z0 F800
G1 X28.056 Y47.263 Z0 F800
G1 X28.145 Y47.162 Z0 F800
G1 X28.178 Y47.07 Z0 F800
G1 X28.188 Y46.963 Z0 F800
G1 X28.215 Y46.819 Z0 F800
G1 X28.249 Y46.65 Z0 F800
G1 X28.283 Y46.467 Z0 F800
G1 X28.307 Y46.283 Z0 F800
G1 X28.314 Y46.11 Z0 F800
G1 X28.295 Y45.958 Z0 F800
G1 X28.242 Y45.84 Z0 F800
G1 X28.138 Y45.745 Z0 F800
G1 X27.981 Y45.656 Z0 F800
G1 X27.792 Y45.576 Z0 F800
G1 X27.587 Y45.508 Z0 F800
G1 X27.385 Y45.456 Z0 F800
G1 X27.205 Y45.421 Z0 F800
G1 X27.063 Y45.408 Z0 F800
G1 X26.98 Y45.419 Z0 F800
G1 X26.62 Y45.634 Z0 F800
G1 X26.235 Y45.873 Z0 F800
G1 X26.146 Y45.942 Z0 F800
G1 X26.01 Y46.065 Z0 F800
G1 X25.847 Y46.222 Z0 F800
G1 X25.673 Y46.394 Z0 F800
G1 X25.366 Y46.706 Z0 F800
G1 X25.232 Y46.844 Z0 F800
G1 X25.371 Y46.889 Z0 F800
G1 X25.685 Y46.985 Z0 F800
G1 X25.861 Y47.035 Z0 F800
G1 X26.024 Y47.076 Z0 F800
G1 X26.155 Y47.101 Z0 F800
G1 X26.235 Z0 F800
G1 X26.305 Y47.071 Z0 F800
G1 X26.406 Y47.008 Z0 F800
G1 X26.528 Y46.924 Z0 F800
G1 X26.656 Y46.831 Z0 F800
G1 X26.882 Y46.661 Z0 F800
G1 X26.98 Y46.585 Z0 F800
G1 X27.271 Y46.293 Z0 F800
;Layer C3 Pass 2 of 2
G1 X26.98 Y46.585 Z0 F800
G1 X26.882 Y46.661 Z0 F800
G1 X26.656 Y46.831 Z0 F800
G1 X26.528 Y46.924 Z0 F800
G1 X26.406 Y47.008 Z0 F800
G1 X26.305 Y47.071 Z0 F800
G1 X26.235 Y47.103 Z0 F800
G1 X26.155 Z0 F800
G1 X26.024 Y47.076 Z0 F800
G1 X25.861 Y47.035 Z0 F800
G1 X25.685 Y46.985 Z0 F800
G1 X25.371 Y46.889 Z0 F800
G1 X25.232 Y46.844 Z0 F800
G1 X25.366 Y46.706 Z0 F800
G1 X25.673 Y46.394 Z0 F800
G1 X25.847 Y46.222 Z0 F800
G1 X26.01 Y46.065 Z0 F800
G1 X26.146 Y45.942 Z0 F800
G1 X26.235 Y45.873 Z0 F800
G1 X26.62 Y45.634 Z0 F800
G1 X26.98 Y45.419 Z0 F800
G1 X27.063 Y45.408 Z0 F800
G1 X27.205 Y45.421 Z0 F800
G1 X27.385 Y45.456 Z0 F800
G1 X27.587 Y45.508 Z0 F800
G1 X27.792 Y45.576 Z0 F800
G1 X27.981 Y45.656 Z0 F800
G1 X28.138 Y45.745 Z0 F800
G1 X28.242 Y45.84 Z0 F800
G1 X28.295 Y45.958 Z0 F800
G1 X28.314 Y46.11 Z0 F800
G1 X28.307 Y46.283 Z0 F800
G1 X28.283 Y46.467 Z0 F800
G1 X28.249 Y46.65 Z0 F800
G1 X28.215 Y46.819 Z0 F800
G1 X28.188 Y46.963 Z0 F800
G1 X28.178 Y47.07 Z0 F800
G1 X28.145 Y47.162 Z0 F800
G1 X28.056 Y47.263 Z0 F800
G1 X27.923 Y47.37 Z0 F800
G1 X27.761 Y47.475 Z0 F800
G1 X27.399 Y47.662 Z0 F800
G1 X27.077 Y47.782 Z0 F800
G1 X26.788 Y47.834 Z0 F800
G1 X26.49 Y47.859 Z0 F800
G1 X26.235 Y47.878 Z0 F800
G1 X26.074 Y47.912 Z0 F800
G1 X26.043 Y47.982 Z0 F800
G1 Y48.126 Z0 F800
G1 X26.068 Y48.319 Z0 F800
G1 X26.106 Y48.535 Z0 F800
G1 X26.15 Y48.748 Z0 F800
G1 X26.192 Y48.931 Z0 F800
G1 X26.235 Y49.109 Z0 F800
G1 X26.337 Y49.858 Z0 F800
G1 X26.413 Y50.461 Z0 F800
G1 X26.443 Y50.723 Z0 F800
G1 X26.462 Y50.922 Z0 F800
G1 Y51.322 Z0 F800
G1 X26.422 Y51.812 Z0 F800
G1 X26.396 Y52.056 Z0 F800
G1 X26.333 Y52.605 Z0 F800
G1 X26.328 Y52.679 Z0 F800
G1 Y52.786 Z0 F800
G1 Y53.082 Z0 F800
G1 X26.339 Y53.45 Z0 F800
G1 X26.353 Y53.847 Z0 F800
G1 X26.397 Y54.871 Z0 F800
G0 Z3.5 F500
G0 X32.463 Y37.126 Z3.5 
G1 Z0 F500
;Layer C3 Pass 1 of 2
G1 X32.062 Y34.061 Z0 F800
G1 X31.818 Y34.446 Z0 F800
G1 X31.827 Y37.989 Z0 F800
G1 X31.35 Y38.222 Z0 F800
G1 X31.275 Y36.582 Z0 F800
G1 X31.252 Y34.858 Z0 F800
G1 X30.84 Y33.577 Z0 F800
G1 X30.519 Y37.285 Z0 F800
G1 X30.657 Y40.077 Z0 F800
G1 X31.435 Y40.123 Z0 F800
G1 X32.076 Y39.161 Z0 F800
G1 X33.266 Y37.697 Z0 F800
G1 X34.914 Y37.239 Z0 F800
G1 X36.928 Y37.376 Z0 F800
G1 X38.118 Y36.552 Z0 F800
G1 Y41.267 Z0 F800
G1 X38.805 Y41.038 Z0 F800
G1 X38.439 Y37.468 Z0 F800
G1 X38.713 Y35.911 Z0 F800
G1 X38.393 Y34.813 Z0 F800
G1 X38.347 Y34.63 Z0 F800
G1 X38.622 Y33.531 Z0 F800
G1 X38.484 Y32.02 Z0 F800
G1 Y26.71 Z0 F800
;Layer C3 Pass 2 of 2
G1 Y32.02 Z0 F800
G1 X38.622 Y33.531 Z0 F800
G1 X38.347 Y34.63 Z0 F800
G1 X38.393 Y34.813 Z0 F800
G1 X38.713 Y35.911 Z0 F800
G1 X38.439 Y37.468 Z0 F800
G1 X38.805 Y41.038 Z0 F800
G1 X38.118 Y41.267 Z0 F800
G1 Y36.552 Z0 F800
G1 X36.928 Y37.376 Z0 F800
G1 X34.914 Y37.239 Z0 F800
G1 X33.266 Y37.697 Z0 F800
G1 X32.076 Y39.161 Z0 F800
G1 X31.435 Y40.123 Z0 F800
G1 X30.657 Y40.077 Z0 F800
G1 X30.519 Y37.285 Z0 F800
G1 X30.84 Y33.577 Z0 F800
G1 X31.252 Y34.858 Z0 F800
G1 X31.275 Y36.582 Z0 F800
G1 X31.35 Y38.222 Z0 F800
G1 X31.827 Y37.989 Z0 F800
G1 X31.818 Y34.446 Z0 F800
G1 X32.062 Y34.061 Z0 F800
G1 X32.463 Y37.126 Z0 F800
G0 Z3.5 F500
G0 X46.221 Y36.69 Z3.5 
G1 Z0 F500
;Layer C3 Pass 1 of 2
G1 X46.358 Y39.894 Z0 F800
G1 X46.083 Y41.771 Z0 F800
G1 X46.495 Y43.007 Z0 F800
G1 X46.707 Y43.63 Z0 F800
G1 X46.837 Y44.03 Z0 F800
G1 X47.024 Y44.667 Z0 F800
G1 X47.36 Y45.753 Z0 F800
G1 X47.471 Y46.128 Z0 F800
G1 X47.56 Y46.455 Z0 F800
G1 X47.592 Y46.59 Z0 F800
G1 X47.615 Y46.701 Z0 F800
G1 X47.625 Y46.784 Z0 F800
G1 X47.622 Y46.834 Z0 F800
G1 X47.136 Y48.363 Z0 F800
G1 X45.671 Y48.5 Z0 F800
G1 X45.541 Y48.39 Z0 F800
G1 X45.225 Y48.115 Z0 F800
G1 X44.966 Y47.88 Z0 F800
G1 X44.708 Y47.632 Z0 F800
G1 X44.482 Y47.395 Z0 F800
G1 X44.392 Y47.289 Z0 F800
G1 X44.322 Y47.194 Z0 F800
G1 X44.277 Y47.115 Z0 F800
G1 X44.262 Y47.053 Z0 F800
G1 Y46.957 Z0 F800
G1 X44.265 Y46.793 Z0 F800
G1 X44.275 Y46.583 Z0 F800
G1 X44.298 Y46.352 Z0 F800
G1 X44.337 Y46.124 Z0 F800
G1 X44.398 Y45.923 Z0 F800
G1 X44.484 Y45.772 Z0 F800
G1 X44.6 Y45.697 Z0 F800
G1 X45.219 Y45.567 Z0 F800
G1 X45.722 Y45.458 Z0 F800
G1 X45.934 Y45.408 Z0 F800
G1 X46.091 Y45.365 Z0 F800
G1 X46.17 Y45.334 Z0 F800
G1 X46.206 Y45.347 Z0 F800
G1 X46.235 Y45.435 Z0 F800
G1 X46.258 Y45.587 Z0 F800
G1 X46.276 Y45.791 Z0 F800
G1 X46.298 Y46.304 Z0 F800
G1 X46.307 Y46.876 Z0 F800
G1 X46.297 Y46.973 Z0 F800
G1 X46.268 Y47.049 Z0 F800
G1 X46.221 Y47.106 Z0 F800
G1 X46.161 Y47.146 Z0 F800
G1 X46.01 Y47.182 Z0 F800
G1 X45.836 Y47.174 Z0 F800
G1 X45.662 Y47.139 Z0 F800
G1 X45.511 Y47.093 Z0 F800
G1 X45.403 Y47.054 Z0 F800
G1 X45.362 Y47.037 Z0 F800
;Layer C3 Pass 2 of 2
G1 X45.403 Y47.054 Z0 F800
G1 X45.511 Y47.093 Z0 F800
G1 X45.662 Y47.139 Z0 F800
G1 X45.836 Y47.174 Z0 F800
G1 X46.01 Y47.182 Z0 F800
G1 X46.161 Y47.146 Z0 F800
G1 X46.221 Y47.106 Z0 F800
G1 X46.268 Y47.049 Z0 F800
G1 X46.297 Y46.973 Z0 F800
G1 X46.307 Y46.876 Z0 F800
G1 X46.298 Y46.304 Z0 F800
G1 X46.276 Y45.791 Z0 F800
G1 X46.258 Y45.587 Z0 F800
G1 X46.235 Y45.435 Z0 F800
G1 X46.206 Y45.347 Z0 F800
G1 X46.17 Y45.334 Z0 F800
G1 X46.091 Y45.365 Z0 F800
G1 X45.934 Y45.408 Z0 F800
G1 X45.722 Y45.458 Z0 F800
G1 X45.219 Y45.567 Z0 F800
G1 X44.6 Y45.697 Z0 F800
G1 X44.484 Y45.772 Z0 F800
G1 X44.398 Y45.923 Z0 F800
G1 X44.337 Y46.124 Z0 F800
G1 X44.298 Y46.352 Z0 F800
G1 X44.275 Y46.583 Z0 F800
G1 X44.265 Y46.793 Z0 F800
G1 X44.262 Y46.957 Z0 F800
G1 Y47.053 Z0 F800
G1 X44.277 Y47.115 Z0 F800
G1 X44.322 Y47.194 Z0 F800
G1 X44.392 Y47.289 Z0 F800
G1 X44.482 Y47.395 Z0 F800
G1 X44.708 Y47.632 Z0 F800
G1 X44.966 Y47.88 Z0 F800
G1 X45.225 Y48.115 Z0 F800
G1 X45.541 Y48.39 Z0 F800
G1 X45.671 Y48.5 Z0 F800
G1 X47.136 Y48.363 Z0 F800
G1 X47.622 Y46.834 Z0 F800
G1 X47.625 Y46.784 Z0 F800
G1 X47.615 Y46.701 Z0 F800
G1 X47.592 Y46.59 Z0 F800
G1 X47.56 Y46.455 Z0 F800
G1 X47.471 Y46.128 Z0 F800
G1 X47.36 Y45.753 Z0 F800
G1 X47.024 Y44.667 Z0 F800
G1 X46.837 Y44.03 Z0 F800
G1 X46.707 Y43.63 Z0 F800
G1 X46.495 Y43.007 Z0 F800
G1 X46.083 Y41.771 Z0 F800
G1 X46.358 Y39.894 Z0 F800
G1 X46.221 Y36.69 Z0 F800
G0 Z3.5 F500
G0 X48.967 Y42.045 Z3.5 
G1 Z0 F500
;Layer C3 Pass 1 of 2
G1 X48.784 Y41.405 Z0 F800
G1 X48.555 Y37.513 Z0 F800
;Layer C3 Pass 2 of 2
G1 X48.784 Y41.405 Z0 F800
G1 X48.967 Y42.045 Z0 F800
G0 Z3.5 F500
G0 X51.394 Y37.605 Z3.5 
G1 Z0 F500
;Layer C3 Pass 1 of 2
G1 X51.165 Y40.26 Z0 F800
G1 X51.302 Y41.862 Z0 F800
;Layer C3 Pass 2 of 2
G1 X51.165 Y40.26 Z0 F800
G1 X51.394 Y37.605 Z0 F800
G0 Z3.5 F500
G0 X53.682 Y42.045 Z3.5 
G1 Z0 F500
;Layer C3 Pass 1 of 2
G1 X53.741 Y41.705 Z0 F800
G1 X53.877 Y40.935 Z0 F800
G1 X53.955 Y40.508 Z0 F800
G1 X54.03 Y40.114 Z0 F800
G1 X54.094 Y39.802 Z0 F800
G1 X54.12 Y39.692 Z0 F800
G1 X54.14 Y39.619 Z0 F800
G1 X54.156 Y39.55 Z0 F800
G1 X54.168 Y39.448 Z0 F800
G1 X54.178 Y39.319 Z0 F800
G1 X54.186 Y39.167 Z0 F800
G1 X54.195 Y38.818 Z0 F800
G1 Y38.44 Z0 F800
G1 Y38.076 Z0 F800
G1 X54.186 Y37.468 Z0 F800
;Layer C3 Pass 2 of 2
G1 X54.196 Y38.076 Z0 F800
G1 Y38.44 Z0 F800
G1 Y38.818 Z0 F800
G1 X54.186 Y39.167 Z0 F800
G1 X54.178 Y39.319 Z0 F800
G1 X54.168 Y39.448 Z0 F800
G1 X54.156 Y39.55 Z0 F800
G1 X54.14 Y39.619 Z0 F800
G1 X54.12 Y39.692 Z0 F800
G1 X54.094 Y39.802 Z0 F800
G1 X54.03 Y40.114 Z0 F800
G1 X53.955 Y40.508 Z0 F800
G1 X53.877 Y40.935 Z0 F800
G1 X53.741 Y41.705 Z0 F800
G1 X53.682 Y42.045 Z0 F800
G0 Z3.5 F500
G0 X56.63 Y48.009 Z3.5 
G1 Z0 F500
;Layer C3 Pass 1 of 2
G1 X56.902 Y47.672 Z0 F800
G1 X57.152 Y47.277 Z0 F800
G1 X57.255 Y47.096 Z0 F800
G1 X57.336 Y46.948 Z0 F800
G1 X57.407 Y46.811 Z0 F800
G1 X57.277 Y45.743 Z0 F800
G1 X57.147 Y45.671 Z0 F800
G1 X57.021 Y45.595 Z0 F800
G1 X56.889 Y45.504 Z0 F800
G1 X56.775 Y45.41 Z0 F800
G1 X56.704 Y45.32 Z0 F800
G1 X56.701 Y45.244 Z0 F800
G1 X56.792 Y45.193 Z0 F800
G1 X56.969 Y45.166 Z0 F800
G1 X57.194 Y45.157 Z0 F800
G1 X57.444 Y45.16 Z0 F800
G1 X57.698 Y45.173 Z0 F800
G1 X57.934 Y45.189 Z0 F800
G1 X58.13 Y45.207 Z0 F800
G1 X58.313 Y45.225 Z0 F800
G1 X58.532 Y45.451 Z0 F800
G1 X58.661 Y45.589 Z0 F800
G1 X58.794 Y45.737 Z0 F800
G1 X58.914 Y45.881 Z0 F800
G1 X59.007 Y46.006 Z0 F800
G1 X59.058 Y46.099 Z0 F800
G1 X59.113 Y46.26 Z0 F800
G1 X59.187 Y46.435 Z0 F800
G1 X59.285 Y46.604 Z0 F800
G1 X59.414 Y46.747 Z0 F800
G1 X59.521 Y46.786 Z0 F800
G1 X59.683 Y46.79 Z0 F800
G1 X59.878 Y46.766 Z0 F800
G1 X60.085 Y46.726 Z0 F800
G1 X60.284 Y46.679 Z0 F800
G1 X60.452 Y46.633 Z0 F800
G1 X60.611 Y46.585 Z0 F800
G1 X60.662 Y46.615 Z0 F800
G1 X60.745 Y46.702 Z0 F800
G1 X60.768 Y46.766 Z0 F800
G1 X60.762 Y46.844 Z0 F800
G1 X60.714 Y46.935 Z0 F800
G1 X60.611 Y47.038 Z0 F800
G1 X60.325 Y47.291 Z0 F800
G1 X60.041 Y47.584 Z0 F800
G1 X59.92 Y47.731 Z0 F800
G1 X59.824 Y47.871 Z0 F800
G1 X59.76 Y47.998 Z0 F800
G1 X59.738 Y48.106 Z0 F800
G1 X59.711 Y48.342 Z0 F800
G1 X59.624 Y48.608 Z0 F800
G1 X59.554 Y48.728 Z0 F800
G1 X59.464 Y48.825 Z0 F800
G1 X59.353 Y48.891 Z0 F800
G1 X59.22 Y48.915 Z0 F800
G1 X58.853 Y48.875 Z0 F800
G1 X58.427 Y48.786 Z0 F800
G1 X58.232 Y48.738 Z0 F800
G1 X58.073 Y48.697 Z0 F800
G1 X57.925 Y48.656 Z0 F800
G1 X57.277 Y48.138 Z0 F800
G1 X57.345 Y48.075 Z0 F800
G1 X57.504 Y47.92 Z0 F800
G1 X57.687 Y47.729 Z0 F800
G1 X57.828 Y47.556 Z0 F800
G1 X57.876 Y47.451 Z0 F800
G1 X57.923 Y47.297 Z0 F800
G1 X57.967 Y47.112 Z0 F800
G1 X58.006 Y46.916 Z0 F800
G1 X58.039 Y46.73 Z0 F800
G1 X58.064 Y46.573 Z0 F800
G1 X58.087 Y46.423 Z0 F800
G1 X58.637 Y47.167 Z0 F800
G1 X58.831 Y48.041 Z0 F800
G1 X58.184 Y48.106 Z0 F800
G1 X58.119 Y48.009 Z0 F800
;Layer C3 Pass 2 of 2
G1 X58.184 Y48.106 Z0 F800
G1 X58.831 Y48.041 Z0 F800
G1 X58.637 Y47.167 Z0 F800
G1 X58.087 Y46.423 Z0 F800
G1 X58.064 Y46.573 Z0 F800
G1 X58.039 Y46.73 Z0 F800
G1 X58.006 Y46.916 Z0 F800
G1 X57.967 Y47.112 Z0 F800
G1 X57.923 Y47.297 Z0 F800
G1 X57.876 Y47.451 Z0 F800
G1 X57.828 Y47.556 Z0 F800
G1 X57.687 Y47.729 Z0 F800
G1 X57.504 Y47.92 Z0 F800
G1 X57.345 Y48.075 Z0 F800
G1 X57.277 Y48.138 Z0 F800
G1 X57.925 Y48.656 Z0 F800
G1 X58.073 Y48.697 Z0 F800
G1 X58.232 Y48.738 Z0 F800
G1 X58.427 Y48.786 Z0 F800
G1 X58.853 Y48.875 Z0 F800
G1 X59.22 Y48.915 Z0 F800
G1 X59.353 Y48.891 Z0 F800
G1 X59.464 Y48.825 Z0 F800
G1 X59.554 Y48.728 Z0 F800
G1 X59.624 Y48.608 Z0 F800
G1 X59.711 Y48.342 Z0 F800
G1 X59.738 Y48.106 Z0 F800
G1 X59.76 Y47.998 Z0 F800
G1 X59.824 Y47.871 Z0 F800
G1 X59.92 Y47.731 Z0 F800
G1 X60.041 Y47.584 Z0 F800
G1 X60.325 Y47.291 Z0 F800
G1 X60.611 Y47.038 Z0 F800
G1 X60.714 Y46.935 Z0 F800
G1 X60.762 Y46.844 Z0 F800
G1 X60.768 Y46.766 Z0 F800
G1 X60.745 Y46.702 Z0 F800
G1 X60.662 Y46.615 Z0 F800
G1 X60.611 Y46.585 Z0 F800
G1 X60.452 Y46.633 Z0 F800
G1 X60.284 Y46.679 Z0 F800
G1 X60.085 Y46.726 Z0 F800
G1 X59.878 Y46.766 Z0 F800
G1 X59.683 Y46.79 Z0 F800
G1 X59.521 Y46.786 Z0 F800
G1 X59.414 Y46.747 Z0 F800
G1 X59.285 Y46.604 Z0 F800
G1 X59.187 Y46.435 Z0 F800
G1 X59.113 Y46.26 Z0 F800
G1 X59.058 Y46.099 Z0 F800
G1 X59.007 Y46.006 Z0 F800
G1 X58.914 Y45.881 Z0 F800
G1 X58.794 Y45.737 Z0 F800
G1 X58.661 Y45.589 Z0 F800
G1 X58.532 Y45.451 Z0 F800
G1 X58.313 Y45.225 Z0 F800
G1 X58.13 Y45.207 Z0 F800
G1 X57.934 Y45.189 Z0 F800
G1 X57.698 Y45.173 Z0 F800
G1 X57.444 Y45.16 Z0 F800
G1 X57.194 Y45.157 Z0 F800
G1 X56.969 Y45.166 Z0 F800
G1 X56.792 Y45.193 Z0 F800
G1 X56.701 Y45.244 Z0 F800
G1 X56.704 Y45.32 Z0 F800
G1 X56.775 Y45.41 Z0 F800
G1 X56.889 Y45.504 Z0 F800
G1 X57.021 Y45.595 Z0 F800
G1 X57.147 Y45.671 Z0 F800
G1 X57.277 Y45.743 Z0 F800
G1 X57.407 Y46.811 Z0 F800
G1 X57.336 Y46.948 Z0 F800
G1 X57.255 Y47.096 Z0 F800
G1 X57.152 Y47.277 Z0 F800
G1 X56.902 Y47.672 Z0 F800
G1 X56.63 Y48.009 Z0 F800
;Offset @ 555 mm/min, 90% power

M8
G0 Z3.5 F500
G0 X41.224 Y49.136 Z3.5 
G1 Z0 F500
;Layer C1
G1 X41.167 Y49.162 Z0 S900 F800
G1 X41.043 Y49.145 Z0 F800
G1 X41.124 Y49.131 Z0 F800
G1 X41.209 Y49.106 Z0 F800
G1 X41.298 Y49.084 Z0 F800
G1 X41.224 Y49.136 Z0 F800
G0 Z3.5 F500
G0 X37.329 Y51.657 Z3.5 F555
G1 Z0 F500
G1 X37.271 Y51.664 Z0 F800
G1 X37.186 Y51.667 Z0 F800
G1 X37.115 Y51.676 Z0 F800
G1 X37.214 Y51.653 Z0 F800
G1 X37.32 Y51.639 Z0 F800
G1 X37.329 Y51.657 Z0 F800
G0 Z3.5 F500
G0 X54.779 Y31.217 Z3.5 
G1 Z0 F500
G1 X54.677 Z0 F800
G1 X54.635 Y31.212 Z0 F800
G1 X54.639 Y31.209 Z0 F800
G1 X54.671 Y31.206 Z0 F800
G1 X54.761 Z0 F800
G1 X54.779 Y31.217 Z0 F800
G0 Z3.5 F500
G0 X57.021 Y27.494 Z3.5 
G1 Z0 F500
G1 X57.004 Y27.508 Z0 F800
G1 X56.984 Y27.521 Z0 F800
G1 X57.032 Y27.441 Z0 F800
G1 X57.072 Y27.355 Z0 F800
G1 X57.021 Y27.494 Z0 F800
G0 Z3.5 F500
G0 X62.127 Y30.735 Z3.5 
G1 Z0 F500
G1 Y35.421 Z0 F800
G1 X62.06 Y35.209 Z0 F800
G1 X61.553 Y34.193 Z0 F800
G1 X60.867 Y33.191 Z0 F800
G1 X60.814 Y33.136 Z0 F800
G1 X60.994 Y32.4 Z0 F800
G1 X61.107 Y31.629 Z0 F800
G1 X61.154 Y30.78 Z0 F800
G1 X61.11 Y30.142 Z0 F800
G1 X61.697 Y29.138 Z0 F800
G1 X62.01 Y28.131 Z0 F800
G1 X62.11 Y27.256 Z0 F800
G1 X62.074 Y26.426 Z0 F800
G1 X61.989 Y26.039 Z0 F800
G1 X61.954 Y25.672 Z0 F800
G1 X61.838 Y24.861 Z0 F800
G1 X61.694 Y24.083 Z0 F800
G1 X61.568 Y23.518 Z0 F800
G1 X61.605 Y23.461 Z0 F800
G1 X62.017 Y22.678 Z0 F800
G1 X62.136 Y22.313 Z0 F800
G1 X62.127 Y30.735 Z0 F800
G0 Z3.5 F500
G0 X27.911 Y26.969 Z3.5 
G1 Z0 F500
G1 X27.827 Y27.016 Z0 F800
G1 Y26.909 Z0 F800
G1 X27.911 Y26.969 Z0 F800
G0 Z3.5 F500
G0 X28.644 Y27.29 Z3.5 
G1 Z0 F500
G1 X28.02 Y27.642 Z0 F800
G1 X27.552 Y27.894 Z0 F800
G1 X27.415 Y27.997 Z0 F800
G1 X27.188 Y27.924 Z0 F800
G1 X27.185 Y25.39 Z0 F800
G1 X27.397 Y25.666 Z0 F800
G1 X28.011 Y26.252 Z0 F800
G1 X28.64 Y26.705 Z0 F800
G1 X29.265 Y27.05 Z0 F800
G1 X28.644 Y27.29 Z0 F800
G0 Z3.5 F500
G0 X26.549 Y28.22 Z3.5 
G1 Z0 F500
G1 X26.542 Y22.956 Z0 F800
G1 X26.557 Y23.019 Z0 F800
G1 X26.824 Y23.708 Z0 F800
G1 X27.217 Y24.401 Z0 F800
G1 X27.567 Y24.837 Z0 F800
G1 X27.875 Y25.237 Z0 F800
G1 X28.421 Y25.759 Z0 F800
G1 X28.983 Y26.164 Z0 F800
G1 X29.587 Y26.497 Z0 F800
G1 X29.856 Y26.599 Z0 F800
G1 X29.892 Y26.646 Z0 F800
G1 X30.45 Y27.114 Z0 F800
G1 X30.793 Y27.317 Z0 F800
G1 X30.518 Y27.358 Z0 F800
G1 X29.743 Y27.552 Z0 F800
G1 X28.917 Y27.871 Z0 F800
G1 X28.341 Y28.195 Z0 F800
G1 X27.898 Y28.434 Z0 F800
G1 X27.535 Y28.708 Z0 F800
G1 X26.896 Y28.502 Z0 F800
G1 X26.548 Y29.405 Z0 F800
G1 Y28.22 Z0 F800
G0 Z3.5 F500
G0 X61.316 Y15.532 Z3.5 
G1 Z0 F500
G1 X62.14 Z0 F800
G1 Y18.023 Z0 F800
G1 X62.122 Y17.94 Z0 F800
G1 X61.747 Y16.809 Z0 F800
G1 X61.39 Y15.936 Z0 F800
G1 X61.36 Y15.864 Z0 F800
G1 X61.316 Y15.532 Z0 F800
G0 Z3.5 F500
G0 X60.414 Y14.893 Z3.5 
G1 Z0 F500
G1 X62.78 Z0 F800
G1 Y21.205 Z0 F800
G1 X62.767 Y30.735 Z0 F800
G1 X62.77 Y37.303 Z0 F800
G1 X62.662 Y37.257 Z0 F800
G1 X61.991 Y37.041 Z0 F800
G1 X61.793 Y36.995 Z0 F800
G1 X61.718 Y36.223 Z0 F800
G1 X61.466 Y35.453 Z0 F800
G1 X61 Y34.519 Z0 F800
G1 X60.368 Y33.595 Z0 F800
G1 X60.085 Y33.298 Z0 F800
G1 X60.193 Y32.984 Z0 F800
G1 X60.365 Y32.277 Z0 F800
G1 X60.469 Y31.564 Z0 F800
G1 X60.513 Y30.784 Z0 F800
G1 X60.469 Y30.147 Z0 F800
G1 X60.42 Y29.945 Z0 F800
G1 X60.576 Y29.787 Z0 F800
G1 X61.107 Y28.878 Z0 F800
G1 X61.381 Y27.999 Z0 F800
G1 X61.468 Y27.233 Z0 F800
G1 X61.437 Y26.509 Z0 F800
G1 X61.355 Y26.137 Z0 F800
G1 X61.318 Y25.748 Z0 F800
G1 X61.207 Y24.965 Z0 F800
G1 X61.066 Y24.21 Z0 F800
G1 X60.885 Y23.394 Z0 F800
G1 X61.053 Y23.137 Z0 F800
G1 X61.425 Y22.428 Z0 F800
G1 X61.722 Y21.525 Z0 F800
G1 X61.834 Y20.831 Z0 F800
G1 X61.862 Y20.16 Z0 F800
G1 X61.792 Y19.433 Z0 F800
G1 X61.696 Y19.043 Z0 F800
G1 X61.502 Y18.106 Z0 F800
G1 X61.146 Y17.031 Z0 F800
G1 X60.799 Y16.182 Z0 F800
G1 X60.737 Y16.037 Z0 F800
G1 X60.684 Y15.63 Z0 F800
G1 X60.414 Y14.893 Z0 F800
G0 Z3.5 F500
G0 X59.317 Y14.303 Z3.5 
G1 Z0 F500
G1 X59.267 Y14.253 Z0 F800
G1 X63.419 Z0 F800
G1 Y21.206 Z0 F800
G1 X63.407 Y30.735 Z0 F800
G1 X63.41 Y38.309 Z0 F800
G1 X63.049 Y38.115 Z0 F800
G1 X62.438 Y37.857 Z0 F800
G1 X61.82 Y37.658 Z0 F800
G1 X61.195 Y37.514 Z0 F800
G1 X61.125 Y37.503 Z0 F800
G1 X61.166 Y37.15 Z0 F800
G1 X61.088 Y36.355 Z0 F800
G1 X60.872 Y35.696 Z0 F800
G1 X60.447 Y34.843 Z0 F800
G1 X59.87 Y33.999 Z0 F800
G1 X59.352 Y33.457 Z0 F800
G1 X59.359 Y33.442 Z0 F800
G1 X59.578 Y32.804 Z0 F800
G1 X59.736 Y32.155 Z0 F800
G1 X59.832 Y31.5 Z0 F800
G1 X59.872 Y30.789 Z0 F800
G1 X59.834 Y30.245 Z0 F800
G1 X59.715 Y29.749 Z0 F800
G1 X60.064 Y29.395 Z0 F800
G1 X60.518 Y28.618 Z0 F800
G1 X60.751 Y27.866 Z0 F800
G1 X60.827 Y27.21 Z0 F800
G1 X60.8 Y26.592 Z0 F800
G1 X60.722 Y26.235 Z0 F800
G1 X60.682 Y25.823 Z0 F800
G1 X60.575 Y25.068 Z0 F800
G1 X60.439 Y24.338 Z0 F800
G1 X60.249 Y23.482 Z0 F800
G1 X60.186 Y23.308 Z0 F800
G1 X60.213 Y23.25 Z0 F800
G1 X60.253 Y23.19 Z0 F800
G1 X60.5 Y22.812 Z0 F800
G1 X60.834 Y22.178 Z0 F800
G1 X61.098 Y21.374 Z0 F800
G1 X61.197 Y20.766 Z0 F800
G1 X61.221 Y20.177 Z0 F800
G1 X61.16 Y19.541 Z0 F800
G1 X61.072 Y19.186 Z0 F800
G1 X60.883 Y18.272 Z0 F800
G1 X60.545 Y17.253 Z0 F800
G1 X60.209 Y16.429 Z0 F800
G1 X60.114 Y16.206 Z0 F800
G1 X60.058 Y15.783 Z0 F800
G1 X59.777 Y15.016 Z0 F800
G1 X59.317 Y14.303 Z0 F800
G0 Z3.5 F500
G0 X58.323 Y14.217 Z3.5 
G1 Z0 F500
G1 X57.705 Y13.841 Z0 F800
G1 X57.007 Y13.618 Z0 F800
G1 X56.953 Y13.614 Z0 F800
G1 X64.06 Z0 F800
G1 Y21.206 Z0 F800
G1 X64.047 Y30.735 Z0 F800
G1 X64.05 Y39.508 Z0 F800
G1 X63.841 Y39.335 Z0 F800
G1 X63.317 Y38.985 Z0 F800
G1 X62.772 Y38.693 Z0 F800
G1 X62.215 Y38.458 Z0 F800
G1 X61.649 Y38.275 Z0 F800
G1 X61.077 Y38.143 Z0 F800
G1 X60.503 Y38.061 Z0 F800
G1 X60.358 Y38.051 Z0 F800
G1 X60.445 Y37.803 Z0 F800
G1 X60.522 Y37.144 Z0 F800
G1 X60.458 Y36.487 Z0 F800
G1 X60.279 Y35.939 Z0 F800
G1 X59.894 Y35.168 Z0 F800
G1 X59.371 Y34.403 Z0 F800
G1 X58.907 Y33.917 Z0 F800
G1 X58.563 Y33.647 Z0 F800
G1 X58.764 Y33.205 Z0 F800
G1 X58.963 Y32.624 Z0 F800
G1 X59.107 Y32.033 Z0 F800
G1 X59.195 Y31.435 Z0 F800
G1 X59.23 Y30.793 Z0 F800
G1 X59.199 Y30.343 Z0 F800
G1 X59.091 Y29.891 Z0 F800
G1 X58.967 Y29.573 Z0 F800
G1 X59.027 Y29.536 Z0 F800
G1 X59.552 Y29.002 Z0 F800
G1 X59.929 Y28.358 Z0 F800
G1 X60.123 Y27.733 Z0 F800
G1 X60.185 Y27.188 Z0 F800
G1 X60.163 Y26.675 Z0 F800
G1 X60.088 Y26.335 Z0 F800
G1 X60.046 Y25.899 Z0 F800
G1 X59.943 Y25.172 Z0 F800
G1 X59.812 Y24.466 Z0 F800
G1 X59.633 Y23.661 Z0 F800
G1 X59.495 Y23.277 Z0 F800
G1 X59.627 Y22.993 Z0 F800
G1 X59.637 Y22.958 Z0 F800
G1 X59.721 Y22.835 Z0 F800
G1 X59.948 Y22.488 Z0 F800
G1 X60.243 Y21.927 Z0 F800
G1 X60.474 Y21.221 Z0 F800
G1 X60.559 Y20.701 Z0 F800
G1 X60.58 Y20.194 Z0 F800
G1 X60.527 Y19.649 Z0 F800
G1 X60.448 Y19.33 Z0 F800
G1 X60.264 Y18.438 Z0 F800
G1 X59.945 Y17.475 Z0 F800
G1 X59.618 Y16.675 Z0 F800
G1 X59.491 Y16.377 Z0 F800
G1 X59.433 Y15.937 Z0 F800
G1 X59.201 Y15.303 Z0 F800
G1 X58.817 Y14.708 Z0 F800
G1 X58.323 Y14.217 Z0 F800
G0 Z3.5 F500
G0 X27.269 Y14.938 Z3.5 
G1 Z0 F500
G1 X27.229 Y15.014 Z0 F800
G1 Y14.938 Z0 F800
G1 X27.269 Z0 F800
G0 Z3.5 F500
G0 X27.855 Y15.195 Z3.5 
G1 Z0 F500
G1 X27.717 Y15.464 Z0 F800
G1 X27.494 Y16.062 Z0 F800
G1 X27.458 Y16.217 Z0 F800
G1 X27.241 Y16.773 Z0 F800
G1 X26.873 Y17.656 Z0 F800
G1 X26.647 Y18.313 Z0 F800
G1 X26.552 Y18.677 Z0 F800
G1 X26.555 Y17.608 Z0 F800
G1 X26.598 Y14.3 Z0 F800
G1 X28.207 Y14.294 Z0 F800
G1 X27.855 Y15.195 Z0 F800
G0 Z3.5 F500
G0 X27.472 Y17.884 Z3.5 
G1 Z0 F500
G1 X27.26 Y18.498 Z0 F800
G1 X27.081 Y19.189 Z0 F800
G1 X26.963 Y19.969 Z0 F800
G1 X26.932 Y21.315 Z0 F800
G1 X27.017 Y22.206 Z0 F800
G1 X27.169 Y22.827 Z0 F800
G1 X27.403 Y23.433 Z0 F800
G1 X27.749 Y24.041 Z0 F800
G1 X28.055 Y24.421 Z0 F800
G1 X28.352 Y24.808 Z0 F800
G1 X28.831 Y25.265 Z0 F800
G1 X29.326 Y25.622 Z0 F800
G1 X29.857 Y25.915 Z0 F800
G1 X30.25 Y26.064 Z0 F800
G1 X30.354 Y26.198 Z0 F800
G1 X30.822 Y26.59 Z0 F800
G1 X31.295 Y26.872 Z0 F800
G1 X31.801 Y27.075 Z0 F800
G1 X32.302 Y27.191 Z0 F800
G1 X32.476 Y27.209 Z0 F800
G1 X32.451 Y27.275 Z0 F800
G1 X32.352 Y27.832 Z0 F800
G1 X32.311 Z0 F800
G1 X31.315 Y27.887 Z0 F800
G1 X30.643 Y27.986 Z0 F800
G1 X29.936 Y28.164 Z0 F800
G1 X29.191 Y28.451 Z0 F800
G1 X28.617 Y28.774 Z0 F800
G1 X28.245 Y28.974 Z0 F800
G1 X27.729 Y29.365 Z0 F800
G1 X27.67 Y29.425 Z0 F800
G1 X27.275 Y29.297 Z0 F800
G1 X26.796 Y30.543 Z0 F800
G1 X26.667 Y30.772 Z0 F800
G1 X26.461 Y31.265 Z0 F800
G1 X26.315 Y31.76 Z0 F800
G1 X26.304 Y31.82 Z0 F800
G1 X26.081 Y32.4 Z0 F800
G1 X25.932 Y32.877 Z0 F800
G1 X25.906 Y32.874 Z0 F800
G1 X25.909 Y28.22 Z0 F800
G1 X25.901 Y22.916 Z0 F800
G1 X25.915 Y17.607 Z0 F800
G1 X25.966 Y13.668 Z0 F800
G1 X26.167 Y13.662 Z0 F800
G1 X29.5 Y13.649 Z0 F800
G1 X29.442 Y13.878 Z0 F800
G1 X29.413 Y14.131 Z0 F800
G1 X29.39 Y14.155 Z0 F800
G1 X28.995 Y14.035 Z0 F800
G1 X28.441 Y15.456 Z0 F800
G1 X28.304 Y15.723 Z0 F800
G1 X28.108 Y16.248 Z0 F800
G1 X28.07 Y16.409 Z0 F800
G1 X27.84 Y17 Z0 F800
G1 X27.472 Y17.884 Z0 F800
G0 Z3.5 F500
G0 X25.261 Y22.914 Z3.5 
G1 Z0 F500
G1 X25.275 Y17.625 Z0 F800
G1 X25.334 Y13.043 Z0 F800
G1 X25.472 Z0 F800
G1 X26.162 Y13.021 Z0 F800
G1 X30.271 Y13.006 Z0 F800
G1 X30.2 Y13.515 Z0 F800
G1 X30.19 Y13.535 Z0 F800
G1 X30.073 Y13.994 Z0 F800
G1 X30.025 Y14.41 Z0 F800
G1 X30.006 Y14.432 Z0 F800
G1 X29.703 Y14.76 Z0 F800
G1 X29.6 Y14.888 Z0 F800
G1 X29.375 Y14.82 Z0 F800
G1 X29.025 Y15.72 Z0 F800
G1 X28.89 Y15.982 Z0 F800
G1 X28.722 Y16.434 Z0 F800
G1 X28.683 Y16.598 Z0 F800
G1 X28.431 Y17.245 Z0 F800
G1 X28.07 Y18.111 Z0 F800
G1 X27.873 Y18.683 Z0 F800
G1 X27.708 Y19.317 Z0 F800
G1 X27.603 Y20.025 Z0 F800
G1 X27.572 Y21.292 Z0 F800
G1 X27.65 Y22.099 Z0 F800
G1 X27.781 Y22.635 Z0 F800
G1 X27.983 Y23.158 Z0 F800
G1 X28.28 Y23.68 Z0 F800
G1 X28.572 Y24.044 Z0 F800
G1 X28.83 Y24.379 Z0 F800
G1 X29.241 Y24.772 Z0 F800
G1 X29.669 Y25.08 Z0 F800
G1 X30.127 Y25.333 Z0 F800
G1 X30.644 Y25.53 Z0 F800
G1 X30.817 Y25.75 Z0 F800
G1 X31.193 Y26.066 Z0 F800
G1 X31.58 Y26.296 Z0 F800
G1 X31.994 Y26.463 Z0 F800
G1 X32.407 Y26.559 Z0 F800
G1 X32.95 Y26.613 Z0 F800
G1 X33.188 Y26.604 Z0 F800
G1 X33.208 Y26.74 Z0 F800
G1 X33.211 Y26.93 Z0 F800
G1 X33.192 Y27.08 Z0 F800
G1 X33.125 Y27.3 Z0 F800
G1 X33.07 Y27.446 Z0 F800
G1 X32.969 Y28.019 Z0 F800
G1 X32.977 Y28.454 Z0 F800
G1 X32.337 Y28.472 Z0 F800
G1 X31.38 Y28.525 Z0 F800
G1 X30.768 Y28.615 Z0 F800
G1 X30.13 Y28.774 Z0 F800
G1 X29.464 Y29.031 Z0 F800
G1 X28.946 Y29.323 Z0 F800
G1 X28.592 Y29.514 Z0 F800
G1 X28.152 Y29.847 Z0 F800
G1 X27.85 Y30.155 Z0 F800
G1 X27.655 Y30.092 Z0 F800
G1 X27.377 Y30.814 Z0 F800
G1 X27.244 Y31.053 Z0 F800
G1 X27.065 Y31.48 Z0 F800
G1 X26.938 Y31.91 Z0 F800
G1 X26.922 Y31.995 Z0 F800
G1 X26.686 Y32.61 Z0 F800
G1 X26.4 Y33.528 Z0 F800
G1 X26.389 Y33.576 Z0 F800
G1 X26.384 Z0 F800
G1 X26.376 Y33.629 Z0 F800
G1 X26.275 Y34.053 Z0 F800
G1 X26.18 Y34.583 Z0 F800
G1 X26.116 Y35.135 Z0 F800
G1 X26.098 Y35.528 Z0 F800
G1 X26.038 Y35.938 Z0 F800
G1 X25.897 Y36.489 Z0 F800
G1 X25.702 Y37.272 Z0 F800
G1 X25.546 Y38.294 Z0 F800
G1 X25.568 Y38.813 Z0 F800
G1 X25.692 Y39.261 Z0 F800
G1 X25.881 Y39.7 Z0 F800
G1 X25.918 Y39.784 Z0 F800
G1 X25.931 Y40.272 Z0 F800
G1 X25.951 Y40.817 Z0 F800
G1 Y40.893 Z0 F800
G1 X25.845 Y41.003 Z0 F800
G1 X25.269 Y41.216 Z0 F800
G1 Y38.732 Z0 F800
G1 X25.265 Y33.54 Z0 F800
G1 X25.269 Y28.22 Z0 F800
G1 X25.261 Y22.914 Z0 F800
G0 Z3.5 F500
G0 X24.635 Y17.617 Z3.5 
G1 Z0 F500
G1 X24.702 Y12.405 Z0 F800
G1 X24.805 Z0 F800
G1 X25.462 Z0 F800
G1 X26.157 Y12.381 Z0 F800
G1 X31.859 Y12.36 Z0 F800
G1 X31.673 Y12.507 Z0 F800
G1 X31.366 Y12.794 Z0 F800
G1 X31.038 Y13.224 Z0 F800
G1 X30.926 Y13.466 Z0 F800
G1 X30.852 Z0 F800
G1 X30.82 Y13.697 Z0 F800
G1 X30.795 Y13.75 Z0 F800
G1 X30.704 Y14.11 Z0 F800
G1 X30.664 Y14.459 Z0 F800
G1 X30.669 Y14.643 Z0 F800
G1 X30.654 Y14.665 Z0 F800
G1 X30.472 Y14.871 Z0 F800
G1 X30.188 Y15.179 Z0 F800
G1 X29.844 Y15.604 Z0 F800
G1 X29.829 Y15.627 Z0 F800
G1 X29.757 Y15.605 Z0 F800
G1 X29.609 Y15.984 Z0 F800
G1 X29.477 Y16.242 Z0 F800
G1 X29.335 Y16.62 Z0 F800
G1 X29.296 Y16.788 Z0 F800
G1 X29.023 Y17.488 Z0 F800
G1 X28.668 Y18.339 Z0 F800
G1 X28.486 Y18.868 Z0 F800
G1 X28.336 Y19.446 Z0 F800
G1 X28.241 Y20.08 Z0 F800
G1 X28.213 Y21.27 Z0 F800
G1 X28.283 Y21.992 Z0 F800
G1 X28.393 Y22.442 Z0 F800
G1 X28.563 Y22.883 Z0 F800
G1 X28.811 Y23.319 Z0 F800
G1 X29.077 Y23.651 Z0 F800
G1 X29.307 Y23.95 Z0 F800
G1 X29.651 Y24.278 Z0 F800
G1 X30.012 Y24.538 Z0 F800
G1 X30.396 Y24.75 Z0 F800
G1 X31.037 Y24.994 Z0 F800
G1 X31.279 Y25.303 Z0 F800
G1 X31.565 Y25.543 Z0 F800
G1 X31.864 Y25.721 Z0 F800
G1 X32.187 Y25.851 Z0 F800
G1 X32.512 Y25.926 Z0 F800
G1 X32.969 Y25.972 Z0 F800
G1 X33.379 Y25.955 Z0 F800
G1 X33.689 Y25.913 Z0 F800
G1 X33.729 Y25.907 Z0 F800
G1 X33.753 Y26.065 Z0 F800
G1 X33.778 Y26.332 Z0 F800
G1 X33.806 Y26.413 Z0 F800
G1 X33.848 Y26.69 Z0 F800
G1 X33.853 Y26.964 Z0 F800
G1 X33.819 Y27.218 Z0 F800
G1 X33.733 Y27.503 Z0 F800
G1 X33.69 Y27.617 Z0 F800
G1 X33.61 Y28.069 Z0 F800
G1 X33.619 Y28.52 Z0 F800
G1 X33.707 Y28.949 Z0 F800
G1 X33.803 Y29.183 Z0 F800
G1 X33.641 Y29.12 Z0 F800
G1 X33.244 Y29.086 Z0 F800
G1 X32.364 Y29.112 Z0 F800
G1 X31.444 Y29.162 Z0 F800
G1 X30.892 Y29.243 Z0 F800
G1 X30.324 Y29.386 Z0 F800
G1 X29.738 Y29.612 Z0 F800
G1 X29.261 Y29.88 Z0 F800
G1 X28.938 Y30.054 Z0 F800
G1 X28.576 Y30.329 Z0 F800
G1 X28.269 Y30.642 Z0 F800
G1 X28.077 Y30.901 Z0 F800
G1 X28.035 Y30.887 Z0 F800
G1 X27.958 Y31.086 Z0 F800
G1 X27.82 Y31.334 Z0 F800
G1 X27.669 Y31.695 Z0 F800
G1 X27.562 Y32.06 Z0 F800
G1 X27.541 Y32.172 Z0 F800
G1 X27.291 Y32.821 Z0 F800
G1 X27.017 Y33.697 Z0 F800
G1 X26.902 Y34.184 Z0 F800
G1 X26.813 Y34.676 Z0 F800
G1 X26.754 Y35.186 Z0 F800
G1 X26.736 Y35.591 Z0 F800
G1 X26.667 Y36.063 Z0 F800
G1 X26.518 Y36.646 Z0 F800
G1 X26.33 Y37.398 Z0 F800
G1 X26.188 Y38.329 Z0 F800
G1 X26.205 Y38.713 Z0 F800
G1 X26.297 Y39.048 Z0 F800
G1 X26.468 Y39.444 Z0 F800
G1 X26.555 Y39.641 Z0 F800
G1 X26.571 Y40.252 Z0 F800
G1 X26.591 Y40.812 Z0 F800
G1 X26.596 Y41.146 Z0 F800
G1 X26.247 Y41.51 Z0 F800
G1 X26.223 Y41.548 Z0 F800
G1 X26.067 Y41.604 Z0 F800
G1 X25.408 Y41.847 Z0 F800
G1 X24.678 Y42.178 Z0 F800
G1 X24.627 Y42.209 Z0 F800
G1 X24.63 Y38.732 Z0 F800
G1 X24.625 Y33.54 Z0 F800
G1 X24.629 Y28.22 Z0 F800
G1 X24.621 Y22.912 Z0 F800
G1 X24.635 Y17.617 Z0 F800
G0 Z3.5 F500
G0 X51.154 Y51.976 Z3.5 
G1 Z0 F500
G1 X51.312 Y52.193 Z0 F800
G1 X51.469 Y52.362 Z0 F800
G1 X50.647 Z0 F800
G1 X51.154 Y51.976 Z0 F800
G0 Z3.5 F500
G0 X51.807 Y51.786 Z3.5 
G1 Z0 F500
G1 X52.12 Y52.124 Z0 F800
G1 X52.449 Y52.407 Z0 F800
G1 X52.81 Y52.659 Z0 F800
G1 X53.408 Y52.976 Z0 F800
G1 X53.479 Y53.002 Z0 F800
G1 X48.753 Z0 F800
G1 X48.887 Y52.9 Z0 F800
G1 X49.313 Y52.637 Z0 F800
G1 X49.455 Y52.526 Z0 F800
G1 X49.529 Y52.58 Z0 F800
G1 X49.812 Y52.249 Z0 F800
G1 X49.883 Y52.192 Z0 F800
G1 X50.139 Y51.945 Z0 F800
G1 X50.575 Y51.612 Z0 F800
G1 X50.509 Y51.526 Z0 F800
G1 X50.771 Y51.158 Z0 F800
G1 X50.829 Y51.053 Z0 F800
G1 X51.131 Y50.699 Z0 F800
G1 X51.208 Y50.608 Z0 F800
G1 X51.266 Y50.885 Z0 F800
G1 X51.495 Y51.357 Z0 F800
G1 X51.807 Y51.786 Z0 F800
G0 Z3.5 F500
G0 X55.92 Y13.614 Z3.5 
G1 Z0 F500
G1 X55.368 Y13.659 Z0 F800
G1 X54.589 Y13.751 Z0 F800
G1 X53.984 Y13.811 Z0 F800
G1 X53.498 Y13.819 Z0 F800
G1 X52.565 Y13.809 Z0 F800
G1 X51.79 Y13.794 Z0 F800
G1 X51.264 Y13.758 Z0 F800
G1 X51.04 Y13.614 Z0 F800
G1 X55.92 Z0 F800
G0 Z3.5 F500
G0 X56.886 Y14.251 Z3.5 
G1 Z0 F500
G1 X56.394 Y14.218 Z0 F800
G1 X55.431 Y14.296 Z0 F800
G1 X54.653 Y14.388 Z0 F800
G1 X54.021 Y14.45 Z0 F800
G1 X53.511 Y14.459 Z0 F800
G1 X52.559 Y14.449 Z0 F800
G1 X51.772 Y14.435 Z0 F800
G1 X51.077 Y14.386 Z0 F800
G1 X51.044 Y14.381 Z0 F800
G1 X51.032 Y14.37 Z0 F800
G1 X50.67 Y14.138 Z0 F800
G1 X50.21 Y13.952 Z0 F800
G1 X49.713 Y13.866 Z0 F800
G1 X49.341 Y13.874 Z0 F800
G1 X49.205 Y13.789 Z0 F800
G1 X49.091 Y13.521 Z0 F800
G1 X48.72 Y13.036 Z0 F800
G1 X48.64 Y12.974 Z0 F800
G1 X56.193 Z0 F800
G1 X64.7 Y12.971 Z0 F800
G1 Y21.207 Z0 F800
G1 X64.687 Y30.736 Z0 F800
G1 X64.691 Y40.269 Z0 F800
G1 X64.694 Y41.136 Z0 F800
G1 X64.057 Y40.372 Z0 F800
G1 X63.896 Y40.21 Z0 F800
G1 X63.458 Y39.849 Z0 F800
G1 X62.987 Y39.534 Z0 F800
G1 X62.496 Y39.271 Z0 F800
G1 X61.992 Y39.059 Z0 F800
G1 X61.479 Y38.893 Z0 F800
G1 X60.959 Y38.773 Z0 F800
G1 X60.438 Y38.698 Z0 F800
G1 X59.815 Y38.658 Z0 F800
G1 X59.52 Y38.695 Z0 F800
G1 Y38.647 Z0 F800
G1 X59.541 Y38.488 Z0 F800
G1 X59.569 Y38.348 Z0 F800
G1 X59.602 Y38.235 Z0 F800
G1 X59.695 Y38.009 Z0 F800
G1 X59.818 Y37.659 Z0 F800
G1 X59.878 Y37.138 Z0 F800
G1 X59.828 Y36.619 Z0 F800
G1 X59.685 Y36.183 Z0 F800
G1 X59.341 Y35.494 Z0 F800
G1 X58.872 Y34.808 Z0 F800
G1 X58.476 Y34.393 Z0 F800
G1 X58.018 Y34.033 Z0 F800
G1 X57.711 Y33.865 Z0 F800
G1 X57.935 Y33.48 Z0 F800
G1 X58.168 Y32.968 Z0 F800
G1 X58.348 Y32.444 Z0 F800
G1 X58.478 Y31.91 Z0 F800
G1 X58.557 Y31.371 Z0 F800
G1 X58.589 Y30.797 Z0 F800
G1 X58.564 Y30.44 Z0 F800
G1 X58.479 Y30.083 Z0 F800
G1 X58.228 Y29.439 Z0 F800
G1 X58.16 Y29.321 Z0 F800
G1 X58.18 Y29.313 Z0 F800
G1 X58.623 Y29.034 Z0 F800
G1 X59.04 Y28.61 Z0 F800
G1 X59.339 Y28.098 Z0 F800
G1 X59.494 Y27.601 Z0 F800
G1 X59.543 Y27.165 Z0 F800
G1 X59.526 Y26.757 Z0 F800
G1 X59.455 Y26.435 Z0 F800
G1 X59.411 Y25.975 Z0 F800
G1 X59.311 Y25.275 Z0 F800
G1 X59.185 Y24.594 Z0 F800
G1 X59.017 Y23.839 Z0 F800
G1 X58.867 Y23.423 Z0 F800
G1 X58.775 Y23.278 Z0 F800
G1 X58.825 Y23.199 Z0 F800
G1 X59.027 Y22.764 Z0 F800
G1 X59.053 Y22.679 Z0 F800
G1 X59.057 Y22.673 Z0 F800
G1 X59.188 Y22.48 Z0 F800
G1 X59.395 Y22.163 Z0 F800
G1 X59.651 Y21.677 Z0 F800
G1 X59.851 Y21.069 Z0 F800
G1 X59.921 Y20.636 Z0 F800
G1 X59.938 Y20.212 Z0 F800
G1 X59.895 Y19.757 Z0 F800
G1 X59.825 Y19.474 Z0 F800
G1 X59.645 Y18.604 Z0 F800
G1 X59.344 Y17.697 Z0 F800
G1 X59.028 Y16.922 Z0 F800
G1 X58.86 Y16.528 Z0 F800
G1 X58.857 Y16.47 Z0 F800
G1 X58.808 Y16.09 Z0 F800
G1 X58.625 Y15.59 Z0 F800
G1 X58.316 Y15.113 Z0 F800
G1 X57.925 Y14.724 Z0 F800
G1 X57.438 Y14.427 Z0 F800
G1 X56.886 Y14.251 Z0 F800
G0 Z3.5 F500
G0 X42.344 Y51.368 Z3.5 
G1 Z0 F500
G1 X42.685 Y51.916 Z0 F800
G1 X43.153 Y52.448 Z0 F800
G1 X43.706 Y52.897 Z0 F800
G1 X43.892 Y53.002 Z0 F800
G1 X41.183 Z0 F800
G1 X41.159 Y52.91 Z0 F800
G1 X41.123 Y52.834 Z0 F800
G1 X41.437 Y52.614 Z0 F800
G1 X41.897 Y52.112 Z0 F800
G1 X42.202 Y51.647 Z0 F800
G1 X42.344 Y51.368 Z0 F800
G0 Z3.5 F500
G0 X42.653 Y50.466 Z3.5 
G1 Z0 F500
G1 X42.883 Y51.023 Z0 F800
G1 X43.2 Y51.533 Z0 F800
G1 X43.598 Y51.985 Z0 F800
G1 X44.067 Y52.367 Z0 F800
G1 X44.603 Y52.669 Z0 F800
G1 X45.169 Y52.867 Z0 F800
G1 X45.392 Y52.913 Z0 F800
G1 X46.001 Y52.958 Z0 F800
G1 X46.648 Y52.993 Z0 F800
G1 X47.137 Y52.959 Z0 F800
G1 X47.327 Y52.916 Z0 F800
G1 X47.422 Y53.055 Z0 F800
G1 X48.024 Y52.682 Z0 F800
G1 X48.251 Y52.581 Z0 F800
G1 X48.526 Y52.372 Z0 F800
G1 X48.946 Y52.111 Z0 F800
G1 X49.463 Y51.708 Z0 F800
G1 X49.743 Y51.437 Z0 F800
G1 X49.996 Y51.145 Z0 F800
G1 X50.229 Y50.815 Z0 F800
G1 X50.301 Y50.687 Z0 F800
G1 X50.643 Y50.285 Z0 F800
G1 X51.141 Y49.693 Z0 F800
G1 X51.416 Y49.319 Z0 F800
G1 X51.679 Y48.904 Z0 F800
G1 X51.784 Y48.697 Z0 F800
G1 X51.763 Y49.091 Z0 F800
G1 X51.795 Y50.292 Z0 F800
G1 X51.876 Y50.676 Z0 F800
G1 X52.046 Y51.026 Z0 F800
G1 X52.302 Y51.379 Z0 F800
G1 X52.564 Y51.662 Z0 F800
G1 X52.842 Y51.901 Z0 F800
G1 X53.144 Y52.112 Z0 F800
G1 X53.671 Y52.391 Z0 F800
G1 X54.177 Y52.582 Z0 F800
G1 X54.609 Y52.713 Z0 F800
G1 X54.969 Y52.813 Z0 F800
G1 X55.23 Y52.893 Z0 F800
G1 X55.458 Y52.982 Z0 F800
G1 X56.029 Y53.233 Z0 F800
G1 X56.735 Y53.48 Z0 F800
G1 X57.17 Y53.585 Z0 F800
G1 X57.191 Y53.588 Z0 F800
G1 X57.195 Y53.643 Z0 F800
G1 X40.667 Z0 F800
G1 X40.663 Y53.545 Z0 F800
G1 X40.556 Y53.131 Z0 F800
G1 X40.498 Y53.01 Z0 F800
G1 X40.474 Y52.892 Z0 F800
G1 X40.314 Y52.565 Z0 F800
G1 X40.463 Y52.517 Z0 F800
G1 X41.012 Y52.13 Z0 F800
G1 X41.39 Y51.718 Z0 F800
G1 X41.647 Y51.325 Z0 F800
G1 X41.813 Y51.002 Z0 F800
G1 X41.921 Y50.771 Z0 F800
G1 X42.005 Y50.597 Z0 F800
G1 X42.045 Y50.523 Z0 F800
G1 X42.2 Y50.368 Z0 F800
G1 X42.335 Y50.111 Z0 F800
G1 X42.418 Y50.028 Z0 F800
G1 X42.527 Y50.088 Z0 F800
G1 X42.57 Y50.104 Z0 F800
G1 X42.653 Y50.466 Z0 F800
G0 Z3.5 F500
G0 X33.167 Y52.997 Z3.5 
G1 Z0 F500
G1 X32.337 Y53 Z0 F800
G1 Y52.986 Z0 F800
G1 X32.355 Y52.777 Z0 F800
G1 X32.41 Y52.708 Z0 F800
G1 X32.562 Y52.537 Z0 F800
G1 X33.015 Y52.063 Z0 F800
G1 X33.246 Y52.277 Z0 F800
G1 X33.174 Y52.802 Z0 F800
G1 X33.167 Y52.997 Z0 F800
G0 Z3.5 F500
G0 X33.825 Y53.635 Z3.5 
G1 Z0 F500
G1 X32.079 Y53.64 Z0 F800
G1 X31.692 Y53.624 Z0 F800
G1 X31.688 Y53.531 Z0 F800
G1 X31.698 Y52.956 Z0 F800
G1 X31.732 Y52.552 Z0 F800
G1 X31.792 Y52.458 Z0 F800
G1 X31.919 Y52.296 Z0 F800
G1 X32.103 Y52.091 Z0 F800
G1 X32.583 Y51.589 Z0 F800
G1 X32.939 Y51.185 Z0 F800
G1 X33.028 Y51.267 Z0 F800
G1 X33.315 Y51.47 Z0 F800
G1 X33.372 Y51.522 Z0 F800
G1 X33.38 Y51.516 Z0 F800
G1 X33.424 Y51.547 Z0 F800
G1 X33.824 Y51.771 Z0 F800
G1 X34.089 Y51.885 Z0 F800
G1 X33.988 Y52.05 Z0 F800
G1 X33.873 Y52.417 Z0 F800
G1 X33.813 Y52.858 Z0 F800
G1 X33.797 Y53.281 Z0 F800
G1 X33.825 Y53.635 Z0 F800
G0 Z3.5 F500
G0 X34.152 Y54.274 Z3.5 
G1 Z0 F500
G1 X32.069 Y54.28 Z0 F800
G1 X31.597 Y54.261 Z0 F800
G1 X31.132 Y54.268 Z0 F800
G1 X31.094 Y54.081 Z0 F800
G1 X31.063 Y53.818 Z0 F800
G1 X31.047 Y53.534 Z0 F800
G1 X31.058 Y52.927 Z0 F800
G1 X31.104 Y52.379 Z0 F800
G1 X31.155 Y52.267 Z0 F800
G1 X31.273 Y52.082 Z0 F800
G1 X31.429 Y51.884 Z0 F800
G1 X31.619 Y51.671 Z0 F800
G1 X32.111 Y51.156 Z0 F800
G1 X32.645 Y50.551 Z0 F800
G1 X32.685 Y50.491 Z0 F800
G1 X32.751 Y50.409 Z0 F800
G1 X32.827 Y50.343 Z0 F800
G1 X32.913 Y50.291 Z0 F800
G1 X32.955 Y50.275 Z0 F800
G1 X33.111 Y50.472 Z0 F800
G1 X33.432 Y50.768 Z0 F800
G1 X33.766 Y51.005 Z0 F800
G1 X34.108 Y51.196 Z0 F800
G1 X34.718 Y51.459 Z0 F800
G1 X35.184 Y51.64 Z0 F800
G1 X34.956 Y51.829 Z0 F800
G1 X34.71 Y52.095 Z0 F800
G1 X34.575 Y52.317 Z0 F800
G1 X34.5 Y52.557 Z0 F800
G1 X34.451 Y52.913 Z0 F800
G1 X34.438 Y53.268 Z0 F800
G1 X34.468 Y53.643 Z0 F800
G1 X34.555 Y54.04 Z0 F800
G1 X34.651 Y54.27 Z0 F800
G1 X34.152 Y54.274 Z0 F800
G0 Z3.5 F500
G0 X38.907 Y13.546 Z3.5 
G1 Z0 F500
G1 X38.655 Y13.211 Z0 F800
G1 X38.471 Y12.982 Z0 F800
G1 X42.283 Y12.979 Z0 F800
G1 X41.621 Y13.163 Z0 F800
G1 X41.188 Y13.353 Z0 F800
G1 X40.786 Y13.588 Z0 F800
G1 X40.483 Y13.821 Z0 F800
G1 X39.987 Y13.648 Z0 F800
G1 X39.378 Y13.574 Z0 F800
G1 X38.991 Y13.583 Z0 F800
G1 X38.907 Y13.546 Z0 F800
G0 Z3.5 F500
G0 X37.645 Y13.034 Z3.5 
G1 Z0 F500
G1 X37.266 Y12.732 Z0 F800
G1 X36.799 Y12.471 Z0 F800
G1 X36.454 Y12.355 Z0 F800
G1 X36.431 Y12.344 Z0 F800
G1 X46.172 Y12.334 Z0 F800
G1 X56.192 Z0 F800
G1 X65.341 Y12.331 Z0 F800
G1 X65.338 Y21.208 Z0 F800
G1 X65.327 Y30.736 Z0 F800
G1 X65.331 Y40.267 Z0 F800
G1 X65.343 Y43.193 Z0 F800
G1 X64.875 Y42.456 Z0 F800
G1 X64.26 Y41.615 Z0 F800
G1 X63.584 Y40.804 Z0 F800
G1 X63.465 Y40.685 Z0 F800
G1 X63.076 Y40.363 Z0 F800
G1 X62.657 Y40.084 Z0 F800
G1 X62.22 Y39.849 Z0 F800
G1 X61.769 Y39.659 Z0 F800
G1 X61.309 Y39.51 Z0 F800
G1 X60.841 Y39.402 Z0 F800
G1 X60.372 Y39.334 Z0 F800
G1 X59.834 Y39.301 Z0 F800
G1 X59.391 Y39.356 Z0 F800
G1 X58.985 Y39.534 Z0 F800
G1 X58.877 Y39.607 Z0 F800
G1 X58.863 Y39.144 Z0 F800
G1 X58.884 Y38.592 Z0 F800
G1 X58.909 Y38.384 Z0 F800
G1 X58.946 Y38.196 Z0 F800
G1 X58.997 Y38.023 Z0 F800
G1 X59.097 Y37.781 Z0 F800
G1 X59.19 Y37.514 Z0 F800
G1 X59.234 Y37.132 Z0 F800
G1 X59.197 Y36.751 Z0 F800
G1 X59.091 Y36.427 Z0 F800
G1 X58.788 Y35.819 Z0 F800
G1 X58.373 Y35.212 Z0 F800
G1 X58.044 Y34.868 Z0 F800
G1 X57.664 Y34.569 Z0 F800
G1 X57.209 Y34.319 Z0 F800
G1 X56.82 Y34.189 Z0 F800
G1 X56.708 Y34.147 Z0 F800
G1 X56.809 Y34.038 Z0 F800
G1 X57.111 Y33.623 Z0 F800
G1 X57.366 Y33.186 Z0 F800
G1 X57.573 Y32.731 Z0 F800
G1 X57.733 Y32.264 Z0 F800
G1 X57.849 Y31.788 Z0 F800
G1 X57.92 Y31.306 Z0 F800
G1 X57.948 Y30.802 Z0 F800
G1 X57.93 Y30.538 Z0 F800
G1 X57.866 Y30.275 Z0 F800
G1 X57.649 Y29.716 Z0 F800
G1 X57.339 Y29.176 Z0 F800
G1 X57.313 Y29.143 Z0 F800
G1 X57.493 Y28.996 Z0 F800
G1 X57.626 Y28.844 Z0 F800
G1 X57.889 Y28.74 Z0 F800
G1 X58.219 Y28.532 Z0 F800
G1 X58.528 Y28.218 Z0 F800
G1 X58.75 Y27.838 Z0 F800
G1 X58.865 Y27.469 Z0 F800
G1 X58.902 Y27.143 Z0 F800
G1 X58.889 Y26.84 Z0 F800
G1 X58.827 Y26.558 Z0 F800
G1 X58.823 Y26.547 Z0 F800
G1 X58.775 Y26.051 Z0 F800
G1 X58.68 Y25.379 Z0 F800
G1 X58.558 Y24.722 Z0 F800
G1 X58.401 Y24.018 Z0 F800
G1 X58.289 Y23.707 Z0 F800
G1 X58.08 Y23.378 Z0 F800
G1 X58.012 Y23.311 Z0 F800
G1 X58.076 Y23.184 Z0 F800
G1 X58.263 Y22.891 Z0 F800
G1 X58.428 Y22.535 Z0 F800
G1 X58.467 Y22.407 Z0 F800
G1 X58.52 Y22.325 Z0 F800
G1 X58.656 Y22.125 Z0 F800
G1 X58.843 Y21.839 Z0 F800
G1 X59.06 Y21.426 Z0 F800
G1 X59.227 Y20.917 Z0 F800
G1 X59.283 Y20.572 Z0 F800
G1 X59.297 Y20.229 Z0 F800
G1 X59.262 Y19.865 Z0 F800
G1 X59.198 Y19.604 Z0 F800
G1 X59.025 Y18.771 Z0 F800
G1 X58.743 Y17.918 Z0 F800
G1 X58.437 Y17.169 Z0 F800
G1 X58.225 Y16.672 Z0 F800
G1 X58.219 Y16.524 Z0 F800
G1 X58.182 Y16.244 Z0 F800
G1 X58.048 Y15.877 Z0 F800
G1 X57.816 Y15.519 Z0 F800
G1 X57.528 Y15.231 Z0 F800
G1 X57.17 Y15.013 Z0 F800
G1 X56.766 Y14.884 Z0 F800
G1 X56.398 Y14.859 Z0 F800
G1 X55.495 Y14.933 Z0 F800
G1 X54.739 Y15.022 Z0 F800
G1 X54.059 Y15.089 Z0 F800
G1 X53.493 Y15.1 Z0 F800
G1 X52.561 Y15.089 Z0 F800
G1 X51.735 Y15.074 Z0 F800
G1 X51.003 Y15.023 Z0 F800
G1 X50.756 Y14.981 Z0 F800
G1 X50.644 Y14.881 Z0 F800
G1 X50.375 Y14.708 Z0 F800
G1 X50.034 Y14.571 Z0 F800
G1 X49.666 Y14.507 Z0 F800
G1 X49.33 Y14.515 Z0 F800
G1 X49.2 Y14.54 Z0 F800
G1 X48.865 Y14.332 Z0 F800
G1 X48.699 Y14.238 Z0 F800
G1 X48.533 Y13.846 Z0 F800
G1 X48.261 Y13.49 Z0 F800
G1 X47.931 Y13.232 Z0 F800
G1 X47.425 Y12.981 Z0 F800
G1 X46.939 Y12.827 Z0 F800
G1 X46.469 Y12.746 Z0 F800
G1 X46.001 Y12.721 Z0 F800
G1 X45.25 Y12.779 Z0 F800
G1 X44.505 Y12.918 Z0 F800
G1 X44.033 Y13.109 Z0 F800
G1 X43.641 Y13.454 Z0 F800
G1 X43.617 Y13.486 Z0 F800
G1 X42.96 Y13.531 Z0 F800
G1 X42.427 Y13.603 Z0 F800
G1 X41.836 Y13.768 Z0 F800
G1 X41.479 Y13.924 Z0 F800
G1 X41.145 Y14.12 Z0 F800
G1 X40.822 Y14.368 Z0 F800
G1 X40.625 Y14.567 Z0 F800
G1 X40.601 Z0 F800
G1 X40.568 Y14.563 Z0 F800
G1 X40.549 Y14.557 Z0 F800
G1 X40.481 Y14.523 Z0 F800
G1 X40.367 Y14.458 Z0 F800
G1 X39.841 Y14.275 Z0 F800
G1 X39.346 Y14.215 Z0 F800
G1 X38.979 Y14.223 Z0 F800
G1 X38.878 Y14.231 Z0 F800
G1 X38.659 Y14.136 Z0 F800
G1 X38.528 Y14.091 Z0 F800
G1 X38.434 Y13.98 Z0 F800
G1 X38.151 Y13.605 Z0 F800
G1 X37.932 Y13.334 Z0 F800
G1 X37.645 Y13.034 Z0 F800
G0 Z3.5 F500
G0 X36.153 Y11.705 Z3.5 
G1 Z0 F500
G1 X46.171 Y11.694 Z0 F800
G1 X56.192 Z0 F800
G1 X65.98 Y11.691 Z0 F800
G1 Y21.208 Z0 F800
G1 X65.967 Y30.736 Z0 F800
G1 X65.971 Y40.266 Z0 F800
G1 X66.001 Y47.646 Z0 F800
G1 X65.459 Y44.824 Z0 F800
G1 X65.426 Y44.691 Z0 F800
G1 X65.366 Y44.547 Z0 F800
G1 X64.882 Y43.661 Z0 F800
G1 X64.346 Y42.816 Z0 F800
G1 X63.756 Y42.009 Z0 F800
G1 X63.111 Y41.236 Z0 F800
G1 X63.034 Y41.159 Z0 F800
G1 X62.693 Y40.877 Z0 F800
G1 X62.328 Y40.633 Z0 F800
G1 X61.944 Y40.427 Z0 F800
G1 X61.546 Y40.259 Z0 F800
G1 X61.138 Y40.127 Z0 F800
G1 X60.723 Y40.032 Z0 F800
G1 X60.306 Y39.972 Z0 F800
G1 X59.854 Y39.943 Z0 F800
G1 X59.563 Y39.98 Z0 F800
G1 X59.295 Y40.097 Z0 F800
G1 X59.046 Y40.265 Z0 F800
G1 X58.805 Y40.448 Z0 F800
G1 X58.795 Y40.443 Z0 F800
G1 X58.61 Y40.331 Z0 F800
G1 X58.469 Y40.229 Z0 F800
G1 X58.354 Y40.121 Z0 F800
G1 X58.289 Y40.042 Z0 F800
G1 X58.258 Y39.987 Z0 F800
G1 X58.248 Y39.951 Z0 F800
G1 X58.244 Y39.854 Z0 F800
G1 Y39.832 Z0 F800
G1 X58.223 Y39.14 Z0 F800
G1 X58.245 Y38.542 Z0 F800
G1 X58.276 Y38.289 Z0 F800
G1 X58.326 Y38.039 Z0 F800
G1 X58.392 Y37.812 Z0 F800
G1 X58.499 Y37.554 Z0 F800
G1 X58.563 Y37.37 Z0 F800
G1 X58.591 Y37.126 Z0 F800
G1 X58.567 Y36.883 Z0 F800
G1 X58.498 Y36.67 Z0 F800
G1 X58.235 Y36.144 Z0 F800
G1 X57.874 Y35.616 Z0 F800
G1 X57.613 Y35.342 Z0 F800
G1 X57.31 Y35.104 Z0 F800
G1 X56.952 Y34.908 Z0 F800
G1 X56.618 Y34.797 Z0 F800
G1 X56.108 Y34.603 Z0 F800
G1 X55.564 Y34.468 Z0 F800
G1 X55.044 Y34.389 Z0 F800
G1 X54.613 Y34.35 Z0 F800
G1 X53.99 Y34.193 Z0 F800
G1 X53.302 Y34.093 Z0 F800
G1 X52.646 Y34.043 Z0 F800
G1 X52.102 Y34.021 Z0 F800
G1 X52.279 Z0 F800
G1 X52.659 Y33.964 Z0 F800
G1 X53.231 Z0 F800
G1 X53.801 Y33.998 Z0 F800
G1 X54.341 Y34.08 Z0 F800
G1 X54.897 Y34.237 Z0 F800
G1 X55.142 Y34.289 Z0 F800
G1 X55.456 Y34.266 Z0 F800
G1 X55.753 Y34.158 Z0 F800
G1 X55.989 Y33.985 Z0 F800
G1 X56.313 Y33.631 Z0 F800
G1 X56.575 Y33.272 Z0 F800
G1 X56.797 Y32.892 Z0 F800
G1 X56.978 Y32.494 Z0 F800
G1 X57.118 Y32.084 Z0 F800
G1 X57.22 Y31.666 Z0 F800
G1 X57.282 Y31.242 Z0 F800
G1 X57.307 Y30.806 Z0 F800
G1 X57.295 Y30.636 Z0 F800
G1 X57.254 Y30.466 Z0 F800
G1 X57.07 Y29.993 Z0 F800
G1 X56.806 Y29.533 Z0 F800
G1 X56.621 Y29.293 Z0 F800
G1 X56.412 Y29.077 Z0 F800
G1 X56.296 Y28.982 Z0 F800
G1 X56.466 Y28.925 Z0 F800
G1 X56.769 Y28.761 Z0 F800
G1 X57.046 Y28.534 Z0 F800
G1 X57.274 Y28.274 Z0 F800
G1 X57.399 Y28.245 Z0 F800
G1 X57.599 Y28.167 Z0 F800
G1 X57.814 Y28.03 Z0 F800
G1 X58.016 Y27.826 Z0 F800
G1 X58.16 Y27.579 Z0 F800
G1 X58.235 Y27.336 Z0 F800
G1 X58.26 Y27.12 Z0 F800
G1 X58.252 Y26.923 Z0 F800
G1 X58.21 Y26.734 Z0 F800
G1 X58.194 Y26.688 Z0 F800
G1 X58.14 Y26.127 Z0 F800
G1 X58.048 Y25.482 Z0 F800
G1 X57.931 Y24.849 Z0 F800
G1 X57.785 Y24.197 Z0 F800
G1 X57.711 Y23.99 Z0 F800
G1 X57.578 Y23.781 Z0 F800
G1 X57.403 Y23.606 Z0 F800
G1 X57.206 Y23.481 Z0 F800
G1 X57 Y23.396 Z0 F800
G1 X57.063 Y23.342 Z0 F800
G1 X57.377 Y23.034 Z0 F800
G1 X57.548 Y22.821 Z0 F800
G1 X57.7 Y22.582 Z0 F800
G1 X57.829 Y22.306 Z0 F800
G1 X57.871 Y22.166 Z0 F800
G1 X57.906 Y22.097 Z0 F800
G1 X57.986 Y21.972 Z0 F800
G1 X58.124 Y21.77 Z0 F800
G1 X58.29 Y21.514 Z0 F800
G1 X58.468 Y21.176 Z0 F800
G1 X58.603 Y20.765 Z0 F800
G1 X58.645 Y20.507 Z0 F800
G1 X58.656 Y20.247 Z0 F800
G1 X58.63 Y19.973 Z0 F800
G1 X58.577 Y19.761 Z0 F800
G1 X58.406 Y18.937 Z0 F800
G1 X58.143 Y18.141 Z0 F800
G1 X57.847 Y17.416 Z0 F800
G1 X57.589 Y16.812 Z0 F800
G1 Y16.786 Z0 F800
G1 X57.581 Y16.579 Z0 F800
G1 X57.557 Y16.397 Z0 F800
G1 X57.472 Y16.164 Z0 F800
G1 X57.316 Y15.923 Z0 F800
G1 X57.13 Y15.739 Z0 F800
G1 X56.902 Y15.6 Z0 F800
G1 X56.645 Y15.518 Z0 F800
G1 X56.403 Y15.501 Z0 F800
G1 X55.558 Y15.57 Z0 F800
G1 X54.79 Y15.661 Z0 F800
G1 X54.097 Y15.729 Z0 F800
G1 X53.488 Y15.74 Z0 F800
G1 X53.485 Z0 F800
G1 X52.544 Y15.729 Z0 F800
G1 X51.717 Y15.714 Z0 F800
G1 X50.924 Y15.659 Z0 F800
G1 X50.446 Y15.577 Z0 F800
G1 X50.394 Y15.516 Z0 F800
G1 X50.256 Y15.393 Z0 F800
G1 X50.079 Y15.279 Z0 F800
G1 X49.857 Y15.189 Z0 F800
G1 X49.618 Y15.148 Z0 F800
G1 X49.398 Y15.153 Z0 F800
G1 X49.204 Y15.19 Z0 F800
G1 X49.128 Y15.217 Z0 F800
G1 X49.065 Y15.195 Z0 F800
G1 X48.957 Y15.142 Z0 F800
G1 X48.539 Y14.882 Z0 F800
G1 X48.118 Y14.644 Z0 F800
G1 X48.087 Y14.433 Z0 F800
G1 X47.976 Y14.17 Z0 F800
G1 X47.802 Y13.944 Z0 F800
G1 X47.588 Y13.776 Z0 F800
G1 X47.185 Y13.576 Z0 F800
G1 X46.788 Y13.45 Z0 F800
G1 X46.397 Y13.383 Z0 F800
G1 X46.009 Y13.362 Z0 F800
G1 X45.333 Y13.415 Z0 F800
G1 X44.686 Y13.536 Z0 F800
G1 X44.374 Y13.662 Z0 F800
G1 X44.116 Y13.888 Z0 F800
G1 X43.967 Y14.093 Z0 F800
G1 X43.754 Y14.118 Z0 F800
G1 X43.025 Y14.168 Z0 F800
G1 X42.557 Y14.231 Z0 F800
G1 X42.052 Y14.372 Z0 F800
G1 X41.77 Y14.495 Z0 F800
G1 X41.503 Y14.651 Z0 F800
G1 X41.247 Y14.849 Z0 F800
G1 X41.055 Y15.042 Z0 F800
G1 X40.969 Y15.12 Z0 F800
G1 X40.905 Y15.155 Z0 F800
G1 X40.807 Y15.188 Z0 F800
G1 X40.689 Y15.206 Z0 F800
G1 X40.557 Z0 F800
G1 X40.426 Y15.188 Z0 F800
G1 X40.315 Y15.155 Z0 F800
G1 X40.178 Y15.087 Z0 F800
G1 X40.102 Y15.044 Z0 F800
G1 X39.695 Y14.902 Z0 F800
G1 X39.314 Y14.855 Z0 F800
G1 X39.012 Y14.862 Z0 F800
G1 X38.808 Y14.879 Z0 F800
G1 X38.746 Y14.882 Z0 F800
G1 X38.661 Y14.834 Z0 F800
G1 X38.426 Y14.733 Z0 F800
G1 X38.228 Y14.664 Z0 F800
G1 X38.14 Y14.637 Z0 F800
G1 X38.058 Y14.527 Z0 F800
G1 X37.932 Y14.378 Z0 F800
G1 X37.646 Y13.999 Z0 F800
G1 X37.451 Y13.757 Z0 F800
G1 X37.212 Y13.508 Z0 F800
G1 X36.908 Y13.266 Z0 F800
G1 X36.54 Y13.059 Z0 F800
G1 X36.211 Y12.95 Z0 F800
G1 X35.889 Y12.792 Z0 F800
G1 X35.497 Y12.646 Z0 F800
G1 X35.108 Y12.542 Z0 F800
G1 X34.724 Y12.468 Z0 F800
G1 X34.021 Y12.391 Z0 F800
G1 X33.314 Y12.35 Z0 F800
G1 X32.948 Y12.398 Z0 F800
G1 X32.637 Y12.573 Z0 F800
G1 X32.469 Y12.703 Z0 F800
G1 X32.306 Y12.823 Z0 F800
G1 X32.091 Y12.993 Z0 F800
G1 X31.842 Y13.226 Z0 F800
G1 X31.589 Y13.556 Z0 F800
G1 X31.401 Y13.965 Z0 F800
G1 X31.334 Y14.226 Z0 F800
G1 X31.305 Y14.486 Z0 F800
G1 X31.313 Y14.76 Z0 F800
G1 Y14.773 Z0 F800
G1 X31.31 Y14.815 Z0 F800
G1 X31.269 Y14.906 Z0 F800
G1 X31.155 Y15.063 Z0 F800
G1 X30.949 Y15.298 Z0 F800
G1 X30.672 Y15.598 Z0 F800
G1 X30.363 Y15.98 Z0 F800
G1 X30.203 Y16.228 Z0 F800
G1 X30.063 Y16.5 Z0 F800
G1 X29.949 Y16.805 Z0 F800
G1 X29.909 Y16.978 Z0 F800
G1 X29.623 Y17.713 Z0 F800
G1 X29.267 Y18.566 Z0 F800
G1 X29.1 Y19.052 Z0 F800
G1 X28.964 Y19.574 Z0 F800
G1 X28.88 Y20.135 Z0 F800
G1 X28.854 Y21.246 Z0 F800
G1 X28.915 Y21.885 Z0 F800
G1 X29.004 Y22.25 Z0 F800
G1 X29.143 Y22.607 Z0 F800
G1 X29.342 Y22.958 Z0 F800
G1 X29.568 Y23.24 Z0 F800
G1 X29.784 Y23.521 Z0 F800
G1 X30.061 Y23.785 Z0 F800
G1 X30.354 Y23.997 Z0 F800
G1 X30.667 Y24.168 Z0 F800
G1 X31.235 Y24.385 Z0 F800
G1 X31.448 Y24.438 Z0 F800
G1 X31.522 Y24.576 Z0 F800
G1 X31.742 Y24.856 Z0 F800
G1 X31.937 Y25.019 Z0 F800
G1 X32.148 Y25.145 Z0 F800
G1 X32.38 Y25.238 Z0 F800
G1 X32.617 Y25.293 Z0 F800
G1 X32.988 Y25.331 Z0 F800
G1 X33.323 Y25.317 Z0 F800
G1 X33.594 Y25.28 Z0 F800
G1 X33.79 Y25.248 Z0 F800
G1 X33.927 Y25.23 Z0 F800
G1 X33.976 Z0 F800
G1 X34.284 Y25.389 Z0 F800
G1 X34.42 Y25.483 Z0 F800
G1 X34.408 Y25.52 Z0 F800
G1 X34.397 Y25.627 Z0 F800
G1 X34.336 Y25.643 Z0 F800
G1 X34.388 Y25.981 Z0 F800
G1 X34.408 Y26.196 Z0 F800
G1 X34.43 Y26.26 Z0 F800
G1 X34.487 Y26.634 Z0 F800
G1 X34.493 Y27.005 Z0 F800
G1 X34.447 Y27.351 Z0 F800
G1 X34.34 Y27.709 Z0 F800
G1 X34.31 Y27.789 Z0 F800
G1 X34.251 Y28.119 Z0 F800
G1 X34.257 Y28.449 Z0 F800
G1 X34.322 Y28.761 Z0 F800
G1 X34.443 Y29.058 Z0 F800
G1 X34.708 Y29.43 Z0 F800
G1 X34.735 Y29.456 Z0 F800
G1 X34.485 Y29.687 Z0 F800
G1 X34.083 Y29.995 Z0 F800
G1 X34.034 Y30.028 Z0 F800
G1 X33.771 Y29.858 Z0 F800
G1 X33.495 Y29.75 Z0 F800
G1 X33.226 Y29.727 Z0 F800
G1 X32.391 Y29.751 Z0 F800
G1 X31.508 Y29.8 Z0 F800
G1 X31.017 Y29.872 Z0 F800
G1 X30.517 Y29.997 Z0 F800
G1 X30.012 Y30.192 Z0 F800
G1 X29.56 Y30.447 Z0 F800
G1 X29.285 Y30.595 Z0 F800
G1 X29 Y30.811 Z0 F800
G1 X28.757 Y31.058 Z0 F800
G1 X28.556 Y31.329 Z0 F800
G1 X28.396 Y31.615 Z0 F800
G1 X28.273 Y31.909 Z0 F800
G1 X28.185 Y32.209 Z0 F800
G1 X28.159 Y32.346 Z0 F800
G1 X27.895 Y33.031 Z0 F800
G1 X27.635 Y33.867 Z0 F800
G1 X27.528 Y34.314 Z0 F800
G1 X27.447 Y34.77 Z0 F800
G1 X27.393 Y35.237 Z0 F800
G1 X27.374 Y35.649 Z0 F800
G1 X27.295 Y36.188 Z0 F800
G1 X27.139 Y36.802 Z0 F800
G1 X26.958 Y37.524 Z0 F800
G1 X26.83 Y38.364 Z0 F800
G1 X26.841 Y38.613 Z0 F800
G1 X26.902 Y38.835 Z0 F800
G1 X27.055 Y39.188 Z0 F800
G1 X27.158 Y39.422 Z0 F800
G1 X27.193 Y39.525 Z0 F800
G1 X27.198 Y39.587 Z0 F800
G1 X27.195 Y39.627 Z0 F800
G1 X27.21 Y40.233 Z0 F800
G1 X27.23 Y40.774 Z0 F800
G1 X27.238 Y41.29 Z0 F800
G1 X27.23 Y41.458 Z0 F800
G1 X27.06 Y41.587 Z0 F800
G1 X26.757 Y41.902 Z0 F800
G1 X26.652 Y42.075 Z0 F800
G1 X26.285 Y42.206 Z0 F800
G1 X25.651 Y42.439 Z0 F800
G1 X24.979 Y42.744 Z0 F800
G1 X24.31 Y43.157 Z0 F800
G1 X24.198 Y43.249 Z0 F800
G1 X24.092 Y43.361 Z0 F800
G1 X23.987 Y43.517 Z0 F800
G1 X23.991 Y38.732 Z0 F800
G1 X23.985 Y33.539 Z0 F800
G1 X23.989 Y28.221 Z0 F800
G1 X23.981 Y22.91 Z0 F800
G1 X23.995 Y17.608 Z0 F800
G1 X24.063 Y12.296 Z0 F800
G1 X24.097 Y11.917 Z0 F800
G1 Y11.782 Z0 F800
G1 X24.187 Y11.774 Z0 F800
G1 X24.782 Y11.763 Z0 F800
G1 X25.452 Z0 F800
G1 X26.135 Y11.742 Z0 F800
G1 X36.153 Y11.705 Z0 F800
G0 Z3.5 F500
G0 X65.343 Y52.583 Z3.5 
G1 Z0 F500
G1 X65.317 Y53.461 Z0 F800
G1 X65.301 Y53.643 Z0 F800
G1 X58.535 Z0 F800
G1 X59.442 Y53.586 Z0 F800
G1 X60.384 Y53.5 Z0 F800
G1 X61.245 Y53.438 Z0 F800
G1 X62.748 Y53.434 Z0 F800
G1 X63.539 Y53.385 Z0 F800
G1 X64.064 Y53.277 Z0 F800
G1 X64.606 Y53.077 Z0 F800
G1 X65.148 Y52.759 Z0 F800
G1 X65.343 Y52.583 Z0 F800
G0 Z3.5 F500
G0 X65.992 Y52.304 Z3.5 
G1 Z0 F500
G1 X65.957 Y53.495 Z0 F800
G1 X65.886 Y54.284 Z0 F800
G1 X65.861 Z0 F800
G1 X39.957 Z0 F800
G1 X39.985 Y54.21 Z0 F800
G1 X40.014 Y54.055 Z0 F800
G1 X40.051 Y54.043 Z0 F800
G1 X40.033 Y53.953 Z0 F800
G1 X40.036 Y53.938 Z0 F800
G1 X40.026 Y53.638 Z0 F800
G1 X39.952 Y53.352 Z0 F800
G1 X39.886 Y53.214 Z0 F800
G1 X39.863 Y53.099 Z0 F800
G1 X39.678 Y52.724 Z0 F800
G1 X39.465 Y52.444 Z0 F800
G1 X39.276 Y52.25 Z0 F800
G1 X39.139 Y52.12 Z0 F800
G1 X39.036 Y52.019 Z0 F800
G1 X38.989 Y51.969 Z0 F800
G1 X38.985 Y51.963 Z0 F800
G1 X38.964 Y51.927 Z0 F800
G1 X39.451 Y52.043 Z0 F800
G1 X39.804 Y52.059 Z0 F800
G1 X40.173 Y51.938 Z0 F800
G1 X40.587 Y51.646 Z0 F800
G1 X40.883 Y51.324 Z0 F800
G1 X41.093 Y51.003 Z0 F800
G1 X41.238 Y50.72 Z0 F800
G1 X41.345 Y50.493 Z0 F800
G1 X41.434 Y50.309 Z0 F800
G1 X41.5 Y50.186 Z0 F800
G1 X41.555 Y50.108 Z0 F800
G1 X41.679 Y49.984 Z0 F800
G1 X41.791 Y49.773 Z0 F800
G1 X41.891 Y49.63 Z0 F800
G1 X41.917 Y49.624 Z0 F800
G1 X42.256 Y49.281 Z0 F800
G1 X42.261 Y49.273 Z0 F800
G1 X42.499 Y49.376 Z0 F800
G1 X42.641 Y49.421 Z0 F800
G1 X42.797 Y49.506 Z0 F800
G1 X43.089 Y49.62 Z0 F800
G1 X43.145 Y49.638 Z0 F800
G1 X43.152 Y49.779 Z0 F800
G1 X43.265 Y50.271 Z0 F800
G1 X43.455 Y50.73 Z0 F800
G1 X43.716 Y51.15 Z0 F800
G1 X44.043 Y51.522 Z0 F800
G1 X44.429 Y51.836 Z0 F800
G1 X44.868 Y52.084 Z0 F800
G1 X45.34 Y52.249 Z0 F800
G1 X45.48 Y52.278 Z0 F800
G1 X46.042 Y52.319 Z0 F800
G1 X46.644 Y52.352 Z0 F800
G1 X47.042 Y52.324 Z0 F800
G1 X47.477 Y52.226 Z0 F800
G1 X47.594 Y52.173 Z0 F800
G1 X47.605 Y52.188 Z0 F800
G1 X47.722 Y52.116 Z0 F800
G1 X47.922 Y52.027 Z0 F800
G1 X48.162 Y51.844 Z0 F800
G1 X48.581 Y51.584 Z0 F800
G1 X49.042 Y51.225 Z0 F800
G1 X49.277 Y50.998 Z0 F800
G1 X49.491 Y50.75 Z0 F800
G1 X49.687 Y50.474 Z0 F800
G1 X49.773 Y50.319 Z0 F800
G1 X50.154 Y49.872 Z0 F800
G1 X50.638 Y49.297 Z0 F800
G1 X50.887 Y48.958 Z0 F800
G1 X51.122 Y48.587 Z0 F800
G1 X51.33 Y48.177 Z0 F800
G1 X51.508 Y47.705 Z0 F800
G1 X51.554 Y47.441 Z0 F800
G1 X51.536 Y47.22 Z0 F800
G1 X51.587 Y47.197 Z0 F800
G1 X51.86 Y47.035 Z0 F800
G1 X52.116 Y46.839 Z0 F800
G1 X52.348 Y46.607 Z0 F800
G1 X52.55 Y46.343 Z0 F800
G1 Y46.34 Z0 F800
G1 X52.557 Y46.347 Z0 F800
G1 X52.531 Y47.088 Z0 F800
G1 X52.458 Y48.059 Z0 F800
G1 X52.403 Y49.099 Z0 F800
G1 X52.434 Y50.218 Z0 F800
G1 X52.486 Y50.468 Z0 F800
G1 X52.597 Y50.696 Z0 F800
G1 X52.797 Y50.972 Z0 F800
G1 X53.009 Y51.2 Z0 F800
G1 X53.235 Y51.395 Z0 F800
G1 X53.478 Y51.565 Z0 F800
G1 X53.935 Y51.806 Z0 F800
G1 X54.383 Y51.976 Z0 F800
G1 X54.789 Y52.098 Z0 F800
G1 X55.141 Y52.197 Z0 F800
G1 X55.444 Y52.289 Z0 F800
G1 X55.694 Y52.388 Z0 F800
G1 X56.264 Y52.637 Z0 F800
G1 X56.917 Y52.866 Z0 F800
G1 X57.292 Y52.956 Z0 F800
G1 X57.682 Y53.014 Z0 F800
G1 X57.792 Y53.019 Z0 F800
G1 Y53.047 Z0 F800
G1 X58.058 Y53.031 Z0 F800
G1 X58.093 Z0 F800
G1 X58.407 Y53.009 Z0 F800
G1 X59.394 Y52.948 Z0 F800
G1 X60.331 Y52.862 Z0 F800
G1 X61.211 Y52.798 Z0 F800
G1 X62.727 Y52.794 Z0 F800
G1 X63.454 Y52.749 Z0 F800
G1 X63.888 Y52.66 Z0 F800
G1 X64.332 Y52.497 Z0 F800
G1 X64.768 Y52.24 Z0 F800
G1 X65.343 Y51.722 Z0 F800
G1 X65.584 Y51.478 Z0 F800
G1 X65.825 Y51.188 Z0 F800
G1 X65.998 Y50.919 Z0 F800
G1 Y51.054 Z0 F800
G1 X65.992 Y52.304 Z0 F800
G0 Z3.5 F500
G0 X24.439 Y54.26 Z3.5 
G1 Z0 F500
G1 X24.385 Z0 F800
G1 X24.207 Y54.276 Z0 F800
G1 X24.125 Z0 F800
G1 X24.071 Y54.264 Z0 F800
G1 X24.021 Y50.524 Z0 F800
G1 X24.07 Y50.571 Z0 F800
G1 X24.168 Y50.685 Z0 F800
G1 X24.213 Y50.768 Z0 F800
G1 X24.255 Y50.908 Z0 F800
G1 X24.289 Y51.114 Z0 F800
G1 X24.325 Y51.728 Z0 F800
G1 X24.371 Y52.347 Z0 F800
G1 X24.394 Y53.063 Z0 F800
G1 X24.428 Y53.731 Z0 F800
G1 X24.439 Y54.26 Z0 F800
G0 Z3.5 F500
G0 X50.02 Y33.705 Z3.5 
G1 Z0 F500
G1 X50.037 Y33.7 Z0 F800
G1 X50.178 Y33.683 Z0 F800
G1 X50.321 Z0 F800
G1 X50.331 Y33.687 Z0 F800
G1 X50.178 Y33.704 Z0 F800
G1 X50.02 Z0 F800
G0 Z3.5 F500
G0 X53.906 Y30.539 Z3.5 
G1 Z0 F500
G1 X53.896 Y30.032 Z0 F800
G1 X53.888 Y28.944 Z0 F800
G1 X53.905 Y27.852 Z0 F800
G1 X53.927 Y27.429 Z0 F800
G1 X53.962 Y27.432 Z0 F800
G1 X53.987 Y27.619 Z0 F800
G1 X54.103 Y27.944 Z0 F800
G1 X54.222 Y28.215 Z0 F800
G1 X54.312 Y28.438 Z0 F800
G1 X54.367 Y28.609 Z0 F800
G1 X54.477 Y28.854 Z0 F800
G1 X54.233 Y29.084 Z0 F800
G1 X54.063 Y29.388 Z0 F800
G1 X53.984 Y29.658 Z0 F800
G1 X53.964 Y29.878 Z0 F800
G1 X53.967 Y30.036 Z0 F800
G1 X53.98 Y30.242 Z0 F800
G1 X53.992 Y30.359 Z0 F800
G1 Y30.362 Z0 F800
G1 X53.957 Y30.541 Z0 F800
G1 X53.906 Z0 F800
G0 Z3.5 F500
G0 X53.256 Y30.037 Z3.5 
G1 Z0 F500
G1 X53.248 Y28.934 Z0 F800
G1 X53.265 Y27.842 Z0 F800
G1 X53.321 Y26.764 Z0 F800
G1 X53.957 Y26.79 Z0 F800
G1 X54.572 Y26.836 Z0 F800
G1 X54.579 Y27.026 Z0 F800
G1 X54.582 Y27.233 Z0 F800
G1 X54.613 Y27.468 Z0 F800
G1 X54.698 Y27.708 Z0 F800
G1 X54.808 Y27.958 Z0 F800
G1 X54.914 Y28.22 Z0 F800
G1 X54.965 Y28.379 Z0 F800
G1 X55.02 Y28.501 Z0 F800
G1 X55.104 Y28.57 Z0 F800
G1 X55.246 Y28.573 Z0 F800
G1 X55.684 Y28.491 Z0 F800
G1 X55.94 Y28.428 Z0 F800
G1 X56.208 Y28.336 Z0 F800
G1 X56.411 Y28.227 Z0 F800
G1 X56.6 Y28.072 Z0 F800
G1 X56.77 Y27.878 Z0 F800
G1 X56.914 Y27.651 Z0 F800
G1 X57.008 Y27.658 Z0 F800
G1 X57.126 Y27.651 Z0 F800
G1 X57.21 Y27.632 Z0 F800
G1 X57.308 Y27.593 Z0 F800
G1 X57.41 Y27.529 Z0 F800
G1 X57.503 Y27.434 Z0 F800
G1 X57.571 Y27.319 Z0 F800
G1 X57.606 Y27.204 Z0 F800
G1 X57.619 Y27.097 Z0 F800
G1 X57.615 Y27.006 Z0 F800
G1 X57.594 Y26.911 Z0 F800
G1 X57.564 Y26.827 Z0 F800
G1 X57.504 Y26.203 Z0 F800
G1 X57.416 Y25.586 Z0 F800
G1 X57.303 Y24.977 Z0 F800
G1 X57.169 Y24.375 Z0 F800
G1 X57.133 Y24.274 Z0 F800
G1 X57.076 Y24.184 Z0 F800
G1 X57 Y24.109 Z0 F800
G1 X56.91 Y24.051 Z0 F800
G1 X56.664 Y23.949 Z0 F800
G1 X56.436 Y23.883 Z0 F800
G1 X56.233 Y23.834 Z0 F800
G1 X56.064 Y23.787 Z0 F800
G1 X55.96 Y23.743 Z0 F800
G1 X55.908 Y23.709 Z0 F800
G1 X55.954 Y23.551 Z0 F800
G1 X56.044 Y23.404 Z0 F800
G1 X56.183 Y23.253 Z0 F800
G1 X56.376 Y23.083 Z0 F800
G1 X56.633 Y22.868 Z0 F800
G1 X56.902 Y22.604 Z0 F800
G1 X57.026 Y22.449 Z0 F800
G1 X57.138 Y22.274 Z0 F800
G1 X57.229 Y22.077 Z0 F800
G1 X57.296 Y21.856 Z0 F800
G1 X57.277 Y21.922 Z0 F800
G1 X57.348 Y21.78 Z0 F800
G1 X57.457 Y21.611 Z0 F800
G1 X57.591 Y21.415 Z0 F800
G1 X57.738 Y21.19 Z0 F800
G1 X57.877 Y20.925 Z0 F800
G1 X57.979 Y20.613 Z0 F800
G1 X58.007 Y20.442 Z0 F800
G1 X58.015 Y20.264 Z0 F800
G1 X57.997 Y20.081 Z0 F800
G1 X57.951 Y19.893 Z0 F800
G1 X57.787 Y19.103 Z0 F800
G1 X57.542 Y18.362 Z0 F800
G1 X57.256 Y17.662 Z0 F800
G1 X56.97 Y16.993 Z0 F800
G1 X56.949 Y16.949 Z0 F800
G1 X56.923 Y16.909 Z0 F800
G1 X56.954 Y16.956 Z0 F800
G1 X56.96 Y16.962 Z0 F800
G1 X56.954 Y16.933 Z0 F800
G1 X56.949 Y16.875 Z0 F800
G1 Y16.798 Z0 F800
G1 X56.942 Y16.633 Z0 F800
G1 X56.932 Y16.551 Z0 F800
G1 X56.895 Y16.451 Z0 F800
G1 X56.816 Y16.329 Z0 F800
G1 X56.733 Y16.246 Z0 F800
G1 X56.634 Y16.186 Z0 F800
G1 X56.524 Y16.151 Z0 F800
G1 X56.408 Y16.143 Z0 F800
G1 X55.622 Y16.207 Z0 F800
G1 X54.865 Y16.296 Z0 F800
G1 X54.135 Y16.368 Z0 F800
G1 X53.427 Y16.381 Z0 F800
G1 X53.416 Z0 F800
G1 X52.537 Y16.369 Z0 F800
G1 X51.68 Y16.353 Z0 F800
G1 X50.851 Y16.295 Z0 F800
G1 X50.058 Y16.16 Z0 F800
G1 X50.032 Y16.1 Z0 F800
G1 X49.982 Y16.02 Z0 F800
G1 X49.935 Y15.963 Z0 F800
G1 X49.868 Y15.904 Z0 F800
G1 X49.784 Y15.85 Z0 F800
G1 X49.681 Y15.809 Z0 F800
G1 X49.571 Y15.79 Z0 F800
G1 X49.465 Z0 F800
G1 X49.37 Y15.81 Z0 F800
G1 X49.291 Y15.838 Z0 F800
G1 X49.263 Y15.855 Z0 F800
G1 X49.125 Y15.864 Z0 F800
G1 X48.98 Y15.843 Z0 F800
G1 X48.823 Y15.789 Z0 F800
G1 X48.644 Y15.701 Z0 F800
G1 X48.211 Y15.433 Z0 F800
G1 X47.705 Y15.145 Z0 F800
G1 X47.671 Y15.129 Z0 F800
G1 X47.591 Y15.083 Z0 F800
G1 X47.542 Y15.014 Z0 F800
G1 X47.502 Y14.895 Z0 F800
G1 X47.484 Y14.731 Z0 F800
G1 X47.466 Y14.607 Z0 F800
G1 X47.418 Y14.495 Z0 F800
G1 X47.344 Y14.397 Z0 F800
G1 X47.246 Y14.321 Z0 F800
G1 X46.944 Y14.171 Z0 F800
G1 X46.636 Y14.073 Z0 F800
G1 X46.326 Y14.02 Z0 F800
G1 X46.017 Y14.003 Z0 F800
G1 X45.417 Y14.05 Z0 F800
G1 X44.867 Y14.153 Z0 F800
G1 X44.715 Y14.214 Z0 F800
G1 X44.591 Y14.323 Z0 F800
G1 X44.505 Y14.44 Z0 F800
G1 X44.452 Y14.534 Z0 F800
G1 X44.4 Y14.651 Z0 F800
G1 X44.12 Y14.72 Z0 F800
G1 X43.812 Y14.756 Z0 F800
G1 X43.089 Y14.805 Z0 F800
G1 X42.686 Y14.859 Z0 F800
G1 X42.267 Y14.976 Z0 F800
G1 X42.061 Y15.066 Z0 F800
G1 X41.861 Y15.183 Z0 F800
G1 X41.671 Y15.33 Z0 F800
G1 X41.494 Y15.508 Z0 F800
G1 X41.344 Y15.643 Z0 F800
G1 X41.163 Y15.744 Z0 F800
G1 X40.958 Y15.812 Z0 F800
G1 X40.739 Y15.846 Z0 F800
G1 X40.513 Z0 F800
G1 X40.29 Y15.815 Z0 F800
G1 X40.077 Y15.751 Z0 F800
G1 X39.882 Y15.655 Z0 F800
G1 X39.837 Y15.629 Z0 F800
G1 X39.55 Y15.529 Z0 F800
G1 X39.283 Y15.497 Z0 F800
G1 X39.045 Y15.502 Z0 F800
G1 X38.847 Y15.518 Z0 F800
G1 X38.7 Y15.525 Z0 F800
G1 X38.598 Y15.521 Z0 F800
G1 X38.527 Y15.503 Z0 F800
G1 X38.47 Y15.469 Z0 F800
G1 X38.425 Y15.436 Z0 F800
G1 X38.376 Y15.409 Z0 F800
G1 X38.194 Y15.33 Z0 F800
G1 X38.029 Y15.272 Z0 F800
G1 X37.889 Y15.229 Z0 F800
G1 X37.779 Y15.192 Z0 F800
G1 X37.682 Y15.153 Z0 F800
G1 X37.628 Y15.021 Z0 F800
G1 X37.556 Y14.924 Z0 F800
G1 X37.429 Y14.774 Z0 F800
G1 X37.141 Y14.392 Z0 F800
G1 X36.97 Y14.18 Z0 F800
G1 X36.78 Y13.981 Z0 F800
G1 X36.55 Y13.798 Z0 F800
G1 X36.28 Y13.647 Z0 F800
G1 X35.968 Y13.543 Z0 F800
G1 X35.637 Y13.381 Z0 F800
G1 X35.302 Y13.257 Z0 F800
G1 X34.965 Y13.166 Z0 F800
G1 X34.629 Y13.102 Z0 F800
G1 X33.968 Y13.029 Z0 F800
G1 X33.337 Y12.993 Z0 F800
G1 X33.154 Y13.017 Z0 F800
G1 X32.992 Y13.108 Z0 F800
G1 X32.859 Y13.21 Z0 F800
G1 X32.694 Y13.332 Z0 F800
G1 X32.509 Y13.479 Z0 F800
G1 X32.318 Y13.657 Z0 F800
G1 X32.141 Y13.888 Z0 F800
G1 X32.007 Y14.18 Z0 F800
G1 X31.965 Y14.342 Z0 F800
G1 X31.946 Y14.513 Z0 F800
G1 X31.951 Y14.689 Z0 F800
G1 X31.964 Y14.756 Z0 F800
G1 X31.931 Y14.995 Z0 F800
G1 X31.824 Y15.229 Z0 F800
G1 X31.654 Y15.465 Z0 F800
G1 X31.427 Y15.723 Z0 F800
G1 X31.157 Y16.016 Z0 F800
G1 X30.882 Y16.356 Z0 F800
G1 X30.758 Y16.549 Z0 F800
G1 X30.649 Y16.76 Z0 F800
G1 X30.563 Y16.991 Z0 F800
G1 X30.503 Y17.245 Z0 F800
G1 X30.519 Y17.174 Z0 F800
G1 X30.213 Y17.959 Z0 F800
G1 X29.866 Y18.794 Z0 F800
G1 X29.713 Y19.237 Z0 F800
G1 X29.592 Y19.702 Z0 F800
G1 X29.519 Y20.19 Z0 F800
G1 X29.495 Y21.223 Z0 F800
G1 X29.548 Y21.778 Z0 F800
G1 X29.616 Y22.058 Z0 F800
G1 X29.723 Y22.333 Z0 F800
G1 X29.874 Y22.598 Z0 F800
G1 X30.076 Y22.85 Z0 F800
G1 X30.262 Y23.092 Z0 F800
G1 X30.471 Y23.292 Z0 F800
G1 X30.697 Y23.455 Z0 F800
G1 X30.936 Y23.586 Z0 F800
G1 X31.428 Y23.773 Z0 F800
G1 X31.886 Y23.889 Z0 F800
G1 X31.89 Y23.904 Z0 F800
G1 X31.972 Y24.063 Z0 F800
G1 X32.059 Y24.223 Z0 F800
G1 X32.205 Y24.409 Z0 F800
G1 X32.308 Y24.496 Z0 F800
G1 X32.433 Y24.57 Z0 F800
G1 X32.573 Y24.626 Z0 F800
G1 X32.722 Y24.661 Z0 F800
G1 X33.007 Y24.689 Z0 F800
G1 X33.267 Y24.679 Z0 F800
G1 X33.499 Y24.647 Z0 F800
G1 X33.701 Y24.614 Z0 F800
G1 X33.873 Y24.591 Z0 F800
G1 X34.012 Y24.586 Z0 F800
G1 X34.128 Y24.602 Z0 F800
G1 X34.234 Y24.641 Z0 F800
G1 X34.617 Y24.841 Z0 F800
G1 X34.941 Y25.065 Z0 F800
G1 X35.039 Y25.162 Z0 F800
G1 X35.099 Y25.251 Z0 F800
G1 X35.13 Y25.337 Z0 F800
G1 X35.14 Y25.426 Z0 F800
G1 X35.128 Y25.438 Z0 F800
G1 X35.089 Y25.504 Z0 F800
G1 X35.038 Y25.656 Z0 F800
G1 X35.019 Y25.852 Z0 F800
G1 X35.038 Y26.06 Z0 F800
G1 X35.103 Y26.249 Z0 F800
G1 X35.056 Y26.12 Z0 F800
G1 X35.126 Y26.582 Z0 F800
G1 X35.134 Y27.039 Z0 F800
G1 X35.075 Y27.486 Z0 F800
G1 X34.945 Y27.918 Z0 F800
G1 X34.929 Y27.959 Z0 F800
G1 X34.892 Y28.169 Z0 F800
G1 X34.896 Y28.377 Z0 F800
G1 X34.937 Y28.574 Z0 F800
G1 X35.007 Y28.747 Z0 F800
G1 X35.195 Y29.01 Z0 F800
G1 X35.39 Y29.198 Z0 F800
G1 X35.528 Y29.321 Z0 F800
G1 X35.628 Y29.418 Z0 F800
G1 X35.292 Y29.813 Z0 F800
G1 X34.896 Y30.178 Z0 F800
G1 X34.456 Y30.516 Z0 F800
G1 X33.982 Y30.829 Z0 F800
G1 X33.976 Y30.826 Z0 F800
G1 X33.96 Y30.815 Z0 F800
G1 X33.885 Y30.749 Z0 F800
G1 X33.788 Y30.655 Z0 F800
G1 X33.657 Y30.546 Z0 F800
G1 X33.478 Y30.43 Z0 F800
G1 X33.348 Y30.379 Z0 F800
G1 X33.208 Y30.368 Z0 F800
G1 X32.418 Y30.391 Z0 F800
G1 X31.573 Y30.437 Z0 F800
G1 X31.142 Y30.5 Z0 F800
G1 X30.711 Y30.608 Z0 F800
G1 X30.286 Y30.772 Z0 F800
G1 X29.871 Y31.006 Z0 F800
G1 X29.632 Y31.135 Z0 F800
G1 X29.423 Y31.292 Z0 F800
G1 X29.245 Y31.475 Z0 F800
G1 X29.095 Y31.677 Z0 F800
G1 X28.973 Y31.896 Z0 F800
G1 X28.877 Y32.124 Z0 F800
G1 X28.808 Y32.359 Z0 F800
G1 X28.777 Y32.522 Z0 F800
G1 X28.5 Y33.242 Z0 F800
G1 X28.252 Y34.036 Z0 F800
G1 X28.155 Y34.445 Z0 F800
G1 X28.08 Y34.863 Z0 F800
G1 X28.031 Y35.289 Z0 F800
G1 X28.012 Y35.711 Z0 F800
G1 X27.924 Y36.313 Z0 F800
G1 X27.759 Y36.959 Z0 F800
G1 X27.586 Y37.65 Z0 F800
G1 X27.472 Y38.399 Z0 F800
G1 X27.477 Y38.512 Z0 F800
G1 X27.507 Y38.622 Z0 F800
G1 X27.642 Y38.933 Z0 F800
G1 X27.753 Y39.186 Z0 F800
G1 X27.825 Y39.397 Z0 F800
G1 X27.839 Y39.584 Z0 F800
G1 X27.835 Y39.641 Z0 F800
G1 X27.85 Y40.213 Z0 F800
G1 X27.87 Y40.765 Z0 F800
G1 X27.878 Y41.293 Z0 F800
G1 X27.855 Y41.795 Z0 F800
G1 X27.69 Y41.913 Z0 F800
G1 X27.486 Y42.067 Z0 F800
G1 X27.268 Y42.294 Z0 F800
G1 X27.082 Y42.602 Z0 F800
G1 X26.502 Y42.808 Z0 F800
G1 X25.894 Y43.032 Z0 F800
G1 X25.28 Y43.31 Z0 F800
G1 X24.683 Y43.678 Z0 F800
G1 X24.636 Y43.717 Z0 F800
G1 X24.593 Y43.762 Z0 F800
G1 X24.318 Y44.169 Z0 F800
G1 X24.128 Y44.596 Z0 F800
G1 X24.006 Y45.033 Z0 F800
G1 X23.936 Y45.473 Z0 F800
G1 X23.887 Y46.326 Z0 F800
G1 X23.849 Y47.088 Z0 F800
G1 Y47.116 Z0 F800
G1 X23.838 Y47.461 Z0 F800
G1 X23.822 Y47.813 Z0 F800
G1 X23.814 Y48.19 Z0 F800
G1 X23.83 Y48.584 Z0 F800
G1 X23.89 Y48.994 Z0 F800
G1 X24.02 Y49.405 Z0 F800
G1 X24.116 Y49.605 Z0 F800
G1 X24.235 Y49.798 Z0 F800
G1 X24.382 Y49.981 Z0 F800
G1 X24.556 Y50.151 Z0 F800
G1 X24.542 Y50.139 Z0 F800
G1 X24.699 Y50.319 Z0 F800
G1 X24.809 Y50.526 Z0 F800
G1 X24.88 Y50.764 Z0 F800
G1 X24.925 Y51.04 Z0 F800
G1 X24.963 Y51.686 Z0 F800
G1 X25.017 Y52.407 Z0 F800
G1 X25.011 Y52.344 Z0 F800
G1 X25.033 Y53.036 Z0 F800
G1 X25.067 Y53.698 Z0 F800
G1 X25.08 Y54.329 Z0 F800
G1 X25.039 Y54.926 Z0 F800
G1 X25.021 Y54.931 Z0 F800
G1 X24.939 Z0 F800
G1 X24.791 Y54.92 Z0 F800
G1 X24.614 Y54.904 Z0 F800
G1 X24.408 Y54.899 Z0 F800
G1 X24.173 Y54.922 Z0 F800
G1 X24.216 Y54.916 Z0 F800
G1 X24.06 Y54.913 Z0 F800
G1 X23.897 Y54.883 Z0 F800
G1 X23.744 Y54.829 Z0 F800
G1 X23.615 Y54.754 Z0 F800
G1 X23.519 Y54.672 Z0 F800
G1 X23.457 Y54.586 Z0 F800
G1 X23.426 Y54.485 Z0 F800
G1 Y54.359 Z0 F800
G1 X23.431 Y54.326 Z0 F800
G1 Y54.293 Z0 F800
G1 X23.363 Y49.109 Z0 F800
G1 X23.346 Y43.922 Z0 F800
G1 X23.351 Y38.732 Z0 F800
G1 X23.345 Y33.539 Z0 F800
G1 X23.349 Y28.221 Z0 F800
G1 X23.341 Y22.909 Z0 F800
G1 X23.355 Y17.6 Z0 F800
G1 X23.423 Y12.295 Z0 F800
G1 X23.414 Y12.377 Z0 F800
G1 X23.458 Y11.885 Z0 F800
G1 X23.462 Y11.48 Z0 F800
G1 X23.498 Y11.294 Z0 F800
G1 X23.554 Y11.189 Z0 F800
G1 X24.151 Y11.135 Z0 F800
G1 X24.781 Y11.124 Z0 F800
G1 X25.441 Z0 F800
G1 X26.13 Y11.102 Z0 F800
G1 X36.15 Y11.065 Z0 F800
G1 X46.171 Y11.054 Z0 F800
G1 X56.192 Z0 F800
G1 X66.214 Y11.051 Z0 F800
G1 X66.425 Y11.201 Z0 F800
G1 X66.578 Y11.334 Z0 F800
G1 X66.63 Y11.395 Z0 F800
G1 X66.656 Y11.436 Z0 F800
G1 X66.659 Y11.479 Z0 F800
G1 X66.626 Y11.613 Z0 F800
G1 X66.621 Y11.684 Z0 F800
G1 X66.618 Y21.209 Z0 F800
G1 X66.607 Y30.736 Z0 F800
G1 X66.611 Y40.264 Z0 F800
G1 X66.65 Y49.795 Z0 F800
G1 X66.637 Y51.059 Z0 F800
G1 X66.632 Y52.308 Z0 F800
G1 X66.596 Y53.539 Z0 F800
G1 X66.488 Y54.746 Z0 F800
G1 X66.426 Y54.847 Z0 F800
G1 X66.328 Y54.912 Z0 F800
G1 X66.156 Y54.949 Z0 F800
G1 X65.947 Y54.934 Z0 F800
G1 X65.896 Y54.925 Z0 F800
G1 X65.843 Y54.922 Z0 F800
G1 X38.535 Z0 F800
G1 X38.582 Y54.865 Z0 F800
G1 X38.619 Y54.829 Z0 F800
G1 X38.686 Y54.794 Z0 F800
G1 X38.748 Y54.75 Z0 F800
G1 X38.933 Y54.608 Z0 F800
G1 X39.059 Y54.497 Z0 F800
G1 X39.191 Y54.354 Z0 F800
G1 X39.257 Y54.266 Z0 F800
G1 X39.318 Y54.16 Z0 F800
G1 X39.367 Y54.035 Z0 F800
G1 X39.394 Y53.889 Z0 F800
G1 X39.389 Y53.73 Z0 F800
G1 X39.348 Y53.572 Z0 F800
G1 X39.277 Y53.425 Z0 F800
G1 X39.274 Y53.421 Z0 F800
G1 X39.251 Y53.306 Z0 F800
G1 X39.131 Y53.062 Z0 F800
G1 X38.98 Y52.863 Z0 F800
G1 X38.826 Y52.706 Z0 F800
G1 X38.69 Y52.576 Z0 F800
G1 X38.579 Y52.467 Z0 F800
G1 X38.497 Y52.379 Z0 F800
G1 X38.451 Y52.317 Z0 F800
G1 X38.426 Y52.275 Z0 F800
G1 X38.398 Y52.237 Z0 F800
G1 X38.322 Y52.104 Z0 F800
G1 X38.243 Y51.982 Z0 F800
G1 X38.128 Y51.838 Z0 F800
G1 X38.05 Y51.76 Z0 F800
G1 X37.951 Y51.684 Z0 F800
G1 X37.83 Y51.619 Z0 F800
G1 X37.689 Y51.575 Z0 F800
G1 X37.54 Y51.585 Z0 F800
G1 X37.392 Y51.627 Z0 F800
G1 X37.33 Y51.583 Z0 F800
G1 X37.252 Y51.541 Z0 F800
G1 X37.148 Y51.504 Z0 F800
G1 X37.015 Y51.486 Z0 F800
G1 X36.871 Y51.5 Z0 F800
G1 X36.738 Y51.547 Z0 F800
G1 X36.622 Y51.613 Z0 F800
G1 X36.609 Y51.624 Z0 F800
G1 X36.331 Y51.755 Z0 F800
G1 X35.969 Y51.914 Z0 F800
G1 X35.776 Y52.016 Z0 F800
G1 X35.583 Y52.141 Z0 F800
G1 X35.397 Y52.294 Z0 F800
G1 X35.224 Y52.482 Z0 F800
G1 X35.162 Y52.584 Z0 F800
G1 X35.126 Y52.697 Z0 F800
G1 X35.089 Y52.969 Z0 F800
G1 X35.079 Y53.254 Z0 F800
G1 X35.102 Y53.548 Z0 F800
G1 X35.167 Y53.846 Z0 F800
G1 X35.292 Y54.141 Z0 F800
G1 X35.483 Y54.416 Z0 F800
G1 X35.741 Y54.649 Z0 F800
G1 X36.066 Y54.816 Z0 F800
G1 X36.021 Y54.799 Z0 F800
G1 X36.214 Y54.898 Z0 F800
G1 X34.157 Y54.914 Z0 F800
G1 X32.08 Y54.92 Z0 F800
G1 X32.146 Y54.924 Z0 F800
G1 X31.588 Y54.901 Z0 F800
G1 X31.107 Y54.908 Z0 F800
G1 X30.943 Y54.895 Z0 F800
G1 X30.812 Y54.865 Z0 F800
G1 X30.702 Y54.822 Z0 F800
G1 X30.607 Y54.768 Z0 F800
G1 X30.522 Y54.481 Z0 F800
G1 X30.462 Y54.181 Z0 F800
G1 X30.424 Y53.871 Z0 F800
G1 X30.407 Y53.551 Z0 F800
G1 X30.419 Y52.891 Z0 F800
G1 X30.476 Y52.215 Z0 F800
G1 X30.591 Y51.96 Z0 F800
G1 X30.748 Y51.714 Z0 F800
G1 X30.939 Y51.472 Z0 F800
G1 X31.156 Y51.229 Z0 F800
G1 X31.64 Y50.723 Z0 F800
G1 X32.136 Y50.16 Z0 F800
G1 X32.167 Y50.113 Z0 F800
G1 X32.289 Y49.962 Z0 F800
G1 X32.449 Y49.824 Z0 F800
G1 X32.63 Y49.714 Z0 F800
G1 X32.818 Y49.643 Z0 F800
G1 X32.989 Y49.613 Z0 F800
G1 X33.136 Y49.625 Z0 F800
G1 X33.267 Y49.683 Z0 F800
G1 X33.388 Y49.795 Z0 F800
G1 X33.357 Y49.752 Z0 F800
G1 X33.582 Y50.036 Z0 F800
G1 X33.835 Y50.27 Z0 F800
G1 X34.108 Y50.463 Z0 F800
G1 X34.392 Y50.622 Z0 F800
G1 X34.96 Y50.867 Z0 F800
G1 X35.476 Y51.066 Z0 F800
G1 X35.563 Y51.094 Z0 F800
G1 X35.654 Y51.105 Z0 F800
G1 X36.312 Y51.096 Z0 F800
G1 X36.933 Y51.064 Z0 F800
G1 X37.515 Y51.056 Z0 F800
G1 X38.058 Y51.117 Z0 F800
G1 X38.095 Y51.124 Z0 F800
G1 X38.463 Y51.165 Z0 F800
G1 X38.808 Y51.232 Z0 F800
G1 X39.541 Y51.407 Z0 F800
G1 X39.716 Y51.415 Z0 F800
G1 X39.882 Y51.36 Z0 F800
G1 X40.163 Y51.163 Z0 F800
G1 X40.376 Y50.93 Z0 F800
G1 X40.539 Y50.681 Z0 F800
G1 X40.664 Y50.438 Z0 F800
G1 X40.769 Y50.214 Z0 F800
G1 X40.864 Y50.016 Z0 F800
G1 X40.955 Y49.849 Z0 F800
G1 X41.044 Y49.721 Z0 F800
G1 X40.96 Y49.797 Z0 F800
G1 X41.158 Y49.6 Z0 F800
G1 X41.265 Y49.398 Z0 F800
G1 X41.313 Y49.22 Z0 F800
G1 X41.337 Y49.094 Z0 F800
G1 Y49.081 Z0 F800
G1 X41.476 Y49.071 Z0 F800
G1 X41.591 Y49.043 Z0 F800
G1 X41.749 Y48.884 Z0 F800
G1 X41.83 Y48.752 Z0 F800
G1 X41.886 Y48.669 Z0 F800
G1 X41.917 Y48.633 Z0 F800
G1 X41.903 Z0 F800
G1 X41.83 Y48.663 Z0 F800
G1 X41.938 Y48.608 Z0 F800
G1 X42.031 Y48.53 Z0 F800
G1 X42.051 Y48.507 Z0 F800
G1 X42.054 Y48.51 Z0 F800
G1 X42.099 Y48.514 Z0 F800
G1 X42.201 Y48.542 Z0 F800
G1 X42.344 Y48.603 Z0 F800
G1 X42.517 Y48.687 Z0 F800
G1 X42.723 Y48.775 Z0 F800
G1 X42.892 Y48.829 Z0 F800
G1 X43.068 Y48.925 Z0 F800
G1 X43.302 Y49.016 Z0 F800
G1 X43.505 Y49.081 Z0 F800
G1 X43.664 Y49.137 Z0 F800
G1 X43.756 Y49.188 Z0 F800
G1 X43.777 Y49.204 Z0 F800
G1 X43.771 Y49.234 Z0 F800
G1 X43.767 Y49.289 Z0 F800
G1 X43.788 Y49.69 Z0 F800
G1 X43.876 Y50.075 Z0 F800
G1 X44.026 Y50.437 Z0 F800
G1 X44.231 Y50.767 Z0 F800
G1 X44.488 Y51.059 Z0 F800
G1 X44.791 Y51.305 Z0 F800
G1 X45.133 Y51.499 Z0 F800
G1 X45.511 Y51.631 Z0 F800
G1 X45.568 Y51.643 Z0 F800
G1 X46.083 Y51.681 Z0 F800
G1 X46.638 Y51.711 Z0 F800
G1 X46.949 Y51.689 Z0 F800
G1 X47.273 Y51.615 Z0 F800
G1 X47.593 Y51.473 Z0 F800
G1 X47.798 Y51.316 Z0 F800
G1 X48.214 Y51.059 Z0 F800
G1 X48.622 Y50.741 Z0 F800
G1 X48.812 Y50.558 Z0 F800
G1 X48.987 Y50.354 Z0 F800
G1 X49.145 Y50.131 Z0 F800
G1 X49.245 Y49.953 Z0 F800
G1 X49.666 Y49.458 Z0 F800
G1 X50.135 Y48.901 Z0 F800
G1 X50.358 Y48.597 Z0 F800
G1 X50.564 Y48.271 Z0 F800
G1 X50.744 Y47.918 Z0 F800
G1 X50.888 Y47.535 Z0 F800
G1 X50.91 Y47.413 Z0 F800
G1 X50.899 Y47.29 Z0 F800
G1 X50.859 Y47.174 Z0 F800
G1 X50.791 Y47.07 Z0 F800
G1 X50.74 Y46.967 Z0 F800
G1 X50.736 Y46.867 Z0 F800
G1 X50.745 Y46.822 Z0 F800
G1 X50.806 Y46.805 Z0 F800
G1 X50.843 Y46.797 Z0 F800
G1 X51.073 Y46.725 Z0 F800
G1 X51.293 Y46.627 Z0 F800
G1 X51.501 Y46.504 Z0 F800
G1 X51.693 Y46.356 Z0 F800
G1 X51.866 Y46.185 Z0 F800
G1 X52.015 Y45.989 Z0 F800
G1 X52.139 Y45.771 Z0 F800
G1 X52.232 Y45.531 Z0 F800
G1 X52.254 Y45.391 Z0 F800
G1 X52.236 Y45.25 Z0 F800
G1 X52.146 Y44.997 Z0 F800
G1 X52.042 Y44.77 Z0 F800
G1 X51.938 Y44.565 Z0 F800
G1 X51.847 Y44.381 Z0 F800
G1 X51.806 Y44.233 Z0 F800
G1 X51.798 Y44.119 Z0 F800
G1 X51.859 Y44.105 Z0 F800
G1 X51.916 Y44.1 Z0 F800
G1 X52.048 Y44.139 Z0 F800
G1 X52.103 Y44.203 Z0 F800
G1 X52.122 Y44.242 Z0 F800
G1 X52.391 Y44.705 Z0 F800
G1 X52.633 Y45.178 Z0 F800
G1 X52.896 Y45.676 Z0 F800
G1 X53.203 Y46.176 Z0 F800
G1 X53.17 Y47.122 Z0 F800
G1 X53.097 Y48.1 Z0 F800
G1 X53.044 Y49.107 Z0 F800
G1 X53.072 Y50.143 Z0 F800
G1 X53.096 Y50.259 Z0 F800
G1 X53.148 Y50.365 Z0 F800
G1 X53.293 Y50.565 Z0 F800
G1 X53.454 Y50.739 Z0 F800
G1 X53.628 Y50.889 Z0 F800
G1 X53.813 Y51.018 Z0 F800
G1 X54.199 Y51.222 Z0 F800
G1 X54.589 Y51.369 Z0 F800
G1 X54.968 Y51.484 Z0 F800
G1 X55.327 Y51.584 Z0 F800
G1 X55.655 Y51.685 Z0 F800
G1 X55.941 Y51.797 Z0 F800
G1 X56.499 Y52.041 Z0 F800
G1 X57.098 Y52.251 Z0 F800
G1 X57.415 Y52.327 Z0 F800
G1 X57.743 Y52.376 Z0 F800
G1 X58.084 Y52.391 Z0 F800
G1 X58.437 Y52.365 Z0 F800
G1 X58.388 Y52.369 Z0 F800
G1 X59.345 Y52.31 Z0 F800
G1 X60.279 Y52.225 Z0 F800
G1 X61.191 Y52.158 Z0 F800
G1 X62.707 Y52.154 Z0 F800
G1 X63.369 Y52.113 Z0 F800
G1 X63.712 Y52.042 Z0 F800
G1 X64.057 Y51.916 Z0 F800
G1 X64.388 Y51.721 Z0 F800
G1 X64.9 Y51.259 Z0 F800
G1 X65.11 Y51.047 Z0 F800
G1 X65.308 Y50.809 Z0 F800
G1 X65.482 Y50.539 Z0 F800
G1 X65.623 Y50.22 Z0 F800
G1 X65.706 Y49.865 Z0 F800
G1 X65.711 Y49.487 Z0 F800
G1 X65.623 Y49.098 Z0 F800
G1 X65.644 Y49.18 Z0 F800
G1 X64.833 Y44.961 Z0 F800
G1 X64.816 Y44.891 Z0 F800
G1 X64.789 Y44.824 Z0 F800
G1 X64.331 Y43.986 Z0 F800
G1 X63.816 Y43.177 Z0 F800
G1 X63.251 Y42.403 Z0 F800
G1 X62.638 Y41.668 Z0 F800
G1 X62.603 Y41.633 Z0 F800
G1 X62.311 Y41.392 Z0 F800
G1 X61.998 Y41.183 Z0 F800
G1 X61.667 Y41.005 Z0 F800
G1 X61.323 Y40.86 Z0 F800
G1 X60.967 Y40.745 Z0 F800
G1 X60.605 Y40.662 Z0 F800
G1 X60.24 Y40.609 Z0 F800
G1 X59.875 Y40.586 Z0 F800
G1 X59.734 Y40.604 Z0 F800
G1 X59.605 Y40.66 Z0 F800
G1 X59.418 Y40.786 Z0 F800
G1 X59.115 Y41.016 Z0 F800
G1 X58.994 Y41.096 Z0 F800
G1 X58.907 Y41.146 Z0 F800
G1 X58.852 Y41.168 Z0 F800
G1 X58.806 Y41.164 Z0 F800
G1 X58.481 Y41.001 Z0 F800
G1 X58.26 Y40.868 Z0 F800
G1 X58.059 Y40.721 Z0 F800
G1 X57.888 Y40.563 Z0 F800
G1 X57.756 Y40.401 Z0 F800
G1 X57.664 Y40.235 Z0 F800
G1 X57.612 Y40.056 Z0 F800
G1 X57.603 Y39.857 Z0 F800
G1 Y39.83 Z0 F800
G1 X57.582 Y39.135 Z0 F800
G1 X57.606 Y38.493 Z0 F800
G1 X57.644 Y38.185 Z0 F800
G1 X57.703 Y37.887 Z0 F800
G1 X57.787 Y37.6 Z0 F800
G1 X57.9 Y37.326 Z0 F800
G1 X57.935 Y37.226 Z0 F800
G1 X57.947 Y37.121 Z0 F800
G1 X57.937 Y37.016 Z0 F800
G1 X57.904 Y36.914 Z0 F800
G1 X57.682 Y36.469 Z0 F800
G1 X57.375 Y36.021 Z0 F800
G1 X57.181 Y35.817 Z0 F800
G1 X56.956 Y35.64 Z0 F800
G1 X56.694 Y35.497 Z0 F800
G1 X56.394 Y35.396 Z0 F800
G1 X55.917 Y35.214 Z0 F800
G1 X55.439 Y35.096 Z0 F800
G1 X54.967 Y35.024 Z0 F800
G1 X54.505 Y34.982 Z0 F800
G1 X53.865 Y34.822 Z0 F800
G1 X53.231 Y34.729 Z0 F800
G1 X52.609 Y34.683 Z0 F800
G1 X52.001 Y34.658 Z0 F800
G1 X51.639 Y34.554 Z0 F800
G1 X51.212 Y34.417 Z0 F800
G1 X50.973 Y34.36 Z0 F800
G1 X50.716 Y34.324 Z0 F800
G1 X50.441 Y34.318 Z0 F800
G1 X50.214 Y34.344 Z0 F800
G1 X49.64 Y34.347 Z0 F800
G1 X49.072 Y34.368 Z0 F800
G1 X48.552 Z0 F800
G1 X48.083 Y34.311 Z0 F800
G1 X48.071 Y34.27 Z0 F800
G1 X48.066 Y34.211 Z0 F800
G1 X48.1 Y33.978 Z0 F800
G1 X48.16 Y33.73 Z0 F800
G1 X48.167 Y33.674 Z0 F800
G1 X48.193 Y33.668 Z0 F800
G1 X48.34 Y33.648 Z0 F800
G1 X48.537 Y33.62 Z0 F800
G1 X48.77 Y33.545 Z0 F800
G1 X49.027 Y33.391 Z0 F800
G1 X48.964 Y33.432 Z0 F800
G1 X49.436 Y33.207 Z0 F800
G1 X49.91 Y33.07 Z0 F800
G1 X50.144 Y33.042 Z0 F800
G1 X50.375 Y33.045 Z0 F800
G1 X50.6 Y33.082 Z0 F800
G1 X50.818 Y33.154 Z0 F800
G1 X50.808 Y33.15 Z0 F800
G1 X51.279 Y33.312 Z0 F800
G1 X51.756 Y33.384 Z0 F800
G1 X52.23 Y33.38 Z0 F800
G1 X52.613 Y33.324 Z0 F800
G1 X53.244 Z0 F800
G1 X53.871 Y33.361 Z0 F800
G1 X54.476 Y33.453 Z0 F800
G1 X55.05 Y33.615 Z0 F800
G1 X55.186 Y33.644 Z0 F800
G1 X55.321 Y33.634 Z0 F800
G1 X55.449 Y33.587 Z0 F800
G1 X55.56 Y33.506 Z0 F800
G1 X55.816 Y33.226 Z0 F800
G1 X56.039 Y32.921 Z0 F800
G1 X56.228 Y32.597 Z0 F800
G1 X56.382 Y32.257 Z0 F800
G1 X56.503 Y31.904 Z0 F800
G1 X56.591 Y31.543 Z0 F800
G1 X56.645 Y31.177 Z0 F800
G1 X56.666 Y30.811 Z0 F800
G1 X56.66 Y30.733 Z0 F800
G1 X56.642 Y30.658 Z0 F800
G1 X56.491 Y30.27 Z0 F800
G1 X56.273 Y29.89 Z0 F800
G1 X56.136 Y29.712 Z0 F800
G1 X55.978 Y29.548 Z0 F800
G1 X55.797 Y29.401 Z0 F800
G1 X55.593 Y29.275 Z0 F800
G1 X55.523 Y29.244 Z0 F800
G1 X55.449 Y29.225 Z0 F800
G1 X55.269 Y29.218 Z0 F800
G1 X55.073 Y29.258 Z0 F800
G1 X54.888 Y29.346 Z0 F800
G1 X54.744 Y29.482 Z0 F800
G1 X54.657 Y29.637 Z0 F800
G1 X54.616 Y29.777 Z0 F800
G1 X54.605 Y29.901 Z0 F800
G1 Y30.01 Z0 F800
G1 X54.619 Y30.19 Z0 F800
G1 X54.632 Y30.328 Z0 F800
G1 Y30.408 Z0 F800
G1 X54.646 Y30.371 Z0 F800
G1 X54.638 Y30.396 Z0 F800
G1 X54.584 Y30.665 Z0 F800
G1 X54.581 Y30.888 Z0 F800
G1 X54.619 Y31.219 Z0 F800
G1 X54.01 Y31.183 Z0 F800
G1 X53.456 Y31.162 Z0 F800
G1 X53.344 Z0 F800
G1 X53.278 Y31.146 Z0 F800
G1 X53.256 Y30.037 Z0 F800
M9
M5
G1 Z10 F500
G90
G1 Z10 F800
