;LightBurn 1.6.04
;Custom GCode device profile, absolute coords
;Bounds: X13.09 Y35.73 to X134.91 Y98.27
G00 G17 G40 G21 G54
G90
M3
G1 Z10 F500
;Cut @ 1300 mm/min, 90% power

M8
G0 Z3.5 F500
G0 X26.177 Y36.793 Z3.5 
G1 Z0 F500
;Layer C1
G1 X24.409 Y37.854 Z0 S900 F800
G0 Z3.5 F500
G0 X25.824 Y39.622 Z3.5 F1300
G1 Z0 F500
G1 X24.056 Y40.859 Z0 F800
G0 Z3.5 F500
G0 X23.349 Y43.334 Z3.5 
G1 Z0 F500
G1 X23.172 Z0 F800
G0 Z3.5 F500
G0 X20.873 Y43.511 Z3.5 
G1 Z0 F500
G1 Y43.688 Z0 F800
G0 Z3.5 F500
G0 X19.459 Y45.633 Z3.5 
G1 Z0 F500
G1 X18.575 Y45.986 Z0 F800
G0 Z3.5 F500
G0 X16.454 Y47.4 Z3.5 
G1 Z0 F500
G1 X16.277 Y47.577 Z0 F800
G0 Z3.5 F500
G0 X15.216 Y48.992 Z3.5 
G1 Z0 F500
G1 X13.095 Y50.583 Z0 F800
G1 X13.519 Y50.671 Z0 F800
G1 X13.912 Y50.678 Z0 F800
G1 X14.285 Y50.635 Z0 F800
G1 X14.65 Y50.573 Z0 F800
G1 X15.019 Y50.523 Z0 F800
G1 X15.405 Y50.517 Z0 F800
G1 X15.609 Y50.54 Z0 F800
G1 X15.82 Y50.585 Z0 F800
G1 X16.043 Y50.657 Z0 F800
G1 X16.277 Y50.76 Z0 F800
G0 Z3.5 F500
G0 X15.746 Y51.29 Z3.5 
G1 Z0 F500
G1 X16.262 Y50.778 Z0 F800
G1 X16.757 Y50.363 Z0 F800
G1 X17.025 Y50.21 Z0 F800
G1 X17.322 Y50.102 Z0 F800
G1 X17.658 Y50.047 Z0 F800
G1 X18.045 Y50.052 Z0 F800
G0 Z3.5 F500
G0 X19.106 Y49.522 Z3.5 
G1 Z0 F500
G1 X16.1 Y49.168 Z0 F800
G0 Z3.5 F500
G0 X17.691 Y50.936 Z3.5 
G1 Z0 F500
G1 X18.575 Y51.113 Z0 F800
G0 Z3.5 F500
G0 X18.929 Y51.467 Z3.5 
G1 Z0 F500
G1 X18.752 Y51.644 Z0 F800
G0 Z3.5 F500
G0 X17.514 Y52.174 Z3.5 
G1 Z0 F500
G1 X17.338 Z0 F800
G0 Z3.5 F500
G0 X17.868 Y52.704 Z3.5 
G1 Z0 F500
G1 X17.514 Y52.881 Z0 F800
G0 Z3.5 F500
G0 X18.045 Y53.411 Z3.5 
G1 Z0 F500
G1 X17.338 Y54.119 Z0 F800
G0 Z3.5 F500
G0 X17.514 Y54.649 Z3.5 
G1 Z0 F500
G1 X16.454 Y55.533 Z0 F800
G0 Z3.5 F500
G0 X16.1 Y56.063 Z3.5 
G1 Z0 F500
G1 X16.454 Y55.533 Z0 F800
G1 X15.393 Y56.417 Z0 F800
G0 Z3.5 F500
G0 X14.862 Y56.947 Z3.5 
G1 Z0 F500
G1 X14.686 Z0 F800
G0 Z3.5 F500
G0 X14.862 Y57.831 Z3.5 
G1 Z0 F500
G1 X14.686 Y58.008 Z0 F800
G0 Z3.5 F500
G0 X15.393 Z3.5 
G1 Z0 F500
G1 X15.923 Z0 F800
G0 Z3.5 F500
G0 X16.277 Y57.478 Z3.5 
G1 Z0 F500
G1 Y57.301 Z0 F800
G0 Z3.5 F500
G0 X17.691 Y57.831 Z3.5 
G1 Z0 F500
G1 X17.868 Y57.655 Z0 F800
G0 Z3.5 F500
G0 X18.575 Y58.008 Z3.5 
G1 Z0 F500
G1 X18.752 Z0 F800
G0 Z3.5 F500
G0 X19.282 Y58.892 Z3.5 
G1 Z0 F500
G1 X18.929 Y59.422 Z0 F800
G0 Z3.5 F500
G0 X19.99 Y59.953 Z3.5 
G1 Z0 F500
G1 X20.09 Y59.622 Z0 F800
G1 X20.216 Y59.34 Z0 F800
G1 X20.362 Y59.095 Z0 F800
G1 X20.525 Y58.876 Z0 F800
G1 X20.876 Y58.465 Z0 F800
G1 X21.227 Y58.008 Z0 F800
G0 Z3.5 F500
G0 X20.343 Y57.124 Z3.5 
G1 Z0 F500
G1 X20.166 Z0 F800
G0 Z3.5 F500
G0 X18.929 Y55.71 Z3.5 
G1 Z0 F500
G1 X18.752 Z0 F800
G0 Z3.5 F500
G0 X18.398 Y55.533 Z3.5 
G1 Z0 F500
G1 X17.868 Y56.063 Z0 F800
G0 Z3.5 F500
G0 X15.746 Y54.295 Z3.5 
G1 Z0 F500
G1 X16.1 Y54.119 Z0 F800
G0 Z3.5 F500
G0 X15.039 Y54.472 Z3.5 
G1 Z0 F500
G1 X14.862 Z0 F800
G0 Z3.5 F500
G0 X13.448 Y54.649 Z3.5 
G1 Z0 F500
G1 X13.271 Z0 F800
G0 Z3.5 F500
G0 X13.095 Y53.942 Z3.5 
G1 Z0 F500
G1 X13.625 Y53.411 Z0 F800
G0 Z3.5 F500
G0 X15.039 Y52.881 Z3.5 
G1 Z0 F500
G1 X14.332 Y51.82 Z0 F800
G0 Z3.5 F500
G0 X18.929 Y52.704 Z3.5 
G1 Z0 F500
G1 X19.989 Y53.235 Z0 F800
G0 Z3.5 F500
G0 X20.697 Y53.588 Z3.5 
G1 Z0 F500
G1 X21.05 Y51.113 Z0 F800
G1 X20.52 Y51.29 Z0 F800
G0 Z3.5 F500
G0 X21.227 Y51.113 Z3.5 
G1 Z0 F500
G1 X21.359 Y50.836 Z0 F800
G1 X21.46 Y50.586 Z0 F800
G1 X21.537 Y50.361 Z0 F800
G1 X21.592 Y50.156 Z0 F800
G1 X21.659 Y49.798 Z0 F800
G1 X21.697 Y49.486 Z0 F800
G1 X21.741 Y49.196 Z0 F800
G1 X21.83 Y48.904 Z0 F800
G1 X21.901 Y48.748 Z0 F800
G1 X21.997 Y48.583 Z0 F800
G1 X22.122 Y48.404 Z0 F800
G1 X22.281 Y48.209 Z0 F800
G1 X22.398 Y48.093 Z0 F800
G1 X22.515 Y48.015 Z0 F800
G1 X22.629 Y47.975 Z0 F800
G1 X22.736 Z0 F800
G1 X22.835 Y48.009 Z0 F800
G1 X22.921 Y48.082 Z0 F800
G1 X22.993 Y48.192 Z0 F800
G1 X23.046 Y48.339 Z0 F800
G1 X23.131 Y48.79 Z0 F800
G1 X23.157 Y49.182 Z0 F800
G1 Y49.492 Z0 F800
G1 X23.162 Y49.609 Z0 F800
G1 X23.172 Y49.699 Z0 F800
G1 X23.49 Y49.129 Z0 F800
G1 X23.791 Y48.54 Z0 F800
G1 X23.967 Y48.205 Z0 F800
G1 X24.18 Y47.823 Z0 F800
G1 X24.44 Y47.383 Z0 F800
G1 X24.763 Y46.87 Z0 F800
G0 Z3.5 F500
G0 X23.879 Y46.693 Z3.5 
G1 Z0 F500
G1 X22.995 Z0 F800
G0 Z3.5 F500
G0 X22.288 Y45.986 Z3.5 
G1 Z0 F500
G1 X20.697 Y46.693 Z0 F800
G1 Y47.047 Z0 F800
G1 X20.993 Y47.159 Z0 F800
G1 X21.241 Y47.256 Z0 F800
G1 X21.452 Y47.341 Z0 F800
G1 X21.636 Y47.419 Z0 F800
G1 X21.958 Y47.573 Z0 F800
G1 X22.288 Y47.754 Z0 F800
G0 Z3.5 F500
G0 X21.934 Y48.638 Z3.5 
G1 Z0 F500
G1 X21.309 Y49.013 Z0 F800
G1 X20.73 Y49.441 Z0 F800
G1 X20.09 Y49.954 Z0 F800
G1 X19.714 Y50.252 Z0 F800
G1 X19.282 Y50.583 Z0 F800
G0 Z3.5 F500
G0 X20.343 Y51.997 Z3.5 
G1 Z0 F500
G1 X20.166 Y52.528 Z0 F800
G0 Z3.5 F500
G0 X22.818 Y53.235 Z3.5 
G1 Z0 F500
G1 Y53.411 Z0 F800
G0 Z3.5 F500
G0 X22.995 Y54.295 Z3.5 
G1 Z0 F500
G1 X22.288 Z0 F800
G0 Z3.5 F500
G0 X21.404 Y54.472 Z3.5 
G1 Z0 F500
G1 X21.581 Y55.533 Z0 F800
G0 Z3.5 F500
G0 X22.995 Y55.003 Z3.5 
G1 Z0 F500
G1 X23.18 Y54.947 Z0 F800
G1 X23.331 Y54.899 Z0 F800
G1 X23.456 Y54.853 Z0 F800
G1 X23.567 Y54.804 Z0 F800
G1 X23.782 Y54.676 Z0 F800
G1 X24.056 Y54.472 Z0 F800
G0 Z3.5 F500
G0 X24.763 Y54.826 Z3.5 
G1 Z0 F500
G1 X24.94 Y54.649 Z0 F800
G0 Z3.5 F500
G0 X25.647 Y55.356 Z3.5 
G1 Z0 F500
G1 X26.354 Z0 F800
G0 Z3.5 F500
G0 Y56.24 Z3.5 
G1 Z0 F500
G1 X26.884 Z0 F800
G0 Z3.5 F500
G0 X26.177 Y56.594 Z3.5 
G1 Z0 F500
G1 X26.133 Y56.477 Z0 F800
G1 X26.055 Y56.417 Z0 F800
G1 X25.951 Y56.41 Z0 F800
G1 X25.828 Y56.456 Z0 F800
G1 X25.693 Y56.553 Z0 F800
G1 X25.554 Y56.697 Z0 F800
G1 X25.418 Y56.888 Z0 F800
G1 X25.293 Y57.124 Z0 F800
G0 Z3.5 F500
G0 X23.879 Y56.771 Z3.5 
G1 Z0 F500
G1 X22.465 Y59.422 Z0 F800
G0 Z3.5 F500
G0 X23.172 Y59.776 Z3.5 
G1 Z0 F500
G1 X23.349 Z0 F800
G0 Z3.5 F500
G0 X24.056 Y60.13 Z3.5 
G1 Z0 F500
G1 Y60.306 Z0 F800
G0 Z3.5 F500
G0 X25.47 Y60.13 Z3.5 
G1 Z0 F500
G1 X25.647 Z0 F800
G0 Z3.5 F500
G0 Y59.246 Z3.5 
G1 Z0 F500
G1 X25.47 Z0 F800
G0 Z3.5 F500
G0 X27.061 Y59.422 Z3.5 
G1 Z0 F500
G1 X27.238 Y59.246 Z0 F800
G0 Z3.5 F500
G0 X27.945 Y59.599 Z3.5 
G1 Z0 F500
G1 X28.476 Z0 F800
G0 Z3.5 F500
G0 X27.768 Y61.19 Z3.5 
G1 Z0 F500
G1 Y61.367 Z0 F800
G0 Z3.5 F500
G0 X27.061 Y61.721 Z3.5 
G1 Z0 F500
G1 X26.708 Y61.898 Z0 F800
G0 Z3.5 F500
G0 X26 Y62.251 Z3.5 
G1 Z0 F500
G1 X25.824 Z0 F800
G0 Z3.5 F500
G0 X25.293 Y62.782 Z3.5 
G1 Z0 F500
G1 X25.036 Y62.73 Z0 F800
G1 X24.813 Y62.756 Z0 F800
G1 X24.618 Y62.847 Z0 F800
G1 X24.447 Y62.991 Z0 F800
G1 X24.151 Y63.386 Z0 F800
G1 X23.879 Y63.842 Z0 F800
G0 Z3.5 F500
G0 X23.172 Z3.5 
G1 Z0 F500
G1 Y64.019 Z0 F800
G0 Z3.5 F500
G0 X22.465 Y63.666 Z3.5 
G1 Z0 F500
G1 Y63.489 Z0 F800
G0 Z3.5 F500
G0 X21.757 Y63.312 Z3.5 
G1 Z0 F500
G1 X21.404 Y63.489 Z0 F800
G0 Z3.5 F500
G0 X20.52 Z3.5 
G1 Z0 F500
G1 Y63.312 Z0 F800
G0 Z3.5 F500
G0 X20.873 Y62.605 Z3.5 
G1 Z0 F500
G1 X21.227 Y62.428 Z0 F800
G0 Z3.5 F500
G0 X21.404 Y61.721 Z3.5 
G1 Z0 F500
G1 X22.111 Y61.19 Z0 F800
G0 Z3.5 F500
G0 Y60.483 Z3.5 
G1 Z0 F500
G1 Y60.306 Z0 F800
G0 Z3.5 F500
G0 X20.873 Y60.483 Z3.5 
G1 Z0 F500
G1 Y59.776 Z0 F800
G0 Z3.5 F500
G0 X19.989 Y61.014 Z3.5 
G1 Z0 F500
G1 X18.398 Y61.898 Z0 F800
G0 Z3.5 F500
G0 X17.338 Y61.367 Z3.5 
G1 Z0 F500
G1 Y61.19 Z0 F800
G0 Z3.5 F500
G0 X16.63 Y61.367 Z3.5 
G1 Z0 F500
G1 X16.454 Y61.544 Z0 F800
G0 Z3.5 F500
G0 X15.57 Z3.5 
G1 Z0 F500
G1 X14.862 Y62.605 Z0 F800
G0 Z3.5 F500
G0 X14.332 Y63.312 Z3.5 
G1 Z0 F500
G1 X13.271 Y64.019 Z0 F800
G0 Z3.5 F500
G0 X15.216 Y63.842 Z3.5 
G1 Z0 F500
G1 X16.1 Y62.782 Z0 F800
G0 Z3.5 F500
G0 X17.691 Y63.489 Z3.5 
G1 Z0 F500
G1 X17.338 Y64.903 Z0 F800
G1 X17.691 Y64.726 Z0 F800
G0 Z3.5 F500
G0 X17.161 Z3.5 
G1 Z0 F500
G1 X16.807 Y64.373 Z0 F800
G0 Z3.5 F500
G0 X18.398 Y63.666 Z3.5 
G1 Z0 F500
G1 X18.575 Z0 F800
G0 Z3.5 F500
G0 X20.166 Y65.08 Z3.5 
G1 Z0 F500
G1 X19.282 Y66.141 Z0 F800
G0 Z3.5 F500
G0 X18.752 Y65.964 Z3.5 
G1 Z0 F500
G1 X18.82 Y65.441 Z0 F800
G1 X18.904 Y64.948 Z0 F800
G1 X19.009 Y64.477 Z0 F800
G1 X19.138 Y64.017 Z0 F800
G1 X19.297 Y63.556 Z0 F800
G1 X19.489 Y63.086 Z0 F800
G1 X19.718 Y62.595 Z0 F800
G1 X19.989 Y62.074 Z0 F800
G0 Z3.5 F500
G0 X21.404 Y64.196 Z3.5 
G1 Z0 F500
G1 X21.227 Y64.373 Z0 F800
G0 Z3.5 F500
G0 X21.934 Y65.433 Z3.5 
G1 Z0 F500
G1 Y65.61 Z0 F800
G0 Z3.5 F500
G0 X22.641 Y65.257 Z3.5 
G1 Z0 F500
G1 Y65.08 Z0 F800
G0 Z3.5 F500
G0 X24.586 Y64.726 Z3.5 
G1 Z0 F500
G1 X24.409 Y64.196 Z0 F800
G0 Z3.5 F500
G0 X25.647 Y64.373 Z3.5 
G1 Z0 F500
G1 Y64.903 Z0 F800
G0 Z3.5 F500
G0 X26 Y65.787 Z3.5 
G1 Z0 F500
G1 X26.354 Z0 F800
G0 Z3.5 F500
G0 X27.061 Y66.317 Z3.5 
G1 Z0 F500
G1 X27.592 Y66.494 Z0 F800
G1 X27.397 Y66.711 Z0 F800
G1 X27.201 Y66.839 Z0 F800
G1 X27.081 Y66.871 Z0 F800
G1 X26.936 Y66.883 Z0 F800
G1 X26.755 Y66.875 Z0 F800
G1 X26.531 Y66.848 Z0 F800
G0 Z3.5 F500
G0 X25.647 Y67.025 Z3.5 
G1 Z0 F500
G1 Y67.201 Z0 F800
G0 Z3.5 F500
G0 X25.117 Y66.671 Z3.5 
G1 Z0 F500
G1 X24.409 Y67.025 Z0 F800
G0 Z3.5 F500
G0 X24.763 Y68.085 Z3.5 
G1 Z0 F500
G1 Y68.262 Z0 F800
G0 Z3.5 F500
G0 X25.824 Y68.439 Z3.5 
G1 Z0 F500
G1 X26.177 Y67.909 Z0 F800
G0 Z3.5 F500
G0 X27.945 Y68.262 Z3.5 
G1 Z0 F500
G1 X29.183 Y67.732 Z0 F800
G0 Z3.5 F500
G0 Y68.439 Z3.5 
G1 Z0 F500
G1 Y68.762 Z0 F800
G1 X29.172 Y69.039 Z0 F800
G1 X29.15 Y69.279 Z0 F800
G1 X29.121 Y69.49 Z0 F800
G1 X29.056 Y69.857 Z0 F800
G1 X29.006 Y70.207 Z0 F800
G0 Z3.5 F500
G0 X27.238 Z3.5 
G1 Z0 F500
G1 X26.665 Y70.728 Z0 F800
G1 X26.179 Y71.274 Z0 F800
G1 X25.983 Y71.561 Z0 F800
G1 X25.825 Y71.861 Z0 F800
G1 X25.711 Y72.175 Z0 F800
G1 X25.647 Y72.505 Z0 F800
G0 Z3.5 F500
G0 X26.354 Y72.682 Z3.5 
G1 Z0 F500
G1 X26.531 Y72.328 Z0 F800
G0 Z3.5 F500
G0 X24.586 Y72.505 Z3.5 
G1 Z0 F500
G1 X24.316 Y72.625 Z0 F800
G1 X24.054 Y72.72 Z0 F800
G1 X23.804 Y72.781 Z0 F800
G1 X23.568 Y72.795 Z0 F800
G1 X23.349 Y72.75 Z0 F800
G1 X23.15 Y72.636 Z0 F800
G1 X22.972 Y72.44 Z0 F800
G1 X22.818 Y72.152 Z0 F800
G0 Z3.5 F500
G0 X21.581 Z3.5 
G1 Z0 F500
G1 X21.227 Y72.505 Z0 F800
G0 Z3.5 F500
G0 X22.111 Y71.444 Z3.5 
G1 Z0 F500
G1 X22.995 Y69.323 Z0 F800
G0 Z3.5 F500
G0 X22.111 Y68.439 Z3.5 
G1 Z0 F500
G1 X21.404 Y69.146 Z0 F800
G0 Z3.5 F500
G0 X20.52 Y68.793 Z3.5 
G1 Z0 F500
G1 X21.05 Y67.378 Z0 F800
G0 Z3.5 F500
G0 X22.288 Y67.555 Z3.5 
G1 Z0 F500
G1 X22.641 Y66.848 Z0 F800
G0 Z3.5 F500
G0 X21.934 Y66.671 Z3.5 
G1 Z0 F500
G1 Y66.494 Z0 F800
G0 Z3.5 F500
G0 X19.636 Y66.848 Z3.5 
G1 Z0 F500
G1 Y67.378 Z0 F800
G0 Z3.5 F500
G0 X18.929 Z3.5 
G1 Z0 F500
G1 X19.03 Y67.087 Z0 F800
G1 X19.079 Y66.841 Z0 F800
G1 X19.074 Y66.643 Z0 F800
G1 X19.014 Y66.496 Z0 F800
G1 X18.9 Y66.404 Z0 F800
G1 X18.73 Y66.371 Z0 F800
G1 X18.504 Y66.4 Z0 F800
G1 X18.222 Y66.494 Z0 F800
G0 Z3.5 F500
G0 X18.398 Y67.201 Z3.5 
G1 Z0 F500
G1 X18.045 Y67.555 Z0 F800
G0 Z3.5 F500
G0 X16.807 Y68.439 Z3.5 
G1 Z0 F500
G1 X16.63 Y69.146 Z0 F800
G0 Z3.5 F500
G0 Y69.853 Z3.5 
G1 Z0 F500
G1 X16.346 Y70.068 Z0 F800
G1 X16.137 Y70.317 Z0 F800
G1 X15.993 Y70.597 Z0 F800
G1 X15.898 Y70.905 Z0 F800
G1 X15.804 Y71.585 Z0 F800
G1 X15.746 Y72.328 Z0 F800
G0 Z3.5 F500
G0 X14.509 Y72.859 Z3.5 
G1 Z0 F500
G1 Y73.212 Z0 F800
G0 Z3.5 F500
G0 X14.862 Z3.5 
G1 Z0 F500
G1 X14.745 Y73.418 Z0 F800
G1 X14.653 Y73.588 Z0 F800
G1 X14.581 Y73.731 Z0 F800
G1 X14.523 Y73.86 Z0 F800
G1 X14.43 Y74.118 Z0 F800
G1 X14.332 Y74.45 Z0 F800
G0 Z3.5 F500
G0 X14.155 Y74.98 Z3.5 
G1 Z0 F500
G1 Y75.157 Z0 F800
G0 Z3.5 F500
G0 X13.802 Y75.334 Z3.5 
G1 Z0 F500
G1 X13.448 Y75.511 Z0 F800
G0 Z3.5 F500
G0 X14.332 Y76.925 Z3.5 
G1 Z0 F500
G1 X14.686 Z0 F800
G0 Z3.5 F500
G0 X15.923 Z3.5 
G1 Z0 F500
G1 Y76.748 Z0 F800
G0 Z3.5 F500
G0 X16.454 Z3.5 
G1 Z0 F500
G1 X17.868 Y75.511 Z0 F800
G1 Y76.041 Z0 F800
G0 Z3.5 F500
G0 Y75.511 Z3.5 
G1 Z0 F500
G1 X18.929 Y75.687 Z0 F800
G0 Z3.5 F500
G0 Y76.041 Z3.5 
G1 Z0 F500
G1 X19.07 Y76.207 Z0 F800
G1 X19.208 Y76.327 Z0 F800
G1 X19.343 Y76.397 Z0 F800
G1 X19.475 Y76.414 Z0 F800
G1 X19.605 Y76.374 Z0 F800
G1 X19.734 Y76.271 Z0 F800
G1 X19.862 Y76.103 Z0 F800
G1 X19.99 Y75.864 Z0 F800
G1 X19.748 Y75.832 Z0 F800
G1 X19.557 Y75.791 Z0 F800
G1 X19.41 Y75.737 Z0 F800
G1 X19.3 Y75.667 Z0 F800
G1 X19.221 Y75.578 Z0 F800
G1 X19.167 Y75.465 Z0 F800
G1 X19.13 Y75.326 Z0 F800
G1 X19.106 Y75.157 Z0 F800
G0 Z3.5 F500
G0 X18.575 Y74.45 Z3.5 
G1 Z0 F500
G1 X18.78 Y74.031 Z0 F800
G1 X18.977 Y73.674 Z0 F800
G1 X19.459 Y72.859 Z0 F800
G0 Z3.5 F500
G0 X19.636 Y71.621 Z3.5 
G1 Z0 F500
G1 X20.52 Y70.737 Z0 F800
G0 Z3.5 F500
G0 X21.05 Y70.03 Z3.5 
G1 Z0 F500
G1 X20.887 Y70.6 Z0 F800
G1 X20.728 Y71.246 Z0 F800
G1 X20.58 Y71.95 Z0 F800
G1 X20.447 Y72.693 Z0 F800
G1 X20.334 Y73.457 Z0 F800
G1 X20.246 Y74.223 Z0 F800
G1 X20.188 Y74.973 Z0 F800
G1 X20.166 Y75.687 Z0 F800
G0 Z3.5 F500
G0 X21.581 Y75.864 Z3.5 
G1 Z0 F500
G1 X21.934 Y74.627 Z0 F800
G0 Z3.5 F500
G0 X24.056 Y72.682 Z3.5 
G1 Z0 F500
G1 X24.035 Y72.035 Z0 F800
G1 X24.025 Y71.48 Z0 F800
G1 X24.031 Y70.952 Z0 F800
G1 X24.056 Y70.384 Z0 F800
G0 Z3.5 F500
G0 X24.586 Y71.268 Z3.5 
G1 Z0 F500
G1 X24.409 Y71.621 Z0 F800
G0 Z3.5 F500
G0 X25.117 Y69.5 Z3.5 
G1 Z0 F500
G1 X25.293 Z0 F800
G0 Z3.5 F500
G0 X29.006 Y71.621 Z3.5 
G1 Z0 F500
G1 X29.581 Y71.668 Z0 F800
G1 X30.121 Y71.789 Z0 F800
G1 X30.639 Y71.962 Z0 F800
G1 X31.143 Y72.166 Z0 F800
G1 X31.646 Y72.379 Z0 F800
G1 X32.158 Y72.58 Z0 F800
G1 X32.688 Y72.747 Z0 F800
G1 X33.249 Y72.859 Z0 F800
G0 Z3.5 F500
G0 X30.951 Y71.798 Z3.5 
G1 Z0 F500
G1 X31.304 Y71.444 Z0 F800
G0 Z3.5 F500
G0 X30.774 Y70.56 Z3.5 
G1 Z0 F500
G1 X33.249 Y70.384 Z0 F800
G0 Z3.5 F500
G0 X31.128 Y70.207 Z3.5 
G1 Z0 F500
G1 Y69.853 Z0 F800
G0 Z3.5 F500
G0 X30.42 Y69.146 Z3.5 
G1 Z0 F500
G1 X30.244 Z0 F800
G0 Z3.5 F500
G0 X28.652 Y72.859 Z3.5 
G1 Z0 F500
G1 Y73.566 Z0 F800
G0 Z3.5 F500
G0 X31.304 Y74.98 Z3.5 
G1 Z0 F500
G1 X31.804 Y75.087 Z0 F800
G1 X32.244 Y75.139 Z0 F800
G1 X32.7 Y75.155 Z0 F800
G1 X33.249 Z0 F800
G0 Z3.5 F500
G0 X33.426 Y75.864 Z3.5 
G1 Z0 F500
G1 X33.422 Y75.595 Z0 F800
G1 X33.429 Y75.296 Z0 F800
G1 X33.445 Y74.971 Z0 F800
G1 X33.467 Y74.624 Z0 F800
G1 X33.519 Y73.881 Z0 F800
G1 X33.563 Y73.101 Z0 F800
G1 X33.578 Y72.315 Z0 F800
G1 X33.543 Y71.558 Z0 F800
G1 X33.5 Y71.199 Z0 F800
G1 X33.436 Y70.861 Z0 F800
G1 X33.35 Y70.545 Z0 F800
G1 X33.237 Y70.257 Z0 F800
G1 X33.097 Y70.013 Z0 F800
G1 X32.932 Y69.822 Z0 F800
G1 X32.745 Y69.679 Z0 F800
G1 X32.54 Y69.58 Z0 F800
G1 X32.319 Y69.521 Z0 F800
G1 X32.088 Y69.496 Z0 F800
G1 X31.848 Y69.503 Z0 F800
G1 X31.603 Y69.536 Z0 F800
G1 X31.114 Y69.662 Z0 F800
G1 X30.647 Y69.84 Z0 F800
G1 X30.23 Y70.033 Z0 F800
G1 X29.89 Y70.207 Z0 F800
G1 X30.605 Y70.647 Z0 F800
G1 X31.298 Y71.108 Z0 F800
G1 X31.685 Y71.31 Z0 F800
G1 X32.126 Y71.472 Z0 F800
G1 X32.373 Y71.534 Z0 F800
G1 X32.641 Y71.581 Z0 F800
G1 X32.932 Y71.61 Z0 F800
G1 X33.249 Y71.621 Z0 F800
G0 Z3.5 F500
G0 Y74.096 Z3.5 
G1 Z0 F500
G1 X32.848 Y74.064 Z0 F800
G1 X32.464 Y74.011 Z0 F800
G1 X32.105 Y73.93 Z0 F800
G1 X31.779 Y73.815 Z0 F800
G1 X31.493 Y73.657 Z0 F800
G1 X31.255 Y73.45 Z0 F800
G1 X31.071 Y73.186 Z0 F800
G1 X30.951 Y72.859 Z0 F800
G1 X30.618 Y72.823 Z0 F800
G1 X30.287 Y72.742 Z0 F800
G1 X29.965 Y72.622 Z0 F800
G1 X29.659 Y72.469 Z0 F800
G1 X29.376 Y72.289 Z0 F800
G1 X29.124 Y72.088 Z0 F800
G1 X28.91 Y71.872 Z0 F800
G1 X28.741 Y71.646 Z0 F800
G1 X28.624 Y71.416 Z0 F800
G1 X28.568 Y71.189 Z0 F800
G1 X28.578 Y70.971 Z0 F800
G1 X28.662 Y70.766 Z0 F800
G1 X28.829 Y70.582 Z0 F800
G1 X29.084 Y70.423 Z0 F800
G1 X29.247 Y70.355 Z0 F800
G1 X29.435 Y70.296 Z0 F800
G1 X29.649 Y70.246 Z0 F800
G1 X29.89 Y70.207 Z0 F800
G0 Z3.5 F500
G0 X30.951 Y75.511 Z3.5 
G1 Z0 F500
G1 Y75.864 Z0 F800
G0 Z3.5 F500
G0 Z3.5 
G1 Z0 F500
G1 X30.559 Y75.982 Z0 F800
G1 X30.158 Y76.073 Z0 F800
G1 X29.929 Y76.099 Z0 F800
G1 X29.667 Y76.105 Z0 F800
G1 X29.363 Y76.087 Z0 F800
G1 X29.006 Y76.041 Z0 F800
G0 Z3.5 F500
G0 X29.713 Y76.571 Z3.5 
G1 Z0 F500
G1 X29.183 Y76.925 Z0 F800
G0 Z3.5 F500
G0 Z3.5 
G1 Z0 F500
G1 X29 Y76.67 Z0 F800
G1 X28.851 Y76.381 Z0 F800
G1 X28.738 Y76.056 Z0 F800
G1 X28.666 Y75.689 Z0 F800
G1 X28.636 Y75.279 Z0 F800
G1 X28.651 Y74.82 Z0 F800
G1 X28.715 Y74.309 Z0 F800
G1 X28.829 Y73.743 Z0 F800
G1 X30.951 Y74.096 Z0 F800
G1 X30.992 Y74.418 Z0 F800
G1 X31.007 Y74.516 Z0 F800
G1 X31.021 Y74.592 Z0 F800
G1 X31.059 Y74.74 Z0 F800
G1 X31.128 Y74.98 Z0 F800
G1 X30.774 Y75.334 Z0 F800
G1 X28.829 Y74.98 Z0 F800
G0 Z3.5 F500
G0 X31.128 Y76.571 Z3.5 
G1 Z0 F500
G1 X31.315 Y76.318 Z0 F800
G1 X31.556 Y76.126 Z0 F800
G1 X31.839 Y76.002 Z0 F800
G1 X32.151 Y75.949 Z0 F800
G1 X32.479 Y75.974 Z0 F800
G1 X32.809 Y76.083 Z0 F800
G1 X33.129 Y76.28 Z0 F800
G1 X33.426 Y76.571 Z0 F800
G0 Z3.5 F500
G0 X33.072 Y77.455 Z3.5 
G1 Z0 F500
G1 X32.542 Z0 F800
G0 Z3.5 F500
G0 X31.128 Y77.632 Z3.5 
G1 Z0 F500
G1 X31.527 Y77.622 Z0 F800
G1 X31.839 Y77.599 Z0 F800
G1 X32.148 Y77.548 Z0 F800
G1 X32.542 Y77.455 Z0 F800
G1 X32.296 Y77.379 Z0 F800
G1 X32.091 Y77.319 Z0 F800
G1 X31.917 Y77.271 Z0 F800
G1 X31.763 Y77.232 Z0 F800
G1 X31.471 Y77.169 Z0 F800
G1 X31.128 Y77.102 Z0 F800
G0 Z3.5 F500
G0 Z3.5 
G1 Z0 F500
G1 X31.283 Y76.897 Z0 F800
G1 X31.476 Y76.768 Z0 F800
G1 X31.703 Y76.699 Z0 F800
G1 X31.962 Y76.677 Z0 F800
G1 X33.249 Y76.748 Z0 F800
G1 X33.426 Y78.87 Z0 F800
G0 Z3.5 F500
G0 X33.249 Y78.339 Z3.5 
G1 Z0 F500
G1 X29.536 Y78.163 Z0 F800
G0 Z3.5 F500
G0 X29.36 Y78.516 Z3.5 
G1 Z0 F500
G1 X28.829 Z0 F800
G0 Z3.5 F500
G0 X28.652 Y79.047 Z3.5 
G1 Z0 F500
G1 X28.67 Y78.675 Z0 F800
G1 X28.688 Y78.353 Z0 F800
G1 X28.71 Y78.072 Z0 F800
G1 X28.74 Y77.82 Z0 F800
G1 X28.836 Y77.369 Z0 F800
G1 X29.006 Y76.925 Z0 F800
G1 X29.451 Y77.107 Z0 F800
G1 X29.87 Y77.213 Z0 F800
G1 X30.095 Y77.244 Z0 F800
G1 X30.343 Y77.264 Z0 F800
G1 X30.625 Y77.274 Z0 F800
G1 X30.951 Y77.279 Z0 F800
G1 X30.959 Y77.516 Z0 F800
G1 X30.964 Y77.716 Z0 F800
G1 Y77.889 Z0 F800
G1 Y78.045 Z0 F800
G1 X30.96 Y78.344 Z0 F800
G1 X30.951 Y78.693 Z0 F800
G0 Z3.5 F500
G0 X34.487 Y79.047 Z3.5 
G1 Z0 F500
G1 X33.984 Y79.023 Z0 F800
G1 X33.522 Y78.985 Z0 F800
G1 X32.659 Y78.895 Z0 F800
G1 X32.229 Y78.86 Z0 F800
G1 X31.781 Y78.842 Z0 F800
G1 X31.301 Y78.849 Z0 F800
G1 X30.774 Y78.89 Z0 F800
G1 X29.694 Y79.003 Z0 F800
G1 X28.621 Y79.102 Z0 F800
G1 X27.564 Y79.18 Z0 F800
G1 X26.531 Y79.23 Z0 F800
G1 X24.586 Y79.393 Z0 F800
G1 X22.558 Y79.468 Z0 F800
G1 X20.52 Y79.563 Z0 F800
G1 X20.193 Y79.575 Z0 F800
G1 X19.894 Y79.579 Z0 F800
G1 X19.619 Y79.576 Z0 F800
G1 X19.366 Y79.569 Z0 F800
G1 X18.909 Y79.549 Z0 F800
G1 X18.499 Y79.539 Z0 F800
G1 X18.109 Y79.554 Z0 F800
G1 X17.715 Y79.613 Z0 F800
G1 X17.289 Y79.733 Z0 F800
G1 X16.807 Y79.931 Z0 F800
G0 Z3.5 F500
G0 X17.161 Y80.284 Z3.5 
G1 Z0 F500
G1 X16.1 Y79.577 Z0 F800
G0 Z3.5 F500
G0 X16.277 Y80.461 Z3.5 
G1 Z0 F500
G1 X16.63 Y81.168 Z0 F800
G0 Z3.5 F500
G0 X17.161 Z3.5 
G1 Z0 F500
G1 Y80.284 Z0 F800
G1 X18.333 Y80.292 Z0 F800
G1 X19.562 Y80.305 Z0 F800
G1 X20.784 Z0 F800
G1 X21.934 Y80.27 Z0 F800
G1 X22.616 Y80.224 Z0 F800
G1 X23.221 Y80.17 Z0 F800
G1 X23.525 Y80.146 Z0 F800
G1 X23.846 Y80.126 Z0 F800
G1 X24.196 Y80.113 Z0 F800
G1 X24.586 Y80.107 Z0 F800
G1 X26.563 Z0 F800
G1 X28.476 Z0 F800
G1 X28.993 Y80.102 Z0 F800
G1 X29.461 Y80.095 Z0 F800
G1 X29.886 Y80.085 Z0 F800
G1 X30.275 Y80.073 Z0 F800
G1 X30.97 Y80.044 Z0 F800
G1 X32.21 Y79.982 Z0 F800
G1 X32.861 Y79.956 Z0 F800
G1 X33.217 Y79.945 Z0 F800
G1 X33.602 Y79.937 Z0 F800
G1 X34.023 Y79.932 Z0 F800
G1 X34.487 Z0 F800
G0 Z3.5 F500
G0 X34.663 Y83.997 Z3.5 
G1 Z0 F500
G1 X34.64 Y81.629 Z0 F800
G1 X34.632 Y79.223 Z0 F800
G1 Y75.572 Z0 F800
G1 X34.579 Y71.853 Z0 F800
G1 X34.517 Y68.106 Z0 F800
G1 X34.487 Y64.373 Z0 F800
G1 X34.497 Y63.491 Z0 F800
G1 X34.54 Y61.83 Z0 F800
G1 X34.545 Y61.062 Z0 F800
G1 X34.521 Y60.344 Z0 F800
G1 X34.453 Y59.68 Z0 F800
G1 X34.328 Y59.077 Z0 F800
G1 X34.133 Y58.538 Z0 F800
G1 X33.426 Y59.599 Z0 F800
G0 Z3.5 F500
G0 X32.542 Y57.655 Z3.5 
G1 Z0 F500
G1 X29.713 Y56.947 Z0 F800
G0 Z3.5 F500
G0 X28.122 Y56.771 Z3.5 
G1 Z0 F500
G1 X27.768 Y56.594 Z0 F800
G0 Z3.5 F500
G0 X29.183 Y54.119 Z3.5 
G1 Z0 F500
G1 X30.42 Y53.588 Z0 F800
G0 Z3.5 F500
G0 X30.951 Y54.472 Z3.5 
G1 Z0 F500
G1 X30.597 Y54.649 Z0 F800
G0 Z3.5 F500
G0 X32.895 Y54.826 Z3.5 
G1 Z0 F500
G1 X33.072 Y55.356 Z0 F800
G0 Z3.5 F500
G0 X31.481 Y51.82 Z3.5 
G1 Z0 F500
G1 X28.476 Y52.881 Z0 F800
G0 Z3.5 F500
G0 X26 Y53.235 Z3.5 
G1 Z0 F500
G1 X25.47 Y53.588 Z0 F800
G0 Z3.5 F500
G0 X23.349 Y55.887 Z3.5 
G1 Z0 F500
G1 X23.172 Y56.063 Z0 F800
G0 Z3.5 F500
G0 X24.233 Y58.008 Z3.5 
G1 Z0 F500
G1 X24.409 Z0 F800
G0 Z3.5 F500
G0 X23.349 Y58.892 Z3.5 
G1 Z0 F500
G1 X23.172 Z0 F800
G0 Z3.5 F500
G0 X23.879 Y61.367 Z3.5 
G1 Z0 F500
G1 X24.233 Z0 F800
G0 Z3.5 F500
G0 X26.354 Y63.842 Z3.5 
G1 Z0 F500
G1 X27.415 Y63.489 Z0 F800
G0 Z3.5 F500
G0 X27.592 Y64.019 Z3.5 
G1 Z0 F500
G1 X28.476 Y63.842 Z0 F800
G1 X27.415 Y63.665 Z0 F800
G1 X28.122 Y62.958 Z0 F800
G0 Z3.5 F500
G0 X28.829 Y63.312 Z3.5 
G1 Z0 F500
G1 X29.89 Y62.958 Z0 F800
G0 Z3.5 F500
G0 X28.652 Y62.074 Z3.5 
G1 Z0 F500
G1 X30.244 Y61.898 Z0 F800
G1 X29.183 Y61.544 Z0 F800
G0 Z3.5 F500
G0 X40.498 Y62.958 Z3.5 
G1 Z0 F500
G1 X40.851 Z0 F800
G0 Z3.5 F500
G0 X41.558 Y62.074 Z3.5 
G1 Z0 F500
G1 X42.119 Y61.943 Z0 F800
G1 X42.641 Y61.799 Z0 F800
G1 X43.152 Y61.664 Z0 F800
G1 X43.68 Y61.556 Z0 F800
G1 X44.342 Y61.459 Z0 F800
G1 X44.965 Y61.379 Z0 F800
G1 X46.123 Y61.243 Z0 F800
G1 X47.208 Y61.084 Z0 F800
G1 X48.276 Y60.837 Z0 F800
G1 X47.039 Y60.66 Z0 F800
G0 Z3.5 F500
G0 X47.216 Y60.483 Z3.5 
G1 Z0 F500
G1 X47.393 Y60.66 Z0 F800
G0 Z3.5 F500
G0 X47.569 Y60.13 Z3.5 
G1 Z0 F500
G1 X47.538 Y59.616 Z0 F800
G1 X47.47 Y59.143 Z0 F800
G1 X47.37 Y58.707 Z0 F800
G1 X47.241 Y58.304 Z0 F800
G1 X47.086 Y57.931 Z0 F800
G1 X46.91 Y57.583 Z0 F800
G1 X46.716 Y57.256 Z0 F800
G1 X46.509 Y56.947 Z0 F800
G0 Z3.5 F500
G0 X47.393 Z3.5 
G1 Z0 F500
G1 Y57.655 Z0 F800
G0 Z3.5 F500
G0 X47.216 Y58.362 Z3.5 
G1 Z0 F500
G1 X46.922 Y58.313 Z0 F800
G1 X46.557 Y58.258 Z0 F800
G1 X46.308 Y58.233 Z0 F800
G1 X45.992 Y58.211 Z0 F800
G1 X45.592 Y58.194 Z0 F800
G1 X45.094 Y58.185 Z0 F800
G0 Z3.5 F500
G0 X43.68 Y58.008 Z3.5 
G1 Z0 F500
G1 X43.908 Y58.364 Z0 F800
G1 X44.048 Y58.748 Z0 F800
G1 X44.118 Y59.155 Z0 F800
G1 X44.135 Y59.58 Z0 F800
G1 X44.083 Y60.465 Z0 F800
G1 X44.033 Y61.367 Z0 F800
G0 Z3.5 F500
G0 X43.503 Z3.5 
G1 Z0 F500
G1 X43.486 Y60.85 Z0 F800
G1 X43.445 Y60.377 Z0 F800
G1 X43.398 Y59.938 Z0 F800
G1 X43.361 Y59.521 Z0 F800
G1 X43.352 Y59.116 Z0 F800
G1 X43.387 Y58.711 Z0 F800
G1 X43.484 Y58.294 Z0 F800
G1 X43.659 Y57.856 Z0 F800
G1 X43.811 Y57.603 Z0 F800
G1 X43.993 Y57.401 Z0 F800
G1 X44.204 Y57.242 Z0 F800
G1 X44.442 Y57.118 Z0 F800
G1 X44.991 Y56.94 Z0 F800
G1 X45.625 Y56.803 Z0 F800
G1 X45.916 Y56.746 Z0 F800
G1 X46.158 Y56.706 Z0 F800
G1 X46.366 Y56.681 Z0 F800
G1 X46.553 Y56.671 Z0 F800
G1 X46.735 Z0 F800
G1 X46.925 Y56.685 Z0 F800
G1 X47.14 Y56.707 Z0 F800
G1 X47.393 Y56.736 Z0 F800
G1 X47.708 Y56.793 Z0 F800
G1 X48.018 Y56.888 Z0 F800
G1 X48.311 Y57.024 Z0 F800
G1 X48.577 Y57.203 Z0 F800
G1 X48.806 Y57.424 Z0 F800
G1 X48.986 Y57.69 Z0 F800
G1 X49.108 Y58.002 Z0 F800
G1 X49.16 Y58.362 Z0 F800
G1 X49.572 Y58.34 Z0 F800
G1 X49.985 Y58.297 Z0 F800
G1 X50.472 Y58.242 Z0 F800
G1 X50.766 Y58.213 Z0 F800
G1 X51.105 Y58.185 Z0 F800
G0 Z3.5 F500
G0 X51.459 Y58.008 Z3.5 
G1 Z0 F500
G1 X51.812 Z0 F800
G0 Z3.5 F500
G0 X51.989 Y58.892 Z3.5 
G1 Z0 F500
G1 X52.046 Y58.688 Z0 F800
G1 X52.115 Y58.506 Z0 F800
G1 X52.205 Y58.345 Z0 F800
G1 X52.323 Y58.204 Z0 F800
G1 X52.477 Y58.083 Z0 F800
G1 X52.674 Y57.98 Z0 F800
G1 X52.921 Y57.897 Z0 F800
G1 X53.227 Y57.831 Z0 F800
G0 Z3.5 F500
G0 X53.58 Y57.655 Z3.5 
G1 Z0 F500
G1 X54.287 Z0 F800
G1 Y58.008 Z0 F800
G0 Z3.5 F500
G0 Y58.362 Z3.5 
G1 Z0 F500
G1 X53.757 Z0 F800
G0 Z3.5 F500
G0 X54.287 Y57.655 Z3.5 
G1 Z0 F500
G1 X54.818 Y57.124 Z0 F800
G0 Z3.5 F500
G0 X54.464 Z3.5 
G1 Z0 F500
G1 X54.346 Y56.201 Z0 F800
G1 X54.287 Y55.356 Z0 F800
G1 X53.821 Y55.347 Z0 F800
G1 X53.307 Y55.327 Z0 F800
G1 X52.754 Y55.298 Z0 F800
G1 X52.171 Y55.266 Z0 F800
G1 X50.944 Y55.206 Z0 F800
G1 X49.691 Y55.179 Z0 F800
G1 X49.337 Y56.063 Z0 F800
G0 Z3.5 F500
G0 Y56.417 Z3.5 
G1 Z0 F500
G1 Y56.771 Z0 F800
G0 Z3.5 F500
G0 X49.16 Y57.301 Z3.5 
G1 Z0 F500
G1 X49.25 Y57.056 Z0 F800
G1 Y56.847 Z0 F800
G1 X49.172 Y56.665 Z0 F800
G1 X49.029 Y56.499 Z0 F800
G1 X48.835 Y56.341 Z0 F800
G1 X48.602 Y56.182 Z0 F800
G1 X48.343 Y56.011 Z0 F800
G1 X48.07 Y55.819 Z0 F800
G1 X47.924 Y55.691 Z0 F800
G1 X47.808 Y55.551 Z0 F800
G1 X47.719 Y55.4 Z0 F800
G1 X47.655 Y55.241 Z0 F800
G1 X47.589 Y54.903 Z0 F800
G1 X47.585 Y54.549 Z0 F800
G1 X47.677 Y53.845 Z0 F800
G1 X47.746 Y53.235 Z0 F800
G0 Z3.5 F500
G0 X45.978 Y52.174 Z3.5 
G1 Z0 F500
G1 Y51.997 Z0 F800
G0 Z3.5 F500
G0 X44.917 Y50.76 Z3.5 
G1 Z0 F500
G1 X46.155 Y50.229 Z0 F800
G0 Z3.5 F500
G0 X47.039 Y49.876 Z3.5 
G1 Z0 F500
G1 X47.216 Z0 F800
G0 Z3.5 F500
G0 X45.625 Y48.815 Z3.5 
G1 Z0 F500
G1 X46.332 Y48.461 Z0 F800
G0 Z3.5 F500
G0 X49.691 Y49.699 Z3.5 
G1 Z0 F500
G1 X50.398 Y49.345 Z0 F800
G0 Z3.5 F500
G0 X50.928 Y48.638 Z3.5 
G1 Z0 F500
G1 X51.105 Z0 F800
G0 Z3.5 F500
G0 X53.934 Y49.168 Z3.5 
G1 Z0 F500
G1 X54.287 Y48.992 Z0 F800
G0 Z3.5 F500
G0 X56.409 Z3.5 
G1 Z0 F500
G1 X56.939 Y48.638 Z0 F800
G0 Z3.5 F500
G0 X55.702 Y46.516 Z3.5 
G1 Z0 F500
G1 X56.409 Y46.34 Z0 F800
G0 Z3.5 F500
G0 X52.873 Y45.809 Z3.5 
G1 Z0 F500
G1 X50.221 Y46.693 Z0 F800
G0 Z3.5 F500
G0 X48.1 Y45.809 Z3.5 
G1 Z0 F500
G1 X41.912 Y48.638 Z0 F800
G0 Z3.5 F500
G0 X42.973 Y46.516 Z3.5 
G1 Z0 F500
G1 X47.216 Y45.279 Z0 F800
G0 Z3.5 F500
G0 X50.752 Y42.981 Z3.5 
G1 Z0 F500
G1 X52.873 Y42.273 Z0 F800
G0 Z3.5 F500
G0 X53.404 Y42.097 Z3.5 
G1 Z0 F500
G1 X55.702 Y41.036 Z0 F800
G0 Z3.5 F500
G0 X52.696 Y38.914 Z3.5 
G1 Z0 F500
G1 X51.812 Y39.268 Z0 F800
G0 Z3.5 F500
G0 X53.934 Y37.146 Z3.5 
G1 Z0 F500
G1 X55.171 Y36.616 Z0 F800
G0 Z3.5 F500
G0 X60.475 Y37.323 Z3.5 
G1 Z0 F500
G1 X64.011 Y35.909 Z0 F800
G0 Z3.5 F500
G0 X65.779 Y36.262 Z3.5 
G1 Z0 F500
G1 X66.663 Y35.732 Z0 F800
G0 Z3.5 F500
G0 X66.309 Y36.616 Z3.5 
G1 Z0 F500
G1 X68.961 Y35.732 Z0 F800
G0 Z3.5 F500
G0 X67.901 Y40.329 Z3.5 
G1 Z0 F500
G1 X67.906 Y41.015 Z0 F800
G1 X67.922 Y41.75 Z0 F800
G1 X67.946 Y42.529 Z0 F800
G1 X67.976 Y43.344 Z0 F800
G1 X68.045 Y45.055 Z0 F800
G1 X68.113 Y46.827 Z0 F800
G1 X68.164 Y48.604 Z0 F800
G1 X68.18 Y50.331 Z0 F800
G1 X68.17 Y51.158 Z0 F800
G1 X68.145 Y51.952 Z0 F800
G1 X68.103 Y52.705 Z0 F800
G1 X68.043 Y53.411 Z0 F800
G1 X67.947 Y54.625 Z0 F800
G1 X67.906 Y55.792 Z0 F800
G1 X67.898 Y56.962 Z0 F800
G1 X67.901 Y58.185 Z0 F800
G0 Z3.5 F500
G0 X74.796 Y57.478 Z3.5 
G1 Z0 F500
G1 X74.888 Y57.804 Z0 F800
G1 X74.991 Y58.102 Z0 F800
G1 X75.106 Y58.379 Z0 F800
G1 X75.24 Y58.638 Z0 F800
G1 X75.395 Y58.885 Z0 F800
G1 X75.576 Y59.124 Z0 F800
G1 X75.788 Y59.36 Z0 F800
G1 X76.033 Y59.599 Z0 F800
G0 Z3.5 F500
G0 X77.271 Y60.13 Z3.5 
G1 Z0 F500
G1 X77.978 Y59.422 Z0 F800
G1 X77.732 Y59.32 Z0 F800
G1 X77.504 Y59.242 Z0 F800
G1 X77.289 Y59.193 Z0 F800
G1 X77.08 Y59.181 Z0 F800
G1 X76.873 Y59.21 Z0 F800
G1 X76.663 Y59.285 Z0 F800
G1 X76.444 Y59.413 Z0 F800
G1 X76.21 Y59.599 Z0 F800
G1 X76.55 Y59.827 Z0 F800
G1 X76.806 Y60.058 Z0 F800
G1 X76.989 Y60.297 Z0 F800
G1 X77.107 Y60.547 Z0 F800
G1 X77.167 Y60.811 Z0 F800
G1 X77.18 Y61.093 Z0 F800
G1 X77.152 Y61.395 Z0 F800
G1 X77.094 Y61.721 Z0 F800
G1 X77.37 Y61.788 Z0 F800
G1 X77.62 Y61.842 Z0 F800
G1 X77.846 Y61.884 Z0 F800
G1 X78.053 Y61.915 Z0 F800
G1 X78.425 Y61.945 Z0 F800
G1 X78.767 Y61.941 Z0 F800
G1 X79.11 Y61.907 Z0 F800
G1 X79.484 Y61.851 Z0 F800
G1 X79.922 Y61.778 Z0 F800
G1 X80.918 Y61.625 Z0 F800
G1 X81.856 Y61.472 Z0 F800
G1 X82.111 Y61.436 Z0 F800
G1 X82.385 Y61.408 Z0 F800
G1 X82.707 Y61.385 Z0 F800
G1 X83.105 Y61.367 Z0 F800
G0 Z3.5 F500
G0 X85.58 Y61.721 Z3.5 
G1 Z0 F500
G1 X85.757 Y55.533 Z0 F800
G0 Z3.5 F500
G0 X85.934 Y55.003 Z3.5 
G1 Z0 F500
G1 Y53.765 Z0 F800
G0 Z3.5 F500
G0 X83.458 Y55.356 Z3.5 
G1 Z0 F500
G1 X83.446 Y54.069 Z0 F800
G1 X83.411 Y52.764 Z0 F800
G1 X83.357 Y51.429 Z0 F800
G1 X83.288 Y50.052 Z0 F800
G1 X83.265 Y49.636 Z0 F800
G1 X83.242 Y49.136 Z0 F800
G1 X83.226 Y48.582 Z0 F800
G1 Y48.004 Z0 F800
G1 X83.25 Y47.432 Z0 F800
G1 X83.305 Y46.898 Z0 F800
G1 X83.347 Y46.654 Z0 F800
G1 X83.4 Y46.431 Z0 F800
G1 X83.465 Y46.232 Z0 F800
G1 X83.542 Y46.061 Z0 F800
G1 X83.72 Y45.818 Z0 F800
G1 X83.958 Y45.623 Z0 F800
G1 X84.248 Y45.472 Z0 F800
G1 X84.582 Y45.363 Z0 F800
G1 X84.954 Y45.29 Z0 F800
G1 X85.355 Y45.252 Z0 F800
G1 X85.777 Y45.244 Z0 F800
G1 X86.213 Y45.264 Z0 F800
G1 X87.097 Y45.371 Z0 F800
G1 X87.946 Y45.545 Z0 F800
G1 X88.338 Y45.649 Z0 F800
G1 X88.698 Y45.759 Z0 F800
G1 X89.019 Y45.873 Z0 F800
G1 X89.293 Y45.986 Z0 F800
G0 Z3.5 F500
G0 X88.232 Y45.809 Z3.5 
G1 Z0 F500
G1 Y50.406 Z0 F800
G0 Z3.5 F500
G0 X87.171 Y50.583 Z3.5 
G1 Z0 F500
G1 Y48.284 Z0 F800
G0 Z3.5 F500
G0 X90.353 Z3.5 
G1 Z0 F500
G1 X90.177 Y52.704 Z0 F800
G0 Z3.5 F500
G0 X92.298 Z3.5 
G1 Z0 F500
G1 X92.652 Y48.284 Z0 F800
G0 Z3.5 F500
G0 X91.237 Y49.522 Z3.5 
G1 Z0 F500
G1 X90.707 Y57.301 Z0 F800
G0 Z3.5 F500
G0 X88.232 Z3.5 
G1 Z0 F500
G1 Y58.008 Z0 F800
G0 Z3.5 F500
G0 X88.055 Y58.538 Z3.5 
G1 Z0 F500
G1 X88.232 Y58.008 Z0 F800
G1 X88.323 Y58.438 Z0 F800
G1 X88.39 Y58.906 Z0 F800
G1 X88.437 Y59.409 Z0 F800
G1 X88.464 Y59.942 Z0 F800
G1 X88.474 Y61.075 Z0 F800
G1 X88.439 Y62.267 Z0 F800
G1 X88.377 Y63.479 Z0 F800
G1 X88.309 Y64.673 Z0 F800
G1 X88.279 Y65.25 Z0 F800
G1 X88.255 Y65.809 Z0 F800
G1 X88.238 Y66.343 Z0 F800
G1 X88.232 Y66.848 Z0 F800
G0 Z3.5 F500
G0 X86.994 Y67.555 Z3.5 
G1 Z0 F500
G1 Y65.433 Z0 F800
G0 Z3.5 F500
G0 X89.646 Y65.61 Z3.5 
G1 Z0 F500
G1 X89.469 Y80.815 Z0 F800
G0 Z3.5 F500
G0 X88.762 Y80.991 Z3.5 
G1 Z0 F500
G1 Y81.522 Z0 F800
G0 Z3.5 F500
G0 X88.585 Y80.638 Z3.5 
G1 Z0 F500
G1 Y70.914 Z0 F800
G1 X88.569 Y69.779 Z0 F800
G1 X88.512 Y68.708 Z0 F800
G1 X88.465 Y68.203 Z0 F800
G1 X88.403 Y67.723 Z0 F800
G1 X88.326 Y67.27 Z0 F800
G1 X88.232 Y66.848 Z0 F800
G1 X88.126 Y67.298 Z0 F800
G1 X88.038 Y67.791 Z0 F800
G1 X87.965 Y68.32 Z0 F800
G1 X87.905 Y68.877 Z0 F800
G1 X87.809 Y70.054 Z0 F800
G1 X87.726 Y71.268 Z0 F800
G1 X87.565 Y73.869 Z0 F800
G1 X87.446 Y76.479 Z0 F800
G1 X87.373 Y79.091 Z0 F800
G1 X87.348 Y81.698 Z0 F800
G0 Z3.5 F500
G0 X86.464 Y81.522 Z3.5 
G1 Z0 F500
G1 X86.641 Y75.511 Z0 F800
G0 Z3.5 F500
G0 X85.403 Y76.925 Z3.5 
G1 Z0 F500
G1 X85.226 Y83.997 Z0 F800
G0 Z3.5 F500
G0 X87.171 Y83.466 Z3.5 
G1 Z0 F500
G1 Y82.759 Z0 F800
G0 Z3.5 F500
G0 X83.458 Y82.583 Z3.5 
G1 Z0 F500
G1 X83.165 Y82.551 Z0 F800
G1 X82.911 Y82.531 Z0 F800
G1 X82.688 Y82.525 Z0 F800
G1 X82.486 Y82.535 Z0 F800
G1 X82.104 Y82.607 Z0 F800
G1 X81.691 Y82.76 Z0 F800
G0 Z3.5 F500
G0 X80.807 Y82.406 Z3.5 
G1 Z0 F500
G1 X80.29 Y82.433 Z0 F800
G1 X79.829 Z0 F800
G1 X79.37 Y82.419 Z0 F800
G1 X78.862 Y82.406 Z0 F800
G0 Z3.5 F500
G0 X77.447 Y81.875 Z3.5 
G1 Z0 F500
G1 X77.778 Y82.149 Z0 F800
G1 X78.048 Y82.452 Z0 F800
G1 X78.263 Y82.784 Z0 F800
G1 X78.428 Y83.145 Z0 F800
G1 X78.548 Y83.535 Z0 F800
G1 X78.627 Y83.955 Z0 F800
G1 X78.671 Y84.403 Z0 F800
G1 X78.685 Y84.881 Z0 F800
G0 Z3.5 F500
G0 X75.856 Y84.704 Z3.5 
G1 Z0 F500
G1 X75.447 Y84.695 Z0 F800
G1 X74.991 Y84.673 Z0 F800
G1 X74.494 Y84.637 Z0 F800
G1 X73.966 Y84.592 Z0 F800
G1 X72.85 Y84.478 Z0 F800
G1 X71.71 Y84.348 Z0 F800
G1 X70.102 Y84.159 Z0 F800
G1 X69.627 Y84.105 Z0 F800
G1 X69.196 Y84.061 Z0 F800
G1 X68.818 Y84.026 Z0 F800
G1 X68.501 Y84.004 Z0 F800
G1 X68.254 Y83.997 Z0 F800
G0 Z3.5 F500
G0 Y83.29 Z3.5 
G1 Z0 F500
G1 X68.428 Y83.242 Z0 F800
G1 X68.61 Y83.196 Z0 F800
G1 X68.837 Y83.157 Z0 F800
G1 X69.149 Y83.127 Z0 F800
G1 X69.71 Y83.119 Z0 F800
G1 X70.223 Y83.151 Z0 F800
G1 X70.727 Y83.2 Z0 F800
G1 X72.479 Y83.345 Z0 F800
G1 X73.113 Y83.372 Z0 F800
G1 X73.716 Y83.343 Z0 F800
G1 X73.996 Y83.298 Z0 F800
G1 X74.256 Y83.228 Z0 F800
G1 X74.491 Y83.128 Z0 F800
G1 X74.697 Y82.994 Z0 F800
G1 X74.871 Y82.824 Z0 F800
G1 X75.007 Y82.613 Z0 F800
G1 X75.101 Y82.357 Z0 F800
G1 X75.149 Y82.052 Z0 F800
G1 X75.389 Y82.129 Z0 F800
G1 X75.569 Y82.241 Z0 F800
G1 X75.698 Y82.382 Z0 F800
G1 X75.784 Y82.549 Z0 F800
G1 X75.854 Y82.941 Z0 F800
G1 X75.844 Y83.377 Z0 F800
G1 X75.814 Y83.821 Z0 F800
G1 X75.827 Y84.235 Z0 F800
G1 X75.869 Y84.418 Z0 F800
G1 X75.945 Y84.581 Z0 F800
G1 X76.062 Y84.717 Z0 F800
G1 X76.229 Y84.822 Z0 F800
G1 X76.551 Y84.943 Z0 F800
G1 X76.936 Y85.049 Z0 F800
G1 X77.374 Y85.141 Z0 F800
G1 X77.856 Y85.221 Z0 F800
G1 X78.912 Y85.349 Z0 F800
G1 X80.024 Y85.445 Z0 F800
G1 X80.577 Y85.486 Z0 F800
G1 X81.625 Y85.559 Z0 F800
G1 X82.102 Y85.594 Z0 F800
G1 X82.533 Y85.631 Z0 F800
G1 X82.91 Y85.67 Z0 F800
G1 X83.221 Y85.715 Z0 F800
G1 X83.458 Y85.765 Z0 F800
G0 Z3.5 F500
G0 X81.867 Y85.234 Z3.5 
G1 Z0 F500
G1 X81.826 Y84.757 Z0 F800
G1 X81.717 Y84.261 Z0 F800
G1 X81.562 Y83.751 Z0 F800
G1 X81.38 Y83.233 Z0 F800
G1 X81.194 Y82.71 Z0 F800
G1 X81.024 Y82.188 Z0 F800
G1 X80.892 Y81.672 Z0 F800
G1 X80.819 Y81.167 Z0 F800
G1 Y80.305 Z0 F800
G1 X80.866 Y79.504 Z0 F800
G1 Y79.121 Z0 F800
G1 X80.825 Y78.748 Z0 F800
G1 X80.729 Y78.382 Z0 F800
G1 X80.562 Y78.022 Z0 F800
G1 X80.425 Y77.815 Z0 F800
G1 X80.28 Y77.643 Z0 F800
G1 X80.126 Y77.504 Z0 F800
G1 X79.965 Y77.396 Z0 F800
G1 X79.618 Y77.255 Z0 F800
G1 X79.24 Y77.197 Z0 F800
G1 X78.833 Z0 F800
G1 X78.397 Y77.225 Z0 F800
G1 X77.935 Y77.261 Z0 F800
G1 X77.447 Y77.279 Z0 F800
G1 X77.54 Y78.271 Z0 F800
G1 X77.683 Y79.347 Z0 F800
G1 X77.709 Y79.905 Z0 F800
G1 X77.671 Y80.471 Z0 F800
G1 X77.62 Y80.756 Z0 F800
G1 X77.544 Y81.041 Z0 F800
G1 X77.439 Y81.325 Z0 F800
G1 X77.302 Y81.609 Z0 F800
G1 X77.18 Y81.781 Z0 F800
G1 X77.035 Y81.896 Z0 F800
G1 X76.871 Y81.963 Z0 F800
G1 X76.691 Y81.99 Z0 F800
G1 X76.29 Y81.96 Z0 F800
G1 X75.856 Y81.875 Z0 F800
G0 Z3.5 F500
G0 X75.149 Y82.052 Z3.5 
G1 Z0 F500
G1 X74.442 Y81.345 Z0 F800
G0 Z3.5 F500
G0 X71.436 Y81.876 Z3.5 
G1 Z0 F500
G1 Y83.113 Z0 F800
G0 Z3.5 F500
G0 X67.901 Y81.168 Z3.5 
G1 Z0 F500
G1 Y80.815 Z0 F800
G0 Z3.5 F500
G0 X70.906 Y76.395 Z3.5 
G1 Z0 F500
G1 Y75.882 Z0 F800
G1 X70.892 Y75.435 Z0 F800
G1 X70.841 Y74.982 Z0 F800
G1 X70.729 Y74.45 Z0 F800
G0 Z3.5 F500
G0 X69.492 Y71.091 Z3.5 
G1 Z0 F500
G1 Y69.5 Z0 F800
G0 Z3.5 F500
G0 X70.906 Z3.5 
G1 Z0 F500
G1 X70.912 Y71.975 Z0 F800
G1 X70.405 Y75.334 Z0 F800
G1 X70.906 Y78.693 Z0 F800
G0 Z3.5 F500
G0 X74.796 Y77.102 Z3.5 
G1 Z0 F500
G1 X77.271 Z0 F800
G0 Z3.5 F500
G0 X77.447 Y76.925 Z3.5 
G1 Z0 F500
G1 X77.44 Y76.701 Z0 F800
G1 X77.421 Y76.448 Z0 F800
G1 X77.393 Y76.171 Z0 F800
G1 X77.284 Y75.24 Z0 F800
G1 X77.223 Y74.582 Z0 F800
G1 X77.199 Y73.94 Z0 F800
G1 X77.236 Y73.349 Z0 F800
G1 X77.285 Y73.085 Z0 F800
G1 X77.359 Y72.848 Z0 F800
G1 X77.461 Y72.643 Z0 F800
G1 X77.593 Y72.474 Z0 F800
G1 X77.786 Y72.327 Z0 F800
G1 X78.041 Y72.206 Z0 F800
G1 X78.348 Y72.109 Z0 F800
G1 X78.699 Y72.034 Z0 F800
G1 X79.501 Y71.939 Z0 F800
G1 X80.378 Y71.903 Z0 F800
G1 X81.262 Y71.907 Z0 F800
G1 X82.086 Y71.932 Z0 F800
G1 X83.06 Y71.971 Z0 F800
G1 X83.282 Y71.975 Z0 F800
G0 Z3.5 F500
G0 X84.342 Y73.743 Z3.5 
G1 Z0 F500
G1 X84.696 Y59.599 Z0 F800
G0 Z3.5 F500
G0 X78.155 Y59.776 Z3.5 
G1 Z0 F500
G1 X78.431 Y59.511 Z0 F800
G1 X78.627 Y59.192 Z0 F800
G1 X78.756 Y58.827 Z0 F800
G1 X78.83 Y58.424 Z0 F800
G1 X78.872 Y57.537 Z0 F800
G1 X78.862 Y56.594 Z0 F800
G0 Z3.5 F500
G0 X77.978 Y57.124 Z3.5 
G1 Z0 F500
G1 Y57.478 Z0 F800
G0 Z3.5 F500
G0 X77.271 Y57.301 Z3.5 
G1 Z0 F500
G1 X77.447 Y58.008 Z0 F800
G0 Z3.5 F500
G0 X76.74 Y57.831 Z3.5 
G1 Z0 F500
G1 X76.478 Y57.707 Z0 F800
G1 X76.254 Y57.585 Z0 F800
G1 X76.061 Y57.457 Z0 F800
G1 X75.892 Y57.313 Z0 F800
G1 X75.741 Y57.146 Z0 F800
G1 X75.601 Y56.946 Z0 F800
G1 X75.465 Y56.706 Z0 F800
G1 X75.326 Y56.417 Z0 F800
G0 Z3.5 F500
G0 X76.917 Y56.594 Z3.5 
G1 Z0 F500
G1 Y56.24 Z0 F800
G0 Z3.5 F500
G0 X76.387 Y55.179 Z3.5 
G1 Z0 F500
G1 X76.537 Y55.038 Z0 F800
G1 X76.658 Y54.916 Z0 F800
G1 X76.756 Y54.805 Z0 F800
G1 X76.836 Y54.697 Z0 F800
G1 X76.966 Y54.455 Z0 F800
G1 X77.094 Y54.119 Z0 F800
G0 Z3.5 F500
G0 X78.155 Y54.295 Z3.5 
G1 Z0 F500
G1 X78.444 Y54.782 Z0 F800
G1 X78.693 Y55.192 Z0 F800
G1 X78.924 Y55.531 Z0 F800
G1 X79.16 Y55.8 Z0 F800
G1 X79.426 Y56.002 Z0 F800
G1 X79.744 Y56.141 Z0 F800
G1 X79.93 Y56.188 Z0 F800
G1 X80.138 Y56.219 Z0 F800
G1 X80.37 Y56.237 Z0 F800
G1 X80.63 Y56.24 Z0 F800
G1 X80.602 Y57.46 Z0 F800
G1 X80.509 Y59.207 Z0 F800
G1 X80.481 Y59.853 Z0 F800
G1 X80.461 Y60.566 Z0 F800
G1 X80.453 Y61.367 Z0 F800
G1 Y63.135 Z0 F800
G1 X80.509 Y65.373 Z0 F800
G1 X80.751 Y69.944 Z0 F800
G1 X80.807 Y72.152 Z0 F800
G1 Y77.455 Z0 F800
G1 X83.282 Z0 F800
G0 Z3.5 F500
G0 X91.414 Y73.036 Z3.5 
G1 Z0 F500
G1 X91.469 Y69.368 Z0 F800
G1 X91.711 Y62.03 Z0 F800
G1 X91.792 Y56.875 Z0 F800
G1 X91.875 Y55.336 Z0 F800
G1 X91.944 Y54.594 Z0 F800
G1 X92.037 Y53.896 Z0 F800
G1 X92.154 Y53.26 Z0 F800
G1 X92.298 Y52.705 Z0 F800
G1 X92.364 Y53.023 Z0 F800
G1 X92.417 Y53.396 Z0 F800
G1 X92.459 Y53.819 Z0 F800
G1 X92.49 Y54.283 Z0 F800
G1 X92.525 Y55.311 Z0 F800
G1 X92.532 Y56.426 Z0 F800
G1 X92.521 Y57.572 Z0 F800
G1 X92.483 Y59.744 Z0 F800
G1 X92.477 Y60.222 Z0 F800
G1 Y60.66 Z0 F800
G1 X92.42 Y66.272 Z0 F800
G1 X92.177 Y77.501 Z0 F800
G1 X92.121 Y83.113 Z0 F800
G0 Z3.5 F500
G0 X93.182 Y83.466 Z3.5 
G1 Z0 F500
G1 X93.713 Y58.892 Z0 F800
G0 Z3.5 F500
G0 X94.42 Y64.726 Z3.5 
G1 Z0 F500
G1 X94.243 Y71.621 Z0 F800
G0 Z3.5 F500
G0 X95.657 Y72.505 Z3.5 
G1 Z0 F500
G1 X96.18 Y68.616 Z0 F800
G1 X96.364 Y65.964 Z0 F800
G0 Z3.5 F500
G0 X95.304 Y67.732 Z3.5 
G1 Z0 F500
G1 Y68.439 Z0 F800
G0 Z3.5 F500
G0 X96.188 Y69.676 Z3.5 
G1 Z0 F500
G1 X96.304 Y70.275 Z0 F800
G1 X96.355 Y70.873 Z0 F800
G1 X96.364 Y71.193 Z0 F800
G1 Y71.536 Z0 F800
G1 Y72.328 Z0 F800
G0 Z3.5 F500
G0 X103.436 Y74.98 Z3.5 
G1 Z0 F500
G1 X111.569 Z0 F800
G0 Z3.5 F500
G0 X112.629 Y75.334 Z3.5 
G1 Z0 F500
G1 Y72.859 Z0 F800
G0 Z3.5 F500
G0 X114.928 Y73.92 Z3.5 
G1 Z0 F500
G1 X114.934 Y73.034 Z0 F800
G1 X114.931 Y72.644 Z0 F800
G1 X114.914 Y72.279 Z0 F800
G1 X114.877 Y71.932 Z0 F800
G1 X114.813 Y71.594 Z0 F800
G1 X114.714 Y71.257 Z0 F800
G1 X114.574 Y70.914 Z0 F800
G1 X114.473 Y71.187 Z0 F800
G1 X114.39 Y71.49 Z0 F800
G1 X114.323 Y71.819 Z0 F800
G1 X114.271 Y72.168 Z0 F800
G1 X114.204 Y72.913 Z0 F800
G1 X114.177 Y73.69 Z0 F800
G1 Y74.461 Z0 F800
G1 X114.193 Y75.193 Z0 F800
G1 X114.212 Y75.849 Z0 F800
G1 X114.218 Y76.138 Z0 F800
G1 X114.221 Y76.395 Z0 F800
G0 Z3.5 F500
G0 X113.69 Y76.041 Z3.5 
G1 Z0 F500
G1 X113.641 Y75.537 Z0 F800
G1 X113.625 Y75.083 Z0 F800
G1 X113.629 Y74.661 Z0 F800
G1 X113.64 Y74.25 Z0 F800
G1 X113.646 Y73.832 Z0 F800
G1 X113.635 Y73.385 Z0 F800
G1 X113.595 Y72.89 Z0 F800
G1 X113.398 Y71.521 Z0 F800
G1 X113.327 Y70.688 Z0 F800
G1 X113.293 Y69.835 Z0 F800
G1 X113.284 Y68.967 Z0 F800
G1 X113.311 Y67.203 Z0 F800
G1 X113.337 Y65.433 Z0 F800
G0 Z3.5 F500
G0 X114.397 Y66.671 Z3.5 
G1 Z0 F500
G1 Y67.555 Z0 F800
G0 Z3.5 F500
G0 X114.221 Y67.732 Z3.5 
G1 Z0 F500
G1 X113.867 Y67.025 Z0 F800
G0 Z3.5 F500
G0 X115.635 Y67.909 Z3.5 
G1 Z0 F500
G1 X116.696 Y63.489 Z0 F800
G0 Z3.5 F500
G0 X115.458 Z3.5 
G1 Z0 F500
G1 Y62.782 Z0 F800
G0 Z3.5 F500
G0 X115.812 Y62.428 Z3.5 
G1 Z0 F500
G1 X115.816 Y61.95 Z0 F800
G1 X115.829 Y61.558 Z0 F800
G1 X115.853 Y61.236 Z0 F800
G1 X115.888 Y60.968 Z0 F800
G1 X115.997 Y60.534 Z0 F800
G1 X116.165 Y60.13 Z0 F800
G0 Z3.5 F500
G0 X117.049 Y59.953 Z3.5 
G1 Z0 F500
G1 Y57.124 Z0 F800
G0 Z3.5 F500
G0 X115.989 Y56.947 Z3.5 
G1 Z0 F500
G1 X115.635 Z0 F800
G0 Z3.5 F500
G0 Y57.478 Z3.5 
G1 Z0 F500
G1 X115.458 Y56.771 Z0 F800
G1 X115.105 Z0 F800
G1 X115.009 Y57.203 Z0 F800
G1 X114.934 Y57.66 Z0 F800
G1 X114.876 Y58.142 Z0 F800
G1 X114.833 Y58.645 Z0 F800
G1 X114.779 Y59.709 Z0 F800
G1 X114.751 Y60.837 Z0 F800
G0 Z3.5 F500
G0 X113.513 Y60.483 Z3.5 
G1 Z0 F500
G1 Y57.831 Z0 F800
G0 Z3.5 F500
G0 X112.983 Y58.715 Z3.5 
G1 Z0 F500
G1 X112.806 Y59.599 Z0 F800
G0 Z3.5 F500
G0 X111.392 Y59.776 Z3.5 
G1 Z0 F500
G1 Y58.892 Z0 F800
G0 Z3.5 F500
G0 X110.685 Y59.069 Z3.5 
G1 Z0 F500
G1 Y61.544 Z0 F800
G0 Z3.5 F500
G0 X110.154 Y61.014 Z3.5 
G1 Z0 F500
G1 X109.978 Y62.605 Z0 F800
G0 Z3.5 F500
G0 X109.447 Y62.428 Z3.5 
G1 Z0 F500
G1 X109.624 Y59.776 Z0 F800
G0 Z3.5 F500
G0 X109.27 Y59.246 Z3.5 
G1 Z0 F500
G1 X109.094 Y62.251 Z0 F800
G0 Z3.5 F500
G0 X108.563 Y61.898 Z3.5 
G1 Z0 F500
G1 X108.74 Y56.947 Z0 F800
G0 Z3.5 F500
G0 X108.033 Y57.478 Z3.5 
G1 Z0 F500
G1 X107.973 Y57.918 Z0 F800
G1 X107.92 Y58.348 Z0 F800
G1 X107.898 Y58.578 Z0 F800
G1 X107.879 Y58.829 Z0 F800
G1 X107.865 Y59.108 Z0 F800
G1 X107.856 Y59.422 Z0 F800
G0 Z3.5 F500
G0 X107.149 Y60.13 Z3.5 
G1 Z0 F500
G1 X107.13 Y59.642 Z0 F800
G1 X107.091 Y59.056 Z0 F800
G1 X107.059 Y58.418 Z0 F800
G1 Y57.77 Z0 F800
G1 X107.079 Y57.457 Z0 F800
G1 X107.117 Y57.159 Z0 F800
G1 X107.177 Y56.881 Z0 F800
G1 X107.261 Y56.629 Z0 F800
G1 X107.372 Y56.408 Z0 F800
G1 X107.515 Y56.224 Z0 F800
G1 X107.692 Y56.082 Z0 F800
G1 X107.906 Y55.989 Z0 F800
G1 X108.229 Y55.917 Z0 F800
G1 X108.6 Y55.871 Z0 F800
G1 X109.013 Y55.849 Z0 F800
G1 X109.461 Z0 F800
G1 X110.43 Y55.908 Z0 F800
G1 X111.452 Y56.036 Z0 F800
G1 X112.469 Y56.217 Z0 F800
G1 X113.425 Y56.439 Z0 F800
G1 X113.863 Y56.561 Z0 F800
G1 X114.264 Y56.687 Z0 F800
G1 X114.621 Y56.817 Z0 F800
G1 X114.928 Y56.947 Z0 F800
G0 Z3.5 F500
G0 X118.64 Y59.069 Z3.5 
G1 Z0 F500
G1 Y63.489 Z0 F800
G0 Z3.5 F500
G0 X119.171 Y63.842 Z3.5 
G1 Z0 F500
G1 Y64.019 Z0 F800
G0 Z3.5 F500
G0 X120.055 Y63.842 Z3.5 
G1 Z0 F500
G1 X119.892 Y60.13 Z0 F800
G1 X120.055 Y57.478 Z0 F800
G0 Z3.5 F500
G0 X120.939 Z3.5 
G1 Z0 F500
G1 X119.734 Y57.318 Z0 F800
G1 X118.49 Y57.138 Z0 F800
G1 X117.874 Y57.073 Z0 F800
G1 X117.276 Y57.041 Z0 F800
G1 X116.703 Y57.053 Z0 F800
G1 X116.165 Y57.124 Z0 F800
G1 X116.211 Y57.369 Z0 F800
G1 X116.243 Y57.582 Z0 F800
G1 X116.262 Y57.768 Z0 F800
G1 X116.271 Y57.932 Z0 F800
G1 X116.262 Y58.211 Z0 F800
G1 X116.229 Y58.454 Z0 F800
G1 X116.186 Y58.696 Z0 F800
G1 X116.146 Y58.973 Z0 F800
G1 X116.131 Y59.136 Z0 F800
G1 X116.123 Y59.321 Z0 F800
G1 Y59.533 Z0 F800
G1 X116.129 Y59.776 Z0 F800
G1 X116.161 Y60.342 Z0 F800
G1 X116.196 Y60.846 Z0 F800
G1 X116.266 Y61.762 Z0 F800
G1 X116.296 Y62.217 Z0 F800
G1 X116.32 Y62.701 Z0 F800
G1 X116.336 Y63.235 Z0 F800
G1 X116.342 Y63.842 Z0 F800
G0 Z3.5 F500
G0 X114.751 Y63.666 Z3.5 
G1 Z0 F500
G1 Y62.605 Z0 F800
G0 Z3.5 F500
G0 X119.171 Y62.074 Z3.5 
G1 Z0 F500
G1 X119.348 Y59.776 Z0 F800
G0 Z3.5 F500
G0 X120.585 Y59.953 Z3.5 
G1 Z0 F500
G1 X120.942 Y67.378 Z0 F800
G1 X120.84 Y73.566 Z0 F800
G1 X120.447 Y75.157 Z0 F800
G1 X120.408 Y78.339 Z0 F800
G0 Z3.5 F500
G0 X121.116 Z3.5 
G1 Z0 F500
G1 Y74.627 Z0 F800
G0 Z3.5 F500
G0 X121.646 Y74.804 Z3.5 
G1 Z0 F500
G1 X121.823 Y79.931 Z0 F800
G0 Z3.5 F500
G0 X120.762 Y79.4 Z3.5 
G1 Z0 F500
G1 X120.408 Y78.34 Z0 F800
G1 X120.236 Y78.719 Z0 F800
G1 X120.108 Y79.066 Z0 F800
G1 X120.038 Y79.392 Z0 F800
G1 Y79.707 Z0 F800
G1 X120.126 Y80.021 Z0 F800
G1 X120.313 Y80.345 Z0 F800
G1 X120.447 Y80.515 Z0 F800
G1 X120.612 Y80.69 Z0 F800
G1 X120.809 Y80.874 Z0 F800
G1 X121.039 Y81.066 Z0 F800
G1 X121.315 Y81.275 Z0 F800
G1 X121.532 Y81.424 Z0 F800
G1 X121.701 Y81.537 Z0 F800
G1 X121.831 Y81.638 Z0 F800
G1 X121.933 Y81.751 Z0 F800
G1 X122.018 Y81.901 Z0 F800
G1 X122.096 Y82.111 Z0 F800
G1 X122.176 Y82.406 Z0 F800
G0 Z3.5 F500
G0 X120.939 Y82.583 Z3.5 
G1 Z0 F500
G1 Y81.522 Z0 F800
G1 X120.691 Y81.691 Z0 F800
G1 X120.505 Y81.872 Z0 F800
G1 X120.428 Y81.992 Z0 F800
G1 X120.358 Y82.143 Z0 F800
G1 X120.294 Y82.337 Z0 F800
G1 X120.232 Y82.583 Z0 F800
G0 Z3.5 F500
G0 X120.055 Y81.698 Z3.5 
G1 Z0 F500
G1 X119.739 Y81.645 Z0 F800
G1 X119.457 Y81.614 Z0 F800
G1 X119.199 Y81.602 Z0 F800
G1 X118.955 Y81.606 Z0 F800
G1 X118.473 Y81.643 Z0 F800
G1 X117.933 Y81.698 Z0 F800
G0 Z3.5 F500
G0 X116.519 Y81.876 Z3.5 
G1 Z0 F500
G1 X116.224 Z0 F800
G1 X115.533 Y81.865 Z0 F800
G1 X115.149 Y81.862 Z0 F800
G1 X114.336 Y81.872 Z0 F800
G1 X113.506 Y81.914 Z0 F800
G1 X113.101 Y81.953 Z0 F800
G1 X112.711 Y82.007 Z0 F800
G1 X112.341 Y82.078 Z0 F800
G1 X112 Y82.167 Z0 F800
G1 X111.692 Y82.278 Z0 F800
G1 X111.425 Y82.413 Z0 F800
G1 X111.205 Y82.572 Z0 F800
G1 X111.038 Y82.76 Z0 F800
G0 Z3.5 F500
G0 X110.861 Y82.229 Z3.5 
G1 Z0 F500
G1 X110.478 Y82.207 Z0 F800
G1 X110.106 Y82.155 Z0 F800
G1 X109.745 Y82.075 Z0 F800
G1 X109.396 Y81.969 Z0 F800
G1 X108.728 Y81.695 Z0 F800
G1 X108.1 Y81.353 Z0 F800
G1 X107.508 Y80.965 Z0 F800
G1 X106.948 Y80.555 Z0 F800
G1 X105.911 Y79.754 Z0 F800
G1 X105.558 Y80.991 Z0 F800
G0 Z3.5 F500
G0 X105.027 Y81.345 Z3.5 
G1 Z0 F500
G1 X104.851 Y79.931 Z0 F800
G0 Z3.5 F500
G0 X104.32 Y79.577 Z3.5 
G1 Z0 F500
G1 X104.354 Y80.199 Z0 F800
G1 X104.419 Y80.743 Z0 F800
G1 X104.504 Y81.232 Z0 F800
G1 X104.692 Y82.135 Z0 F800
G1 X104.773 Y82.595 Z0 F800
G1 X104.829 Y83.09 Z0 F800
G1 X104.851 Y83.643 Z0 F800
G0 Z3.5 F500
G0 X105.734 Y83.466 Z3.5 
G1 Z0 F500
G1 Y82.229 Z0 F800
G0 Z3.5 F500
G0 X106.795 Y82.406 Z3.5 
G1 Z0 F500
G1 Y81.699 Z0 F800
G0 Z3.5 F500
G0 X106.265 Y81.168 Z3.5 
G1 Z0 F500
G1 X107.326 Y83.82 Z0 F800
G0 Z3.5 F500
G0 X108.033 Y83.113 Z3.5 
G1 Z0 F500
G1 Y82.229 Z0 F800
G0 Z3.5 F500
G0 X107.502 Y82.406 Z3.5 
G1 Z0 F500
G1 X107.149 Y82.936 Z0 F800
G0 Z3.5 F500
G0 X103.966 Y82.406 Z3.5 
G1 Z0 F500
G1 X103.988 Y81.738 Z0 F800
G1 X104.035 Y81.129 Z0 F800
G1 X104.083 Y80.569 Z0 F800
G1 X104.105 Y80.048 Z0 F800
G1 X104.077 Y79.556 Z0 F800
G1 X103.973 Y79.085 Z0 F800
G1 X103.885 Y78.853 Z0 F800
G1 X103.768 Y78.623 Z0 F800
G1 X103.619 Y78.393 Z0 F800
G1 X103.436 Y78.163 Z0 F800
G1 X103.371 Y78.462 Z0 F800
G1 X103.319 Y78.793 Z0 F800
G1 X103.278 Y79.15 Z0 F800
G1 X103.248 Y79.53 Z0 F800
G1 X103.213 Y80.337 Z0 F800
G1 X103.205 Y81.179 Z0 F800
G1 X103.215 Y82.019 Z0 F800
G1 X103.243 Y83.199 Z0 F800
G1 X103.257 Y83.879 Z0 F800
G1 Y84.174 Z0 F800
G0 Z3.5 F500
G0 X97.425 Y85.058 Z3.5 
G1 Z0 F500
G1 Y74.03 Z0 F800
G1 X97.428 Y64.471 Z0 F800
G1 X97.425 Y59.953 Z0 F800
G1 X97.402 Y59.246 Z0 F800
G1 X97.352 Y58.615 Z0 F800
G1 X97.296 Y57.99 Z0 F800
G1 X97.255 Y57.301 Z0 F800
G1 X97.249 Y56.231 Z0 F800
G1 X97.284 Y55.108 Z0 F800
G1 X97.397 Y52.776 Z0 F800
G1 X97.432 Y51.604 Z0 F800
G1 X97.425 Y50.454 Z0 F800
G1 X97.399 Y49.892 Z0 F800
G1 X97.354 Y49.342 Z0 F800
G1 X97.288 Y48.807 Z0 F800
G1 X97.198 Y48.289 Z0 F800
G1 X97.137 Y48.063 Z0 F800
G1 X97.053 Y47.865 Z0 F800
G1 X96.948 Y47.693 Z0 F800
G1 X96.824 Y47.545 Z0 F800
G1 X96.522 Y47.312 Z0 F800
G1 X96.163 Y47.146 Z0 F800
G1 X95.325 Y46.938 Z0 F800
G1 X94.42 Y46.77 Z0 F800
G1 X93.863 Y46.642 Z0 F800
G1 X92.822 Y46.387 Z0 F800
G1 X92.341 Y46.276 Z0 F800
G1 X91.889 Y46.187 Z0 F800
G1 X91.467 Y46.126 Z0 F800
G1 X91.077 Y46.102 Z0 F800
G1 X90.721 Y46.123 Z0 F800
G1 X90.4 Y46.196 Z0 F800
G1 X90.116 Y46.328 Z0 F800
G1 X89.872 Y46.529 Z0 F800
G1 X89.668 Y46.804 Z0 F800
G1 X89.582 Y46.973 Z0 F800
G1 X89.506 Y47.163 Z0 F800
G1 X89.442 Y47.376 Z0 F800
G1 X89.389 Y47.613 Z0 F800
G1 X89.347 Y47.874 Z0 F800
G1 X89.317 Y48.161 Z0 F800
G1 X89.299 Y48.474 Z0 F800
G1 X89.293 Y48.815 Z0 F800
G0 Z3.5 F500
G0 X90.53 Y46.693 Z3.5 
G1 Z0 F500
G1 Y46.163 Z0 F800
G0 Z3.5 F500
G0 X97.425 Y47.4 Z3.5 
G1 Z0 F500
G1 X97.811 Y47.281 Z0 F800
G1 X98.483 Y47.077 Z0 F800
G1 X98.782 Y46.982 Z0 F800
G1 X99.343 Y46.778 Z0 F800
G1 X99.9 Y46.517 Z0 F800
G0 Z3.5 F500
G0 X101.315 Y46.693 Z3.5 
G1 Z0 F500
G1 X101.59 Y46.642 Z0 F800
G1 X101.839 Y46.618 Z0 F800
G1 X102.071 Y46.622 Z0 F800
G1 X102.293 Y46.654 Z0 F800
G1 X102.515 Y46.712 Z0 F800
G1 X102.745 Y46.797 Z0 F800
G1 X102.99 Y46.909 Z0 F800
G1 X103.259 Y47.047 Z0 F800
G0 Z3.5 F500
G0 X103.79 Y44.925 Z3.5 
G1 Z0 F500
G1 X115.989 Y42.594 Z0 F800
G1 X128.894 Y40.152 Z0 F800
G0 Z3.5 F500
G0 X126.419 Y39.798 Z3.5 
G1 Z0 F500
G1 X125.618 Y39.55 Z0 F800
G1 X124.825 Y39.274 Z0 F800
G1 X124.04 Y38.974 Z0 F800
G1 X123.263 Y38.654 Z0 F800
G1 X121.732 Y37.963 Z0 F800
G1 X120.232 Y37.227 Z0 F800
G1 X119.882 Y37.042 Z0 F800
G1 X119.57 Y36.863 Z0 F800
G1 X119.006 Y36.523 Z0 F800
G1 X118.728 Y36.362 Z0 F800
G1 X118.436 Y36.206 Z0 F800
G1 X118.117 Y36.055 Z0 F800
G1 X117.756 Y35.909 Z0 F800
G0 Z3.5 F500
G0 X118.994 Y36.262 Z3.5 
G1 Z0 F500
G1 X119.281 Y36.299 Z0 F800
G1 X119.62 Y36.365 Z0 F800
G1 X120.006 Y36.459 Z0 F800
G1 X120.43 Y36.575 Z0 F800
G1 X121.372 Y36.865 Z0 F800
G1 X122.393 Y37.208 Z0 F800
G1 X123.443 Y37.576 Z0 F800
G1 X124.469 Y37.943 Z0 F800
G1 X125.419 Y38.28 Z0 F800
G1 X125.85 Y38.429 Z0 F800
G1 X126.243 Y38.561 Z0 F800
G0 Z3.5 F500
G0 X126.596 Y38.738 Z3.5 
G1 Z0 F500
G1 X126.773 Z0 F800
G0 Z3.5 F500
G0 X124.651 Y40.152 Z3.5 
G1 Z0 F500
G1 X123.591 Y39.798 Z0 F800
G0 Z3.5 F500
G0 X118.64 Y37.146 Z3.5 
G1 Z0 F500
G1 X115.635 Y35.909 Z0 F800
G0 Z3.5 F500
G0 X114.574 Y36.086 Z3.5 
G1 Z0 F500
G1 X116.519 Y37.146 Z0 F800
G0 Z3.5 F500
G0 X111.392 Y39.622 Z3.5 
G1 Z0 F500
G1 X109.27 Y40.329 Z0 F800
G0 Z3.5 F500
G0 X109.801 Y39.445 Z3.5 
G1 Z0 F500
G1 X109.978 Z0 F800
G0 Z3.5 F500
G0 X108.563 Y38.207 Z3.5 
G1 Z0 F500
G1 X108.386 Z0 F800
G0 Z3.5 F500
G0 X108.917 Y36.262 Z3.5 
G1 Z0 F500
G1 X109.801 Y35.732 Z0 F800
G0 Z3.5 F500
G0 X105.381 Z3.5 
G1 Z0 F500
G1 X103.967 Y36.616 Z0 F800
G0 Z3.5 F500
G0 X102.022 Y39.091 Z3.5 
G1 Z0 F500
G1 X98.132 Y40.505 Z0 F800
G0 Z3.5 F500
G0 X97.602 Y38.207 Z3.5 
G1 Z0 F500
G1 X93.359 Y39.622 Z0 F800
G0 Z3.5 F500
G0 X92.475 Y36.439 Z3.5 
G1 Z0 F500
G1 X92.829 Y36.262 Z0 F800
G0 Z3.5 F500
G0 X83.105 Y45.809 Z3.5 
G1 Z0 F500
G1 X82.677 Y45.824 Z0 F800
G1 X82.271 Y45.847 Z0 F800
G1 X81.894 Y45.893 Z0 F800
G1 X81.553 Y45.98 Z0 F800
G1 X81.253 Y46.123 Z0 F800
G1 X81.004 Y46.34 Z0 F800
G1 X80.9 Y46.48 Z0 F800
G1 X80.81 Y46.645 Z0 F800
G1 X80.737 Y46.836 Z0 F800
G1 X80.68 Y47.056 Z0 F800
G1 X80.618 Y47.383 Z0 F800
G1 X80.57 Y47.683 Z0 F800
G1 X80.536 Y47.96 Z0 F800
G1 X80.514 Y48.216 Z0 F800
G1 X80.499 Y48.681 Z0 F800
G1 X80.514 Y49.106 Z0 F800
G1 X80.547 Y49.517 Z0 F800
G1 X80.585 Y49.941 Z0 F800
G1 X80.617 Y50.405 Z0 F800
G1 X80.63 Y50.936 Z0 F800
G1 X81.237 Y50.802 Z0 F800
G1 X81.783 Y50.702 Z0 F800
G1 X82.326 Y50.631 Z0 F800
G1 X82.928 Y50.583 Z0 F800
G0 Z3.5 F500
G0 X78.331 Y50.936 Z3.5 
G1 Z0 F500
G1 X78.628 Y50.037 Z0 F800
G1 X78.947 Y49.13 Z0 F800
G1 X79.048 Y48.676 Z0 F800
G1 X79.074 Y48.221 Z0 F800
G1 X79.05 Y47.994 Z0 F800
G1 X78.997 Y47.768 Z0 F800
G1 X78.912 Y47.542 Z0 F800
G1 X78.792 Y47.316 Z0 F800
G1 X78.628 Y47.124 Z0 F800
G1 X78.436 Y47.018 Z0 F800
G1 X78.223 Y46.983 Z0 F800
G1 X77.997 Y47.007 Z0 F800
G1 X77.531 Y47.171 Z0 F800
G1 X77.094 Y47.4 Z0 F800
G0 Z3.5 F500
G0 X76.564 Y46.516 Z3.5 
G1 Z0 F500
G1 X77.978 Y45.986 Z0 F800
G0 Z3.5 F500
G0 X78.862 Y46.87 Z3.5 
G1 Z0 F500
G1 X80.453 Y46.34 Z0 F800
G0 Z3.5 F500
G0 X74.619 Y45.102 Z3.5 
G1 Z0 F500
G1 X74.506 Y45.448 Z0 F800
G1 X74.422 Y45.755 Z0 F800
G1 X74.361 Y46.03 Z0 F800
G1 X74.319 Y46.282 Z0 F800
G1 X74.278 Y46.75 Z0 F800
G1 X74.265 Y47.224 Z0 F800
G0 Z3.5 F500
G0 Y47.577 Z3.5 
G1 Z0 F500
G1 X73.735 Y47.931 Z0 F800
G0 Z3.5 F500
G0 X72.144 Y46.87 Z3.5 
G1 Z0 F500
G1 X70.199 Y47.754 Z0 F800
G0 Z3.5 F500
G0 X70.376 Y48.638 Z3.5 
G1 Z0 F500
G1 X70.186 Y48.57 Z0 F800
G1 X70.026 Y48.489 Z0 F800
G1 X69.893 Y48.397 Z0 F800
G1 X69.785 Y48.295 Z0 F800
G1 X69.633 Y48.061 Z0 F800
G1 X69.549 Y47.795 Z0 F800
G1 X69.505 Y47.186 Z0 F800
G1 X69.492 Y46.516 Z0 F800
G0 Z3.5 F500
G0 X70.553 Y45.633 Z3.5 
G1 Z0 F500
G1 X71.083 Z0 F800
G0 Z3.5 F500
G0 X68.431 Y48.992 Z3.5 
G1 Z0 F500
G1 X68.614 Y48.982 Z0 F800
G1 X68.782 Y49.001 Z0 F800
G1 X68.936 Y49.047 Z0 F800
G1 X69.075 Y49.116 Z0 F800
G1 X69.312 Y49.316 Z0 F800
G1 X69.5 Y49.583 Z0 F800
G1 X69.643 Y49.897 Z0 F800
G1 X69.745 Y50.24 Z0 F800
G1 X69.811 Y50.593 Z0 F800
G1 X69.845 Y50.936 Z0 F800
G0 Z3.5 F500
G0 X70.906 Y50.76 Z3.5 
G1 Z0 F500
G1 X71.301 Y50.663 Z0 F800
G1 X71.973 Y50.495 Z0 F800
G1 X72.268 Y50.424 Z0 F800
G1 X72.821 Y50.308 Z0 F800
G1 X73.381 Y50.229 Z0 F800
G0 Z3.5 F500
G0 Y50.76 Z3.5 
G1 Z0 F500
G1 X73.486 Y50.983 Z0 F800
G1 X73.564 Y51.163 Z0 F800
G1 X73.62 Y51.311 Z0 F800
G1 X73.658 Y51.44 Z0 F800
G1 X73.702 Y51.686 Z0 F800
G1 X73.735 Y51.997 Z0 F800
G0 Z3.5 F500
G0 X73.204 Y52.351 Z3.5 
G1 Z0 F500
G1 X72.748 Y52.268 Z0 F800
G1 X72.342 Y52.238 Z0 F800
G1 X71.969 Y52.255 Z0 F800
G1 X71.612 Y52.314 Z0 F800
G1 X71.255 Y52.411 Z0 F800
G1 X70.882 Y52.541 Z0 F800
G1 X70.477 Y52.7 Z0 F800
G1 X70.022 Y52.881 Z0 F800
G1 X70.906 Y53.765 Z0 F800
G0 Z3.5 F500
G0 X70.022 Y53.058 Z3.5 
G1 Z0 F500
G1 X69.767 Y53.086 Z0 F800
G1 X69.55 Y53.114 Z0 F800
G1 X69.361 Y53.145 Z0 F800
G1 X69.188 Y53.18 Z0 F800
G1 X68.844 Y53.273 Z0 F800
G1 X68.431 Y53.411 Z0 F800
G0 Z3.5 F500
G0 X70.199 Y52.704 Z3.5 
G1 Z0 F500
G1 X70.099 Y51.978 Z0 F800
G1 X70.078 Y51.799 Z0 F800
G1 X70.058 Y51.603 Z0 F800
G1 X70.04 Y51.377 Z0 F800
G1 X70.022 Y51.113 Z0 F800
G1 X70.274 Y51.232 Z0 F800
G1 X70.456 Y51.362 Z0 F800
G1 X70.581 Y51.506 Z0 F800
G1 X70.66 Y51.665 Z0 F800
G1 X70.702 Y51.845 Z0 F800
G1 X70.721 Y52.046 Z0 F800
G1 X70.726 Y52.273 Z0 F800
G1 X70.729 Y52.527 Z0 F800
G0 Z3.5 F500
G0 X72.144 Y53.235 Z3.5 
G1 Z0 F500
G1 X73.028 Y53.411 Z0 F800
G0 Z3.5 F500
G0 X73.735 Y54.119 Z3.5 
G1 Z0 F500
G1 Y54.295 Z0 F800
G0 Z3.5 F500
G0 Y54.649 Z3.5 
G1 Z0 F500
G1 X73.498 Y54.475 Z0 F800
G1 X73.192 Y54.269 Z0 F800
G1 X72.84 Y54.06 Z0 F800
G1 X72.464 Y53.874 Z0 F800
G1 X72.086 Y53.74 Z0 F800
G1 X71.726 Y53.687 Z0 F800
G1 X71.561 Y53.7 Z0 F800
G1 X71.408 Y53.743 Z0 F800
G1 X71.271 Y53.82 Z0 F800
G1 X71.153 Y53.935 Z0 F800
G1 X71.053 Y54.095 Z0 F800
G1 X70.98 Y54.287 Z0 F800
G1 X70.933 Y54.505 Z0 F800
G1 X70.908 Y54.745 Z0 F800
G1 X70.915 Y55.277 Z0 F800
G1 X70.982 Y55.848 Z0 F800
G1 X71.088 Y56.422 Z0 F800
G1 X71.213 Y56.967 Z0 F800
G1 X71.276 Y57.218 Z0 F800
G1 X71.436 Y57.831 Z0 F800
G1 X71.771 Y57.745 Z0 F800
G1 X72.08 Y57.693 Z0 F800
G1 X72.362 Y57.656 Z0 F800
G1 X72.619 Y57.615 Z0 F800
G1 X72.852 Y57.551 Z0 F800
G1 X73.061 Y57.446 Z0 F800
G1 X73.248 Y57.281 Z0 F800
G1 X73.413 Y57.037 Z0 F800
G1 X73.499 Y56.819 Z0 F800
G1 X73.557 Y56.563 Z0 F800
G1 X73.593 Y56.279 Z0 F800
G1 X73.616 Y55.979 Z0 F800
G1 X73.654 Y55.37 Z0 F800
G1 X73.735 Y54.826 Z0 F800
G1 X74.011 Y55.342 Z0 F800
G1 X74.233 Y55.87 Z0 F800
G1 X74.331 Y56.165 Z0 F800
G1 X74.426 Y56.495 Z0 F800
G1 X74.521 Y56.87 Z0 F800
G1 X74.619 Y57.301 Z0 F800
G1 X74.375 Y57.4 Z0 F800
G1 X74.177 Y57.557 Z0 F800
G1 X74.02 Y57.764 Z0 F800
G1 X73.9 Y58.017 Z0 F800
G1 X73.812 Y58.308 Z0 F800
G1 X73.755 Y58.631 Z0 F800
G1 X73.722 Y58.98 Z0 F800
G1 X73.711 Y59.349 Z0 F800
G1 X73.736 Y60.12 Z0 F800
G1 X73.799 Y60.895 Z0 F800
G1 X73.868 Y61.622 Z0 F800
G1 X73.895 Y61.952 Z0 F800
G1 X73.912 Y62.251 Z0 F800
G0 Z3.5 F500
G0 X74.265 Y62.428 Z3.5 
G1 Z0 F500
G1 X75.031 Y62.252 Z0 F800
G1 X75.749 Y62.146 Z0 F800
G1 X76.432 Y62.093 Z0 F800
G1 X77.094 Y62.074 Z0 F800
G1 X77.101 Y62.591 Z0 F800
G1 X77.121 Y63.192 Z0 F800
G1 X77.15 Y63.853 Z0 F800
G1 X77.214 Y65.258 Z0 F800
G1 X77.243 Y65.953 Z0 F800
G1 X77.263 Y66.608 Z0 F800
G1 X77.271 Y67.201 Z0 F800
G1 X74.619 Z0 F800
G0 Z3.5 F500
G0 X70.906 Y67.378 Z3.5 
G1 Z0 F500
G1 Y66.141 Z0 F800
G0 Z3.5 F500
G0 X70.199 Y65.61 Z3.5 
G1 Z0 F500
G1 X70.239 Y66.045 Z0 F800
G1 X70.299 Y66.439 Z0 F800
G1 X70.368 Y66.806 Z0 F800
G1 X70.438 Y67.156 Z0 F800
G1 X70.5 Y67.501 Z0 F800
G1 X70.546 Y67.852 Z0 F800
G1 X70.566 Y68.219 Z0 F800
G1 X70.553 Y68.616 Z0 F800
G0 Z3.5 F500
G0 X69.492 Y67.025 Z3.5 
G1 Z0 F500
G1 X69.669 Y64.373 Z0 F800
G0 Z3.5 F500
G0 X70.376 Y64.726 Z3.5 
G1 Z0 F500
G1 X70.553 Z0 F800
G0 Z3.5 F500
G0 X71.26 Y62.428 Z3.5 
G1 Z0 F500
G1 X71.232 Y61.339 Z0 F800
G1 X71.111 Y59.06 Z0 F800
G1 X71.083 Y58.008 Z0 F800
G1 X70.613 Y57.984 Z0 F800
G1 X70.176 Y57.929 Z0 F800
G1 X69.772 Y57.875 Z0 F800
G1 X69.4 Y57.849 Z0 F800
G1 X69.059 Y57.88 Z0 F800
G1 X68.75 Y57.999 Z0 F800
G1 X68.607 Y58.1 Z0 F800
G1 X68.471 Y58.234 Z0 F800
G1 X68.343 Y58.404 Z0 F800
G1 X68.223 Y58.613 Z0 F800
G1 X68.056 Y59.067 Z0 F800
G1 X67.964 Y59.584 Z0 F800
G1 X67.931 Y60.146 Z0 F800
G1 X67.94 Y60.734 Z0 F800
G1 X67.976 Y61.327 Z0 F800
G1 X68.021 Y61.909 Z0 F800
G1 X68.061 Y62.459 Z0 F800
G1 X68.077 Y62.958 Z0 F800
G0 Z3.5 F500
G0 X59.945 Y63.666 Z3.5 
G1 Z0 F500
G1 X59.667 Y63.883 Z0 F800
G1 X59.449 Y64.111 Z0 F800
G1 X59.284 Y64.35 Z0 F800
G1 X59.168 Y64.599 Z0 F800
G1 X59.095 Y64.856 Z0 F800
G1 X59.059 Y65.121 Z0 F800
G1 X59.055 Y65.395 Z0 F800
G1 X59.078 Y65.675 Z0 F800
G1 X59.329 Y66.851 Z0 F800
G1 X59.573 Y68.085 Z0 F800
G1 X59.605 Y68.466 Z0 F800
G1 X59.622 Y68.812 Z0 F800
G1 X59.627 Y69.126 Z0 F800
G1 X59.623 Y69.412 Z0 F800
G1 X59.601 Y69.917 Z0 F800
G1 X59.578 Y70.36 Z0 F800
G1 Y70.772 Z0 F800
G1 X59.623 Y71.187 Z0 F800
G1 X59.67 Y71.405 Z0 F800
G1 X59.737 Y71.636 Z0 F800
G1 X59.828 Y71.884 Z0 F800
G1 X59.945 Y72.152 Z0 F800
G0 Z3.5 F500
G0 Y72.682 Z3.5 
G1 Z0 F500
G1 X59.591 Y73.92 Z0 F800
G0 Z3.5 F500
G0 Y75.687 Z3.5 
G1 Z0 F500
G1 Y76.925 Z0 F800
G0 Z3.5 F500
G0 X60.122 Y77.102 Z3.5 
G1 Z0 F500
G1 X59.217 Y77.085 Z0 F800
G1 X58.354 Y77.102 Z0 F800
G0 Z3.5 F500
G0 Z3.5 
G1 Z0 F500
G1 X57.693 Y77.029 Z0 F800
G1 X56.963 Y76.978 Z0 F800
G1 X56.185 Y76.945 Z0 F800
G1 X55.382 Y76.928 Z0 F800
G1 X54.574 Y76.921 Z0 F800
G1 X53.784 Z0 F800
G1 X52.343 Y76.925 Z0 F800
G0 Z3.5 F500
G0 Z3.5 
G1 Z0 F500
G1 X52.441 Y77.111 Z0 F800
G1 X52.57 Y77.262 Z0 F800
G1 X52.735 Y77.382 Z0 F800
G1 X52.942 Y77.474 Z0 F800
G1 X53.195 Y77.542 Z0 F800
G1 X53.501 Y77.588 Z0 F800
G1 X53.863 Y77.617 Z0 F800
G1 X54.288 Y77.632 Z0 F800
G0 Z3.5 F500
G0 X54.641 Y78.87 Z3.5 
G1 Z0 F500
G1 X54.199 Y78.849 Z0 F800
G1 X53.81 Y78.813 Z0 F800
G1 X53.467 Y78.776 Z0 F800
G1 X53.162 Y78.752 Z0 F800
G1 X52.887 Z0 F800
G1 X52.634 Y78.793 Z0 F800
G1 X52.396 Y78.887 Z0 F800
G1 X52.166 Y79.047 Z0 F800
G0 Z3.5 F500
G0 Z3.5 
G1 Z0 F500
G1 X52.378 Y79.094 Z0 F800
G1 X52.643 Y79.141 Z0 F800
G1 X52.954 Y79.189 Z0 F800
G1 X53.304 Y79.235 Z0 F800
G1 X54.094 Y79.324 Z0 F800
G1 X54.956 Y79.406 Z0 F800
G1 X55.834 Y79.475 Z0 F800
G1 X56.671 Y79.529 Z0 F800
G1 X57.057 Y79.549 Z0 F800
G1 X57.412 Y79.564 Z0 F800
G1 X57.729 Y79.574 Z0 F800
G1 X58 Y79.577 Z0 F800
G0 Z3.5 F500
G0 Z3.5 
G1 Z0 F500
G1 X58.177 Y80.107 Z0 F800
G0 Z3.5 F500
G0 X58.354 Y79.223 Z3.5 
G1 Z0 F500
G1 X60.122 Z0 F800
G0 Z3.5 F500
G0 X59.768 Y78.339 Z3.5 
G1 Z0 F500
G1 X59.395 Y78.376 Z0 F800
G1 X59.059 Y78.387 Z0 F800
G1 X58.88 Y78.383 Z0 F800
G1 X58.68 Y78.374 Z0 F800
G1 X58.449 Y78.359 Z0 F800
G1 X58.177 Y78.339 Z0 F800
G1 X58.216 Y78.61 Z0 F800
G1 X58.272 Y78.846 Z0 F800
G1 X58.344 Y79.049 Z0 F800
G1 X58.429 Y79.223 Z0 F800
G1 X58.634 Y79.494 Z0 F800
G1 X58.875 Y79.683 Z0 F800
G1 X59.414 Y79.914 Z0 F800
G1 X59.945 Y80.107 Z0 F800
G1 X59.538 Y80.182 Z0 F800
G1 X59.055 Y80.232 Z0 F800
G1 X58.52 Y80.264 Z0 F800
G1 X57.386 Y80.311 Z0 F800
G1 X56.834 Y80.342 Z0 F800
G1 X56.324 Y80.389 Z0 F800
G1 X55.879 Y80.461 Z0 F800
G0 Z3.5 F500
G0 X55.171 Z3.5 
G1 Z0 F500
G1 X56.232 Y81.168 Z0 F800
G0 Z3.5 F500
G0 X57.647 Z3.5 
G1 Z0 F500
G1 X56.232 Z0 F800
G1 X56.3 Y81.697 Z0 F800
G1 X56.354 Y82.291 Z0 F800
G1 X56.4 Y82.584 Z0 F800
G1 X56.472 Y82.857 Z0 F800
G1 X56.579 Y83.1 Z0 F800
G1 X56.731 Y83.3 Z0 F800
G1 X56.926 Y83.467 Z0 F800
G1 X57.133 Y83.598 Z0 F800
G1 X57.349 Y83.694 Z0 F800
G1 X57.572 Y83.761 Z0 F800
G1 X58.032 Y83.819 Z0 F800
G1 X58.498 Y83.797 Z0 F800
G1 X58.955 Y83.724 Z0 F800
G1 X59.388 Y83.626 Z0 F800
G1 X59.782 Y83.531 Z0 F800
G1 X60.122 Y83.466 Z0 F800
G0 Z3.5 F500
G0 Y81.345 Z3.5 
G1 Z0 F500
G1 X58.884 Z0 F800
G0 Z3.5 F500
G0 X58 Y78.163 Z3.5 
G1 Z0 F500
G1 X57.708 Y78.214 Z0 F800
G1 X57.386 Y78.232 Z0 F800
G1 X57.038 Y78.223 Z0 F800
G1 X56.669 Y78.193 Z0 F800
G1 X55.885 Y78.093 Z0 F800
G1 X55.068 Y77.979 Z0 F800
G1 X54.253 Y77.9 Z0 F800
G1 X53.474 Z0 F800
G1 X53.11 Y77.948 Z0 F800
G1 X52.767 Y78.032 Z0 F800
G1 X52.451 Y78.161 Z0 F800
G1 X52.166 Y78.339 Z0 F800
G0 Z3.5 F500
G0 X51.989 Y78.516 Z3.5 
G1 Z0 F500
G1 X51.465 Y78.539 Z0 F800
G1 X50.852 Y78.584 Z0 F800
G1 X50.2 Y78.619 Z0 F800
G1 X49.559 Y78.609 Z0 F800
G1 X49.258 Y78.578 Z0 F800
G1 X48.979 Y78.522 Z0 F800
G1 X48.727 Y78.438 Z0 F800
G1 X48.509 Y78.323 Z0 F800
G1 X48.331 Y78.171 Z0 F800
G1 X48.2 Y77.979 Z0 F800
G1 X48.12 Y77.741 Z0 F800
G1 X48.1 Y77.455 Z0 F800
G1 X48.984 Y77.809 Z0 F800
G0 Z3.5 F500
G0 X48.63 Y77.279 Z3.5 
G1 Z0 F500
G1 X49.141 Y77.291 Z0 F800
G1 X49.63 Y77.318 Z0 F800
G1 X50.094 Y77.357 Z0 F800
G1 X50.533 Y77.405 Z0 F800
G1 X50.943 Y77.459 Z0 F800
G1 X51.324 Y77.516 Z0 F800
G1 X51.673 Y77.575 Z0 F800
G1 X51.989 Y77.632 Z0 F800
G0 Z3.5 F500
G0 Y77.809 Z3.5 
G1 Z0 F500
G1 X50.575 Y77.986 Z0 F800
G0 Z3.5 F500
G0 X51.282 Y79.223 Z3.5 
G1 Z0 F500
G1 X51.459 Z0 F800
G1 X51.643 Y79.371 Z0 F800
G1 X51.79 Y79.542 Z0 F800
G1 X51.85 Y79.661 Z0 F800
G1 X51.903 Y79.818 Z0 F800
G1 X51.95 Y80.022 Z0 F800
G1 X51.989 Y80.284 Z0 F800
G0 Z3.5 F500
G0 X52.343 Y80.461 Z3.5 
G1 Z0 F500
G1 X50.221 Y80.284 Z0 F800
G0 Z3.5 F500
G0 Z3.5 
G1 Z0 F500
G1 X49.71 Y80.138 Z0 F800
G1 X49.254 Y80.054 Z0 F800
G1 X48.796 Y80.041 Z0 F800
G1 X48.276 Y80.107 Z0 F800
G1 X48.544 Y80.205 Z0 F800
G1 X48.789 Y80.282 Z0 F800
G1 X49.018 Y80.338 Z0 F800
G1 X49.241 Y80.371 Z0 F800
G1 X49.465 Y80.383 Z0 F800
G1 X49.697 Y80.373 Z0 F800
G1 X49.947 Y80.34 Z0 F800
G1 X50.221 Y80.284 Z0 F800
G0 Z3.5 F500
G0 X48.276 Y80.107 Z3.5 
G1 Z0 F500
G1 X48.1 Z0 F800
G0 Z3.5 F500
G0 X47.746 Y79.931 Z3.5 
G1 Z0 F500
G1 X47.376 Y79.737 Z0 F800
G1 X47.047 Y79.614 Z0 F800
G1 X46.869 Y79.593 Z0 F800
G1 X46.669 Y79.606 Z0 F800
G1 X46.434 Y79.658 Z0 F800
G1 X46.155 Y79.754 Z0 F800
G0 Z3.5 F500
G0 Z3.5 
G1 Z0 F500
G1 X44.975 Y79.557 Z0 F800
G1 X43.857 Y79.4 Z0 F800
G0 Z3.5 F500
G0 X44.033 Y78.87 Z3.5 
G1 Z0 F500
G1 X44.395 Y78.959 Z0 F800
G1 X44.723 Y79.031 Z0 F800
G1 X45.025 Y79.092 Z0 F800
G1 X45.305 Y79.145 Z0 F800
G1 X45.825 Y79.254 Z0 F800
G1 X46.332 Y79.4 Z0 F800
G0 Z3.5 F500
G0 X47.216 Y79.223 Z3.5 
G1 Z0 F500
G1 X47.569 Z0 F800
G0 Z3.5 F500
G0 X48.1 Y79.4 Z3.5 
G1 Z0 F500
G1 X47.746 Y79.047 Z0 F800
G1 X48.63 Y78.87 Z0 F800
G0 Z3.5 F500
G0 X47.923 Z3.5 
G1 Z0 F500
G1 Y78.516 Z0 F800
G1 X47.039 Z0 F800
G0 Z3.5 F500
G0 X48.1 Y77.455 Z3.5 
G1 Z0 F500
G1 Y67.378 Z0 F800
G1 X48.095 Y67.165 Z0 F800
G1 X48.081 Y66.92 Z0 F800
G1 X47.993 Y65.724 Z0 F800
G1 X47.964 Y65.066 Z0 F800
G1 X47.973 Y64.419 Z0 F800
G1 X48.038 Y63.824 Z0 F800
G1 X48.099 Y63.559 Z0 F800
G1 X48.181 Y63.321 Z0 F800
G1 X48.288 Y63.115 Z0 F800
G1 X48.422 Y62.947 Z0 F800
G1 X48.562 Y62.829 Z0 F800
G1 X48.726 Y62.727 Z0 F800
G1 X48.91 Y62.641 Z0 F800
G1 X49.111 Y62.569 Z0 F800
G1 X49.554 Y62.461 Z0 F800
G1 X50.031 Y62.39 Z0 F800
G1 X50.519 Y62.346 Z0 F800
G1 X51.433 Y62.288 Z0 F800
G1 X51.812 Y62.251 Z0 F800
G0 Z3.5 F500
G0 X51.989 Y61.19 Z3.5 
G1 Z0 F500
G1 X52.166 Y60.306 Z0 F800
G1 X51.812 Y59.953 Z0 F800
G1 X51.299 Y60.109 Z0 F800
G1 X50.858 Y60.236 Z0 F800
G1 X50.154 Y60.435 Z0 F800
G1 X49.615 Y60.614 Z0 F800
G1 X49.16 Y60.837 Z0 F800
G1 X49.645 Y60.995 Z0 F800
G1 X50.191 Y61.093 Z0 F800
G1 X50.775 Y61.153 Z0 F800
G1 X51.379 Y61.199 Z0 F800
G1 X51.982 Y61.256 Z0 F800
G1 X52.564 Y61.346 Z0 F800
G1 X52.84 Y61.411 Z0 F800
G1 X53.103 Y61.493 Z0 F800
G1 X53.351 Y61.595 Z0 F800
G1 X53.58 Y61.721 Z0 F800
G0 Z3.5 F500
G0 Y61.367 Z3.5 
G1 Z0 F500
G1 X54.111 Y60.837 Z0 F800
G0 Z3.5 F500
G0 X54.641 Y61.721 Z3.5 
G1 Z0 F500
G1 X55.348 Z0 F800
G0 Z3.5 F500
G0 X52.343 Y59.953 Z3.5 
G1 Z0 F500
G1 X52.703 Y59.886 Z0 F800
G1 X53.011 Y59.832 Z0 F800
G1 X53.278 Y59.779 Z0 F800
G1 X53.515 Y59.713 Z0 F800
G1 X53.735 Y59.623 Z0 F800
G1 X53.949 Y59.495 Z0 F800
G1 X54.167 Y59.318 Z0 F800
G1 X54.402 Y59.078 Z0 F800
G1 X54.547 Y58.887 Z0 F800
G1 X54.676 Y58.662 Z0 F800
G1 X54.79 Y58.409 Z0 F800
G1 X54.892 Y58.134 Z0 F800
G1 X55.069 Y57.547 Z0 F800
G1 X55.228 Y56.952 Z0 F800
G1 X55.386 Y56.401 Z0 F800
G1 X55.564 Y55.947 Z0 F800
G1 X55.667 Y55.772 Z0 F800
G1 X55.781 Y55.64 Z0 F800
G1 X55.91 Y55.558 Z0 F800
G1 X56.055 Y55.533 Z0 F800
G1 X55.348 Y55.71 Z0 F800
G0 Z3.5 F500
G0 X55.171 Y55.356 Z3.5 
G1 Z0 F500
G1 X54.889 Y55.291 Z0 F800
G1 X54.802 Y55.274 Z0 F800
G1 X54.73 Y55.269 Z0 F800
G1 X54.659 Y55.274 Z0 F800
G1 X54.572 Y55.29 Z0 F800
G1 X54.287 Y55.356 Z0 F800
G0 Z3.5 F500
G0 X56.055 Y55.533 Z3.5 
G1 Z0 F500
G1 X56.763 Z0 F800
G0 Z3.5 F500
G0 X55.702 Y56.24 Z3.5 
G1 Z0 F500
G1 X55.468 Y56.864 Z0 F800
G1 X55.171 Y57.478 Z0 F800
G0 Z3.5 F500
G0 X56.232 Y57.301 Z3.5 
G1 Z0 F500
G1 X56.608 Y57.253 Z0 F800
G1 X56.913 Y57.268 Z0 F800
G1 X57.052 Y57.312 Z0 F800
G1 X57.188 Y57.388 Z0 F800
G1 X57.325 Y57.5 Z0 F800
G1 X57.47 Y57.655 Z0 F800
G0 Z3.5 F500
G0 Y58.185 Z3.5 
G1 Z0 F500
G1 X57.175 Y58.009 Z0 F800
G1 X56.843 Y57.859 Z0 F800
G1 X56.635 Y57.782 Z0 F800
G1 X56.383 Y57.696 Z0 F800
G1 X56.075 Y57.596 Z0 F800
G1 X55.702 Y57.478 Z0 F800
G1 X55.742 Y57.723 Z0 F800
G1 X55.796 Y57.94 Z0 F800
G1 X55.871 Y58.135 Z0 F800
G1 X55.972 Y58.317 Z0 F800
G1 X56.106 Y58.494 Z0 F800
G1 X56.278 Y58.673 Z0 F800
G1 X56.495 Y58.862 Z0 F800
G1 X56.763 Y59.069 Z0 F800
G0 Z3.5 F500
G0 X55.702 Y58.539 Z3.5 
G1 Z0 F500
G1 X55.348 Y58.715 Z0 F800
G0 Z3.5 F500
G0 X57.646 Y58.362 Z3.5 
G1 Z0 F500
G1 X58.169 Y60.306 Z0 F800
G1 X58.177 Y64.903 Z0 F800
G1 Y77.809 Z0 F800
G0 Z3.5 F500
G0 X58 Y77.986 Z3.5 
G1 Z0 F500
G1 X57.656 Y77.923 Z0 F800
G1 X57.291 Y77.869 Z0 F800
G1 X57.08 Y77.847 Z0 F800
G1 X56.839 Y77.829 Z0 F800
G1 X56.559 Y77.816 Z0 F800
G1 X56.232 Y77.809 Z0 F800
G0 Z3.5 F500
G0 X59.238 Y77.986 Z3.5 
G1 Z0 F500
G1 X59.485 Y78.124 Z0 F800
G1 X59.692 Y78.328 Z0 F800
G1 X59.863 Y78.591 Z0 F800
G1 X60.001 Y78.908 Z0 F800
G1 X60.11 Y79.272 Z0 F800
G1 X60.192 Y79.676 Z0 F800
G1 X60.251 Y80.115 Z0 F800
G1 X60.29 Y80.581 Z0 F800
G1 X60.317 Y82.591 Z0 F800
G1 X60.295 Y84.527 Z0 F800
G1 X60.258 Y85.434 Z0 F800
G1 X60.198 Y86.403 Z0 F800
G1 X60.193 Y86.884 Z0 F800
G1 X60.224 Y87.347 Z0 F800
G1 X60.302 Y87.782 Z0 F800
G1 X60.444 Y88.179 Z0 F800
G1 X60.585 Y88.403 Z0 F800
G1 X60.768 Y88.599 Z0 F800
G1 X60.978 Y88.778 Z0 F800
G1 X61.196 Y88.952 Z0 F800
G1 X61.408 Y89.133 Z0 F800
G1 X61.597 Y89.334 Z0 F800
G1 X61.746 Y89.565 Z0 F800
G1 X61.839 Y89.84 Z0 F800
G1 X61.905 Y90.249 Z0 F800
G1 X61.951 Y90.7 Z0 F800
G1 X61.98 Y91.186 Z0 F800
G1 X61.992 Y91.702 Z0 F800
G1 X61.979 Y92.798 Z0 F800
G1 X61.93 Y93.938 Z0 F800
G1 X61.861 Y95.074 Z0 F800
G1 X61.79 Y96.156 Z0 F800
G1 X61.76 Y96.662 Z0 F800
G1 X61.735 Y97.136 Z0 F800
G1 X61.719 Y97.572 Z0 F800
G1 X61.713 Y97.964 Z0 F800
G0 Z3.5 F500
G0 Y89.124 Z3.5 
G1 Z0 F500
G1 X62.059 Y88.919 Z0 F800
G1 X62.396 Y88.777 Z0 F800
G1 X62.729 Y88.686 Z0 F800
G1 X63.065 Y88.633 Z0 F800
G1 X64.542 Y88.537 Z0 F800
G1 X68.16 Y88.185 Z0 F800
G1 X71.79 Y87.83 Z0 F800
G1 X75.263 Y87.476 Z0 F800
G1 X78.782 Y87.135 Z0 F800
G1 X85.89 Y86.461 Z0 F800
G1 X89.444 Y86.113 Z0 F800
G1 X92.975 Y85.747 Z0 F800
G1 X96.466 Y85.356 Z0 F800
G1 X99.9 Y84.933 Z0 F800
G1 X102.117 Y84.64 Z0 F800
G1 X104.384 Y84.355 Z0 F800
G1 X105.524 Y84.23 Z0 F800
G1 X106.663 Y84.123 Z0 F800
G1 X107.796 Y84.041 Z0 F800
G1 X108.917 Y83.989 Z0 F800
G1 X109.391 Y83.976 Z0 F800
G1 X109.903 Y83.955 Z0 F800
G1 X110.433 Y83.913 Z0 F800
G1 X110.961 Y83.838 Z0 F800
G1 X111.465 Y83.715 Z0 F800
G1 X111.925 Y83.533 Z0 F800
G1 X112.132 Y83.415 Z0 F800
G1 X112.32 Y83.278 Z0 F800
G1 X112.487 Y83.118 Z0 F800
G1 X112.629 Y82.936 Z0 F800
G0 Z3.5 F500
G0 Y83.466 Z3.5 
G1 Z0 F500
G1 X113.143 Y83.49 Z0 F800
G1 X113.641 Y83.481 Z0 F800
G1 X114.127 Y83.446 Z0 F800
G1 X114.605 Y83.391 Z0 F800
G1 X115.553 Y83.251 Z0 F800
G1 X116.519 Y83.116 Z0 F800
G1 X119.962 Y82.764 Z0 F800
G1 X123.403 Y82.459 Z0 F800
G1 X126.849 Y82.138 Z0 F800
G1 X130.309 Y81.735 Z0 F800
G1 X130.9 Y81.659 Z0 F800
G1 X131.465 Y81.599 Z0 F800
G1 X132.01 Y81.56 Z0 F800
G1 X132.545 Y81.548 Z0 F800
G1 X133.076 Y81.568 Z0 F800
G1 X133.612 Y81.625 Z0 F800
G1 X134.16 Y81.726 Z0 F800
G1 X134.729 Y81.875 Z0 F800
G1 Y80.107 Z0 F800
G0 Z3.5 F500
G0 X134.021 Y79.223 Z3.5 
G1 Z0 F500
G1 X134.014 Y78.735 Z0 F800
G1 X133.999 Y78.304 Z0 F800
G1 X133.965 Y77.551 Z0 F800
G1 X133.956 Y77.197 Z0 F800
G1 X133.96 Y76.838 Z0 F800
G1 X133.98 Y76.458 Z0 F800
G1 X134.021 Y76.041 Z0 F800
G0 Z3.5 F500
G0 X134.729 Y75.334 Z3.5 
G1 Z0 F500
G1 X134.905 Y74.273 Z0 F800
G0 Z3.5 F500
G0 X133.845 Y73.389 Z3.5 
G1 Z0 F500
G1 X134.552 Y68.793 Z0 F800
G0 Z3.5 F500
G0 X132.784 Y70.384 Z3.5 
G1 Z0 F500
G1 X132.254 Y71.975 Z0 F800
G0 Z3.5 F500
G0 X134.905 Y71.621 Z3.5 
G1 Z0 F500
G1 Y72.505 Z0 F800
G0 Z3.5 F500
G0 X126.419 Y70.03 Z3.5 
G1 Z0 F500
G1 X126.773 Y69.323 Z0 F800
G1 X126.806 Y69.475 Z0 F800
G1 X126.836 Y69.655 Z0 F800
G1 X126.862 Y69.863 Z0 F800
G1 X126.886 Y70.095 Z0 F800
G1 X126.926 Y70.628 Z0 F800
G1 X126.956 Y71.237 Z0 F800
G1 X126.977 Y71.908 Z0 F800
G1 X126.991 Y72.624 Z0 F800
G1 X126.998 Y73.37 Z0 F800
G1 Y74.131 Z0 F800
G1 Y74.891 Z0 F800
G1 X126.991 Y75.634 Z0 F800
G1 X126.974 Y77.007 Z0 F800
G1 X126.952 Y78.554 Z0 F800
G1 Y78.87 Z0 F800
G0 Z3.5 F500
G0 X126.066 Y79.223 Z3.5 
G1 Z0 F500
G1 X125.889 Y80.815 Z0 F800
G0 Z3.5 F500
G0 X126.95 Y82.052 Z3.5 
G1 Z0 F500
G1 X126.959 Y80.979 Z0 F800
G1 X126.952 Y80.587 Z0 F800
G1 X126.924 Y80.252 Z0 F800
G1 X126.862 Y79.947 Z0 F800
G1 X126.756 Y79.641 Z0 F800
G1 X126.593 Y79.306 Z0 F800
G1 X126.362 Y78.912 Z0 F800
G1 X126.17 Y78.52 Z0 F800
G1 X126.068 Y78.123 Z0 F800
G1 X126.037 Y77.717 Z0 F800
G1 X126.057 Y77.295 Z0 F800
G1 X126.108 Y76.851 Z0 F800
G1 X126.169 Y76.381 Z0 F800
G1 X126.22 Y75.877 Z0 F800
G1 X126.243 Y75.334 Z0 F800
G0 Z3.5 F500
G0 X124.121 Y75.157 Z3.5 
G1 Z0 F500
G1 X124.124 Y74.501 Z0 F800
G1 X124.129 Y73.942 Z0 F800
G1 Y73.461 Z0 F800
G1 X124.113 Y73.04 Z0 F800
G1 X124.077 Y72.664 Z0 F800
G1 X124.013 Y72.314 Z0 F800
G1 X123.912 Y71.972 Z0 F800
G1 X123.767 Y71.621 Z0 F800
G1 X123.536 Y72.057 Z0 F800
G1 X123.37 Y72.547 Z0 F800
G1 X123.312 Y72.872 Z0 F800
G1 X123.271 Y73.281 Z0 F800
G1 X123.256 Y73.525 Z0 F800
G1 X123.246 Y73.799 Z0 F800
G1 X123.239 Y74.107 Z0 F800
G1 Y74.45 Z0 F800
G0 Z3.5 F500
G0 X120.232 Z3.5 
G1 Z0 F500
G1 X120.173 Y73.853 Z0 F800
G1 X120.115 Y73.177 Z0 F800
G1 X120.091 Y72.77 Z0 F800
G1 X120.072 Y72.298 Z0 F800
G1 X120.059 Y71.743 Z0 F800
G1 X120.055 Y71.091 Z0 F800
G0 Z3.5 F500
G0 X118.994 Y72.152 Z3.5 
G1 Z0 F500
G1 X119.171 Y65.787 Z0 F800
G0 Z3.5 F500
G0 X119.524 Y66.317 Z3.5 
G1 Z0 F500
G1 Y77.455 Z0 F800
G0 Z3.5 F500
G0 X117.933 Y75.864 Z3.5 
G1 Z0 F500
G1 X118.11 Y72.505 Z0 F800
G0 Z3.5 F500
G0 X117.756 Y70.914 Z3.5 
G1 Z0 F500
G1 X117.58 Y70.207 Z0 F800
G0 Z3.5 F500
G0 X118.287 Z3.5 
G1 Z0 F500
G1 Y64.726 Z0 F800
G0 Z3.5 F500
G0 X117.58 Y66.141 Z3.5 
G1 Z0 F500
G1 Y67.378 Z0 F800
G0 Z3.5 F500
G0 X116.519 Y66.141 Z3.5 
G1 Z0 F500
G1 Y65.787 Z0 F800
G0 Z3.5 F500
G0 X114.397 Y68.616 Z3.5 
G1 Z0 F500
G1 X114.221 Y67.909 Z0 F800
G1 X114.044 Y69.146 Z0 F800
G0 Z3.5 F500
G0 X114.574 Z3.5 
G1 Z0 F500
G1 Y70.914 Z0 F800
G0 Z3.5 F500
G0 X115.105 Y70.03 Z3.5 
G1 Z0 F500
G1 X115.635 Y67.909 Z0 F800
G1 X115.733 Y68.112 Z0 F800
G1 X115.828 Y68.333 Z0 F800
G1 X115.91 Y68.609 Z0 F800
G1 X115.967 Y68.974 Z0 F800
G1 X116.097 Y70.183 Z0 F800
G1 X116.258 Y71.444 Z0 F800
G1 X116.347 Y72.245 Z0 F800
G1 X116.397 Y73.088 Z0 F800
G1 X116.416 Y73.946 Z0 F800
G1 X116.412 Y74.79 Z0 F800
G1 X116.394 Y75.591 Z0 F800
G1 X116.351 Y76.953 Z0 F800
G1 X116.344 Y77.222 Z0 F800
G1 Y77.455 Z0 F800
G0 Z3.5 F500
G0 X116.342 Z3.5 
G1 Z0 F500
G1 X115.812 Y77.632 Z0 F800
G0 Z3.5 F500
G0 X119.878 Y80.107 Z3.5 
G1 Z0 F500
G1 X118.858 Y79.681 Z0 F800
G1 X117.845 Y79.16 Z0 F800
G1 X117.412 Y78.848 Z0 F800
G1 X117.066 Y78.493 Z0 F800
G1 X116.934 Y78.298 Z0 F800
G1 X116.835 Y78.089 Z0 F800
G1 X116.771 Y77.866 Z0 F800
G1 X116.748 Y77.628 Z0 F800
G1 X116.789 Y76.922 Z0 F800
G1 X116.894 Y76.268 Z0 F800
G1 X117 Y75.632 Z0 F800
G1 X117.049 Y74.98 Z0 F800
G1 Y70.737 Z0 F800
G0 Z3.5 F500
G0 X115.635 Y73.389 Z3.5 
G1 Z0 F500
G1 X115.643 Y74.025 Z0 F800
G1 X115.664 Y74.609 Z0 F800
G1 X115.712 Y75.654 Z0 F800
G1 X115.725 Y76.129 Z0 F800
G1 X115.722 Y76.583 Z0 F800
G1 X115.694 Y77.022 Z0 F800
G1 X115.635 Y77.455 Z0 F800
G1 X115.152 Y77.26 Z0 F800
G1 X114.608 Y77.026 Z0 F800
G1 X114.033 Y76.754 Z0 F800
G1 X113.457 Y76.441 Z0 F800
G1 X112.909 Y76.089 Z0 F800
G1 X112.42 Y75.695 Z0 F800
G1 X112.206 Y75.483 Z0 F800
G1 X112.019 Y75.26 Z0 F800
G1 X111.861 Y75.026 Z0 F800
G1 X111.736 Y74.781 Z0 F800
G1 X111.603 Y74.419 Z0 F800
G1 X111.505 Y74.036 Z0 F800
G1 X111.438 Y73.636 Z0 F800
G1 X111.398 Y73.222 Z0 F800
G1 X111.386 Y72.359 Z0 F800
G1 X111.439 Y71.47 Z0 F800
G1 X111.53 Y70.576 Z0 F800
G1 X111.631 Y69.699 Z0 F800
G1 X111.712 Y68.862 Z0 F800
G1 X111.745 Y68.085 Z0 F800
G1 X111.8 Y67.204 Z0 F800
G1 X111.872 Y66.238 Z0 F800
G1 Y65.753 Z0 F800
G1 X111.825 Y65.28 Z0 F800
G1 X111.714 Y64.833 Z0 F800
G1 X111.522 Y64.422 Z0 F800
G1 X111.372 Y64.225 Z0 F800
G1 X111.192 Y64.07 Z0 F800
G1 X110.988 Y63.949 Z0 F800
G1 X110.765 Y63.858 Z0 F800
G1 X110.286 Y63.745 Z0 F800
G1 X109.8 Y63.69 Z0 F800
G1 X109.021 Y63.627 Z0 F800
G1 X108.193 Y63.564 Z0 F800
G1 X107.339 Y63.497 Z0 F800
G1 X106.481 Y63.421 Z0 F800
G1 X105.639 Y63.333 Z0 F800
G1 X104.837 Y63.229 Z0 F800
G1 X104.095 Y63.105 Z0 F800
G1 X103.436 Y62.958 Z0 F800
G1 X103.309 Y63.55 Z0 F800
G1 X103.21 Y64.196 Z0 F800
G1 X103.137 Y64.887 Z0 F800
G1 X103.087 Y65.618 Z0 F800
G1 X103.045 Y67.167 Z0 F800
G1 X103.063 Y68.785 Z0 F800
G1 X103.117 Y70.416 Z0 F800
G1 X103.219 Y72.758 Z0 F800
G1 X103.247 Y73.483 Z0 F800
G1 X103.269 Y74.167 Z0 F800
G1 X103.28 Y74.804 Z0 F800
G1 X103.273 Y76.416 Z0 F800
G1 X103.259 Y77.986 Z0 F800
G0 Z3.5 F500
G0 X104.143 Y78.693 Z3.5 
G1 Z0 F500
G1 X104.594 Y78.92 Z0 F800
G1 X104.957 Y79.142 Z0 F800
G1 X105.13 Y79.266 Z0 F800
G1 X105.311 Y79.405 Z0 F800
G1 X105.509 Y79.566 Z0 F800
G1 X105.734 Y79.754 Z0 F800
G0 Z3.5 F500
G0 X114.044 Y82.76 Z3.5 
G1 Z0 F500
G1 Y83.113 Z0 F800
G0 Z3.5 F500
G0 X115.458 Z3.5 
G1 Z0 F500
G1 Y82.583 Z0 F800
G0 Z3.5 F500
G0 X116.696 Y82.936 Z3.5 
G1 Z0 F500
G1 X116.754 Y82.553 Z0 F800
G1 X116.887 Y82.224 Z0 F800
G1 X117.01 Y82.092 Z0 F800
G1 X117.189 Y81.986 Z0 F800
G1 X117.433 Y81.913 Z0 F800
G1 X117.756 Y81.876 Z0 F800
G1 X117.403 Y82.76 Z0 F800
G0 Z3.5 F500
G0 X124.651 Y82.229 Z3.5 
G1 Z0 F500
G1 X124.624 Y81.956 Z0 F800
G1 X124.596 Y81.715 Z0 F800
G1 X124.568 Y81.502 Z0 F800
G1 X124.54 Y81.312 Z0 F800
G1 X124.485 Y80.985 Z0 F800
G1 X124.433 Y80.698 Z0 F800
G1 X124.385 Y80.414 Z0 F800
G1 X124.343 Y80.098 Z0 F800
G1 X124.324 Y79.916 Z0 F800
G1 X124.308 Y79.713 Z0 F800
G1 X124.295 Y79.483 Z0 F800
G1 X124.284 Y79.223 Z0 F800
G1 X124.281 Y78.652 Z0 F800
G1 X124.305 Y78.167 Z0 F800
G1 X124.341 Y77.735 Z0 F800
G1 X124.372 Y77.32 Z0 F800
G1 X124.381 Y76.888 Z0 F800
G1 X124.353 Y76.407 Z0 F800
G1 X124.32 Y76.137 Z0 F800
G1 X124.272 Y75.841 Z0 F800
G1 X124.206 Y75.516 Z0 F800
G1 X124.121 Y75.157 Z0 F800
G1 X124.005 Y75.707 Z0 F800
G1 X123.934 Y76.232 Z0 F800
G1 X123.899 Y76.728 Z0 F800
G1 X123.891 Y77.195 Z0 F800
G1 X123.9 Y77.627 Z0 F800
G1 X123.936 Y78.379 Z0 F800
G1 X123.944 Y78.693 Z0 F800
G0 Z3.5 F500
G0 X122.176 Y78.339 Z3.5 
G1 Z0 F500
G1 X122.329 Y73.92 Z0 F800
G1 X122.18 Y72.152 Z0 F800
G1 X122.176 Y66.848 Z0 F800
G0 Z3.5 F500
G0 X123.414 Y64.903 Z3.5 
G1 Z0 F500
G1 X123.944 Y66.317 Z0 F800
G1 X123.683 Y66.855 Z0 F800
G1 X123.492 Y67.46 Z0 F800
G1 X123.372 Y68.11 Z0 F800
G1 X123.321 Y68.783 Z0 F800
G1 X123.336 Y69.457 Z0 F800
G1 X123.417 Y70.111 Z0 F800
G1 X123.561 Y70.721 Z0 F800
G1 X123.767 Y71.268 Z0 F800
G0 Z3.5 F500
G0 Y71.621 Z3.5 
G1 Z0 F500
G1 X123.953 Y71.012 Z0 F800
G1 X124.098 Y70.406 Z0 F800
G1 X124.255 Y69.701 Z0 F800
G1 X124.354 Y69.279 Z0 F800
G1 X124.475 Y68.793 Z0 F800
G1 X124.579 Y69.304 Z0 F800
G1 X124.631 Y69.811 Z0 F800
G1 X124.643 Y70.084 Z0 F800
G1 X124.649 Y70.383 Z0 F800
G1 Y71.091 Z0 F800
G0 Z3.5 F500
G0 X125.535 Y72.152 Z3.5 
G1 Z0 F500
G1 Y70.89 Z0 F800
G1 X125.539 Y69.504 Z0 F800
G1 X125.549 Y68.04 Z0 F800
G1 X125.573 Y66.544 Z0 F800
G1 X125.613 Y65.065 Z0 F800
G1 X125.676 Y63.648 Z0 F800
G1 X125.718 Y62.978 Z0 F800
G1 X125.767 Y62.341 Z0 F800
G1 X125.823 Y61.743 Z0 F800
G1 X125.889 Y61.19 Z0 F800
G0 Z3.5 F500
G0 X125.535 Y61.721 Z3.5 
G1 Z0 F500
G1 Y58.185 Z0 F800
G0 Z3.5 F500
G0 X126.773 Z3.5 
G1 Z0 F500
G1 X126.544 Y58.141 Z0 F800
G1 X126.273 Y58.081 Z0 F800
G1 X125.626 Y57.927 Z0 F800
G1 X124.882 Y57.753 Z0 F800
G1 X124.09 Y57.592 Z0 F800
G1 X123.301 Y57.476 Z0 F800
G1 X122.562 Y57.436 Z0 F800
G1 X122.228 Y57.455 Z0 F800
G1 X121.925 Y57.505 Z0 F800
G1 X121.659 Y57.59 Z0 F800
G1 X121.438 Y57.714 Z0 F800
G1 X121.251 Y57.908 Z0 F800
G1 X121.108 Y58.175 Z0 F800
G1 X121.006 Y58.505 Z0 F800
G1 X120.94 Y58.888 Z0 F800
G1 X120.905 Y59.315 Z0 F800
G1 X120.897 Y59.777 Z0 F800
G1 X120.911 Y60.263 Z0 F800
G1 X120.943 Y60.765 Z0 F800
G1 X121.042 Y61.777 Z0 F800
G1 X121.209 Y63.174 Z0 F800
G1 X121.252 Y63.569 Z0 F800
G1 X121.282 Y63.913 Z0 F800
G1 X121.292 Y64.196 Z0 F800
G0 Z3.5 F500
G0 X121.646 Y64.373 Z3.5 
G1 Z0 F500
G1 Y61.544 Z0 F800
G0 Z3.5 F500
G0 X122.707 Y61.19 Z3.5 
G1 Z0 F500
G1 Y69.5 Z0 F800
G0 Z3.5 F500
G0 X124.475 Y68.793 Z3.5 
G1 Z0 F500
G1 X124.237 Y66.141 Z0 F800
G1 X123.946 Y64.019 Z0 F800
G1 X123.767 Y60.306 Z0 F800
G0 Z3.5 F500
G0 X124.651 Y60.13 Z3.5 
G1 Z0 F500
G1 Y60.66 Z0 F800
G0 Z3.5 F500
G0 X124.475 Y61.014 Z3.5 
G1 Z0 F500
G1 Y62.605 Z0 F800
G0 Z3.5 F500
G0 X123.414 Y63.489 Z3.5 
G1 Z0 F500
G1 Y61.19 Z0 F800
G0 Z3.5 F500
G0 X125.005 Y64.726 Z3.5 
G1 Z0 F500
G1 X125.182 Y69.146 Z0 F800
G0 Z3.5 F500
G0 X126.773 Y69.323 Z3.5 
G1 Z0 F500
G1 X126.821 Y68.63 Z0 F800
G1 X126.847 Y67.874 Z0 F800
G1 X126.856 Y67.07 Z0 F800
G1 Y66.227 Z0 F800
G1 X126.839 Y64.479 Z0 F800
G1 X126.847 Y62.728 Z0 F800
G1 X126.873 Y61.882 Z0 F800
G1 X126.923 Y61.072 Z0 F800
G1 X127 Y60.31 Z0 F800
G1 X127.112 Y59.609 Z0 F800
G1 X127.263 Y58.981 Z0 F800
G1 X127.46 Y58.437 Z0 F800
G1 X127.576 Y58.201 Z0 F800
G1 X127.707 Y57.991 Z0 F800
G1 X127.851 Y57.808 Z0 F800
G1 X128.01 Y57.655 Z0 F800
G0 Z3.5 F500
G0 X130.486 Y57.654 Z3.5 
G1 Z0 F500
G1 X130.71 Y57.588 Z0 F800
G1 X130.91 Y57.605 Z0 F800
G1 X131.086 Y57.7 Z0 F800
G1 X131.241 Y57.864 Z0 F800
G1 X131.375 Y58.093 Z0 F800
G1 X131.49 Y58.379 Z0 F800
G1 X131.587 Y58.716 Z0 F800
G1 X131.668 Y59.097 Z0 F800
G1 X131.734 Y59.516 Z0 F800
G1 X131.786 Y59.967 Z0 F800
G1 X131.827 Y60.442 Z0 F800
G1 X131.857 Y60.935 Z0 F800
G1 X131.891 Y61.95 Z0 F800
G1 X131.9 Y62.958 Z0 F800
G1 X131.872 Y65.028 Z0 F800
G1 X131.812 Y67.056 Z0 F800
G1 X131.779 Y68.076 Z0 F800
G1 X131.751 Y69.113 Z0 F800
G1 X131.731 Y70.174 Z0 F800
G1 X131.723 Y71.268 Z0 F800
G1 Y72.011 Z0 F800
G1 X131.717 Y72.714 Z0 F800
G1 X131.71 Y73.381 Z0 F800
G1 X131.701 Y74.018 Z0 F800
G1 X131.677 Y75.229 Z0 F800
G1 X131.59 Y78.767 Z0 F800
G1 X131.565 Y80.073 Z0 F800
G1 X131.555 Y80.777 Z0 F800
G1 X131.546 Y81.522 Z0 F800
G0 Z3.5 F500
G0 X134.198 Y81.875 Z3.5 
G1 Z0 F500
G1 X134.905 Y83.466 Z0 F800
G0 Z3.5 F500
G0 X132.961 Y64.373 Z3.5 
G1 Z0 F500
G1 X132.784 Y64.019 Z0 F800
G0 Z3.5 F500
G0 X134.552 Y64.196 Z3.5 
G1 Z0 F500
G1 X134.905 Z0 F800
G0 Z3.5 F500
G0 X134.021 Y62.605 Z3.5 
G1 Z0 F500
G1 Y62.428 Z0 F800
G0 Z3.5 F500
G0 X134.552 Y62.251 Z3.5 
G1 Z0 F500
G1 X134.729 Y62.428 Z0 F800
G0 Z3.5 F500
G0 Y61.367 Z3.5 
G1 Z0 F500
G1 Y61.19 Z0 F800
G0 Z3.5 F500
G0 X132.961 Y61.014 Z3.5 
G1 Z0 F500
G1 X132.784 Y61.19 Z0 F800
G0 Z3.5 F500
G0 X133.668 Y60.13 Z3.5 
G1 Z0 F500
G1 Y59.776 Z0 F800
G0 Z3.5 F500
G0 X134.552 Y59.422 Z3.5 
G1 Z0 F500
G1 X134.905 Z0 F800
G0 Z3.5 F500
G0 X133.314 Y59.069 Z3.5 
G1 Z0 F500
G1 X133.491 Y57.655 Z0 F800
G0 Z3.5 F500
G0 X132.607 Y56.947 Z3.5 
G1 Z0 F500
G1 X133.138 Y56.594 Z0 F800
G0 Z3.5 F500
G0 X134.198 Y56.771 Z3.5 
G1 Z0 F500
G1 X134.905 Z0 F800
G0 Z3.5 F500
G0 Y55.71 Z3.5 
G1 Z0 F500
G1 X134.249 Y55.868 Z0 F800
G1 X133.924 Y55.942 Z0 F800
G1 X133.177 Y56.098 Z0 F800
G1 X132.373 Y56.235 Z0 F800
G1 X131.977 Y56.284 Z0 F800
G1 X131.599 Y56.316 Z0 F800
G1 X131.249 Y56.326 Z0 F800
G1 X130.94 Y56.309 Z0 F800
G1 X130.68 Y56.261 Z0 F800
G1 X130.481 Y56.177 Z0 F800
G1 X130.354 Y56.054 Z0 F800
G1 X130.309 Y55.886 Z0 F800
G1 X130.345 Y55.737 Z0 F800
G1 X130.446 Y55.605 Z0 F800
G1 X130.604 Y55.489 Z0 F800
G1 X130.812 Y55.388 Z0 F800
G1 X131.061 Y55.302 Z0 F800
G1 X131.343 Y55.229 Z0 F800
G1 X131.65 Y55.168 Z0 F800
G1 X131.974 Y55.118 Z0 F800
G1 X132.64 Y55.048 Z0 F800
G1 X133.276 Y55.011 Z0 F800
G1 X133.562 Y55.002 Z0 F800
G1 X133.817 Y54.999 Z0 F800
G1 X134.032 Z0 F800
G1 X134.198 Y55.003 Z0 F800
G0 Z3.5 F500
G0 X133.845 Y53.942 Z3.5 
G1 Z0 F500
G1 X134.552 Y53.411 Z0 F800
G0 Z3.5 F500
G0 X134.198 Y52.881 Z3.5 
G1 Z0 F500
G1 X134.379 Y52.792 Z0 F800
G1 X134.525 Y52.683 Z0 F800
G1 X134.64 Y52.556 Z0 F800
G1 X134.725 Y52.414 Z0 F800
G1 X134.821 Y52.092 Z0 F800
G1 X134.836 Y51.732 Z0 F800
G1 X134.717 Y50.961 Z0 F800
G1 X134.552 Y50.229 Z0 F800
G0 Z3.5 F500
G0 X134.905 Y49.522 Z3.5 
G1 Z0 F500
G1 X134.375 Y49.345 Z0 F800
G0 Z3.5 F500
G0 X134.905 Y48.638 Z3.5 
G1 Z0 F500
G1 X134.711 Y48.19 Z0 F800
G1 X134.492 Y47.818 Z0 F800
G1 X134.275 Y47.495 Z0 F800
G1 X134.089 Y47.192 Z0 F800
G1 X133.961 Y46.882 Z0 F800
G1 X133.918 Y46.537 Z0 F800
G1 X133.937 Y46.343 Z0 F800
G1 X133.988 Y46.13 Z0 F800
G1 X134.074 Y45.894 Z0 F800
G1 X134.198 Y45.633 Z0 F800
G0 Z3.5 F500
G0 X134.021 Y45.102 Z3.5 
G1 Z0 F500
G1 X133.845 Y44.925 Z0 F800
G0 Z3.5 F500
G0 X133.314 Z3.5 
G1 Z0 F500
G1 X132.43 Y45.633 Z0 F800
G0 Z3.5 F500
G0 X131.193 Y45.279 Z3.5 
G1 Z0 F500
G1 X131.016 Z0 F800
G0 Z3.5 F500
G0 X131.37 Y43.688 Z3.5 
G1 Z0 F500
G1 Y42.627 Z0 F800
G1 X130.843 Y42.382 Z0 F800
G1 X130.319 Y42.191 Z0 F800
G1 X129.746 Y41.996 Z0 F800
G1 X129.424 Y41.88 Z0 F800
G1 X129.071 Y41.743 Z0 F800
G1 X128.867 Y42.263 Z0 F800
G1 X128.717 Y42.818 Z0 F800
G1 X128.617 Y43.399 Z0 F800
G1 X128.563 Y43.996 Z0 F800
G1 X128.55 Y44.599 Z0 F800
G1 X128.574 Y45.197 Z0 F800
G1 X128.632 Y45.781 Z0 F800
G1 X128.718 Y46.34 Z0 F800
G1 X128.01 Y46.693 Z0 F800
G0 Z3.5 F500
G0 X128.718 Y46.34 Z3.5 
G1 Z0 F500
G1 X128.894 Y46.516 Z0 F800
G0 Z3.5 F500
G0 X129.425 Y47.047 Z3.5 
G1 Z0 F500
G1 X129.464 Y47.578 Z0 F800
G1 X129.538 Y48.102 Z0 F800
G1 X129.64 Y48.62 Z0 F800
G1 X129.761 Y49.131 Z0 F800
G1 X130.037 Y50.135 Z0 F800
G1 X130.309 Y51.113 Z0 F800
G0 Z3.5 F500
G0 X130.486 Y50.229 Z3.5 
G1 Z0 F500
G1 X131.065 Y50.263 Z0 F800
G1 X131.607 Y50.284 Z0 F800
G1 X132.163 Y50.278 Z0 F800
G1 X132.784 Y50.229 Z0 F800
G0 Z3.5 F500
G0 X131.37 Y49.168 Z3.5 
G1 Z0 F500
G1 X131.193 Y48.992 Z0 F800
G0 Z3.5 F500
G0 X129.602 Y50.052 Z3.5 
G1 Z0 F500
G1 X129.248 Y50.406 Z0 F800
G0 Z3.5 F500
G0 X128.894 Y49.699 Z3.5 
G1 Z0 F500
G1 X129.15 Y50.237 Z0 F800
G1 X129.46 Y50.78 Z0 F800
G1 X129.833 Y51.291 Z0 F800
G1 X130.275 Y51.734 Z0 F800
G1 X130.525 Y51.918 Z0 F800
G1 X130.795 Y52.072 Z0 F800
G1 X131.087 Y52.19 Z0 F800
G1 X131.401 Y52.267 Z0 F800
G1 X131.739 Y52.3 Z0 F800
G1 X132.101 Y52.284 Z0 F800
G1 X132.488 Y52.214 Z0 F800
G1 X132.902 Y52.085 Z0 F800
G1 X133.071 Y52.004 Z0 F800
G1 X133.193 Y51.907 Z0 F800
G1 X133.275 Y51.796 Z0 F800
G1 X133.323 Y51.671 Z0 F800
G1 X133.342 Y51.388 Z0 F800
G1 X133.298 Y51.072 Z0 F800
G1 X133.241 Y50.732 Z0 F800
G1 X133.222 Y50.382 Z0 F800
G1 X133.241 Y50.207 Z0 F800
G1 X133.289 Y50.034 Z0 F800
G1 X133.37 Y49.864 Z0 F800
G1 X133.491 Y49.699 Z0 F800
G0 Z3.5 F500
G0 X129.425 Y47.931 Z3.5 
G1 Z0 F500
G1 X129.079 Y48.094 Z0 F800
G1 X128.78 Y48.194 Z0 F800
G1 X128.52 Y48.242 Z0 F800
G1 X128.289 Y48.25 Z0 F800
G1 X127.879 Y48.191 Z0 F800
G1 X127.48 Y48.108 Z0 F800
G0 Z3.5 F500
G0 X127.127 Y48.461 Z3.5 
G1 Z0 F500
G1 X126.803 Y48.427 Z0 F800
G1 X126.303 Y48.365 Z0 F800
G1 X125.838 Y48.314 Z0 F800
G1 X125.535 Y48.284 Z0 F800
G0 Z3.5 F500
G0 X125.712 Y47.4 Z3.5 
G1 Z0 F500
G1 X126.419 Z0 F800
G1 X125.884 Y47.45 Z0 F800
G1 X125.343 Y47.489 Z0 F800
G1 X125.061 Y47.536 Z0 F800
G1 X124.766 Y47.617 Z0 F800
G1 X124.454 Y47.744 Z0 F800
G1 X124.121 Y47.931 Z0 F800
G0 Z3.5 F500
G0 Y49.345 Z3.5 
G1 Z0 F500
G1 X122 Y49.699 Z0 F800
G0 Z3.5 F500
G0 X121.823 Y50.406 Z3.5 
G1 Z0 F500
G1 X123.944 Y50.052 Z0 F800
G0 Z3.5 F500
G0 X125.182 Y51.644 Z3.5 
G1 Z0 F500
G1 X124.252 Y51.624 Z0 F800
G1 X123.265 Y51.563 Z0 F800
G1 X122.253 Y51.46 Z0 F800
G1 X121.248 Y51.312 Z0 F800
G1 X120.281 Y51.116 Z0 F800
G1 X119.385 Y50.872 Z0 F800
G1 X118.974 Y50.731 Z0 F800
G1 X118.592 Y50.577 Z0 F800
G1 X118.244 Y50.41 Z0 F800
G1 X117.933 Y50.229 Z0 F800
G0 Z3.5 F500
G0 X117.403 Y50.76 Z3.5 
G1 Z0 F500
G1 X118.287 Y50.936 Z0 F800
G0 Z3.5 F500
G0 X119.878 Y50.76 Z3.5 
G1 Z0 F500
G1 X120.408 Y50.229 Z0 F800
G0 Z3.5 F500
G0 X119.348 Y48.992 Z3.5 
G1 Z0 F500
G1 X118.64 Z0 F800
G0 Z3.5 F500
G0 Y48.284 Z3.5 
G1 Z0 F500
G1 X119.171 Z0 F800
G0 Z3.5 F500
G0 Y47.577 Z3.5 
G1 Z0 F500
G1 X118.817 Z0 F800
G0 Z3.5 F500
G0 X121.823 Y47.224 Z3.5 
G1 Z0 F500
G1 Y47.047 Z0 F800
G1 Y47.224 Z0 F800
G0 Z3.5 F500
G0 X120.585 Y45.633 Z3.5 
G1 Z0 F500
G1 X120.556 Y45.393 Z0 F800
G1 X120.496 Y45.167 Z0 F800
G1 X120.408 Y44.955 Z0 F800
G1 X120.293 Y44.759 Z0 F800
G1 X120.154 Y44.579 Z0 F800
G1 X119.994 Y44.415 Z0 F800
G1 X119.815 Y44.269 Z0 F800
G1 X119.62 Y44.141 Z0 F800
G1 X119.189 Y43.942 Z0 F800
G1 X118.722 Y43.826 Z0 F800
G1 X118.238 Y43.798 Z0 F800
G1 X117.756 Y43.865 Z0 F800
G0 Z3.5 F500
G0 X123.414 Y45.102 Z3.5 
G1 Z0 F500
G1 X122.751 Y45.183 Z0 F800
G1 X122.112 Y45.254 Z0 F800
G1 X121.802 Y45.33 Z0 F800
G1 X121.498 Y45.456 Z0 F800
G1 X121.2 Y45.65 Z0 F800
G1 X120.907 Y45.929 Z0 F800
G1 X120.791 Y46.108 Z0 F800
G1 X120.698 Y46.347 Z0 F800
G1 X120.628 Y46.636 Z0 F800
G1 X120.577 Y46.967 Z0 F800
G1 X120.528 Y47.718 Z0 F800
G1 X120.533 Y48.528 Z0 F800
G1 X120.576 Y49.326 Z0 F800
G1 X120.639 Y50.041 Z0 F800
G1 X120.674 Y50.345 Z0 F800
G1 X120.707 Y50.602 Z0 F800
G1 X120.737 Y50.802 Z0 F800
G1 X120.762 Y50.936 Z0 F800
G0 Z3.5 F500
G0 X115.989 Y48.815 Z3.5 
G1 Z0 F500
G1 X115.812 Y48.108 Z0 F800
G0 Z3.5 F500
G0 X113.867 Y49.345 Z3.5 
G1 Z0 F500
G1 X114.096 Y49.431 Z0 F800
G1 X114.338 Y49.49 Z0 F800
G1 X114.589 Y49.52 Z0 F800
G1 X114.845 Z0 F800
G1 X115.101 Y49.492 Z0 F800
G1 X115.353 Y49.433 Z0 F800
G1 X115.598 Y49.343 Z0 F800
G1 X115.831 Y49.222 Z0 F800
G1 X116.047 Y49.069 Z0 F800
G1 X116.244 Y48.883 Z0 F800
G1 X116.415 Y48.664 Z0 F800
G1 X116.558 Y48.41 Z0 F800
G1 X116.669 Y48.123 Z0 F800
G1 X116.742 Y47.8 Z0 F800
G1 X116.774 Y47.442 Z0 F800
G1 X116.761 Y47.047 Z0 F800
G1 X116.713 Y46.706 Z0 F800
G1 X116.633 Y46.401 Z0 F800
G1 X116.525 Y46.132 Z0 F800
G1 X116.39 Y45.896 Z0 F800
G1 X116.233 Y45.694 Z0 F800
G1 X116.054 Y45.525 Z0 F800
G1 X115.857 Y45.388 Z0 F800
G1 X115.645 Y45.282 Z0 F800
G1 X115.419 Y45.206 Z0 F800
G1 X115.183 Y45.159 Z0 F800
G1 X114.939 Y45.141 Z0 F800
G1 X114.69 Y45.152 Z0 F800
G1 X114.438 Y45.189 Z0 F800
G1 X114.185 Y45.253 Z0 F800
G1 X113.935 Y45.342 Z0 F800
G1 X113.69 Y45.456 Z0 F800
G0 Z3.5 F500
G0 X113.16 Y47.4 Z3.5 
G1 Z0 F500
G1 X112.622 Y47.341 Z0 F800
G1 X112.043 Y47.263 Z0 F800
G1 X111.427 Y47.168 Z0 F800
G1 X110.78 Y47.06 Z0 F800
G1 X109.414 Y46.809 Z0 F800
G1 X107.989 Y46.525 Z0 F800
G1 X106.547 Y46.224 Z0 F800
G1 X103.785 Y45.638 Z0 F800
G1 X103.152 Y45.507 Z0 F800
G1 X102.552 Y45.385 Z0 F800
G1 X95.398 Y43.96 Z0 F800
G1 X88.306 Y42.563 Z0 F800
G1 X81.222 Y41.2 Z0 F800
G1 X73.467 Y39.761 Z0 F800
G1 X72.789 Y39.632 Z0 F800
G1 X71.299 Y39.343 Z0 F800
G1 X68.041 Y38.699 Z0 F800
G1 X66.415 Y38.383 Z0 F800
G1 X65.635 Y38.234 Z0 F800
G1 X64.889 Y38.094 Z0 F800
G1 X64.185 Y37.967 Z0 F800
G1 X63.533 Y37.853 Z0 F800
G1 X62.942 Y37.756 Z0 F800
G1 X62.42 Y37.677 Z0 F800
G0 Z3.5 F500
G0 X69.138 Y41.92 Z3.5 
G1 Z0 F500
G1 X69.315 Z0 F800
G0 Z3.5 F500
G0 X70.553 Y51.113 Z3.5 
G1 Z0 F500
G1 X70.612 Y50.816 Z0 F800
G1 X70.64 Y50.49 Z0 F800
G1 X70.649 Y50.146 Z0 F800
G1 X70.654 Y49.797 Z0 F800
G1 X70.671 Y49.454 Z0 F800
G1 X70.713 Y49.129 Z0 F800
G1 X70.795 Y48.835 Z0 F800
G1 X70.931 Y48.582 Z0 F800
G1 X71.079 Y48.405 Z0 F800
G1 X71.236 Y48.259 Z0 F800
G1 X71.4 Y48.141 Z0 F800
G1 X71.572 Y48.048 Z0 F800
G1 X71.932 Y47.926 Z0 F800
G1 X72.305 Y47.874 Z0 F800
G1 X73.052 Y47.891 Z0 F800
G1 X73.735 Y47.931 Z0 F800
G1 X73.726 Y48.115 Z0 F800
G1 X73.702 Y48.335 Z0 F800
G1 X73.664 Y48.587 Z0 F800
G1 X73.616 Y48.863 Z0 F800
G1 X73.492 Y49.468 Z0 F800
G1 X73.346 Y50.102 Z0 F800
G1 X73.194 Y50.719 Z0 F800
G1 X73.05 Y51.271 Z0 F800
G1 X72.931 Y51.713 Z0 F800
G1 X72.851 Y51.997 Z0 F800
G0 Z3.5 F500
G0 X75.68 Z3.5 
G1 Z0 F500
G1 X76.917 Y51.82 Z0 F800
G0 Z3.5 F500
G0 X77.271 Y51.644 Z3.5 
G1 Z0 F500
G1 X76.21 Z0 F800
G0 Z3.5 F500
G0 X76.917 Y51.29 Z3.5 
G1 Z0 F500
G1 X77.271 Y50.936 Z0 F800
G0 Z3.5 F500
G0 Y52.704 Z3.5 
G1 Z0 F500
G1 X77.801 Z0 F800
G0 Z3.5 F500
G0 X75.856 Y53.765 Z3.5 
G1 Z0 F500
G1 Y54.649 Z0 F800
G0 Z3.5 F500
G0 X75.326 Z3.5 
G1 Z0 F500
G1 X75.149 Y54.295 Z0 F800
G0 Z3.5 F500
G0 X60.121 Y55.356 Z3.5 
G1 Z0 F500
G1 X60.106 Y57.629 Z0 F800
G1 X60.101 Y59.953 Z0 F800
G1 X60.066 Y63.112 Z0 F800
G1 X59.982 Y66.256 Z0 F800
G1 X59.955 Y67.809 Z0 F800
G1 Y69.343 Z0 F800
G1 X59.999 Y70.851 Z0 F800
G1 X60.097 Y72.328 Z0 F800
G1 X60.153 Y72.821 Z0 F800
G1 X60.218 Y73.298 Z0 F800
G1 X60.273 Y73.776 Z0 F800
G1 X60.298 Y74.273 Z0 F800
G1 Y75.276 Z0 F800
G1 X60.287 Y76.19 Z0 F800
G1 X60.282 Y77.074 Z0 F800
G1 X60.298 Y77.986 Z0 F800
G0 Z3.5 F500
G0 X56.409 Y83.29 Z3.5 
G1 Z0 F500
G1 X55.966 Y83.25 Z0 F800
G1 X55.541 Y83.191 Z0 F800
G1 X55.136 Y83.114 Z0 F800
G1 X54.754 Y83.019 Z0 F800
G1 X54.396 Y82.905 Z0 F800
G1 X54.065 Y82.774 Z0 F800
G1 X53.762 Y82.624 Z0 F800
G1 X53.491 Y82.456 Z0 F800
G1 X53.252 Y82.27 Z0 F800
G1 X53.05 Y82.065 Z0 F800
G1 X52.884 Y81.843 Z0 F800
G1 X52.758 Y81.603 Z0 F800
G1 X52.675 Y81.344 Z0 F800
G1 X52.635 Y81.068 Z0 F800
G1 X52.641 Y80.773 Z0 F800
G1 X52.696 Y80.461 Z0 F800
G1 X53.068 Y80.544 Z0 F800
G1 X53.41 Y80.599 Z0 F800
G1 X53.729 Y80.628 Z0 F800
G1 X54.031 Y80.633 Z0 F800
G1 X54.603 Y80.581 Z0 F800
G1 X55.171 Y80.461 Z0 F800
G1 X54.766 Y80.268 Z0 F800
G1 X54.42 Y80.128 Z0 F800
G1 X54.103 Y80.03 Z0 F800
G1 X53.781 Y79.96 Z0 F800
G1 X53.423 Y79.905 Z0 F800
G1 X52.16 Y79.751 Z0 F800
G1 X51.812 Y79.705 Z0 F800
G1 X50.85 Y79.521 Z0 F800
G1 X49.929 Y79.352 Z0 F800
G1 X49.475 Y79.323 Z0 F800
G1 X49.021 Y79.358 Z0 F800
G1 X48.793 Y79.406 Z0 F800
G1 X48.564 Y79.477 Z0 F800
G1 X48.333 Y79.574 Z0 F800
G1 X48.1 Y79.699 Z0 F800
G1 X47.75 Y79.868 Z0 F800
G1 X47.346 Y79.996 Z0 F800
G1 X46.901 Y80.084 Z0 F800
G1 X46.43 Y80.135 Z0 F800
G1 X45.948 Y80.15 Z0 F800
G1 X45.469 Y80.131 Z0 F800
G1 X45.007 Y80.081 Z0 F800
G1 X44.578 Y80 Z0 F800
G1 X44.271 Y79.894 Z0 F800
G1 X44.046 Y79.744 Z0 F800
G1 X43.894 Y79.554 Z0 F800
G1 X43.803 Y79.329 Z0 F800
G1 X43.764 Y79.073 Z0 F800
G1 Y78.79 Z0 F800
G1 X43.801 Y78.485 Z0 F800
G1 X43.857 Y78.163 Z0 F800
G1 X44.237 Y78.327 Z0 F800
G1 X44.631 Y78.457 Z0 F800
G1 X45.034 Y78.554 Z0 F800
G1 X45.442 Y78.616 Z0 F800
G1 X45.851 Y78.643 Z0 F800
G1 X46.256 Y78.636 Z0 F800
G1 X46.654 Y78.594 Z0 F800
G1 X47.039 Y78.516 Z0 F800
G1 X46.694 Y78.379 Z0 F800
G1 X46.33 Y78.275 Z0 F800
G1 X45.951 Y78.202 Z0 F800
G1 X45.564 Y78.156 Z0 F800
G1 X44.785 Y78.128 Z0 F800
G1 X44.033 Y78.163 Z0 F800
G0 Z3.5 F500
G0 X42.796 Y79.047 Z3.5 
G1 Z0 F500
G1 X42.496 Y79.033 Z0 F800
G1 X42.262 Y78.971 Z0 F800
G1 X42.087 Y78.865 Z0 F800
G1 X41.967 Y78.72 Z0 F800
G1 X41.895 Y78.538 Z0 F800
G1 X41.866 Y78.323 Z0 F800
G1 X41.873 Y78.078 Z0 F800
G1 X41.912 Y77.809 Z0 F800
G1 X42.796 Y77.279 Z0 F800
G1 X41.735 Y77.632 Z0 F800
G0 Z3.5 F500
G0 X40.498 Y76.041 Z3.5 
G1 Z0 F500
G1 X41.157 Y76.036 Z0 F800
G1 X41.868 Y76.012 Z0 F800
G1 X42.646 Y75.959 Z0 F800
G1 X43.503 Y75.864 Z0 F800
G0 Z3.5 F500
G0 X44.564 Y74.804 Z3.5 
G1 Z0 F500
G1 Y74.627 Z0 F800
G0 Z3.5 F500
G0 X48.807 Y76.041 Z3.5 
G1 Z0 F500
G1 X48.872 Y74.777 Z0 F800
G1 X48.888 Y73.536 Z0 F800
G1 X48.868 Y72.31 Z0 F800
G1 X48.823 Y71.092 Z0 F800
G1 X48.706 Y68.647 Z0 F800
G1 X48.63 Y66.141 Z0 F800
G0 Z3.5 F500
G0 X44.564 Y66.671 Z3.5 
G1 Z0 F500
G1 Y67.025 Z0 F800
G0 Z3.5 F500
G0 X43.503 Y67.909 Z3.5 
G1 Z0 F500
G1 X40.498 Z0 F800
G0 Z3.5 F500
G0 Y65.964 Z3.5 
G1 Z0 F500
G1 X43.503 Z0 F800
G0 Z3.5 F500
G0 X43.857 Y63.135 Z3.5 
G1 Z0 F500
G1 X44.811 Y63.105 Z0 F800
G1 X45.842 Y63.026 Z0 F800
G1 X46.897 Y62.913 Z0 F800
G1 X47.923 Y62.782 Z0 F800
G0 Z3.5 F500
G0 X45.271 Y62.428 Z3.5 
G1 Z0 F500
G1 X44.917 Y62.605 Z0 F800
G0 Z3.5 F500
G0 X42.619 Y63.135 Z3.5 
G1 Z0 F500
G1 X42.829 Y63.218 Z0 F800
G1 X43.009 Y63.337 Z0 F800
G1 X43.161 Y63.488 Z0 F800
G1 X43.289 Y63.669 Z0 F800
G1 X43.393 Y63.876 Z0 F800
G1 X43.477 Y64.105 Z0 F800
G1 X43.543 Y64.352 Z0 F800
G1 X43.592 Y64.615 Z0 F800
G1 X43.672 Y65.749 Z0 F800
G1 X43.669 Y66.848 Z0 F800
G1 X43.685 Y70.732 Z0 F800
G1 X43.678 Y74.627 Z0 F800
G1 X43.661 Y75.128 Z0 F800
G1 X43.655 Y75.559 Z0 F800
G1 X43.672 Y75.761 Z0 F800
G1 X43.713 Y75.96 Z0 F800
G1 X43.782 Y76.161 Z0 F800
G1 X43.888 Y76.369 Z0 F800
G1 X44.041 Y76.59 Z0 F800
G1 X44.211 Y76.773 Z0 F800
G1 X44.396 Y76.919 Z0 F800
G1 X44.594 Y77.034 Z0 F800
G1 X45.028 Y77.187 Z0 F800
G1 X45.502 Y77.263 Z0 F800
G1 X46.523 Y77.316 Z0 F800
G1 X47.569 Y77.455 Z0 F800
G1 X47.209 Y77.525 Z0 F800
G1 X46.789 Y77.57 Z0 F800
G1 X46.324 Y77.593 Z0 F800
G1 X45.829 Y77.596 Z0 F800
G1 X44.811 Y77.552 Z0 F800
G1 X43.857 Y77.455 Z0 F800
G0 Z3.5 F500
G0 X40.498 Y85.234 Z3.5 
G1 Z0 F500
G1 X41.624 Y85.466 Z0 F800
G1 X42.837 Y85.675 Z0 F800
G1 X44.073 Y85.876 Z0 F800
G1 X45.271 Y86.085 Z0 F800
G1 X47.741 Y86.528 Z0 F800
G1 X50.217 Y86.944 Z0 F800
G1 X52.695 Y87.347 Z0 F800
G1 X55.171 Y87.754 Z0 F800
G1 X56.512 Y87.983 Z0 F800
G1 X57.821 Y88.195 Z0 F800
G1 X58.461 Y88.283 Z0 F800
G1 X59.088 Y88.353 Z0 F800
G1 X59.701 Y88.399 Z0 F800
G1 X60.298 Y88.417 Z0 F800
G0 Z3.5 F500
G0 X67.901 Y87.886 Z3.5 
G1 Z0 F500
G1 X67.893 Y87.615 Z0 F800
G1 X67.873 Y87.302 Z0 F800
G1 X67.844 Y86.954 Z0 F800
G1 X67.731 Y85.751 Z0 F800
G1 X67.667 Y84.878 Z0 F800
G1 X67.641 Y84.001 Z0 F800
G1 X67.679 Y83.167 Z0 F800
G1 X67.729 Y82.781 Z0 F800
G1 X67.805 Y82.423 Z0 F800
G1 X67.91 Y82.099 Z0 F800
G1 X68.046 Y81.815 Z0 F800
G1 X68.183 Y81.643 Z0 F800
G1 X68.35 Y81.532 Z0 F800
G1 X68.541 Y81.471 Z0 F800
G1 X68.75 Y81.448 Z0 F800
G1 X69.204 Y81.472 Z0 F800
G1 X69.668 Y81.511 Z0 F800
G1 X70.371 Y81.554 Z0 F800
G1 X71.034 Y81.582 Z0 F800
G1 X71.357 Y81.571 Z0 F800
G1 X71.677 Y81.533 Z0 F800
G1 X71.997 Y81.46 Z0 F800
G1 X72.32 Y81.345 Z0 F800
G1 X72.061 Y81.237 Z0 F800
G1 X71.778 Y81.159 Z0 F800
G1 X71.476 Y81.104 Z0 F800
G1 X71.16 Y81.067 Z0 F800
G1 X70.506 Y81.026 Z0 F800
G1 X69.851 Y80.992 Z0 F800
G1 X69.536 Y80.964 Z0 F800
G1 X69.235 Y80.921 Z0 F800
G1 X68.953 Y80.859 Z0 F800
G1 X68.694 Y80.771 Z0 F800
G1 X68.464 Y80.653 Z0 F800
G1 X68.266 Y80.498 Z0 F800
G1 X68.107 Y80.301 Z0 F800
G1 X67.989 Y80.057 Z0 F800
G1 X67.895 Y79.685 Z0 F800
G1 X67.843 Y79.249 Z0 F800
G1 X67.823 Y78.769 Z0 F800
G1 X67.827 Y78.264 Z0 F800
G1 X67.846 Y77.755 Z0 F800
G1 X67.891 Y76.801 Z0 F800
G1 X67.9 Y76.395 Z0 F800
G1 Y67.378 Z0 F800
G1 X67.887 Y66.96 Z0 F800
G1 X67.821 Y65.915 Z0 F800
G1 X67.795 Y65.346 Z0 F800
G1 X67.791 Y64.783 Z0 F800
G1 X67.822 Y64.256 Z0 F800
G1 X67.856 Y64.015 Z0 F800
G1 X67.903 Y63.794 Z0 F800
G1 X67.966 Y63.596 Z0 F800
G1 X68.046 Y63.425 Z0 F800
G1 X68.17 Y63.259 Z0 F800
G1 X68.319 Y63.14 Z0 F800
G1 X68.49 Y63.058 Z0 F800
G1 X68.676 Y63.004 Z0 F800
G1 X69.08 Y62.95 Z0 F800
G1 X69.492 Y62.907 Z0 F800
G1 X69.955 Y62.827 Z0 F800
G1 X71.042 Y62.613 Z0 F800
G1 X71.622 Y62.51 Z0 F800
G1 X72.198 Y62.432 Z0 F800
G1 X72.748 Y62.393 Z0 F800
G1 X73.251 Y62.409 Z0 F800
G1 X73.684 Y62.497 Z0 F800
G1 X73.82 Y62.57 Z0 F800
G1 X73.936 Y62.691 Z0 F800
G1 X74.035 Y62.855 Z0 F800
G1 X74.118 Y63.055 Z0 F800
G1 X74.242 Y63.543 Z0 F800
G1 X74.322 Y64.112 Z0 F800
G1 X74.368 Y64.718 Z0 F800
G1 X74.395 Y65.317 Z0 F800
G1 X74.413 Y65.865 Z0 F800
G1 X74.435 Y66.317 Z0 F800
G1 X74.543 Y67.795 Z0 F800
G1 X74.569 Y68.227 Z0 F800
G1 X74.59 Y68.663 Z0 F800
G1 X74.605 Y69.125 Z0 F800
G1 X74.615 Y69.632 Z0 F800
G1 X74.619 Y70.207 Z0 F800
G1 X74.632 Y71.297 Z0 F800
G1 X74.64 Y72.328 Z0 F800
G1 X74.627 Y73.211 Z0 F800
G1 X74.619 Y74.096 Z0 F800
G1 Y78.87 Z0 F800
G1 X74.616 Y79.238 Z0 F800
G1 X74.609 Y79.573 Z0 F800
G1 X74.593 Y79.874 Z0 F800
G1 X74.565 Y80.144 Z0 F800
G1 X74.524 Y80.383 Z0 F800
G1 X74.466 Y80.592 Z0 F800
G1 X74.388 Y80.774 Z0 F800
G1 X74.287 Y80.928 Z0 F800
G1 X74.161 Y81.057 Z0 F800
G1 X74.006 Y81.162 Z0 F800
G1 X73.82 Y81.243 Z0 F800
G1 X73.6 Y81.302 Z0 F800
G1 X73.343 Y81.341 Z0 F800
G1 X73.046 Y81.36 Z0 F800
G1 X72.706 Z0 F800
G1 X72.32 Y81.345 Z0 F800
G0 Z3.5 F500
G0 X74.972 Y71.975 Z3.5 
G1 Z0 F500
G1 X75.595 Y72.012 Z0 F800
G1 X76.177 Y72.058 Z0 F800
G1 X76.446 Z0 F800
G1 X76.696 Y72.02 Z0 F800
G1 X76.923 Y71.941 Z0 F800
G1 X77.125 Y71.805 Z0 F800
G1 X77.323 Y71.584 Z0 F800
G1 X77.456 Y71.336 Z0 F800
G1 X77.533 Y71.065 Z0 F800
G1 X77.565 Y70.775 Z0 F800
G1 X77.532 Y70.155 Z0 F800
G1 X77.431 Y69.507 Z0 F800
G1 X77.34 Y68.865 Z0 F800
G1 X77.335 Y68.259 Z0 F800
G1 X77.388 Y67.981 Z0 F800
G1 X77.492 Y67.724 Z0 F800
G1 X77.656 Y67.492 Z0 F800
G1 X77.89 Y67.29 Z0 F800
G1 X78.234 Y67.099 Z0 F800
G1 X78.577 Y66.985 Z0 F800
G1 X78.92 Y66.931 Z0 F800
G1 X79.263 Y66.92 Z0 F800
G1 X79.947 Y66.955 Z0 F800
G1 X80.63 Y66.95 Z0 F800
G1 X81.052 Y66.901 Z0 F800
G1 X81.403 Y66.853 Z0 F800
G1 X81.981 Y66.766 Z0 F800
G1 X82.254 Y66.73 Z0 F800
G1 X82.546 Y66.701 Z0 F800
G1 X82.881 Y66.681 Z0 F800
G1 X83.282 Y66.671 Z0 F800
G0 Z3.5 F500
G0 X86.818 Y67.909 Z3.5 
G1 Z0 F500
G1 Y69.676 Z0 F800
G0 Z3.5 F500
G0 X90.177 Y68.793 Z3.5 
G1 Z0 F500
G1 X90.353 Y65.08 Z0 F800
G0 Z3.5 F500
G0 X103.259 Y62.782 Z3.5 
G1 Z0 F500
G1 Y62.014 Z0 F800
G1 X103.277 Y58.55 Z0 F800
G1 X103.28 Y57.298 Z0 F800
G1 Y56.144 Z0 F800
G1 X103.273 Y55.173 Z0 F800
G1 X103.267 Y54.783 Z0 F800
G1 X103.259 Y54.472 Z0 F800
G0 Z3.5 F500
G0 X103.436 Y55.356 Z3.5 
G1 Z0 F500
G1 X104.467 Y55.397 Z0 F800
G1 X105.45 Y55.486 Z0 F800
G1 X105.928 Y55.568 Z0 F800
G1 X106.398 Y55.686 Z0 F800
G1 X106.864 Y55.849 Z0 F800
G1 X107.326 Y56.063 Z0 F800
G0 Z3.5 F500
G0 X105.381 Y56.594 Z3.5 
G1 Z0 F500
G1 X105.386 Y57.168 Z0 F800
G1 X105.402 Y57.691 Z0 F800
G1 X105.428 Y58.175 Z0 F800
G1 X105.465 Y58.634 Z0 F800
G1 X105.575 Y59.529 Z0 F800
G1 X105.734 Y60.483 Z0 F800
G0 Z3.5 F500
G0 X105.027 Z3.5 
G1 Z0 F500
G1 Y60.837 Z0 F800
G0 Z3.5 F500
G0 X106.442 Y60.483 Z3.5 
G1 Z0 F500
G1 Y58.538 Z0 F800
G0 Z3.5 F500
G0 X105.911 Y57.478 Z3.5 
G1 Z0 F500
G1 Y57.301 Z0 F800
G0 Z3.5 F500
G0 X106.972 Y60.66 Z3.5 
G1 Z0 F500
G1 Y61.014 Z0 F800
G0 Z3.5 F500
G0 X107.502 Y61.721 Z3.5 
G1 Z0 F500
G1 X107.508 Y61.341 Z0 F800
G1 X107.521 Y61.006 Z0 F800
G1 X107.544 Y60.707 Z0 F800
G1 X107.578 Y60.433 Z0 F800
G1 X107.686 Y59.929 Z0 F800
G1 X107.856 Y59.422 Z0 F800
G1 X107.954 Y59.893 Z0 F800
G1 X108.007 Y60.357 Z0 F800
G1 X108.021 Y60.608 Z0 F800
G1 X108.029 Y60.884 Z0 F800
G1 X108.032 Y61.193 Z0 F800
G1 Y61.544 Z0 F800
G0 Z3.5 F500
G0 X106.265 Y64.196 Z3.5 
G1 Z0 F500
G1 X105.558 Z0 F800
G0 Z3.5 F500
G0 X104.851 Y64.903 Z3.5 
G1 Z0 F500
G1 Y65.787 Z0 F800
G0 Z3.5 F500
G0 X104.143 Z3.5 
G1 Z0 F500
G1 X103.967 Z0 F800
G0 Z3.5 F500
G0 X106.088 Y65.08 Z3.5 
G1 Z0 F500
G1 X106.744 Y65.062 Z0 F800
G1 X107.335 Y65.007 Z0 F800
G1 X107.611 Y64.947 Z0 F800
G1 X107.877 Y64.856 Z0 F800
G1 X108.135 Y64.726 Z0 F800
G1 X108.386 Y64.549 Z0 F800
G0 Z3.5 F500
G0 X120.585 Y56.417 Z3.5 
G1 Z0 F500
G1 X121.116 Y56.24 Z0 F800
G0 Z3.5 F500
G0 X120.408 Y55.887 Z3.5 
G1 Z0 F500
G1 X118.963 Y55.677 Z0 F800
G1 X117.482 Y55.454 Z0 F800
G1 X115.975 Y55.221 Z0 F800
G1 X114.452 Y54.981 Z0 F800
G1 X108.386 Y54.014 Z0 F800
G1 X105.877 Y53.635 Z0 F800
G1 X103.436 Y53.235 Z0 F800
G0 Z3.5 F500
G0 X114.044 Y51.997 Z3.5 
G1 Z0 F500
G1 X114.392 Y52.075 Z0 F800
G1 X114.837 Y52.167 Z0 F800
G1 X115.366 Y52.272 Z0 F800
G1 X115.967 Y52.384 Z0 F800
G1 X116.627 Y52.501 Z0 F800
G1 X117.334 Y52.619 Z0 F800
G1 X118.077 Y52.736 Z0 F800
G1 X118.841 Y52.848 Z0 F800
G1 X120.39 Y53.041 Z0 F800
G1 X121.881 Y53.174 Z0 F800
G1 X122.574 Y53.209 Z0 F800
G1 X123.216 Y53.219 Z0 F800
G1 X123.795 Y53.201 Z0 F800
G1 X124.298 Y53.15 Z0 F800
G1 X124.951 Y53.041 Z0 F800
G1 X125.572 Y52.915 Z0 F800
G1 X126.159 Y52.783 Z0 F800
G1 X126.711 Y52.654 Z0 F800
G1 X127.226 Y52.536 Z0 F800
G1 X127.704 Y52.44 Z0 F800
G1 X128.143 Y52.375 Z0 F800
G1 X128.541 Y52.351 Z0 F800
G0 Z3.5 F500
G0 X127.48 Y51.997 Z3.5 
G1 Z0 F500
G1 X127.605 Y51.317 Z0 F800
G1 X127.696 Y50.675 Z0 F800
G1 X127.737 Y50.068 Z0 F800
G1 X127.711 Y49.491 Z0 F800
G1 X127.668 Y49.213 Z0 F800
G1 X127.601 Y48.941 Z0 F800
G1 X127.509 Y48.674 Z0 F800
G1 X127.39 Y48.411 Z0 F800
G1 X127.241 Y48.154 Z0 F800
G1 X127.061 Y47.899 Z0 F800
G1 X126.846 Y47.649 Z0 F800
G1 X126.596 Y47.4 Z0 F800
G1 X126.809 Y47.203 Z0 F800
G1 X127.006 Y47.043 Z0 F800
G1 X127.191 Y46.919 Z0 F800
G1 X127.366 Y46.826 Z0 F800
G1 X127.698 Y46.722 Z0 F800
G1 X128.027 Y46.7 Z0 F800
G1 X128.375 Y46.734 Z0 F800
G1 X128.768 Y46.794 Z0 F800
G1 X129.228 Y46.853 Z0 F800
G1 X129.778 Y46.882 Z0 F800
G1 X130.144 Y46.898 Z0 F800
G1 X130.471 Y46.943 Z0 F800
G1 X130.763 Y47.014 Z0 F800
G1 X131.022 Y47.11 Z0 F800
G1 X131.253 Y47.231 Z0 F800
G1 X131.457 Y47.375 Z0 F800
G1 X131.639 Y47.542 Z0 F800
G1 X131.801 Y47.73 Z0 F800
G1 X132.08 Y48.166 Z0 F800
G1 X132.32 Y48.674 Z0 F800
G1 X132.546 Y49.247 Z0 F800
G1 X132.784 Y49.876 Z0 F800
G0 Z3.5 F500
G0 X133.491 Y53.235 Z3.5 
G1 Z0 F500
G1 X132.804 Y53.372 Z0 F800
G1 X132.13 Y53.504 Z0 F800
G1 X131.476 Y53.656 Z0 F800
G1 X130.852 Y53.857 Z0 F800
G1 X130.599 Y53.972 Z0 F800
G1 X130.402 Y54.103 Z0 F800
G1 X130.252 Y54.252 Z0 F800
G1 X130.142 Y54.422 Z0 F800
G1 X130.065 Y54.615 Z0 F800
G1 X130.013 Y54.833 Z0 F800
G1 X129.979 Y55.079 Z0 F800
G1 X129.955 Y55.356 Z0 F800
G0 Z3.5 F500
G0 X130.662 Y53.411 Z3.5 
G1 Z0 F500
G1 Y53.058 Z0 F800
G0 Z3.5 F500
G0 X129.778 Y52.881 Z3.5 
G1 Z0 F500
G1 X129.602 Z0 F800
G0 Z3.5 F500
G0 X128.894 Y53.411 Z3.5 
G1 Z0 F500
G1 X127.48 Y53.235 Z0 F800
G0 Z3.5 F500
