;LightBurn 1.6.04
;Custom GCode device profile, absolute coords
;Bounds: X47.95 Y43.16 to X82.09 Y90.3
G00 G17 G40 G21 G54
G90
G1 Z10 F1000
;Offset @ 1600 mm/min, 80% power

M8
G0 Z4.8F1000
G0 X57.453Y46.739Z4.8
G1 Z0F1000
;Layer C1
G1 X58.064Y47.665Z0S800F1800
G1 X58.365Y48.116Z0F1800
G1 X58.983Y49.011Z0F1800
G1 X59.244Y49.384Z0F1800
G1 X57.956Y50.166Z0F1800
G1 X57.771Y49.778Z0F1800
G1 X57.452Y49.123Z0F1800
G1 X57.338Y48.896Z0F1800
G1 X57.266Y48.76Z0F1800
G1 X57.201Y48.646Z0F1800
G1 X57.13Y48.515Z0F1800
G1 X56.757Y47.799Z0F1800
G1 X56.633Y47.565Z0F1800
G1 X56.52Y47.36Z0F1800
G1 X56.42Y47.196Z0F1800
G1 X56.371Y47.109Z0F1800
G1 X56.276Y46.938Z0F1800
G1 X55.948Y46.329Z0F1800
G1 X56.414Y46.072Z0F1800
G1 X56.705Y45.887Z0F1800
G1 X56.838Y45.799Z0F1800
G1 X57.453Y46.739Z0F1800
G0 Z4.8F1000
G0 X60.158Y49.12Z4.8F1600
G1 Z0F1000
G1 X60.536Y49.652Z0F1800
G1 X57.572Y51.451Z0F1800
G1 X57.379Y51.044Z0F1800
G1 X56.96Y50.17Z0F1800
G1 X56.645Y49.521Z0F1800
G1 X56.539Y49.31Z0F1800
G1 X56.478Y49.196Z0F1800
G1 X56.428Y49.108Z0F1800
G1 X56.338Y48.942Z0F1800
G1 X55.961Y48.219Z0F1800
G1 X55.841Y47.993Z0F1800
G1 X55.741Y47.811Z0F1800
G1 X55.646Y47.657Z0F1800
G1 X55.578Y47.535Z0F1800
G1 X55.48Y47.358Z0F1800
G1 X55.056Y46.572Z0F1800
G1 X54.732Y45.993Z0F1800
G1 X54.691Y45.921Z0F1800
G1 X54.759Y45.895Z0F1800
G1 X55.387Y45.61Z0F1800
G1 X55.955Y45.298Z0F1800
G1 X56.215Y45.132Z0F1800
G1 X56.426Y44.993Z0F1800
G1 X56.618Y44.858Z0F1800
G1 X56.804Y44.719Z0F1800
G1 X57.064Y44.496Z0F1800
G1 X57.124Y44.588Z0F1800
G1 X57.533Y45.217Z0F1800
G1 X58.206Y46.245Z0F1800
G1 X58.813Y47.167Z0F1800
G1 X59.11Y47.61Z0F1800
G1 X59.722Y48.498Z0F1800
G1 X60.158Y49.12Z0F1800
G0 Z4.8F1000
G0 X61.177Y50.316Z4.8
G1 Z0F1000
G1 X57.231Y52.71Z0F1800
G1 X57.2Y52.694Z0F1800
G1 X57.152Y52.631Z0F1800
G1 X57.091Y52.53Z0F1800
G1 X57.026Y52.402Z0F1800
G1 X56.566Y51.431Z0F1800
G1 X56.149Y50.561Z0F1800
G1 X55.837Y49.918Z0F1800
G1 X55.739Y49.723Z0F1800
G1 X55.69Y49.631Z0F1800
G1 X55.638Y49.54Z0F1800
G1 X55.546Y49.37Z0F1800
G1 X55.165Y48.638Z0F1800
G1 X55.049Y48.421Z0F1800
G1 X54.962Y48.262Z0F1800
G1 X54.872Y48.115Z0F1800
G1 X54.794Y47.978Z0F1800
G1 X54.692Y47.793Z0F1800
G1 X54.267Y47.005Z0F1800
G1 X53.949Y46.436Z0F1800
G1 X53.802Y46.18Z0F1800
G1 X53.673Y45.958Z0F1800
G1 X53.567Y45.783Z0F1800
G1 X53.491Y45.664Z0F1800
G1 X53.395Y45.503Z0F1800
G1 X53.369Y45.399Z0F1800
G1 X53.415Y45.343Z0F1800
G1 X53.684Y45.307Z0F1800
G1 X53.89Y45.253Z0F1800
G1 X54.137Y45.17Z0F1800
G1 X54.412Y45.064Z0F1800
G1 X54.984Y44.805Z0F1800
G1 X55.495Y44.523Z0F1800
G1 X55.725Y44.377Z0F1800
G1 X55.92Y44.248Z0F1800
G1 X56.089Y44.13Z0F1800
G1 X56.24Y44.017Z0F1800
G1 X56.518Y43.779Z0F1800
G1 X56.818Y43.483Z0F1800
G1 X56.938Y43.364Z0F1800
G1 X57.037Y43.273Z0F1800
G1 X57.119Y43.208Z0F1800
G1 X57.185Y43.169Z0F1800
G1 X57.28Y43.165Z0F1800
G1 X57.34Y43.25Z0F1800
G1 X57.371Y43.303Z0F1800
G1 X57.56Y43.602Z0F1800
G1 X57.88Y44.099Z0F1800
G1 X58.287Y44.725Z0F1800
G1 X58.958Y45.75Z0F1800
G1 X59.563Y46.669Z0F1800
G1 X59.854Y47.104Z0F1800
G1 X60.461Y47.984Z0F1800
G1 X60.893Y48.601Z0F1800
G1 X61.325Y49.208Z0F1800
G1 X61.493Y49.447Z0F1800
G1 X61.63Y49.654Z0F1800
G1 X61.724Y49.808Z0F1800
G1 X61.758Y49.885Z0F1800
G1 X61.712Y49.943Z0F1800
G1 X61.588Y50.043Z0F1800
G1 X61.403Y50.172Z0F1800
G1 X61.177Y50.316Z0F1800
G0 Z4.8F1000
G0 X62.555Y55.863Z4.8
G1 Z0F1000
G1 X62.891Y56.318Z0F1800
G1 X63.234Y56.816Z0F1800
G1 X63.585Y57.358Z0F1800
G1 X63.952Y57.96Z0F1800
G1 X64.307Y58.578Z0F1800
G1 X64.697Y59.294Z0F1800
G1 X65.098Y60.064Z0F1800
G1 X65.529Y60.93Z0F1800
G1 X65.954Y61.813Z0F1800
G1 X66.426Y62.823Z0F1800
G1 X66.708Y63.444Z0F1800
G1 X65.265Y61.386Z0F1800
G1 X64.89Y60.842Z0F1800
G1 X64.548Y60.338Z0F1800
G1 X64.258Y59.902Z0F1800
G1 X63.95Y59.427Z0F1800
G1 X63.684Y59.006Z0F1800
G1 X63.462Y58.644Z0F1800
G1 X63.247Y58.28Z0F1800
G1 X62.859Y57.586Z0F1800
G1 X62.528Y56.936Z0F1800
G1 X62.24Y56.306Z0F1800
G1 X61.976Y55.668Z0F1800
G1 X61.884Y55.418Z0F1800
G1 X62.091Y55.292Z0F1800
G1 X62.555Y55.863Z0F1800
G0 Z4.8F1000
G0 X65.486Y58.861Z4.8
G1 Z0F1000
G1 X65.889Y59.634Z0F1800
G1 X66.334Y60.528Z0F1800
G1 X66.783Y61.46Z0F1800
G1 X67.246Y62.451Z0F1800
G1 X67.75Y63.559Z0F1800
G1 X68.289Y64.77Z0F1800
G1 X69.11Y66.625Z0F1800
G1 X69.482Y67.46Z0F1800
G1 X69.606Y67.735Z0F1800
G1 X70.052Y68.748Z0F1800
G1 X71.11Y71.163Z0F1800
G1 X69.556Y68.997Z0F1800
G1 X69.438Y68.839Z0F1800
G1 X69.204Y68.521Z0F1800
G1 X68.86Y68.045Z0F1800
G1 X68.161Y67.066Z0F1800
G1 X67.1Y65.569Z0F1800
G1 X64.533Y61.908Z0F1800
G1 X64.149Y61.353Z0F1800
G1 X63.818Y60.864Z0F1800
G1 X63.486Y60.365Z0F1800
G1 X63.21Y59.94Z0F1800
G1 X62.923Y59.487Z0F1800
G1 X62.678Y59.087Z0F1800
G1 X62.471Y58.737Z0F1800
G1 X62.066Y58.01Z0F1800
G1 X61.722Y57.334Z0F1800
G1 X61.412Y56.66Z0F1800
G1 X61.137Y55.995Z0F1800
G1 X60.789Y55.043Z0F1800
G1 X60.785Y55.031Z0F1800
G1 X61.906Y54.353Z0F1800
G1 X62.279Y54.125Z0F1800
G1 X62.494Y54.36Z0F1800
G1 X63.264Y55.308Z0F1800
G1 X63.622Y55.793Z0F1800
G1 X63.987Y56.322Z0F1800
G1 X64.351Y56.884Z0F1800
G1 X64.717Y57.487Z0F1800
G1 X65.104Y58.159Z0F1800
G1 X65.486Y58.861Z0F1800
G0 Z4.8F1000
G0 X68.065Y62.078Z4.8
G1 Z0F1000
G1 X68.572Y63.192Z0F1800
G1 X69.112Y64.405Z0F1800
G1 X69.933Y66.259Z0F1800
G1 X70.303Y67.092Z0F1800
G1 X70.43Y67.373Z0F1800
G1 X70.877Y68.387Z0F1800
G1 X75.392Y78.69Z0F1800
G1 X75.13Y78.323Z0F1800
G1 X71.562Y73.335Z0F1800
G1 X68.831Y69.53Z0F1800
G1 X68.718Y69.38Z0F1800
G1 X68.479Y69.054Z0F1800
G1 X68.123Y68.561Z0F1800
G1 X67.429Y67.589Z0F1800
G1 X66.366Y66.089Z0F1800
G1 X63.784Y62.408Z0F1800
G1 X63.408Y61.864Z0F1800
G1 X63.059Y61.349Z0F1800
G1 X62.748Y60.881Z0F1800
G1 X62.44Y60.406Z0F1800
G1 X62.163Y59.969Z0F1800
G1 X61.919Y59.571Z0F1800
G1 X61.688Y59.18Z0F1800
G1 X61.27Y58.431Z0F1800
G1 X60.908Y57.721Z0F1800
G1 X60.593Y57.034Z0F1800
G1 X60.292Y56.308Z0F1800
G1 X59.941Y55.346Z0F1800
G1 X59.708Y54.627Z0F1800
G1 X60.252Y54.302Z0F1800
G1 X61.438Y53.584Z0F1800
G1 X62.058Y53.206Z0F1800
G1 X62.443Y52.971Z0F1800
G1 X63.173Y53.77Z0F1800
G1 X63.98Y54.764Z0F1800
G1 X64.353Y55.268Z0F1800
G1 X64.739Y55.829Z0F1800
G1 X65.111Y56.401Z0F1800
G1 X65.482Y57.012Z0F1800
G1 X65.888Y57.717Z0F1800
G1 X66.277Y58.431Z0F1800
G1 X66.708Y59.26Z0F1800
G1 X67.129Y60.104Z0F1800
G1 X67.594Y61.07Z0F1800
G1 X68.065Y62.078Z0F1800
G0 Z4.8F1000
G0 X70.755Y65.895Z4.8
G1 Z0F1000
G1 X71.125Y66.725Z0F1800
G1 X71.253Y67.009Z0F1800
G1 X71.701Y68.026Z0F1800
G1 X77.238Y80.662Z0F1800
G1 X77.678Y81.653Z0F1800
G1 X78.058Y82.541Z0F1800
G1 X78.143Y82.731Z0F1800
G1 X78.226Y82.914Z0F1800
G1 X78.33Y83.149Z0F1800
G1 X78.57Y83.704Z0F1800
G1 X79.797Y86.573Z0F1800
G1 X79.267Y85.804Z0F1800
G1 X78.305Y84.421Z0F1800
G1 X77.35Y83.045Z0F1800
G1 X76.814Y82.278Z0F1800
G1 X75.705Y80.702Z0F1800
G1 X74.879Y79.521Z0F1800
G1 X74.397Y78.846Z0F1800
G1 X70.83Y73.859Z0F1800
G1 X68.105Y70.063Z0F1800
G1 X67.999Y69.921Z0F1800
G1 X67.753Y69.587Z0F1800
G1 X67.393Y69.088Z0F1800
G1 X66.696Y68.113Z0F1800
G1 X65.631Y66.609Z0F1800
G1 X63.047Y62.925Z0F1800
G1 X62.667Y62.375Z0F1800
G1 X62.319Y61.861Z0F1800
G1 X61.987Y61.362Z0F1800
G1 X61.69Y60.904Z0F1800
G1 X61.403Y60.451Z0F1800
G1 X61.144Y60.027Z0F1800
G1 X60.912Y59.636Z0F1800
G1 X60.475Y58.854Z0F1800
G1 X60.098Y58.112Z0F1800
G1 X59.763Y57.383Z0F1800
G1 X59.459Y56.649Z0F1800
G1 X59.089Y55.636Z0F1800
G1 X58.758Y54.616Z0F1800
G1 X58.64Y54.213Z0F1800
G1 X59.028Y53.985Z0F1800
G1 X59.788Y53.531Z0F1800
G1 X60.971Y52.815Z0F1800
G1 X61.589Y52.437Z0F1800
G1 X62.03Y52.168Z0F1800
G1 X62.378Y51.959Z0F1800
G1 X62.599Y51.831Z0F1800
G1 X62.691Y51.925Z0F1800
G1 X62.946Y52.187Z0F1800
G1 X63.859Y53.187Z0F1800
G1 X64.69Y54.209Z0F1800
G1 X65.084Y54.743Z0F1800
G1 X65.474Y55.308Z0F1800
G1 X65.875Y55.927Z0F1800
G1 X66.269Y56.574Z0F1800
G1 X66.674Y57.279Z0F1800
G1 X67.076Y58.015Z0F1800
G1 X67.5Y58.831Z0F1800
G1 X67.945Y59.725Z0F1800
G1 X68.4Y60.67Z0F1800
G1 X68.884Y61.705Z0F1800
G1 X69.394Y62.826Z0F1800
G1 X69.935Y64.041Z0F1800
G1 X70.755Y65.895Z0F1800
G0 Z4.8F1000
G0 X72.525Y67.665Z4.8
G1 Z0F1000
G1 X78.062Y80.298Z0F1800
G1 X78.501Y81.288Z0F1800
G1 X78.883Y82.181Z0F1800
G1 X78.963Y82.362Z0F1800
G1 X79.05Y82.551Z0F1800
G1 X79.156Y82.792Z0F1800
G1 X79.398Y83.35Z0F1800
G1 X81.013Y87.127Z0F1800
G1 X81.421Y88.097Z0F1800
G1 X81.64Y88.629Z0F1800
G1 X81.815Y89.069Z0F1800
G1 X81.947Y89.415Z0F1800
G1 X81.997Y89.552Z0F1800
G1 X82.036Y89.666Z0F1800
G1 X82.064Y89.756Z0F1800
G1 X82.081Y89.822Z0F1800
G1 X82.086Y89.864Z0F1800
G1 X82.062Y89.976Z0F1800
G1 X81.997Y90.077Z0F1800
G1 X81.899Y90.165Z0F1800
G1 X81.779Y90.233Z0F1800
G1 X81.646Y90.278Z0F1800
G1 X81.511Y90.296Z0F1800
G1 X81.382Y90.281Z0F1800
G1 X81.27Y90.231Z0F1800
G1 X81.229Y90.189Z0F1800
G1 X81.155Y90.095Z0F1800
G1 X81.042Y89.942Z0F1800
G1 X80.888Y89.725Z0F1800
G1 X80.688Y89.438Z0F1800
G1 X80.292Y88.863Z0F1800
G1 X79.624Y87.886Z0F1800
G1 X79.4Y87.566Z0F1800
G1 X79.298Y87.428Z0F1800
G1 X79.073Y87.108Z0F1800
G1 X78.527Y86.316Z0F1800
G1 X77.566Y84.936Z0F1800
G1 X76.612Y83.559Z0F1800
G1 X76.078Y82.795Z0F1800
G1 X74.967Y81.218Z0F1800
G1 X74.144Y80.041Z0F1800
G1 X73.665Y79.369Z0F1800
G1 X70.098Y74.383Z0F1800
G1 X67.38Y70.596Z0F1800
G1 X67.279Y70.462Z0F1800
G1 X67.028Y70.121Z0F1800
G1 X66.663Y69.615Z0F1800
G1 X65.964Y68.636Z0F1800
G1 X64.897Y67.13Z0F1800
G1 X62.31Y63.441Z0F1800
G1 X61.927Y62.886Z0F1800
G1 X61.57Y62.36Z0F1800
G1 X61.238Y61.861Z0F1800
G1 X60.93Y61.386Z0F1800
G1 X60.643Y60.933Z0F1800
G1 X60.376Y60.498Z0F1800
G1 X60.128Y60.079Z0F1800
G1 X59.681Y59.278Z0F1800
G1 X59.289Y58.508Z0F1800
G1 X58.939Y57.746Z0F1800
G1 X58.619Y56.972Z0F1800
G1 X58.237Y55.927Z0F1800
G1 X57.899Y54.887Z0F1800
G1 X57.769Y54.44Z0F1800
G1 X57.676Y54.083Z0F1800
G1 X57.647Y53.945Z0F1800
G1 X57.63Y53.841Z0F1800
G1 X57.627Y53.773Z0F1800
G1 X57.639Y53.745Z0F1800
G1 X57.677Y53.727Z0F1800
G1 X57.859Y53.626Z0F1800
G1 X58.163Y53.45Z0F1800
G1 X58.568Y53.211Z0F1800
G1 X59.324Y52.759Z0F1800
G1 X60.503Y52.046Z0F1800
G1 X61.121Y51.668Z0F1800
G1 X61.566Y51.397Z0F1800
G1 X61.926Y51.181Z0F1800
G1 X62.209Y51.017Z0F1800
G1 X62.426Y50.897Z0F1800
G1 X62.585Y50.82Z0F1800
G1 X62.696Y50.778Z0F1800
G1 X62.77Y50.767Z0F1800
G1 X62.815Y50.781Z0F1800
G1 X62.851Y50.813Z0F1800
G1 X62.992Y50.95Z0F1800
G1 X63.331Y51.291Z0F1800
G1 X63.603Y51.572Z0F1800
G1 X64.538Y52.595Z0F1800
G1 X65.404Y53.661Z0F1800
G1 X65.82Y54.225Z0F1800
G1 X66.229Y54.818Z0F1800
G1 X66.636Y55.445Z0F1800
G1 X67.043Y56.115Z0F1800
G1 X67.455Y56.831Z0F1800
G1 X67.874Y57.6Z0F1800
G1 X68.305Y58.429Z0F1800
G1 X68.751Y59.323Z0F1800
G1 X69.216Y60.289Z0F1800
G1 X69.703Y61.333Z0F1800
G1 X70.216Y62.459Z0F1800
G1 X70.758Y63.677Z0F1800
G1 X71.578Y65.529Z0F1800
G1 X71.946Y66.357Z0F1800
G1 X72.077Y66.646Z0F1800
G1 X72.525Y67.665Z0F1800
G0 Z4.8F1000
G0 X60.992Y68.177Z4.8
G1 Z0F1000
G1 X60.762Y68.494Z0F1800
G1 X60.353Y69.069Z0F1800
G1 X59.592Y70.142Z0F1800
G1 X58.962Y71.025Z0F1800
G1 X59.975Y68.723Z0F1800
G1 X60.235Y68.145Z0F1800
G1 X60.425Y67.729Z0F1800
G1 X60.512Y67.534Z0F1800
G1 X60.522Y67.509Z0F1800
G1 X60.992Y68.177Z0F1800
G0 Z4.8F1000
G0 X61.493Y69.019Z4.8
G1 Z0F1000
G1 X61.086Y69.591Z0F1800
G1 X60.324Y70.664Z0F1800
G1 X57.592Y74.498Z0F1800
G1 X56.588Y75.921Z0F1800
G1 X54.544Y78.811Z0F1800
G1 X54.607Y78.665Z0F1800
G1 X54.89Y78.025Z0F1800
G1 X55.298Y77.111Z0F1800
G1 X55.769Y76.033Z0F1800
G1 X56.321Y74.772Z0F1800
G1 X57.266Y72.631Z0F1800
G1 X57.914Y71.17Z0F1800
G1 X59.16Y68.342Z0F1800
G1 X59.417Y67.771Z0F1800
G1 X59.604Y67.36Z0F1800
G1 X59.684Y67.181Z0F1800
G1 X59.763Y66.99Z0F1800
G1 X59.787Y66.916Z0F1800
G1 X59.812Y66.854Z0F1800
G1 X59.932Y66.577Z0F1800
G1 X60.334Y65.673Z0F1800
G1 X60.365Y65.718Z0F1800
G1 X60.781Y66.314Z0F1800
G1 X61.873Y67.865Z0F1800
G1 X62.097Y68.186Z0F1800
G1 X61.493Y69.019Z0F1800
G0 Z4.8F1000
G0 X58.326Y75.019Z4.8
G1 Z0F1000
G1 X57.323Y76.441Z0F1800
G1 X54.938Y79.811Z0F1800
G1 X54.175Y80.898Z0F1800
G1 X53.729Y81.54Z0F1800
G1 X53.386Y82.035Z0F1800
G1 X53.023Y82.556Z0F1800
G1 X51.631Y84.536Z0F1800
G1 X50.665Y85.925Z0F1800
G1 X50.211Y86.58Z0F1800
G1 X50.689Y85.458Z0F1800
G1 X51.282Y84.082Z0F1800
G1 X51.47Y83.649Z0F1800
G1 X51.575Y83.416Z0F1800
G1 X51.657Y83.237Z0F1800
G1 X51.731Y83.068Z0F1800
G1 X51.794Y82.911Z0F1800
G1 X51.827Y82.803Z0F1800
G1 X51.85Y82.746Z0F1800
G1 X51.917Y82.589Z0F1800
G1 X52.076Y82.24Z0F1800
G1 X52.148Y82.076Z0F1800
G1 X52.207Y81.938Z0F1800
G1 X52.246Y81.829Z0F1800
G1 X52.296Y81.706Z0F1800
G1 X52.376Y81.521Z0F1800
G1 X52.723Y80.733Z0F1800
G1 X53.784Y78.302Z0F1800
G1 X54.068Y77.658Z0F1800
G1 X54.475Y76.747Z0F1800
G1 X54.944Y75.671Z0F1800
G1 X55.498Y74.409Z0F1800
G1 X56.443Y72.266Z0F1800
G1 X57.091Y70.807Z0F1800
G1 X58.333Y67.985Z0F1800
G1 X58.598Y67.396Z0F1800
G1 X58.784Y66.991Z0F1800
G1 X58.856Y66.827Z0F1800
G1 X58.917Y66.678Z0F1800
G1 X58.942Y66.602Z0F1800
G1 X58.97Y66.533Z0F1800
G1 X59.11Y66.211Z0F1800
G1 X59.59Y65.133Z0F1800
G1 X59.794Y64.671Z0F1800
G1 X60.17Y63.833Z0F1800
G1 X60.416Y64.2Z0F1800
G1 X60.737Y64.672Z0F1800
G1 X61.105Y65.205Z0F1800
G1 X61.519Y65.798Z0F1800
G1 X62.611Y67.35Z0F1800
G1 X62.915Y67.785Z0F1800
G1 X63.138Y68.109Z0F1800
G1 X63.195Y68.193Z0F1800
G1 X63.101Y68.329Z0F1800
G1 X62.915Y68.591Z0F1800
G1 X62.224Y69.544Z0F1800
G1 X61.819Y70.112Z0F1800
G1 X61.058Y71.187Z0F1800
G1 X58.326Y75.019Z0F1800
G0 Z4.8F1000
G0 X55.674Y80.329Z4.8
G1 Z0F1000
G1 X54.913Y81.414Z0F1800
G1 X54.468Y82.053Z0F1800
G1 X54.126Y82.547Z0F1800
G1 X53.76Y83.073Z0F1800
G1 X52.369Y85.051Z0F1800
G1 X51.404Y86.438Z0F1800
G1 X50.514Y87.723Z0F1800
G1 X49.906Y88.597Z0F1800
G1 X49.659Y88.947Z0F1800
G1 X49.446Y89.245Z0F1800
G1 X49.264Y89.495Z0F1800
G1 X49.108Y89.702Z0F1800
G1 X48.976Y89.869Z0F1800
G1 X48.864Y90.001Z0F1800
G1 X48.769Y90.101Z0F1800
G1 X48.687Y90.175Z0F1800
G1 X48.615Y90.226Z0F1800
G1 X48.487Y90.275Z0F1800
G1 X48.357Y90.284Z0F1800
G1 X48.202Y90.266Z0F1800
G1 X48.083Y90.212Z0F1800
G1 X48Y90.124Z0F1800
G1 X47.955Y90.001Z0F1800
G1 X47.946Y89.842Z0F1800
G1 X47.974Y89.649Z0F1800
G1 X48.038Y89.42Z0F1800
G1 X48.139Y89.156Z0F1800
G1 X49.062Y86.981Z0F1800
G1 X49.863Y85.103Z0F1800
G1 X50.457Y83.722Z0F1800
G1 X50.649Y83.281Z0F1800
G1 X50.757Y83.041Z0F1800
G1 X50.836Y82.868Z0F1800
G1 X50.901Y82.72Z0F1800
G1 X50.944Y82.611Z0F1800
G1 X50.978Y82.503Z0F1800
G1 X51.023Y82.389Z0F1800
G1 X51.09Y82.233Z0F1800
G1 X51.254Y81.872Z0F1800
G1 X51.322Y81.719Z0F1800
G1 X51.367Y81.611Z0F1800
G1 X51.406Y81.503Z0F1800
G1 X51.465Y81.361Z0F1800
G1 X51.552Y81.158Z0F1800
G1 X51.898Y80.372Z0F1800
G1 X52.96Y77.939Z0F1800
G1 X53.246Y77.291Z0F1800
G1 X53.651Y76.384Z0F1800
G1 X54.12Y75.31Z0F1800
G1 X54.674Y74.046Z0F1800
G1 X55.621Y71.901Z0F1800
G1 X56.268Y70.443Z0F1800
G1 X57.513Y67.616Z0F1800
G1 X57.78Y67.022Z0F1800
G1 X57.963Y66.622Z0F1800
G1 X58.029Y66.473Z0F1800
G1 X58.073Y66.366Z0F1800
G1 X58.096Y66.296Z0F1800
G1 X58.145Y66.175Z0F1800
G1 X58.288Y65.845Z0F1800
G1 X58.767Y64.769Z0F1800
G1 X58.973Y64.303Z0F1800
G1 X59.467Y63.2Z0F1800
G1 X59.684Y62.728Z0F1800
G1 X59.867Y62.341Z0F1800
G1 X59.941Y62.192Z0F1800
G1 X59.999Y62.079Z0F1800
G1 X60.039Y62.008Z0F1800
G1 X60.058Y61.983Z0F1800
G1 X60.096Y62.021Z0F1800
G1 X60.167Y62.124Z0F1800
G1 X60.261Y62.275Z0F1800
G1 X60.494Y62.673Z0F1800
G1 X60.668Y62.951Z0F1800
G1 X60.891Y63.292Z0F1800
G1 X61.162Y63.697Z0F1800
G1 X61.479Y64.164Z0F1800
G1 X61.844Y64.692Z0F1800
G1 X62.255Y65.281Z0F1800
G1 X63.349Y66.835Z0F1800
G1 X63.656Y67.275Z0F1800
G1 X63.884Y67.605Z0F1800
G1 X63.971Y67.735Z0F1800
G1 X64.1Y67.933Z0F1800
G1 X64.178Y68.064Z0F1800
G1 X64.217Y68.147Z0F1800
G1 X64.228Y68.199Z0F1800
G1 X64.216Y68.249Z0F1800
G1 X64.176Y68.331Z0F1800
G1 X64.104Y68.452Z0F1800
G1 X63.994Y68.619Z0F1800
G1 X63.843Y68.839Z0F1800
G1 X63.644Y69.119Z0F1800
G1 X62.955Y70.069Z0F1800
G1 X62.553Y70.634Z0F1800
G1 X61.79Y71.709Z0F1800
G1 X59.06Y75.539Z0F1800
G1 X58.058Y76.961Z0F1800
G1 X55.674Y80.329Z0F1800
G0 Z4.8F1000
G0 X70.13Y54.555Z4.8
G1 Z0F1000
G1 X70.294Y54.657Z0F1800
G1 X70.148Y55.092Z0F1800
G1 X70.006Y55.491Z0F1800
G1 X69.936Y55.359Z0F1800
G1 X69.804Y55.12Z0F1800
G1 X69.646Y54.852Z0F1800
G1 X69.472Y54.566Z0F1800
G1 X69.282Y54.264Z0F1800
G1 X69.042Y53.896Z0F1800
G1 X70.13Y54.555Z0F1800
G0 Z4.8F1000
G0 X70.997Y55.39Z4.8
G1 Z0F1000
G1 X70.761Y56.053Z0F1800
G1 X70.6Y56.479Z0F1800
G1 X70.438Y56.896Z0F1800
G1 X70.209Y57.462Z0F1800
G1 X70.129Y57.657Z0F1800
G1 X70.053Y57.509Z0F1800
G1 X69.678Y56.795Z0F1800
G1 X69.145Y55.788Z0F1800
G1 X69.021Y55.566Z0F1800
G1 X68.874Y55.314Z0F1800
G1 X68.707Y55.041Z0F1800
G1 X68.524Y54.75Z0F1800
G1 X68.128Y54.143Z0F1800
G1 X67.712Y53.529Z0F1800
G1 X67.307Y52.953Z0F1800
G1 X66.942Y52.459Z0F1800
G1 X66.854Y52.346Z0F1800
G1 X66.861Y52.339Z0F1800
G1 X67.087Y52.119Z0F1800
G1 X67.36Y51.864Z0F1800
G1 X67.388Y51.839Z0F1800
G1 X67.431Y51.864Z0F1800
G1 X67.749Y52.056Z0F1800
G1 X68.84Y52.721Z0F1800
G1 X70.603Y53.79Z0F1800
G1 X70.912Y53.98Z0F1800
G1 X71.19Y54.155Z0F1800
G1 X71.371Y54.27Z0F1800
G1 X71.264Y54.599Z0F1800
G1 X70.997Y55.39Z0F1800
G0 Z4.8F1000
G0 X69.933Y59.253Z4.8
G1 Z0F1000
G1 X69.54Y58.478Z0F1800
G1 X69.254Y57.925Z0F1800
G1 X68.881Y57.215Z0F1800
G1 X68.354Y56.217Z0F1800
G1 X68.24Y56.012Z0F1800
G1 X68.102Y55.776Z0F1800
G1 X67.942Y55.515Z0F1800
G1 X67.766Y55.235Z0F1800
G1 X67.379Y54.642Z0F1800
G1 X66.972Y54.041Z0F1800
G1 X66.576Y53.479Z0F1800
G1 X66.225Y53.002Z0F1800
G1 X66.075Y52.81Z0F1800
G1 X65.948Y52.656Z0F1800
G1 X65.848Y52.547Z0F1800
G1 X65.778Y52.487Z0F1800
G1 X65.729Y52.44Z0F1800
G1 X65.713Y52.376Z0F1800
G1 X65.734Y52.293Z0F1800
G1 X65.793Y52.188Z0F1800
G1 X65.894Y52.056Z0F1800
G1 X66.036Y51.896Z0F1800
G1 X66.224Y51.703Z0F1800
G1 X66.458Y51.474Z0F1800
G1 X66.755Y51.197Z0F1800
G1 X67.01Y50.971Z0F1800
G1 X67.114Y50.884Z0F1800
G1 X67.197Y50.819Z0F1800
G1 X67.256Y50.778Z0F1800
G1 X67.288Y50.764Z0F1800
G1 X67.322Y50.775Z0F1800
G1 X67.387Y50.806Z0F1800
G1 X67.479Y50.854Z0F1800
G1 X67.595Y50.919Z0F1800
G1 X67.882Y51.085Z0F1800
G1 X68.217Y51.287Z0F1800
G1 X69.308Y51.952Z0F1800
G1 X71.076Y53.024Z0F1800
G1 X71.39Y53.218Z0F1800
G1 X71.674Y53.396Z0F1800
G1 X71.922Y53.554Z0F1800
G1 X72.127Y53.688Z0F1800
G1 X72.283Y53.794Z0F1800
G1 X72.381Y53.866Z0F1800
G1 X72.416Y53.901Z0F1800
G1 X72.41Y53.937Z0F1800
G1 X72.393Y54.004Z0F1800
G1 X72.329Y54.221Z0F1800
G1 X72.234Y54.524Z0F1800
G1 X72.117Y54.887Z0F1800
G1 X71.85Y55.677Z0F1800
G1 X71.603Y56.372Z0F1800
G1 X71.438Y56.806Z0F1800
G1 X71.272Y57.232Z0F1800
G1 X71.042Y57.802Z0F1800
G1 X70.435Y59.29Z0F1800
G1 X70.289Y59.651Z0F1800
G1 X70.266Y59.7Z0F1800
G1 X70.241Y59.724Z0F1800
G1 X70.209Y59.715Z0F1800
G1 X70.167Y59.67Z0F1800
G1 X70.109Y59.582Z0F1800
G1 X70.033Y59.444Z0F1800
G1 X69.933Y59.253Z0F1800
G0 Z4.8F1000
G0 X73.708Y46.164Z4.8
G1 Z0F1000
G1 X74.044Y46.346Z0F1800
G1 X73.897Y46.604Z0F1800
G1 X73.506Y47.308Z0F1800
G1 X73.14Y47.982Z0F1800
G1 X72.792Y48.643Z0F1800
G1 X72.146Y49.933Z0F1800
G1 X72.021Y50.199Z0F1800
G1 X71.865Y50.106Z0F1800
G1 X71.349Y49.793Z0F1800
G1 X70.889Y49.509Z0F1800
G1 X70.736Y49.413Z0F1800
G1 X70.964Y49.088Z0F1800
G1 X71.326Y48.566Z0F1800
G1 X72.092Y47.439Z0F1800
G1 X73.173Y45.811Z0F1800
G1 X73.708Y46.164Z0F1800
G0 Z4.8F1000
G0 X74.682Y47.046Z4.8
G1 Z0F1000
G1 X74.294Y47.742Z0F1800
G1 X73.934Y48.406Z0F1800
G1 X73.592Y49.054Z0F1800
G1 X72.956Y50.325Z0F1800
G1 X72.414Y51.479Z0F1800
G1 X72.385Y51.461Z0F1800
G1 X71.913Y51.183Z0F1800
G1 X71.394Y50.873Z0F1800
G1 X70.882Y50.563Z0F1800
G1 X70.417Y50.275Z0F1800
G1 X70.036Y50.035Z0F1800
G1 X69.628Y49.781Z0F1800
G1 X69.441Y49.669Z0F1800
G1 X69.597Y49.458Z0F1800
G1 X69.895Y49.044Z0F1800
G1 X70.226Y48.573Z0F1800
G1 X70.584Y48.056Z0F1800
G1 X71.345Y46.938Z0F1800
G1 X72.918Y44.567Z0F1800
G1 X72.952Y44.515Z0F1800
G1 X73.375Y44.866Z0F1800
G1 X74.172Y45.392Z0F1800
G1 X74.599Y45.624Z0F1800
G1 X75.02Y45.821Z0F1800
G1 X75.313Y45.936Z0F1800
G1 X74.682Y47.046Z0F1800
G0 Z4.8F1000
G0 X71.934Y52.24Z4.8
G1 Z0F1000
G1 X71.451Y51.956Z0F1800
G1 X70.932Y51.645Z0F1800
G1 X70.416Y51.332Z0F1800
G1 X69.944Y51.042Z0F1800
G1 X69.558Y50.798Z0F1800
G1 X69.159Y50.549Z0F1800
G1 X68.694Y50.27Z0F1800
G1 X68.495Y50.148Z0F1800
G1 X68.332Y50.039Z0F1800
G1 X68.222Y49.955Z0F1800
G1 X68.182Y49.908Z0F1800
G1 X68.217Y49.838Z0F1800
G1 X68.312Y49.693Z0F1800
G1 X68.452Y49.494Z0F1800
G1 X68.87Y48.928Z0F1800
G1 X69.161Y48.522Z0F1800
G1 X69.488Y48.058Z0F1800
G1 X69.842Y47.547Z0F1800
G1 X70.598Y46.436Z0F1800
G1 X72.166Y44.074Z0F1800
G1 X72.327Y43.824Z0F1800
G1 X72.465Y43.604Z0F1800
G1 X72.562Y43.444Z0F1800
G1 X72.632Y43.333Z0F1800
G1 X72.699Y43.247Z0F1800
G1 X72.755Y43.196Z0F1800
G1 X72.792Y43.188Z0F1800
G1 X72.846Y43.23Z0F1800
G1 X72.948Y43.318Z0F1800
G1 X73.082Y43.439Z0F1800
G1 X73.235Y43.58Z0F1800
G1 X73.911Y44.142Z0F1800
G1 X74.635Y44.619Z0F1800
G1 X75.005Y44.82Z0F1800
G1 X75.375Y44.994Z0F1800
G1 X75.741Y45.137Z0F1800
G1 X76.099Y45.247Z0F1800
G1 X76.298Y45.307Z0F1800
G1 X76.459Y45.367Z0F1800
G1 X76.564Y45.421Z0F1800
G1 X76.598Y45.462Z0F1800
G1 X76.581Y45.502Z0F1800
G1 X76.536Y45.588Z0F1800
G1 X76.38Y45.874Z0F1800
G1 X76.154Y46.277Z0F1800
G1 X75.466Y47.487Z0F1800
G1 X75.083Y48.175Z0F1800
G1 X74.727Y48.831Z0F1800
G1 X74.393Y49.465Z0F1800
G1 X73.765Y50.718Z0F1800
G1 X73.152Y52.024Z0F1800
G1 X73.022Y52.293Z0F1800
G1 X72.904Y52.506Z0F1800
G1 X72.81Y52.646Z0F1800
G1 X72.749Y52.694Z0F1800
G1 X72.709Y52.678Z0F1800
G1 X72.624Y52.634Z0F1800
G1 X72.338Y52.475Z0F1800
G1 X71.934Y52.24Z0F1800
M9
G1 Z10 F1000
G90
G1 Z10 F800
