G90 ; Force absolute mode
;LightBurn 1.6.04
;Custom GCode device profile, absolute coords
;Bounds: X35.33 Y12.3 to X96.67 Y57.7
G00 G17 G40 G21 G54
M3
G1 Z10 F444
;Cut @ 444 mm/min, 80% power

M8
G0 Z3.5 F444
G0 X60.238 Y29.206 Z3.5
G1 Z0 F444
;Layer C3 Pass 1 of 2
G1 X60.95 Y29.95 Z0 F444
; --- FIX X Backlash ---
G0 X60.25 Y29.95 F410
G1 X59.797 Y30.695 Z0 F444
; --- FIX X Backlash ---
G0 X60.497 Y30.695 F410
G1 X60.756 Y33.09 Z0 F444
G1 X61.048 Y33.349 Z0 F444
; --- FIX X Backlash ---
G0 X60.348 Y33.349 F410
G1 X60.186 Y37.395 Z0 F444
G1 X59.635 Y37.525 Z0 F444
; --- FIX X Backlash ---
G0 X60.335 Y37.525 F410
; --- FIX Y Backlash ---
G0 X60.335 Y37.025 F410
G1 X60.465 Y33.399 Z0 F444
G1 X60.432 Y32.364 Z0 F444
G1 X60.594 Y31.522 Z0 F444
; --- FIX X Backlash ---
G0 X59.894 Y31.522 F410
G1 X59.797 Y30.486 Z0 F444
G1 X59.182 Y29.515 Z0 F444
; --- FIX X Backlash ---
G0 X59.882 Y29.515 F410
G1 X60.238 Y28.706 Z0 F444
;Layer C3 Pass 2 of 2
; --- FIX Y Backlash ---
G0 X60.238 Y29.206 F410
G1 X60.95 Y29.95 Z0 F444
; --- FIX X Backlash ---
G0 X60.25 Y29.95 F410
G1 X59.797 Y30.695 Z0 F444
; --- FIX X Backlash ---
G0 X60.497 Y30.695 F410
G1 X60.756 Y33.09 Z0 F444
G1 X61.048 Y33.349 Z0 F444
; --- FIX X Backlash ---
G0 X60.348 Y33.349 F410
G1 X60.186 Y37.395 Z0 F444
G1 X59.635 Y37.525 Z0 F444
; --- FIX X Backlash ---
G0 X60.335 Y37.525 F410
; --- FIX Y Backlash ---
G0 X60.335 Y37.025 F410
G1 X60.465 Y33.399 Z0 F444
G1 X60.432 Y32.364 Z0 F444
G1 X60.594 Y31.522 Z0 F444
; --- FIX X Backlash ---
G0 X59.894 Y31.522 F410
G1 X59.797 Y30.486 Z0 F444
G1 X59.182 Y29.515 Z0 F444
; --- FIX X Backlash ---
G0 X59.882 Y29.515 F410
G1 X60.238 Y28.706 Z0 F444
G0 Z3.5 F444
; --- FIX Y Backlash ---
G0 X60.238 Y29.206 F410
G0 X63.734 Y29.983 Z3.5 F444
G1 Z0 F444
;Layer C3 Pass 1 of 2
G1 X64.608 Y30.015 Z0 F444
G1 X64.641 Y30.274 Z0 F444
; --- FIX X Backlash ---
G0 X63.941 Y30.274 F410
G1 X63.164 Y30.533 Z0 F444
G1 X62.516 Y32.864 Z0 F444
; --- FIX X Backlash ---
G0 X63.216 Y32.864 F410
G1 X63.443 Y37.654 Z0 F444
; --- FIX X Backlash ---
G0 X62.743 Y37.654 F410
G1 X62.387 Y39.37 Z0 F444
G1 X62.322 Y40.309 Z0 F444
G1 X59.992 Z0 F444
; --- FIX X Backlash ---
G0 X60.692 Y40.309 F410
G1 X60.789 Y42.736 Z0 F444
; --- FIX X Backlash ---
G0 X60.089 Y42.736 F410
G1 X59.992 Y47.397 Z0 F444
G1 X59.571 Y47.559 Z0 F444
; --- FIX Y Backlash ---
G0 X59.571 Y47.059 F410
G1 Y42.204 Z0 F444
; --- FIX X Backlash ---
G0 X60.271 Y42.204 F410
G1 X60.562 Y42.074 Z0 F444
G1 X60.724 Y39.744 Z0 F444
G1 X63.022 Y39.614 Z0 F444
G1 X63.184 Y37.672 Z0 F444
; --- FIX X Backlash ---
G0 X62.484 Y37.672 F410
G1 X62.193 Y37.187 Z0 F444
G1 X62.225 Y32.299 Z0 F444
; --- FIX X Backlash ---
G0 X62.925 Y32.299 F410
G1 X63.249 Y31.296 Z0 F444
G1 X63.734 Y29.483 Z0 F444
;Layer C3 Pass 2 of 2
G1 X64.608 Y29.515 Z0 F444
; --- FIX Y Backlash ---
G0 X64.608 Y30.015 F410
G1 X64.641 Y30.274 Z0 F444
; --- FIX X Backlash ---
G0 X63.941 Y30.274 F410
G1 X63.164 Y30.533 Z0 F444
G1 X62.516 Y32.864 Z0 F444
; --- FIX X Backlash ---
G0 X63.216 Y32.864 F410
G1 X63.443 Y37.654 Z0 F444
; --- FIX X Backlash ---
G0 X62.743 Y37.654 F410
G1 X62.387 Y39.37 Z0 F444
G1 X62.322 Y40.309 Z0 F444
G1 X59.992 Z0 F444
; --- FIX X Backlash ---
G0 X60.692 Y40.309 F410
G1 X60.789 Y42.736 Z0 F444
; --- FIX X Backlash ---
G0 X60.089 Y42.736 F410
G1 X59.992 Y47.397 Z0 F444
G1 X59.571 Y47.559 Z0 F444
; --- FIX Y Backlash ---
G0 X59.571 Y47.059 F410
G1 Y42.204 Z0 F444
; --- FIX X Backlash ---
G0 X60.271 Y42.204 F410
G1 X60.562 Y42.074 Z0 F444
G1 X60.724 Y39.744 Z0 F444
G1 X63.022 Y39.614 Z0 F444
G1 X63.184 Y37.672 Z0 F444
; --- FIX X Backlash ---
G0 X62.484 Y37.672 F410
G1 X62.193 Y37.187 Z0 F444
G1 X62.225 Y32.299 Z0 F444
; --- FIX X Backlash ---
G0 X62.925 Y32.299 F410
G1 X63.249 Y31.296 Z0 F444
G1 X63.734 Y29.483 Z0 F444
G0 Z3.5 F444
; --- FIX Y Backlash ---
G0 X63.734 Y29.983 F410
G0 X66.162 Y32.669 Z3.5
G1 Z0 F444
;Layer C3 Pass 1 of 2
; --- FIX X Backlash ---
G0 X65.462 Y32.669 F410
G1 X65.203 Y33.835 Z0 F444
; --- FIX X Backlash ---
G0 X65.903 Y33.835 F410
G1 X66.097 Y36.165 Z0 F444
; --- FIX X Backlash ---
G0 X65.397 Y36.165 F410
G1 X65.268 Y37.59 Z0 F444
G1 X64.75 Y37.816 Z0 F444
; --- FIX X Backlash ---
G0 X65.45 Y37.816 F410
; --- FIX Y Backlash ---
G0 X65.45 Y37.316 F410
G1 X65.612 Y32.493 Z0 F444
G1 X66.162 Y32.169 Z0 F444
;Layer C3 Pass 2 of 2
; --- FIX X Backlash ---
G0 X65.462 Y32.169 F410
; --- FIX Y Backlash ---
G0 X65.462 Y32.669 F410
G1 X65.203 Y33.835 Z0 F444
; --- FIX X Backlash ---
G0 X65.903 Y33.835 F410
G1 X66.097 Y36.165 Z0 F444
; --- FIX X Backlash ---
G0 X65.397 Y36.165 F410
G1 X65.268 Y37.59 Z0 F444
G1 X64.75 Y37.816 Z0 F444
; --- FIX X Backlash ---
G0 X65.45 Y37.816 F410
; --- FIX Y Backlash ---
G0 X65.45 Y37.316 F410
G1 X65.612 Y32.493 Z0 F444
G1 X66.162 Y32.169 Z0 F444
G0 Z3.5 F444
G0 X68.104 Y32.202 Z3.5
G1 Z0 F444
;Layer C3 Pass 1 of 2
; --- FIX Y Backlash ---
G0 X68.104 Y32.702 F410
G1 X68.622 Y32.864 Z0 F444
; --- FIX X Backlash ---
G0 X67.922 Y32.864 F410
G1 X67.857 Y35.162 Z0 F444
G1 X67.89 Y37.751 Z0 F444
; --- FIX Y Backlash ---
G0 X67.89 Y37.251 F410
G1 X67.436 Y37.154 Z0 F444
; --- FIX X Backlash ---
G0 X68.136 Y37.154 F410
G1 X68.363 Y33.594 Z0 F444
; --- FIX X Backlash ---
G0 X67.663 Y33.594 F410
G1 X67.404 Y32.202 Z0 F444
;Layer C3 Pass 2 of 2
; --- FIX X Backlash ---
G0 X68.104 Y32.202 F410
; --- FIX Y Backlash ---
G0 X68.104 Y32.702 F410
G1 X68.622 Y32.864 Z0 F444
; --- FIX X Backlash ---
G0 X67.922 Y32.864 F410
G1 X67.857 Y35.162 Z0 F444
G1 X67.89 Y37.751 Z0 F444
; --- FIX Y Backlash ---
G0 X67.89 Y37.251 F410
G1 X67.436 Y37.154 Z0 F444
; --- FIX X Backlash ---
G0 X68.136 Y37.154 F410
G1 X68.363 Y33.594 Z0 F444
; --- FIX X Backlash ---
G0 X67.663 Y33.594 F410
G1 X67.404 Y32.202 Z0 F444
G0 Z3.5 F444
; --- FIX X Backlash ---
G0 X68.104 Y32.202 F410
; --- FIX Y Backlash ---
G0 X68.104 Y32.702 F410
G0 X70.693 Y33.414 Z3.5
G1 Z0 F444
;Layer C3 Pass 1 of 2
; --- FIX Y Backlash ---
G0 X70.693 Y32.914 F410
G1 X71.244 Y32.428 Z0 F444
; --- FIX Y Backlash ---
G0 X71.244 Y32.928 F410
G1 X71.223 Y33.382 Z0 F444
G1 X71.203 Y33.72 Z0 F444
G1 X71.191 Y33.852 Z0 F444
G1 X71.173 Y33.976 Z0 F444
G1 X71.158 Y34.171 Z0 F444
G1 X71.134 Y34.644 Z0 F444
G1 X71.118 Y35.016 Z0 F444
G1 X71.082 Y36.003 Z0 F444
G1 X71.244 Y37.136 Z0 F444
G1 X71.341 Y37.881 Z0 F444
; --- FIX X Backlash ---
G0 X70.641 Y37.881 F410
; --- FIX Y Backlash ---
G0 X70.641 Y37.381 F410
G1 X69.961 Y37.122 Z0 F444
G1 X69.929 Y34.435 Z0 F444
; --- FIX X Backlash ---
G0 X70.629 Y34.435 F410
G1 X70.693 Y32.914 Z0 F444
;Layer C3 Pass 2 of 2
G1 X71.244 Y32.428 Z0 F444
; --- FIX Y Backlash ---
G0 X71.244 Y32.928 F410
G1 X71.223 Y33.382 Z0 F444
G1 X71.203 Y33.72 Z0 F444
G1 X71.191 Y33.852 Z0 F444
G1 X71.173 Y33.976 Z0 F444
G1 X71.158 Y34.171 Z0 F444
G1 X71.134 Y34.644 Z0 F444
G1 X71.118 Y35.016 Z0 F444
G1 X71.082 Y36.003 Z0 F444
G1 X71.244 Y37.136 Z0 F444
G1 X71.341 Y37.881 Z0 F444
; --- FIX X Backlash ---
G0 X70.641 Y37.881 F410
; --- FIX Y Backlash ---
G0 X70.641 Y37.381 F410
G1 X69.961 Y37.122 Z0 F444
G1 X69.929 Y34.435 Z0 F444
; --- FIX X Backlash ---
G0 X70.629 Y34.435 F410
G1 X70.693 Y32.914 Z0 F444
G0 Z3.5 F444
; --- FIX X Backlash ---
G0 X69.993 Y32.914 F410
G0 X57.467 Y32.331 Z3.5
G1 Z0 F444
;Layer C3 Pass 1 of 2
; --- FIX X Backlash ---
G0 X58.167 Y32.331 F410
; --- FIX Y Backlash ---
G0 X58.167 Y32.831 F410
G1 X58.296 Y37.525 Z0 F444
; --- FIX X Backlash ---
G0 X57.596 Y37.525 F410
G1 X57.37 Y37.816 Z0 F444
G1 X57.143 Y47.268 Z0 F444
G1 X56.949 Y47.462 Z0 F444
; --- FIX Y Backlash ---
G0 X56.949 Y46.962 F410
G1 X56.981 Y42.139 Z0 F444
; --- FIX X Backlash ---
G0 X57.681 Y42.139 F410
G1 X58.102 Y42.074 Z0 F444
; --- FIX Y Backlash ---
G0 X58.102 Y42.574 F410
G1 X58.134 Y47.592 Z0 F444
; --- FIX X Backlash ---
G0 X57.434 Y47.592 F410
; --- FIX Y Backlash ---
G0 X57.434 Y47.092 F410
G1 X57.208 Y46.218 Z0 F444
G1 X57.175 Y37.219 Z0 F444
G1 X56.916 Y37.09 Z0 F444
G1 Y32.299 Z0 F444
; --- FIX X Backlash ---
G0 X57.616 Y32.299 F410
G1 X58.167 Y32.331 Z0 F444
;Layer C3 Pass 2 of 2
; --- FIX Y Backlash ---
G0 X58.167 Y32.831 F410
G1 X58.296 Y37.525 Z0 F444
; --- FIX X Backlash ---
G0 X57.596 Y37.525 F410
G1 X57.37 Y37.816 Z0 F444
G1 X57.143 Y47.268 Z0 F444
G1 X56.949 Y47.462 Z0 F444
; --- FIX Y Backlash ---
G0 X56.949 Y46.962 F410
G1 X56.981 Y42.139 Z0 F444
; --- FIX X Backlash ---
G0 X57.681 Y42.139 F410
G1 X58.102 Y42.074 Z0 F444
; --- FIX Y Backlash ---
G0 X58.102 Y42.574 F410
G1 X58.134 Y47.592 Z0 F444
; --- FIX X Backlash ---
G0 X57.434 Y47.592 F410
; --- FIX Y Backlash ---
G0 X57.434 Y47.092 F410
G1 X57.208 Y46.218 Z0 F444
G1 X57.175 Y37.219 Z0 F444
G1 X56.916 Y37.09 Z0 F444
G1 Y32.299 Z0 F444
; --- FIX X Backlash ---
G0 X57.616 Y32.299 F410
G1 X58.167 Y32.331 Z0 F444
G0 Z3.5 F444
; --- FIX Y Backlash ---
G0 X58.167 Y32.831 F410
G0 X62.86 Y42.801 Z3.5
G1 Z0 F444
;Layer C3 Pass 1 of 2
G1 X63.281 Z0 F444
G1 X63.378 Y44.419 Z0 F444
; --- FIX X Backlash ---
G0 X62.678 Y44.419 F410
G1 X62.613 Y47.689 Z0 F444
G1 X62.419 Y48.142 Z0 F444
G1 Y50.472 Z0 F444
G1 X61.934 Y50.602 Z0 F444
; --- FIX X Backlash ---
G0 X62.634 Y50.602 F410
; --- FIX Y Backlash ---
G0 X62.634 Y50.102 F410
G1 X62.957 Y49.163 Z0 F444
G1 X63.184 Y47.156 Z0 F444
; --- FIX X Backlash ---
G0 X62.484 Y47.156 F410
G1 X62.16 Y47.027 Z0 F444
G1 Y42.301 Z0 F444
;Layer C3 Pass 2 of 2
; --- FIX X Backlash ---
G0 X62.86 Y42.301 F410
G1 X63.281 Z0 F444
; --- FIX Y Backlash ---
G0 X63.281 Y42.801 F410
G1 X63.378 Y44.419 Z0 F444
; --- FIX X Backlash ---
G0 X62.678 Y44.419 F410
G1 X62.613 Y47.689 Z0 F444
G1 X62.419 Y48.142 Z0 F444
G1 Y50.472 Z0 F444
G1 X61.934 Y50.602 Z0 F444
; --- FIX X Backlash ---
G0 X62.634 Y50.602 F410
; --- FIX Y Backlash ---
G0 X62.634 Y50.102 F410
G1 X62.957 Y49.163 Z0 F444
G1 X63.184 Y47.156 Z0 F444
; --- FIX X Backlash ---
G0 X62.484 Y47.156 F410
G1 X62.16 Y47.027 Z0 F444
G1 Y42.301 Z0 F444
G0 Z3.5 F444
; --- FIX X Backlash ---
G0 X62.86 Y42.301 F410
; --- FIX Y Backlash ---
G0 X62.86 Y42.801 F410
G0 X65.579 Y42.898 Z3.5
G1 Z0 F444
;Layer C3 Pass 1 of 2
G1 X66.032 Y42.866 Z0 F444
; --- FIX X Backlash ---
G0 X65.332 Y42.866 F410
G1 X65.041 Y46.232 Z0 F444
; --- FIX X Backlash ---
G0 X65.741 Y46.232 F410
G1 X65.903 Y47.948 Z0 F444
G1 X66.194 Y48.692 Z0 F444
G1 X67.877 Y49.922 Z0 F444
G1 X68.039 Y50.602 Z0 F444
; --- FIX X Backlash ---
G0 X67.339 Y50.602 F410
G1 X66.886 Y50.764 Z0 F444
; --- FIX Y Backlash ---
G0 X66.886 Y50.264 F410
G1 X65.947 Y48.969 Z0 F444
G1 X65.009 Y47.415 Z0 F444
G1 X64.75 Y47.351 Z0 F444
; --- FIX X Backlash ---
G0 X65.45 Y47.351 F410
G1 X65.579 Y42.398 Z0 F444
;Layer C3 Pass 2 of 2
G1 X66.032 Y42.366 Z0 F444
; --- FIX X Backlash ---
G0 X65.332 Y42.366 F410
; --- FIX Y Backlash ---
G0 X65.332 Y42.866 F410
G1 X65.041 Y46.232 Z0 F444
; --- FIX X Backlash ---
G0 X65.741 Y46.232 F410
G1 X65.903 Y47.948 Z0 F444
G1 X66.194 Y48.692 Z0 F444
G1 X67.877 Y49.922 Z0 F444
G1 X68.039 Y50.602 Z0 F444
; --- FIX X Backlash ---
G0 X67.339 Y50.602 F410
G1 X66.886 Y50.764 Z0 F444
; --- FIX Y Backlash ---
G0 X66.886 Y50.264 F410
G1 X65.947 Y48.969 Z0 F444
G1 X65.009 Y47.415 Z0 F444
G1 X64.75 Y47.351 Z0 F444
; --- FIX X Backlash ---
G0 X65.45 Y47.351 F410
G1 X65.579 Y42.398 Z0 F444
G0 Z3.5 F444
G0 X68.039 Y42.236 Z3.5
G1 Z0 F444
;Layer C3 Pass 1 of 2
; --- FIX Y Backlash ---
G0 X68.039 Y42.736 F410
G1 X68.492 Y42.833 Z0 F444
G1 X68.525 Y46.653 Z0 F444
G1 X68.557 Y47.624 Z0 F444
; --- FIX X Backlash ---
G0 X67.857 Y47.624 F410
G1 X67.275 Y47.592 Z0 F444
; --- FIX X Backlash ---
G0 X67.975 Y47.592 F410
; --- FIX Y Backlash ---
G0 X67.975 Y47.092 F410
G1 X68.039 Y42.236 Z0 F444
;Layer C3 Pass 2 of 2
; --- FIX Y Backlash ---
G0 X68.039 Y42.736 F410
G1 X68.492 Y42.833 Z0 F444
G1 X68.525 Y46.653 Z0 F444
G1 X68.557 Y47.624 Z0 F444
; --- FIX X Backlash ---
G0 X67.857 Y47.624 F410
G1 X67.275 Y47.592 Z0 F444
; --- FIX X Backlash ---
G0 X67.975 Y47.592 F410
; --- FIX Y Backlash ---
G0 X67.975 Y47.092 F410
G1 X68.039 Y42.236 Z0 F444
G0 Z3.5 F444
G0 X70.693 Y42.269 Z3.5
G1 Z0 F444
;Layer C3 Pass 1 of 2
G1 X71.082 Y42.236 Z0 F444
; --- FIX X Backlash ---
G0 X70.382 Y42.236 F410
; --- FIX Y Backlash ---
G0 X70.382 Y42.736 F410
G1 X70.252 Y47.43 Z0 F444
G1 X69.929 Z0 F444
; --- FIX X Backlash ---
G0 X70.629 Y47.43 F410
; --- FIX Y Backlash ---
G0 X70.629 Y46.93 F410
G1 X70.693 Y42.269 Z0 F444
;Layer C3 Pass 2 of 2
G1 X71.082 Y42.236 Z0 F444
; --- FIX X Backlash ---
G0 X70.382 Y42.236 F410
; --- FIX Y Backlash ---
G0 X70.382 Y42.736 F410
G1 X70.252 Y47.43 Z0 F444
G1 X69.929 Z0 F444
; --- FIX X Backlash ---
G0 X70.629 Y47.43 F410
; --- FIX Y Backlash ---
G0 X70.629 Y46.93 F410
G1 X70.693 Y42.269 Z0 F444
G0 Z3.5 F444
G0 X73.251 Y42.204 Z3.5
G1 Z0 F444
;Layer C3 Pass 1 of 2
; --- FIX Y Backlash ---
G0 X73.251 Y42.704 F410
G1 X73.704 Y42.833 Z0 F444
G1 X73.769 Y44.614 Z0 F444
; --- FIX X Backlash ---
G0 X73.069 Y44.614 F410
G1 X72.907 Y46.394 Z0 F444
; --- FIX X Backlash ---
G0 X73.607 Y46.394 F410
G1 X73.769 Y47.171 Z0 F444
; --- FIX X Backlash ---
G0 X73.069 Y47.171 F410
G1 X72.486 Y47.365 Z0 F444
; --- FIX X Backlash ---
G0 X73.186 Y47.365 F410
; --- FIX Y Backlash ---
G0 X73.186 Y46.865 F410
G1 X73.251 Y42.204 Z0 F444
;Layer C3 Pass 2 of 2
; --- FIX Y Backlash ---
G0 X73.251 Y42.704 F410
G1 X73.704 Y42.833 Z0 F444
G1 X73.769 Y44.614 Z0 F444
; --- FIX X Backlash ---
G0 X73.069 Y44.614 F410
G1 X72.907 Y46.394 Z0 F444
; --- FIX X Backlash ---
G0 X73.607 Y46.394 F410
G1 X73.769 Y47.171 Z0 F444
; --- FIX X Backlash ---
G0 X73.069 Y47.171 F410
G1 X72.486 Y47.365 Z0 F444
; --- FIX X Backlash ---
G0 X73.186 Y47.365 F410
; --- FIX Y Backlash ---
G0 X73.186 Y46.865 F410
G1 X73.251 Y42.204 Z0 F444
;Offset @ 555 mm/min, 90% power

M8
G0 Z3.5 F444
G0 X77.044 Y37.203 Z3.5
G1 Z0 F444
;Layer C1
G1 X77.362 Y37.221 Z0 F444
; --- FIX X Backlash ---
G0 X76.662 Y37.221 F410
; --- FIX Y Backlash ---
G0 X76.662 Y37.721 F410
G1 X76.158 Y42.355 Z0 F444
G1 X75.594 Y47.059 Z0 F444
G1 X75.544 Y47.064 Z0 F444
; --- FIX Y Backlash ---
G0 X75.544 Y46.564 F410
G1 X75.563 Y46.089 Z0 F444
; --- FIX X Backlash ---
G0 X76.263 Y46.089 F410
G1 X76.471 Y41.318 Z0 F444
G1 X76.66 Y37.189 Z0 F444
G1 X77.044 Y37.203 Z0 F444
G0 Z3.5 F444
G0 X78.067 Y36.655 Z3.5 F444
G1 Z0 F444
; --- FIX X Backlash ---
G0 X77.367 Y36.655 F410
; --- FIX Y Backlash ---
G0 X77.367 Y37.155 F410
G1 X76.794 Y42.432 Z0 F444
G1 X76.161 Y47.702 Z0 F444
G1 X75.765 Y47.686 Z0 F444
G1 X75.309 Y47.728 Z0 F444
G1 X75.111 Y47.72 Z0 F444
; --- FIX Y Backlash ---
G0 X75.111 Y47.22 F410
G1 X74.961 Y47.166 Z0 F444
G1 X74.911 Y47.115 Z0 F444
G1 X74.881 Y47.044 Z0 F444
G1 X74.874 Y46.953 Z0 F444
G1 X74.892 Y46.836 Z0 F444
G1 X74.923 Y46.063 Z0 F444
; --- FIX X Backlash ---
G0 X75.623 Y46.063 F410
G1 X75.832 Y41.289 Z0 F444
G1 X76.051 Y36.515 Z0 F444
G1 X76.558 Y36.545 Z0 F444
G1 X77.08 Y36.563 Z0 F444
G1 X77.591 Y36.592 Z0 F444
; --- FIX Y Backlash ---
G0 X77.591 Y37.092 F410
G1 X78.067 Y37.155 Z0 F444
G0 Z3.5 F444
; --- FIX Y Backlash ---
G0 X78.067 Y36.655 F410
G0 X86.623 Y31.204 Z3.5
G1 Z0 F444
; --- FIX X Backlash ---
G0 X85.923 Y31.204 F410
G1 X85.199 Y31.153 Z0 F444
G1 X85.171 Z0 F444
; --- FIX X Backlash ---
G0 X85.871 Y31.153 F410
G1 X85.984 Y31.045 Z0 F444
G1 X86.002 Y31.026 Z0 F444
; --- FIX Y Backlash ---
G0 X86.002 Y31.526 F410
G1 X86.623 Y31.704 Z0 F444
G0 Z3.5 F444
G0 X89.374 Y32.537 Z3.5
G1 Z0 F444
; --- FIX X Backlash ---
G0 X88.674 Y32.537 F410
; --- FIX Y Backlash ---
G0 X88.674 Y32.037 F410
G1 X85.157 Y31.792 Z0 F444
G1 X83.392 Y31.682 Z0 F444
; --- FIX X Backlash ---
G0 X84.092 Y31.682 F410
G1 X84.545 Y31.423 Z0 F444
G1 X85.113 Y30.986 Z0 F444
G1 X85.532 Y30.592 Z0 F444
G1 X85.803 Y30.304 Z0 F444
; --- FIX Y Backlash ---
G0 X85.803 Y30.804 F410
G1 X88.009 Y31.435 Z0 F444
G1 X89.644 Y31.883 Z0 F444
G1 X89.595 Y31.96 Z0 F444
; --- FIX X Backlash ---
G0 X88.895 Y31.96 F410
G1 X88.674 Y32.537 Z0 F444
G0 Z3.5 F444
; --- FIX X Backlash ---
G0 X89.374 Y32.537 F410
G0 X89.764 Y33.206 Z3.5
G1 Z0 F444
; --- FIX X Backlash ---
G0 X89.064 Y33.206 F410
; --- FIX Y Backlash ---
G0 X89.064 Y32.706 F410
G1 X85.115 Y32.431 Z0 F444
G1 X81.907 Y32.23 Z0 F444
G1 X81.875 Y31.596 Z0 F444
; --- FIX X Backlash ---
G0 X82.575 Y31.596 F410
G1 X82.903 Y31.624 Z0 F444
G1 X84.189 Y30.889 Z0 F444
G1 X84.697 Y30.498 Z0 F444
G1 X85.079 Y30.139 Z0 F444
G1 X85.367 Y29.833 Z0 F444
G1 X85.593 Y29.578 Z0 F444
; --- FIX Y Backlash ---
G0 X85.593 Y30.078 F410
G1 X88.182 Y30.818 Z0 F444
G1 X90.679 Y31.503 Z0 F444
; --- FIX X Backlash ---
G0 X89.979 Y31.503 F410
G1 X89.881 Y31.605 Z0 F444
G1 X89.469 Y32.25 Z0 F444
G1 X89.194 Y32.965 Z0 F444
G1 X89.151 Y33.22 Z0 F444
G1 X89.064 Y33.206 Z0 F444
G0 Z3.5 F444
; --- FIX Y Backlash ---
G0 X89.064 Y32.706 F410
G0 X82.059 Y30.969 Z3.5
G1 Z0 F444
; --- FIX X Backlash ---
G0 X82.759 Y30.969 F410
G1 X83.834 Y30.355 Z0 F444
G1 X84.282 Y30.01 Z0 F444
G1 X84.626 Y29.687 Z0 F444
G1 X84.894 Y29.402 Z0 F444
G1 X85.224 Y29.028 Z0 F444
G1 X85.397 Y28.856 Z0 F444
; --- FIX Y Backlash ---
G0 X85.397 Y29.356 F410
G1 X88.354 Y30.202 Z0 F444
G1 X91.942 Y31.187 Z0 F444
G1 X91.996 Y31.242 Z0 F444
; --- FIX X Backlash ---
G0 X91.296 Y31.242 F410
G1 X90.882 Y31.491 Z0 F444
G1 X90.385 Y32.004 Z0 F444
G1 X90.044 Y32.54 Z0 F444
G1 X89.814 Y33.136 Z0 F444
G1 X89.758 Y33.464 Z0 F444
G1 X89.652 Y33.949 Z0 F444
; --- FIX Y Backlash ---
G0 X89.652 Y33.449 F410
G1 X88.991 Y33.342 Z0 F444
G1 X85.073 Y33.069 Z0 F444
G1 X81.262 Y32.831 Z0 F444
G1 X81.021 Y32.817 Z0 F444
; --- FIX X Backlash ---
G0 X81.721 Y32.817 F410
G1 X81.97 Y32.283 Z0 F444
; --- FIX X Backlash ---
G0 X81.27 Y32.283 F410
G1 X81.208 Y31.085 Z0 F444
G1 X81.132 Y30.889 Z0 F444
; --- FIX X Backlash ---
G0 X81.832 Y30.889 F410
; --- FIX Y Backlash ---
G0 X81.832 Y31.389 F410
G1 X82.759 Y31.469 Z0 F444
G0 Z3.5 F444
G0 X91.591 Y32.402 Z3.5
G1 Z0 F444
; --- FIX X Backlash ---
G0 X90.891 Y32.402 F410
G1 X90.618 Y32.83 Z0 F444
G1 X90.434 Y33.307 Z0 F444
G1 X90.385 Y33.588 Z0 F444
G1 X90.175 Y34.551 Z0 F444
G1 X90.109 Y34.905 Z0 F444
; --- FIX Y Backlash ---
G0 X90.109 Y34.405 F410
G1 X89.477 Y34.069 Z0 F444
G1 X88.917 Y33.979 Z0 F444
G1 X85.03 Y33.708 Z0 F444
G1 X81.224 Y33.47 Z0 F444
G1 X79.852 Y33.39 Z0 F444
; --- FIX X Backlash ---
G0 X80.552 Y33.39 F410
G1 X80.861 Y33.148 Z0 F444
G1 X81.322 Y32.157 Z0 F444
G1 X81.274 Y31.221 Z0 F444
; --- FIX X Backlash ---
G0 X80.574 Y31.221 F410
G1 X80.321 Y30.567 Z0 F444
G1 X80.035 Y30.151 Z0 F444
; --- FIX X Backlash ---
G0 X80.735 Y30.151 F410
; --- FIX Y Backlash ---
G0 X80.735 Y30.651 F410
G1 X82.616 Y30.814 Z0 F444
; --- FIX Y Backlash ---
G0 X82.616 Y30.314 F410
G1 X83.479 Y29.821 Z0 F444
G1 X83.867 Y29.522 Z0 F444
G1 X84.174 Y29.233 Z0 F444
G1 X84.421 Y28.971 Z0 F444
G1 X84.76 Y28.587 Z0 F444
G1 X85.099 Y28.251 Z0 F444
G1 X85.215 Y28.139 Z0 F444
; --- FIX Y Backlash ---
G0 X85.215 Y28.639 F410
G1 X88.527 Y29.585 Z0 F444
G1 X92.335 Y30.631 Z0 F444
G1 X92.419 Y30.759 Z0 F444
G1 X92.863 Y31.213 Z0 F444
G1 X93.281 Y31.435 Z0 F444
; --- FIX X Backlash ---
G0 X92.581 Y31.435 F410
G1 X91.947 Y31.597 Z0 F444
G1 X91.283 Y31.996 Z0 F444
G1 X90.891 Y32.402 Z0 F444
G0 Z3.5 F444
G0 X88.844 Y35.115 Z3.5
G1 Z0 F444
; --- FIX Y Backlash ---
G0 X88.844 Y34.615 F410
G1 X84.988 Y34.346 Z0 F444
G1 X81.185 Y34.108 Z0 F444
G1 X77.384 Y33.888 Z0 F444
G1 X73.602 Y33.674 Z0 F444
G1 Y33.405 Z0 F444
; --- FIX X Backlash ---
G0 X74.302 Y33.405 F410
G1 X74.555 Z0 F444
G1 X76.097 Y33.412 Z0 F444
G1 X77.667 Y33.396 Z0 F444
G1 X79.627 Y33.3 Z0 F444
G1 X80.346 Y32.739 Z0 F444
G1 X80.675 Y32.031 Z0 F444
G1 X80.64 Y31.356 Z0 F444
; --- FIX X Backlash ---
G0 X79.94 Y31.356 F410
G1 X79.751 Y30.867 Z0 F444
G1 X79.425 Y30.393 Z0 F444
G1 X79.181 Y30.089 Z0 F444
G1 X78.651 Y29.412 Z0 F444
G1 X78.664 Z0 F444
; --- FIX X Backlash ---
G0 X79.364 Y29.412 F410
; --- FIX Y Backlash ---
G0 X79.364 Y29.912 F410
G1 X80.701 Y30.006 Z0 F444
G1 X82.472 Y30.16 Z0 F444
; --- FIX Y Backlash ---
G0 X82.472 Y29.66 F410
G1 X83.123 Y29.287 Z0 F444
G1 X83.452 Y29.034 Z0 F444
G1 X83.721 Y28.781 Z0 F444
G1 X83.948 Y28.54 Z0 F444
G1 X84.299 Y28.143 Z0 F444
G1 X84.648 Y27.796 Z0 F444
G1 X84.9 Y27.553 Z0 F444
G1 X85.028 Y27.419 Z0 F444
; --- FIX Y Backlash ---
G0 X85.028 Y27.919 F410
G1 X88.7 Y28.969 Z0 F444
G1 X92.738 Y30.078 Z0 F444
G1 Y30.081 Z0 F444
G1 X92.92 Y30.356 Z0 F444
G1 X93.251 Y30.695 Z0 F444
G1 X93.673 Y30.918 Z0 F444
G1 X94.422 Y31.152 Z0 F444
G1 X95 Y31.235 Z0 F444
G1 X95.009 Y31.399 Z0 F444
G1 X95.077 Y31.825 Z0 F444
G1 X95.198 Y32.25 Z0 F444
G1 X95.355 Y32.617 Z0 F444
; --- FIX X Backlash ---
G0 X94.655 Y32.617 F410
; --- FIX Y Backlash ---
G0 X94.655 Y32.117 F410
G1 X94.378 Y31.886 Z0 F444
G1 X93.856 Y31.648 Z0 F444
G1 X93.321 Y31.54 Z0 F444
G1 X92.77 Y31.547 Z0 F444
; --- FIX Y Backlash ---
G0 X92.77 Y32.047 F410
G1 X92.196 Y32.194 Z0 F444
G1 X91.685 Y32.501 Z0 F444
G1 X91.396 Y32.801 Z0 F444
G1 X91.192 Y33.12 Z0 F444
G1 X91.054 Y33.478 Z0 F444
G1 X91.013 Y33.715 Z0 F444
G1 X90.803 Y34.678 Z0 F444
G1 X90.62 Y35.649 Z0 F444
G1 X90.521 Y36.051 Z0 F444
G1 X90.418 Y36.359 Z0 F444
; --- FIX Y Backlash ---
G0 X90.418 Y35.859 F410
G1 X90.391 Y35.748 Z0 F444
G1 X90.128 Y35.3 Z0 F444
G1 X89.758 Y34.943 Z0 F444
G1 X89.27 Y34.684 Z0 F444
G1 X88.844 Y34.615 Z0 F444
G0 Z3.5 F444
; --- FIX Y Backlash ---
G0 X88.844 Y35.115 F410
G0 X53.504 Y52.392 Z3.5
G1 Z0 F444
; --- FIX X Backlash ---
G0 X54.204 Y52.392 F410
G1 X54.411 Y53.854 Z0 F444
G1 X55.078 Y54.732 Z0 F444
; --- FIX X Backlash ---
G0 X54.378 Y54.732 F410
G1 X53.229 Y54.692 Z0 F444
; --- FIX Y Backlash ---
G0 X53.229 Y54.192 F410
G1 X53.271 Y52.984 Z0 F444
G1 X53.282 Y52.13 Z0 F444
; --- FIX X Backlash ---
G0 X53.982 Y52.13 F410
G1 X54.055 Y52.072 Z0 F444
G1 X54.204 Y51.892 Z0 F444
G0 Z3.5 F444
G0 X54.698 Y50.877 Z3.5
G1 Z0 F444
; --- FIX Y Backlash ---
G0 X54.698 Y51.377 F410
G1 X54.828 Y52.232 Z0 F444
G1 X55.021 Y53.599 Z0 F444
G1 X55.653 Y54.432 Z0 F444
G1 X56.35 Y54.862 Z0 F444
G1 X56.977 Y55.025 Z0 F444
G1 X57.449 Y55.057 Z0 F444
G1 X57.858 Y55.041 Z0 F444
G1 X58.171 Y55.058 Z0 F444
G1 X69.723 Y55.203 Z0 F444
G1 X81.843 Y55.322 Z0 F444
; --- FIX Y Backlash ---
G0 X81.843 Y54.822 F410
G1 X82.75 Y54.556 Z0 F444
G1 X82.817 Y54.509 Z0 F444
; --- FIX X Backlash ---
G0 X82.117 Y54.509 F410
; --- FIX Y Backlash ---
G0 X82.117 Y55.009 F410
G1 X81.933 Y55.554 Z0 F444
G1 X81.893 Y55.58 Z0 F444
G1 X81.775 Y55.628 Z0 F444
G1 X81.565 Y55.683 Z0 F444
G1 X81.293 Y55.723 Z0 F444
G1 X80.959 Y55.748 Z0 F444
G1 X80.593 Y55.755 Z0 F444
G1 X78.912 Y55.78 Z0 F444
G1 X77.267 Z0 F444
; --- FIX Y Backlash ---
G0 X77.267 Y55.28 F410
G1 X70.928 Y55.229 Z0 F444
G1 X64.578 Y55.146 Z0 F444
G1 X58.271 Y55.007 Z0 F444
G1 X52.581 Y54.81 Z0 F444
G1 Y54.699 Z0 F444
G1 X52.59 Y54.141 Z0 F444
G1 X52.631 Y52.969 Z0 F444
G1 X52.646 Y51.818 Z0 F444
; --- FIX X Backlash ---
G0 X53.346 Y51.818 F410
G1 X53.604 Y51.613 Z0 F444
G1 X53.939 Y51.207 Z0 F444
G1 X54.17 Y50.758 Z0 F444
G1 X54.671 Y50.734 Z0 F444
; --- FIX Y Backlash ---
G0 X54.671 Y51.234 F410
G1 X54.698 Y51.377 Z0 F444
G0 Z3.5 F444
G0 X55.631 Y53.345 Z3.5
G1 Z0 F444
G1 X56.091 Y53.95 Z0 F444
G1 X56.604 Y54.267 Z0 F444
G1 X57.08 Y54.391 Z0 F444
G1 X57.458 Y54.416 Z0 F444
G1 X57.857 Y54.399 Z0 F444
G1 X58.193 Y54.418 Z0 F444
G1 X69.73 Y54.563 Z0 F444
G1 X81.754 Y54.681 Z0 F444
; --- FIX Y Backlash ---
G0 X81.754 Y54.181 F410
G1 X82.468 Y53.972 Z0 F444
G1 X82.96 Y53.623 Z0 F444
G1 X83.342 Y53.048 Z0 F444
G1 X83.375 Y52.756 Z0 F444
G1 X83.378 Z0 F444
G1 X83.868 Y52.752 Z0 F444
; --- FIX Y Backlash ---
G0 X83.868 Y53.252 F410
G1 X83.828 Y53.489 Z0 F444
; --- FIX X Backlash ---
G0 X83.128 Y53.489 F410
G1 X82.961 Y54.319 Z0 F444
G1 X82.757 Y55.116 Z0 F444
G1 X82.511 Y55.841 Z0 F444
G1 X82.482 Y55.898 Z0 F444
G1 X82.443 Y55.957 Z0 F444
G1 X82.4 Y56.006 Z0 F444
G1 X82.369 Y56.034 Z0 F444
G1 X82.193 Y56.148 Z0 F444
G1 X81.977 Y56.237 Z0 F444
G1 X81.695 Y56.31 Z0 F444
G1 X81.357 Y56.361 Z0 F444
G1 X81.001 Y56.387 Z0 F444
G1 X80.593 Y56.396 Z0 F444
G1 X78.922 Y56.42 Z0 F444
G1 X77.262 Z0 F444
; --- FIX Y Backlash ---
G0 X77.262 Y55.92 F410
G1 X70.92 Y55.87 Z0 F444
G1 X64.581 Y55.786 Z0 F444
G1 X58.238 Y55.646 Z0 F444
G1 X51.956 Y55.429 Z0 F444
G1 X51.946 Y55.237 Z0 F444
G1 X51.94 Y54.706 Z0 F444
G1 X51.949 Y54.152 Z0 F444
G1 X51.991 Y52.954 Z0 F444
G1 X52.007 Y51.777 Z0 F444
G1 X52.022 Y51.459 Z0 F444
; --- FIX X Backlash ---
G0 X52.722 Y51.459 F410
G1 X52.838 Y51.404 Z0 F444
G1 X53.153 Y51.154 Z0 F444
G1 X53.402 Y50.852 Z0 F444
G1 X53.62 Y50.431 Z0 F444
G1 X53.718 Y50.159 Z0 F444
G1 X54.031 Y50.124 Z0 F444
G1 X54.734 Y50.091 Z0 F444
G1 X55.198 Y50.084 Z0 F444
; --- FIX Y Backlash ---
G0 X55.198 Y50.584 F410
G1 X55.329 Y51.269 Z0 F444
G1 X55.458 Y52.124 Z0 F444
G1 X55.631 Y53.345 Z0 F444
G0 Z3.5 F444
G0 X56.529 Y53.468 Z3.5
G1 Z0 F444
G1 X56.859 Y53.672 Z0 F444
G1 X57.183 Y53.756 Z0 F444
G1 X57.466 Y53.775 Z0 F444
G1 X57.866 Y53.759 Z0 F444
G1 X58.214 Y53.778 Z0 F444
G1 X69.737 Y53.923 Z0 F444
G1 X81.666 Y54.04 Z0 F444
; --- FIX Y Backlash ---
G0 X81.666 Y53.54 F410
G1 X82.185 Y53.388 Z0 F444
G1 X82.493 Y53.169 Z0 F444
G1 X82.723 Y52.824 Z0 F444
G1 X82.772 Y52.378 Z0 F444
; --- FIX X Backlash ---
G0 X82.072 Y52.378 F410
G1 X81.942 Y52.004 Z0 F444
G1 X81.663 Y51.528 Z0 F444
G1 X81.353 Y51.064 Z0 F444
G1 X81.102 Y50.807 Z0 F444
G1 X80.776 Y50.597 Z0 F444
G1 X80.368 Y50.483 Z0 F444
G1 X80.045 Y50.498 Z0 F444
G1 X78.447 Y50.431 Z0 F444
G1 X76.82 Y50.408 Z0 F444
G1 X75.201 Z0 F444
G1 X74.085 Y50.405 Z0 F444
G1 X73.945 Y49.855 Z0 F444
G1 X73.892 Y49.625 Z0 F444
; --- FIX X Backlash ---
G0 X74.592 Y49.625 F410
G1 X75.802 Y49.641 Z0 F444
G1 X77.815 Y49.684 Z0 F444
; --- FIX Y Backlash ---
G0 X77.815 Y50.184 F410
G1 X79.838 Y50.262 Z0 F444
G1 X81.706 Y50.381 Z0 F444
G1 X81.82 Y50.44 Z0 F444
G1 X81.979 Y50.563 Z0 F444
G1 X82.129 Y50.721 Z0 F444
G1 X82.262 Y50.905 Z0 F444
G1 X82.516 Y51.394 Z0 F444
G1 X82.729 Y51.968 Z0 F444
G1 X82.855 Y52.241 Z0 F444
G1 X83.143 Y52.497 Z0 F444
G1 X83.483 Y52.616 Z0 F444
G1 X83.821 Y52.612 Z0 F444
; --- FIX Y Backlash ---
G0 X83.821 Y52.112 F410
G1 X84.142 Y52.001 Z0 F444
G1 X84.422 Y51.771 Z0 F444
G1 X84.604 Y51.429 Z0 F444
G1 X84.625 Y51.139 Z0 F444
G1 X84.64 Y50.68 Z0 F444
G1 X84.632 Y50.197 Z0 F444
G1 X84.589 Y49.696 Z0 F444
; --- FIX X Backlash ---
G0 X83.889 Y49.696 F410
G1 X83.793 Y49.187 Z0 F444
G1 X83.627 Y48.682 Z0 F444
G1 X83.378 Y48.211 Z0 F444
G1 X83.198 Y47.971 Z0 F444
G1 X82.998 Y47.759 Z0 F444
G1 X82.769 Y47.566 Z0 F444
G1 X82.494 Y47.387 Z0 F444
G1 X82.312 Y47.312 Z0 F444
; --- FIX X Backlash ---
G0 X83.012 Y47.312 F410
G1 X83.425 Y47.077 Z0 F444
G1 X83.458 Y47.045 Z0 F444
; --- FIX Y Backlash ---
G0 X83.458 Y47.545 F410
G1 X83.496 Y47.888 Z0 F444
G1 X83.698 Y48.222 Z0 F444
G1 X84.013 Y48.461 Z0 F444
G1 X84.379 Y48.537 Z0 F444
G1 X84.684 Y48.502 Z0 F444
; --- FIX Y Backlash ---
G0 X84.684 Y48.002 F410
G1 X85.056 Y47.729 Z0 F444
G1 X85.287 Y47.491 Z0 F444
G1 X85.471 Y47.244 Z0 F444
G1 X85.621 Y47.002 Z0 F444
G1 X85.861 Y46.578 Z0 F444
G1 X86.117 Y46.196 Z0 F444
G1 X87.057 Y44.715 Z0 F444
; --- FIX X Backlash ---
G0 X86.357 Y44.715 F410
; --- FIX Y Backlash ---
G0 X86.357 Y45.215 F410
G1 X85.969 Y46.025 Z0 F444
G1 X85.305 Y47.515 Z0 F444
G1 X84.673 Y49.051 Z0 F444
G1 X84.414 Y49.98 Z0 F444
G1 X84.216 Y50.898 Z0 F444
G1 X84.054 Y51.811 Z0 F444
G1 X83.908 Y52.714 Z0 F444
G1 X83.76 Y53.587 Z0 F444
G1 X83.586 Y54.456 Z0 F444
G1 X83.37 Y55.299 Z0 F444
G1 X83.101 Y56.093 Z0 F444
G1 X83.033 Y56.228 Z0 F444
G1 X82.95 Y56.35 Z0 F444
G1 X82.856 Y56.457 Z0 F444
G1 X82.762 Y56.542 Z0 F444
G1 X82.489 Y56.718 Z0 F444
G1 X82.182 Y56.845 Z0 F444
G1 X81.82 Y56.939 Z0 F444
G1 X81.432 Y56.997 Z0 F444
G1 X81.023 Y57.027 Z0 F444
G1 X80.612 Y57.036 Z0 F444
G1 X78.93 Y57.06 Z0 F444
G1 X77.257 Z0 F444
; --- FIX Y Backlash ---
G0 X77.257 Y56.56 F410
G1 X70.911 Y56.509 Z0 F444
G1 X64.561 Y56.426 Z0 F444
G1 X58.226 Y56.287 Z0 F444
G1 X51.906 Y56.067 Z0 F444
G1 X51.605 Y56.034 Z0 F444
G1 X51.361 Y56.038 Z0 F444
G1 X51.337 Y55.818 Z0 F444
G1 X51.307 Y55.268 Z0 F444
G1 X51.3 Y54.71 Z0 F444
G1 X51.31 Y54.119 Z0 F444
G1 X51.351 Y52.938 Z0 F444
G1 X51.367 Y51.75 Z0 F444
G1 X51.387 Y51.329 Z0 F444
G1 X51.378 Y51.008 Z0 F444
; --- FIX X Backlash ---
G0 X52.078 Y51.008 F410
G1 X52.248 Y50.975 Z0 F444
G1 X52.499 Y50.856 Z0 F444
G1 X52.702 Y50.695 Z0 F444
G1 X52.865 Y50.498 Z0 F444
G1 X53.032 Y50.174 Z0 F444
G1 X53.214 Y49.669 Z0 F444
G1 X53.27 Y49.565 Z0 F444
G1 X53.279 Z0 F444
G1 X53.985 Y49.485 Z0 F444
G1 X54.695 Y49.452 Z0 F444
G1 X55.448 Y49.441 Z0 F444
G1 X55.701 Y49.438 Z0 F444
; --- FIX Y Backlash ---
G0 X55.701 Y49.938 F410
G1 X55.797 Y50.309 Z0 F444
G1 X55.96 Y51.159 Z0 F444
G1 X56.092 Y52.034 Z0 F444
G1 X56.242 Y53.09 Z0 F444
G1 X56.529 Y53.468 Z0 F444
G0 Z3.5 F444
; --- FIX Y Backlash ---
G0 X56.529 Y52.968 F410
G0 X81.467 Y39.313 Z3.5
G1 Z0 F444
G1 X81.559 Y38.45 Z0 F444
G1 X81.642 Z0 F444
G1 X81.943 Y38.465 Z0 F444
; --- FIX X Backlash ---
G0 X81.243 Y38.465 F410
; --- FIX Y Backlash ---
G0 X81.243 Y38.965 F410
G1 X81.003 Y39.372 Z0 F444
G1 X80.767 Y39.813 Z0 F444
G0 Z3.5 F444
G0 X79.832 Y42.544 Z3.5
G1 Z0 F444
; --- FIX X Backlash ---
G0 X80.532 Y42.544 F410
; --- FIX Y Backlash ---
G0 X80.532 Y42.044 F410
G1 X80.985 Y37.799 Z0 F444
G1 X81.665 Y37.812 Z0 F444
G1 X82.625 Y37.855 Z0 F444
G1 X83.065 Y37.864 Z0 F444
; --- FIX X Backlash ---
G0 X82.365 Y37.864 F410
; --- FIX Y Backlash ---
G0 X82.365 Y38.364 F410
G1 X82.107 Y38.762 Z0 F444
G1 X81.561 Y39.686 Z0 F444
G1 X81.053 Y40.637 Z0 F444
G1 X80.589 Y41.615 Z0 F444
G1 X80.174 Y42.62 Z0 F444
G1 X79.813 Y43.649 Z0 F444
G1 X79.661 Y44.179 Z0 F444
; --- FIX X Backlash ---
G0 X80.361 Y44.179 F410
; --- FIX Y Backlash ---
G0 X80.361 Y43.679 F410
G1 X80.532 Y42.044 Z0 F444
G0 Z3.5 F444
G0 X80.779 Y37.155 Z3.5
G1 Z0 F444
G1 X81.687 Y37.172 Z0 F444
G1 X82.646 Y37.216 Z0 F444
G1 X83.604 Y37.233 Z0 F444
G1 X84.731 Y37.264 Z0 F444
; --- FIX X Backlash ---
G0 X84.031 Y37.264 F410
G1 X83.806 Y37.271 Z0 F444
; --- FIX Y Backlash ---
G0 X83.806 Y37.771 F410
G1 X83.435 Y37.951 Z0 F444
G1 X83.229 Y38.207 Z0 F444
G1 X82.651 Y39.099 Z0 F444
G1 X82.119 Y40 Z0 F444
G1 X81.625 Y40.925 Z0 F444
G1 X81.174 Y41.875 Z0 F444
G1 X80.772 Y42.848 Z0 F444
G1 X80.423 Y43.843 Z0 F444
G1 X80.133 Y44.859 Z0 F444
G1 X79.895 Y45.951 Z0 F444
G1 X79.906 Y46.307 Z0 F444
; --- FIX X Backlash ---
G0 X80.606 Y46.307 F410
G1 X80.763 Y46.686 Z0 F444
G1 X81.1 Y46.987 Z0 F444
G1 X81.5 Y47.08 Z0 F444
G1 X81.859 Y47.062 Z0 F444
G1 X81.913 Y47.015 Z0 F444
G1 Y47.027 Z0 F444
G1 X82.055 Y47.401 Z0 F444
G1 X82.201 Y47.528 Z0 F444
; --- FIX X Backlash ---
G0 X81.501 Y47.528 F410
G1 X81.328 Y47.479 Z0 F444
; --- FIX Y Backlash ---
G0 X81.328 Y46.979 F410
G1 X80.751 Y46.872 Z0 F444
G1 X80.179 Y46.805 Z0 F444
G1 X79.109 Y46.726 Z0 F444
G1 X78.703 Y46.683 Z0 F444
; --- FIX X Backlash ---
G0 X79.403 Y46.683 F410
G1 X79.896 Y41.976 Z0 F444
G1 X80.407 Y37.18 Z0 F444
G1 X80.779 Y37.155 Z0 F444
G0 Z3.5 F444
; --- FIX Y Backlash ---
G0 X80.779 Y37.655 F410
G0 X89.553 Y38.514 Z3.5
G1 Z0 F444
G1 X89.899 Y38.51 Z0 F444
; --- FIX X Backlash ---
G0 X89.199 Y38.51 F410
G1 X89.022 Y38.821 Z0 F444
G1 X88.89 Y38.776 Z0 F444
; --- FIX Y Backlash ---
G0 X88.89 Y38.276 F410
G1 X88.853 Y38.014 Z0 F444
G0 Z3.5 F444
G0 X88.77 Y35.251 Z3.5
G1 Z0 F444
G1 X84.946 Y34.985 Z0 F444
G1 X81.147 Y34.748 Z0 F444
G1 X77.347 Y34.526 Z0 F444
G1 X73.306 Y34.298 Z0 F444
; --- FIX Y Backlash ---
G0 X73.306 Y34.798 F410
G1 X72.958 Y35.075 Z0 F444
; --- FIX Y Backlash ---
G0 X72.958 Y34.575 F410
G1 X72.961 Y34.389 Z0 F444
G1 X72.964 Y33.257 Z0 F444
G1 Y32.767 Z0 F444
; --- FIX X Backlash ---
G0 X73.664 Y32.767 F410
G1 X74.557 Y32.764 Z0 F444
G1 X76.095 Y32.772 Z0 F444
G1 X77.647 Y32.756 Z0 F444
G1 X79.394 Y32.67 Z0 F444
G1 X79.831 Y32.329 Z0 F444
G1 X80.028 Y31.906 Z0 F444
G1 X80.006 Y31.492 Z0 F444
; --- FIX X Backlash ---
G0 X79.306 Y31.492 F410
G1 X79.181 Y31.168 Z0 F444
G1 X78.911 Y30.774 Z0 F444
G1 X78.687 Y30.495 Z0 F444
G1 X78.118 Y29.77 Z0 F444
G1 X77.529 Y29.063 Z0 F444
G1 X77.238 Y28.689 Z0 F444
; --- FIX X Backlash ---
G0 X77.938 Y28.689 F410
G1 X78.03 Y28.694 Z0 F444
; --- FIX Y Backlash ---
G0 X78.03 Y29.194 F410
G1 X79.394 Y29.273 Z0 F444
G1 X80.767 Y29.369 Z0 F444
G1 X82.328 Y29.504 Z0 F444
; --- FIX Y Backlash ---
G0 X82.328 Y29.004 F410
G1 X82.767 Y28.753 Z0 F444
G1 X83.036 Y28.546 Z0 F444
G1 X83.269 Y28.328 Z0 F444
G1 X83.475 Y28.108 Z0 F444
G1 X83.829 Y27.708 Z0 F444
G1 X84.192 Y27.348 Z0 F444
G1 X84.447 Y27.102 Z0 F444
G1 X84.682 Y26.855 Z0 F444
G1 X84.854 Y26.704 Z0 F444
; --- FIX Y Backlash ---
G0 X84.854 Y27.204 F410
G1 X88.872 Y28.353 Z0 F444
G1 X93.167 Y29.532 Z0 F444
G1 X93.21 Y29.606 Z0 F444
G1 X93.289 Y29.751 Z0 F444
G1 X93.421 Y29.953 Z0 F444
G1 X93.64 Y30.176 Z0 F444
G1 X93.92 Y30.325 Z0 F444
G1 X94.564 Y30.526 Z0 F444
G1 X95.19 Y30.616 Z0 F444
G1 X95.646 Y30.66 Z0 F444
G1 X95.629 Y30.98 Z0 F444
G1 X95.646 Y31.333 Z0 F444
G1 X95.703 Y31.686 Z0 F444
G1 X95.802 Y32.036 Z0 F444
G1 X95.949 Y32.376 Z0 F444
G1 X96.022 Y32.499 Z0 F444
G1 X96.01 Y32.747 Z0 F444
; --- FIX X Backlash ---
G0 X95.31 Y32.747 F410
G1 X95.249 Y33.17 Z0 F444
G1 X95.174 Y33.556 Z0 F444
G1 X94.809 Y33.517 Z0 F444
G1 X94.672 Y33.48 Z0 F444
G1 X94.567 Y33.433 Z0 F444
; --- FIX Y Backlash ---
G0 X94.567 Y32.933 F410
G1 X94.492 Y32.876 Z0 F444
G1 X94.339 Y32.686 Z0 F444
G1 X94.035 Y32.433 Z0 F444
G1 X93.657 Y32.261 Z0 F444
G1 X93.261 Y32.181 Z0 F444
G1 X92.854 Y32.186 Z0 F444
; --- FIX Y Backlash ---
G0 X92.854 Y32.686 F410
G1 X92.446 Y32.791 Z0 F444
G1 X92.087 Y33.006 Z0 F444
G1 X91.901 Y33.199 Z0 F444
G1 X91.766 Y33.41 Z0 F444
G1 X91.674 Y33.648 Z0 F444
G1 X91.643 Y33.829 Z0 F444
G1 X91.43 Y34.806 Z0 F444
G1 X91.247 Y35.782 Z0 F444
G1 X91.136 Y36.229 Z0 F444
G1 X90.999 Y36.639 Z0 F444
G1 X90.822 Y37.015 Z0 F444
G1 X90.559 Y37.416 Z0 F444
G1 X89.265 Y39.688 Z0 F444
; --- FIX Y Backlash ---
G0 X89.265 Y39.188 F410
G1 X89.078 Y39.018 Z0 F444
G1 X88.745 Y38.903 Z0 F444
G1 X88.424 Y38.899 Z0 F444
; --- FIX Y Backlash ---
G0 X88.424 Y39.399 F410
G1 X88.116 Y39.485 Z0 F444
G1 X87.829 Y39.671 Z0 F444
G1 X87.694 Y39.85 Z0 F444
G1 X87.634 Y39.915 Z0 F444
; --- FIX X Backlash ---
G0 X88.334 Y39.915 F410
; --- FIX Y Backlash ---
G0 X88.334 Y39.415 F410
G1 X88.824 Y38.746 Z0 F444
G1 X88.956 Y38.359 Z0 F444
; --- FIX X Backlash ---
G0 X88.256 Y38.359 F410
G1 X88.194 Y37.927 Z0 F444
G1 X87.953 Y37.593 Z0 F444
G1 X87.638 Y37.409 Z0 F444
G1 X87.524 Y37.386 Z0 F444
; --- FIX X Backlash ---
G0 X88.224 Y37.386 F410
G1 X89.865 Y37.371 Z0 F444
G1 X90.288 Y37.106 Z0 F444
G1 X90.523 Y36.743 Z0 F444
G1 X90.577 Y36.342 Z0 F444
; --- FIX X Backlash ---
G0 X89.877 Y36.342 F410
G1 X89.791 Y35.99 Z0 F444
G1 X89.62 Y35.7 Z0 F444
G1 X89.379 Y35.466 Z0 F444
G1 X89.064 Y35.299 Z0 F444
G1 X88.77 Y35.251 Z0 F444
G0 Z3.5 F444
; --- FIX Y Backlash ---
G0 X88.77 Y35.751 F410
G0 X84.213 Y37.769 Z3.5
G1 Z0 F444
; --- FIX X Backlash ---
G0 X84.913 Y37.769 F410
G1 X85.108 Y37.774 Z0 F444
G1 X86.627 Y37.84 Z0 F444
G1 X87.745 Y37.874 Z0 F444
; --- FIX X Backlash ---
G0 X87.045 Y37.874 F410
G1 X86.961 Y37.884 Z0 F444
G1 X86.627 Y38.052 Z0 F444
G1 X86.466 Y38.237 Z0 F444
G1 X85.662 Y39.032 Z0 F444
G1 X84.887 Y39.91 Z0 F444
G1 X84.171 Y40.833 Z0 F444
G1 X84.106 Y40.928 Z0 F444
; --- FIX X Backlash ---
G0 X84.806 Y40.928 F410
; --- FIX Y Backlash ---
G0 X84.806 Y40.428 F410
G1 X84.92 Y40.175 Z0 F444
G1 X85.616 Y38.651 Z0 F444
G1 X85.732 Y38.351 Z0 F444
G1 X85.694 Y37.932 Z0 F444
; --- FIX X Backlash ---
G0 X84.994 Y37.932 F410
G1 X84.801 Y37.599 Z0 F444
G1 X84.522 Y37.375 Z0 F444
G1 X84.213 Y37.269 Z0 F444
G0 Z3.5 F444
; --- FIX Y Backlash ---
G0 X84.213 Y37.769 F410
G0 X42.809 Y38.007 Z3.5
G1 Z0 F444
G1 X42.778 Y38.13 Z0 F444
G1 X42.762 Y38.493 Z0 F444
; --- FIX Y Backlash ---
G0 X42.762 Y37.993 F410
G1 X42.728 Y37.943 Z0 F444
G1 X42.588 Y37.702 Z0 F444
G1 X42.523 Y37.55 Z0 F444
; --- FIX X Backlash ---
G0 X43.223 Y37.55 F410
G1 X43.509 Y37.507 Z0 F444
G0 Z3.5 F444
; --- FIX Y Backlash ---
G0 X43.509 Y38.007 F410
G0 X89.208 Y40.04 Z3.5
G1 Z0 F444
; --- FIX X Backlash ---
G0 X88.508 Y40.04 F410
G1 X88.383 Y40.075 Z0 F444
G1 X88.272 Y40.147 Z0 F444
G1 X88.189 Y40.256 Z0 F444
G1 X87.453 Y41.067 Z0 F444
G1 X86.757 Y41.914 Z0 F444
G1 X86.101 Y42.792 Z0 F444
G1 X85.484 Y43.699 Z0 F444
G1 X84.906 Y44.631 Z0 F444
G1 X84.366 Y45.586 Z0 F444
G1 X83.865 Y46.561 Z0 F444
G1 X83.402 Y47.551 Z0 F444
G1 X83.416 Y47.676 Z0 F444
; --- FIX X Backlash ---
G0 X84.116 Y47.676 F410
G1 X84.183 Y47.786 Z0 F444
G1 X84.285 Y47.864 Z0 F444
G1 X84.408 Y47.889 Z0 F444
G1 X84.442 Y47.885 Z0 F444
; --- FIX Y Backlash ---
G0 X84.442 Y47.385 F410
G1 X84.634 Y47.245 Z0 F444
G1 X84.798 Y47.075 Z0 F444
G1 X84.941 Y46.883 Z0 F444
G1 X85.07 Y46.675 Z0 F444
G1 X85.313 Y46.246 Z0 F444
G1 X85.581 Y45.847 Z0 F444
G1 X86.538 Y44.338 Z0 F444
G1 X87.531 Y42.858 Z0 F444
G1 X88.542 Y41.39 Z0 F444
G1 X89.553 Y39.918 Z0 F444
G1 X89.569 Y39.768 Z0 F444
G1 X89.528 Y39.656 Z0 F444
; --- FIX X Backlash ---
G0 X88.828 Y39.656 F410
G1 X88.745 Y39.58 Z0 F444
G1 X88.633 Y39.542 Z0 F444
G1 X88.508 Z0 F444
G0 Z3.5 F444
; --- FIX Y Backlash ---
G0 X88.508 Y40.042 F410
G0 X85.38 Y40.318 Z3.5
G1 Z0 F444
G1 X84.688 Y41.21 Z0 F444
G1 X84.049 Y42.143 Z0 F444
G1 X83.462 Y43.111 Z0 F444
G1 X82.927 Y44.109 Z0 F444
G1 X82.443 Y45.13 Z0 F444
G1 X82.008 Y46.171 Z0 F444
G1 X81.92 Y46.45 Z0 F444
G1 X81.848 Y46.761 Z0 F444
G1 X81.851 Y46.904 Z0 F444
G1 X81.897 Y47.024 Z0 F444
; --- FIX X Backlash ---
G0 X82.597 Y47.024 F410
G1 X82.698 Y47.112 Z0 F444
G1 X82.868 Y47.157 Z0 F444
; --- FIX Y Backlash ---
G0 X82.868 Y46.657 F410
G1 X83.039 Y46.56 Z0 F444
G1 X83.178 Y46.426 Z0 F444
G1 X83.293 Y46.265 Z0 F444
G1 X83.39 Y46.085 Z0 F444
G1 X83.564 Y45.707 Z0 F444
G1 X83.76 Y45.36 Z0 F444
G1 X84.241 Y44.446 Z0 F444
G1 X84.753 Y43.551 Z0 F444
G1 X85.292 Y42.671 Z0 F444
G1 X85.855 Y41.807 Z0 F444
G1 X87.032 Y40.112 Z0 F444
G1 X88.25 Y38.447 Z0 F444
G1 X88.3 Y38.298 Z0 F444
G1 X88.283 Y38.173 Z0 F444
; --- FIX X Backlash ---
G0 X87.583 Y38.173 F410
G1 X87.513 Y38.078 Z0 F444
G1 X87.407 Y38.016 Z0 F444
G1 X87.281 Y37.99 Z0 F444
G1 X87.149 Y38.006 Z0 F444
; --- FIX Y Backlash ---
G0 X87.149 Y38.506 F410
G1 X87.027 Y38.567 Z0 F444
G1 X86.931 Y38.678 Z0 F444
G1 X86.128 Y39.472 Z0 F444
G1 X85.38 Y40.318 Z0 F444
G0 Z3.5 F444
G0 X82.288 Y43.438 Z3.5
G1 Z0 F444
; --- FIX X Backlash ---
G0 X82.988 Y43.438 F410
; --- FIX Y Backlash ---
G0 X82.988 Y42.938 F410
G1 X83.654 Y41.421 Z0 F444
G1 X84.338 Y39.909 Z0 F444
G1 X85.026 Y38.402 Z0 F444
G1 X85.082 Y38.26 Z0 F444
G1 X85.07 Y38.131 Z0 F444
; --- FIX X Backlash ---
G0 X84.37 Y38.131 F410
G1 X84.307 Y38.023 Z0 F444
G1 X84.209 Y37.944 Z0 F444
G1 X84.089 Y37.903 Z0 F444
G1 X83.962 Y37.907 Z0 F444
; --- FIX Y Backlash ---
G0 X83.962 Y38.407 F410
G1 X83.843 Y38.464 Z0 F444
G1 X83.748 Y38.583 Z0 F444
G1 X83.196 Y39.436 Z0 F444
G1 X82.677 Y40.313 Z0 F444
G1 X82.196 Y41.213 Z0 F444
G1 X81.759 Y42.134 Z0 F444
G1 X81.37 Y43.076 Z0 F444
G1 X81.033 Y44.037 Z0 F444
G1 X80.754 Y45.015 Z0 F444
G1 X80.537 Y46.009 Z0 F444
G1 X80.542 Y46.17 Z0 F444
; --- FIX X Backlash ---
G0 X81.242 Y46.17 F410
G1 X81.298 Y46.306 Z0 F444
G1 X81.404 Y46.4 Z0 F444
G1 X81.558 Y46.436 Z0 F444
G1 X81.606 Z0 F444
; --- FIX Y Backlash ---
G0 X81.606 Y45.936 F410
G1 X81.76 Y45.8 Z0 F444
G1 X81.88 Y45.637 Z0 F444
G1 X81.974 Y45.453 Z0 F444
G1 X82.05 Y45.255 Z0 F444
G1 X82.186 Y44.845 Z0 F444
G1 X82.354 Y44.463 Z0 F444
G1 X82.988 Y42.938 Z0 F444
G0 Z3.5 F444
G0 X85.136 Y36.635 Z3.5
G1 Z0 F444
; --- FIX Y Backlash ---
G0 X85.136 Y37.135 F410
G1 X86.651 Y37.2 Z0 F444
G1 X88.166 Y37.247 Z0 F444
G1 X89.678 Y37.232 Z0 F444
; --- FIX Y Backlash ---
G0 X89.678 Y36.732 F410
G1 X89.828 Y36.639 Z0 F444
G1 X89.908 Y36.516 Z0 F444
G1 X89.926 Y36.376 Z0 F444
G1 X89.892 Y36.233 Z0 F444
; --- FIX X Backlash ---
G0 X89.192 Y36.233 F410
G1 X89.113 Y36.099 Z0 F444
G1 X88.999 Y35.989 Z0 F444
G1 X88.857 Y35.914 Z0 F444
G1 X88.697 Y35.888 Z0 F444
G1 X84.904 Y35.624 Z0 F444
G1 X81.108 Y35.386 Z0 F444
G1 X77.311 Y35.166 Z0 F444
G1 X73.513 Y34.951 Z0 F444
; --- FIX Y Backlash ---
G0 X73.513 Y35.451 F410
G1 X73.342 Y35.588 Z0 F444
G1 X73.239 Y35.757 Z0 F444
G1 X73.192 Y35.951 Z0 F444
G1 X73.183 Y36.163 Z0 F444
G1 X73.214 Y36.604 Z0 F444
G1 X73.197 Y37.255 Z0 F444
G1 X73.201 Y37.507 Z0 F444
G1 X73.182 Y37.613 Z0 F444
G1 X73.134 Y37.691 Z0 F444
G1 X73.047 Y37.73 Z0 F444
G1 X72.912 Y37.719 Z0 F444
G1 X72.734 Y37.738 Z0 F444
G1 X72.573 Y37.741 Z0 F444
G1 X72.435 Y37.722 Z0 F444
G1 X72.324 Y37.677 Z0 F444
; --- FIX Y Backlash ---
G0 X72.324 Y37.177 F410
G1 X72.246 Y37.101 Z0 F444
G1 X72.206 Y36.988 Z0 F444
G1 X72.21 Y36.835 Z0 F444
; --- FIX X Backlash ---
G0 X72.91 Y36.835 F410
G1 X72.963 Y36.637 Z0 F444
G1 X73.004 Y35.51 Z0 F444
G1 X73.021 Y34.383 Z0 F444
G1 Y33.256 Z0 F444
G1 Y32.128 Z0 F444
G1 X74.558 Y32.124 Z0 F444
G1 X76.094 Y32.132 Z0 F444
G1 X77.628 Y32.116 Z0 F444
G1 X79.16 Y32.041 Z0 F444
G1 X79.315 Y31.919 Z0 F444
G1 X79.38 Y31.78 Z0 F444
G1 X79.373 Y31.627 Z0 F444
; --- FIX X Backlash ---
G0 X78.673 Y31.627 F410
G1 X78.611 Y31.469 Z0 F444
G1 X78.397 Y31.156 Z0 F444
G1 X78.183 Y30.89 Z0 F444
G1 X77.62 Y30.172 Z0 F444
G1 X77.034 Y29.468 Z0 F444
G1 X76.474 Y28.749 Z0 F444
G1 X75.989 Y27.981 Z0 F444
; --- FIX X Backlash ---
G0 X76.689 Y27.981 F410
; --- FIX Y Backlash ---
G0 X76.689 Y28.481 F410
G1 X78.064 Y28.555 Z0 F444
G1 X79.438 Y28.635 Z0 F444
G1 X80.812 Y28.73 Z0 F444
G1 X82.184 Y28.85 Z0 F444
; --- FIX Y Backlash ---
G0 X82.184 Y28.35 F410
G1 X82.412 Y28.219 Z0 F444
G1 X82.621 Y28.058 Z0 F444
G1 X82.816 Y27.875 Z0 F444
G1 X83.002 Y27.677 Z0 F444
G1 X83.365 Y27.267 Z0 F444
G1 X83.748 Y26.887 Z0 F444
G1 X83.993 Y26.65 Z0 F444
G1 X84.235 Y26.397 Z0 F444
G1 X84.49 Y26.171 Z0 F444
G1 X84.776 Y26.016 Z0 F444
; --- FIX Y Backlash ---
G0 X84.776 Y26.516 F410
G1 X89.045 Y27.737 Z0 F444
G1 X93.481 Y28.954 Z0 F444
G1 X93.598 Y29.039 Z0 F444
G1 X93.688 Y29.154 Z0 F444
G1 X93.764 Y29.286 Z0 F444
G1 X93.838 Y29.422 Z0 F444
G1 X93.922 Y29.55 Z0 F444
G1 X94.028 Y29.658 Z0 F444
G1 X94.167 Y29.732 Z0 F444
G1 X94.706 Y29.899 Z0 F444
G1 X95.267 Y29.98 Z0 F444
G1 X95.834 Y30.035 Z0 F444
G1 X96.393 Y30.126 Z0 F444
; --- FIX X Backlash ---
G0 X95.693 Y30.126 F410
G1 X95.626 Y30.409 Z0 F444
G1 X95.585 Y30.694 Z0 F444
G1 X95.57 Y30.981 Z0 F444
G1 X95.584 Y31.266 Z0 F444
G1 X95.629 Y31.547 Z0 F444
; --- FIX X Backlash ---
G0 X96.329 Y31.547 F410
G1 X96.407 Y31.821 Z0 F444
G1 X96.52 Y32.085 Z0 F444
G1 X96.67 Y32.336 Z0 F444
G1 X96.648 Y32.808 Z0 F444
; --- FIX X Backlash ---
G0 X95.948 Y32.808 F410
G1 X95.879 Y33.284 Z0 F444
G1 X95.785 Y33.761 Z0 F444
G1 X95.688 Y34.234 Z0 F444
G1 X95.191 Y34.202 Z0 F444
; --- FIX Y Backlash ---
G0 X95.191 Y33.702 F410
G1 X94.691 Y33.647 Z0 F444
G1 X94.456 Y33.585 Z0 F444
G1 X94.238 Y33.486 Z0 F444
G1 X94.044 Y33.34 Z0 F444
G1 X93.88 Y33.137 Z0 F444
G1 X93.692 Y32.98 Z0 F444
G1 X93.459 Y32.874 Z0 F444
G1 X93.201 Y32.822 Z0 F444
G1 X92.939 Y32.825 Z0 F444
; --- FIX Y Backlash ---
G0 X92.939 Y33.325 F410
G1 X92.695 Y33.388 Z0 F444
G1 X92.488 Y33.512 Z0 F444
G1 X92.405 Y33.598 Z0 F444
G1 X92.34 Y33.7 Z0 F444
G1 X92.294 Y33.819 Z0 F444
G1 X92.271 Y33.956 Z0 F444
G1 X92.057 Y34.933 Z0 F444
G1 X91.871 Y35.923 Z0 F444
G1 X91.752 Y36.408 Z0 F444
G1 X91.594 Y36.878 Z0 F444
G1 X91.383 Y37.328 Z0 F444
G1 X91.105 Y37.75 Z0 F444
G1 X89.507 Y40.555 Z0 F444
G1 X87.974 Y43.397 Z0 F444
G1 X87.246 Y44.838 Z0 F444
G1 X86.55 Y46.294 Z0 F444
G1 X85.893 Y47.767 Z0 F444
G1 X85.279 Y49.26 Z0 F444
G1 X85.035 Y50.134 Z0 F444
G1 X84.844 Y51.022 Z0 F444
G1 X84.685 Y51.918 Z0 F444
G1 X84.54 Y52.816 Z0 F444
G1 X84.388 Y53.713 Z0 F444
G1 X84.209 Y54.603 Z0 F444
G1 X83.984 Y55.481 Z0 F444
G1 X83.693 Y56.342 Z0 F444
G1 X83.585 Y56.553 Z0 F444
G1 X83.458 Y56.741 Z0 F444
G1 X83.313 Y56.907 Z0 F444
G1 X83.152 Y57.052 Z0 F444
G1 X82.789 Y57.287 Z0 F444
G1 X82.384 Y57.454 Z0 F444
G1 X81.95 Y57.566 Z0 F444
G1 X81.503 Y57.633 Z0 F444
G1 X81.055 Y57.666 Z0 F444
G1 X80.621 Y57.675 Z0 F444
G1 X78.94 Y57.7 Z0 F444
G1 X77.252 Z0 F444
; --- FIX Y Backlash ---
G0 X77.252 Y57.2 F410
G1 X70.903 Y57.149 Z0 F444
G1 X64.553 Y57.066 Z0 F444
G1 X58.204 Y56.926 Z0 F444
G1 X51.86 Y56.706 Z0 F444
G1 X51.574 Y56.675 Z0 F444
G1 X51.259 Y56.679 Z0 F444
G1 X51.108 Y56.668 Z0 F444
G1 X50.97 Y56.634 Z0 F444
G1 X50.853 Y56.567 Z0 F444
G1 X50.764 Y56.455 Z0 F444
G1 X50.698 Y55.873 Z0 F444
G1 X50.667 Y55.287 Z0 F444
G1 X50.66 Y54.699 Z0 F444
G1 X50.67 Y54.108 Z0 F444
G1 X50.711 Y52.923 Z0 F444
G1 X50.727 Y51.742 Z0 F444
G1 X50.747 Y51.323 Z0 F444
G1 X50.734 Y50.909 Z0 F444
G1 X50.696 Y50.711 Z0 F444
G1 X50.628 Y50.523 Z0 F444
G1 X50.52 Y50.348 Z0 F444
G1 X50.366 Y50.19 Z0 F444
G1 X48.302 Y47.229 Z0 F444
G1 X46.257 Y44.252 Z0 F444
G1 X42.188 Y38.287 Z0 F444
G1 X42.015 Y37.991 Z0 F444
G1 X41.877 Y37.667 Z0 F444
G1 X41.791 Y37.334 Z0 F444
G1 X41.776 Y37.015 Z0 F444
; --- FIX X Backlash ---
G0 X42.476 Y37.015 F410
G1 X43.678 Y36.835 Z0 F444
G1 X44.269 Y36.754 Z0 F444
G1 X44.783 Y36.696 Z0 F444
; --- FIX X Backlash ---
G0 X44.083 Y36.696 F410
; --- FIX Y Backlash ---
G0 X44.083 Y37.196 F410
G1 X43.828 Y37.396 Z0 F444
G1 X43.63 Y37.642 Z0 F444
G1 X43.491 Y37.922 Z0 F444
G1 X43.414 Y38.224 Z0 F444
G1 X43.401 Y38.534 Z0 F444
; --- FIX X Backlash ---
G0 X44.101 Y38.534 F410
G1 X44.155 Y38.84 Z0 F444
G1 X44.278 Y39.129 Z0 F444
G1 X44.473 Y39.388 Z0 F444
G1 X44.659 Y39.581 Z0 F444
G1 X44.893 Y39.735 Z0 F444
G1 X45.137 Y39.843 Z0 F444
G1 X45.353 Y39.897 Z0 F444
; --- FIX X Backlash ---
G0 X44.653 Y39.897 F410
G1 X44.477 Y39.972 Z0 F444
G1 X44.343 Y40.082 Z0 F444
G1 X44.249 Y40.22 Z0 F444
G1 X44.195 Y40.378 Z0 F444
G1 X44.179 Y40.547 Z0 F444
G1 X44.202 Y40.72 Z0 F444
; --- FIX X Backlash ---
G0 X44.902 Y40.72 F410
G1 X44.963 Y40.886 Z0 F444
G1 X46.172 Y42.789 Z0 F444
G1 X47.328 Y44.51 Z0 F444
G1 X48.503 Y46.218 Z0 F444
G1 X49.88 Y48.227 Z0 F444
G1 X50.128 Y48.531 Z0 F444
G1 X50.27 Y48.641 Z0 F444
G1 X50.425 Y48.698 Z0 F444
G1 X50.593 Y48.686 Z0 F444
; --- FIX Y Backlash ---
G0 X50.593 Y48.186 F410
G1 X50.775 Y48.086 Z0 F444
G1 X50.991 Y47.907 Z0 F444
G1 X51.191 Y47.708 Z0 F444
G1 X51.37 Y47.491 Z0 F444
G1 X51.522 Y47.257 Z0 F444
G1 X51.643 Y47.007 Z0 F444
G1 X51.726 Y46.744 Z0 F444
G1 X51.767 Y46.468 Z0 F444
G1 X51.76 Y46.18 Z0 F444
G1 X51.783 Y45.243 Z0 F444
G1 Y44.305 Z0 F444
G1 X51.991 Y44.265 Z0 F444
G1 X52.155 Y44.274 Z0 F444
; --- FIX Y Backlash ---
G0 X52.155 Y44.774 F410
G1 X52.278 Y44.828 Z0 F444
G1 X52.367 Y44.92 Z0 F444
G1 X52.425 Y45.045 Z0 F444
G1 X52.457 Y45.197 Z0 F444
G1 X52.468 Y45.37 Z0 F444
G1 X52.463 Y45.559 Z0 F444
G1 X52.482 Y46.325 Z0 F444
; --- FIX X Backlash ---
G0 X51.782 Y46.325 F410
G1 X51.718 Y47.106 Z0 F444
G1 X51.634 Y47.485 Z0 F444
G1 X51.502 Y47.849 Z0 F444
G1 X51.315 Y48.188 Z0 F444
G1 X51.064 Y48.499 Z0 F444
G1 X50.814 Y48.779 Z0 F444
G1 X50.513 Y49.027 Z0 F444
G1 X50.373 Y49.153 Z0 F444
G1 X50.255 Y49.29 Z0 F444
G1 X50.17 Y49.441 Z0 F444
G1 X50.129 Y49.614 Z0 F444
; --- FIX X Backlash ---
G0 X50.829 Y49.614 F410
G1 X51.048 Y49.969 Z0 F444
G1 X51.285 Y50.333 Z0 F444
G1 X51.417 Y50.502 Z0 F444
G1 X51.564 Y50.656 Z0 F444
G1 X51.728 Y50.787 Z0 F444
G1 X51.911 Y50.889 Z0 F444
G1 X52.046 Y50.862 Z0 F444
; --- FIX Y Backlash ---
G0 X52.046 Y50.362 F410
G1 X52.159 Y50.309 Z0 F444
G1 X52.251 Y50.235 Z0 F444
G1 X52.328 Y50.143 Z0 F444
G1 X52.444 Y49.918 Z0 F444
G1 X52.627 Y49.41 Z0 F444
G1 X52.748 Y49.183 Z0 F444
G1 X52.827 Y49.089 Z0 F444
G1 X52.924 Y49.014 Z0 F444
G1 X53.041 Y48.959 Z0 F444
G1 X53.182 Y48.93 Z0 F444
G1 X53.932 Y48.847 Z0 F444
G1 X54.685 Y48.812 Z0 F444
G1 X55.439 Y48.801 Z0 F444
G1 X56.194 Y48.793 Z0 F444
; --- FIX Y Backlash ---
G0 X56.194 Y49.293 F410
G1 X56.422 Y50.169 Z0 F444
G1 X56.591 Y51.054 Z0 F444
G1 X56.726 Y51.944 Z0 F444
G1 X56.852 Y52.835 Z0 F444
G1 X56.966 Y52.986 Z0 F444
G1 X57.113 Y53.077 Z0 F444
G1 X57.286 Y53.122 Z0 F444
G1 X57.475 Y53.134 Z0 F444
G1 X57.87 Y53.118 Z0 F444
G1 X58.236 Y53.138 Z0 F444
G1 X69.744 Y53.283 Z0 F444
G1 X81.577 Y53.399 Z0 F444
; --- FIX Y Backlash ---
G0 X81.577 Y52.899 F410
G1 X81.902 Y52.804 Z0 F444
G1 X82.026 Y52.716 Z0 F444
G1 X82.104 Y52.599 Z0 F444
G1 X82.12 Y52.452 Z0 F444
; --- FIX X Backlash ---
G0 X81.42 Y52.452 F410
G1 X81.358 Y52.273 Z0 F444
G1 X81.12 Y51.868 Z0 F444
G1 X80.854 Y51.469 Z0 F444
G1 X80.695 Y51.306 Z0 F444
G1 X80.51 Y51.188 Z0 F444
G1 X80.295 Y51.127 Z0 F444
G1 X80.042 Y51.139 Z0 F444
G1 X78.429 Y51.07 Z0 F444
G1 X76.815 Y51.048 Z0 F444
G1 X75.2 Z0 F444
G1 X73.586 Y51.044 Z0 F444
G1 X73.324 Y50.012 Z0 F444
G1 X73.085 Y48.975 Z0 F444
; --- FIX X Backlash ---
G0 X73.785 Y48.975 F410
G1 X75.81 Y49 Z0 F444
G1 X77.839 Y49.044 Z0 F444
; --- FIX Y Backlash ---
G0 X77.839 Y49.544 F410
G1 X79.866 Y49.622 Z0 F444
G1 X81.88 Y49.751 Z0 F444
G1 X82.164 Y49.897 Z0 F444
G1 X82.41 Y50.086 Z0 F444
G1 X82.624 Y50.313 Z0 F444
G1 X82.808 Y50.567 Z0 F444
G1 X83.102 Y51.133 Z0 F444
G1 X83.321 Y51.722 Z0 F444
G1 X83.38 Y51.852 Z0 F444
G1 X83.474 Y51.935 Z0 F444
G1 X83.588 Y51.975 Z0 F444
G1 X83.709 Z0 F444
G1 X83.824 Y51.934 Z0 F444
; --- FIX Y Backlash ---
G0 X83.824 Y51.434 F410
G1 X83.917 Y51.357 Z0 F444
G1 X83.976 Y51.247 Z0 F444
G1 X83.986 Y51.105 Z0 F444
G1 X84 Y50.675 Z0 F444
G1 X83.993 Y50.23 Z0 F444
G1 X83.954 Y49.783 Z0 F444
; --- FIX X Backlash ---
G0 X83.254 Y49.783 F410
G1 X83.172 Y49.347 Z0 F444
G1 X83.036 Y48.933 Z0 F444
G1 X82.836 Y48.555 Z0 F444
G1 X82.707 Y48.383 Z0 F444
G1 X82.558 Y48.225 Z0 F444
G1 X82.387 Y48.082 Z0 F444
G1 X82.193 Y47.955 Z0 F444
G1 X81.697 Y47.748 Z0 F444
G1 X81.183 Y47.603 Z0 F444
G1 X80.655 Y47.505 Z0 F444
G1 X80.118 Y47.442 Z0 F444
G1 X79.043 Y47.362 Z0 F444
G1 X78 Y47.253 Z0 F444
; --- FIX X Backlash ---
G0 X78.7 Y47.253 F410
G1 X79.26 Y41.909 Z0 F444
G1 X79.828 Y36.576 Z0 F444
G1 X80.761 Y36.515 Z0 F444
G1 X81.71 Y36.533 Z0 F444
G1 X82.667 Y36.576 Z0 F444
G1 X83.621 Y36.594 Z0 F444
G1 X85.136 Y36.635 Z0 F444
G0 Z3.5 F444
; --- FIX X Backlash ---
G0 X84.436 Y36.635 F410
G0 X69.277 Y26.745 Z3.5
G1 Z0 F444
G1 X69.266 Z0 F444
G1 X68.298 Y26.738 Z0 F444
G1 X68.322 Y25.729 Z0 F444
G1 X68.325 Y25.444 Z0 F444
; --- FIX X Backlash ---
G0 X69.025 Y25.444 F410
; --- FIX Y Backlash ---
G0 X69.025 Y25.944 F410
G1 X69.977 Y27.245 Z0 F444
G0 Z3.5 F444
G0 X69.98 Y27.885 Z3.5
G1 Z0 F444
; --- FIX X Backlash ---
G0 X69.28 Y27.885 F410
G1 X67.642 Y27.874 Z0 F444
; --- FIX Y Backlash ---
G0 X67.642 Y27.374 F410
G1 X67.682 Y25.717 Z0 F444
G1 X67.702 Y24.08 Z0 F444
G1 X67.715 Y23.563 Z0 F444
; --- FIX X Backlash ---
G0 X68.415 Y23.563 F410
; --- FIX Y Backlash ---
G0 X68.415 Y24.063 F410
G1 X69.023 Y24.857 Z0 F444
G1 X70.729 Y27.188 Z0 F444
G1 X71.229 Y27.886 Z0 F444
; --- FIX X Backlash ---
G0 X70.529 Y27.886 F410
G1 X69.28 Z0 F444
G0 Z3.5 F444
G0 X67.001 Y27.9 Z3.5
G1 Z0 F444
; --- FIX Y Backlash ---
G0 X67.001 Y27.4 F410
G1 X67.042 Y25.706 Z0 F444
G1 X67.063 Y24.065 Z0 F444
G1 X67.1 Y22.451 Z0 F444
G1 X67.137 Y21.794 Z0 F444
G1 X67.166 Z0 F444
; --- FIX X Backlash ---
G0 X67.866 Y21.794 F410
; --- FIX Y Backlash ---
G0 X67.866 Y22.294 F410
G1 X69.544 Y24.485 Z0 F444
G1 X71.248 Y26.815 Z0 F444
G1 X72.478 Y28.527 Z0 F444
; --- FIX X Backlash ---
G0 X71.778 Y28.527 F410
G1 X69.277 Z0 F444
G1 X66.989 Y28.509 Z0 F444
; --- FIX Y Backlash ---
G0 X66.989 Y28.009 F410
G1 X66.98 Y27.743 Z0 F444
G1 X67.001 Y27.4 Z0 F444
G0 Z3.5 F444
; --- FIX X Backlash ---
G0 X67.701 Y27.4 F410
G0 X68.161 Y21.169 Z3.5
G1 Z0 F444
G1 X68.211 Y21.183 Z0 F444
; --- FIX Y Backlash ---
G0 X68.211 Y21.683 F410
G1 X68.248 Y21.74 Z0 F444
G1 X70.054 Y24.098 Z0 F444
G1 X71.768 Y26.441 Z0 F444
G1 X73.48 Y28.826 Z0 F444
G1 X73.729 Y29.168 Z0 F444
; --- FIX X Backlash ---
G0 X73.029 Y29.168 F410
G1 X69.272 Y29.165 Z0 F444
G1 X66.314 Y29.145 Z0 F444
; --- FIX Y Backlash ---
G0 X66.314 Y28.645 F410
G1 X66.343 Y28.464 Z0 F444
G1 X66.353 Y28.135 Z0 F444
G1 X66.339 Y27.735 Z0 F444
G1 X66.361 Y27.373 Z0 F444
G1 X66.402 Y25.694 Z0 F444
G1 X66.423 Y24.05 Z0 F444
G1 X66.461 Y22.415 Z0 F444
; --- FIX X Backlash ---
G0 X67.161 Y22.415 F410
G1 X67.23 Y21.192 Z0 F444
G1 X67.5 Y21.154 Z0 F444
G1 X67.947 Z0 F444
G1 X68.161 Y21.169 Z0 F444
G0 Z3.5 F444
G0 X68.772 Y20.872 Z3.5
G1 Z0 F444
; --- FIX Y Backlash ---
G0 X68.772 Y21.372 F410
G1 X70.569 Y23.718 Z0 F444
G1 X72.288 Y26.068 Z0 F444
G1 X74 Y28.451 Z0 F444
G1 X74.984 Y29.809 Z0 F444
; --- FIX X Backlash ---
G0 X74.284 Y29.809 F410
G1 X69.268 Y29.805 Z0 F444
G1 X65.358 Y29.778 Z0 F444
; --- FIX X Backlash ---
G0 X66.058 Y29.778 F410
; --- FIX Y Backlash ---
G0 X66.058 Y29.278 F410
G1 X66.239 Y29.021 Z0 F444
G1 X66.357 Y28.701 Z0 F444
G1 X66.405 Y28.403 Z0 F444
G1 X66.413 Y28.136 Z0 F444
G1 X66.398 Y27.725 Z0 F444
G1 X66.422 Y27.346 Z0 F444
G1 X66.462 Y25.682 Z0 F444
G1 X66.483 Y24.028 Z0 F444
G1 X66.521 Y22.408 Z0 F444
G1 X66.609 Y20.843 Z0 F444
G1 X66.619 Y20.813 Z0 F444
G1 X66.642 Y20.768 Z0 F444
G1 X66.666 Y20.735 Z0 F444
G1 X66.683 Y20.717 Z0 F444
G1 X66.804 Y20.64 Z0 F444
G1 X66.954 Y20.584 Z0 F444
G1 X67.453 Y20.515 Z0 F444
G1 X67.971 Z0 F444
G1 X68.271 Y20.535 Z0 F444
; --- FIX Y Backlash ---
G0 X68.271 Y21.035 F410
G1 X68.507 Y21.101 Z0 F444
G1 X68.569 Y21.133 Z0 F444
G1 X68.631 Y21.178 Z0 F444
G1 X68.681 Y21.23 Z0 F444
G1 X68.772 Y21.372 Z0 F444
G0 Z3.5 F444
G0 X71.077 Y23.329 Z3.5
G1 Z0 F444
G1 X72.808 Y25.695 Z0 F444
G1 X74.519 Y28.077 Z0 F444
G1 X76.24 Y30.45 Z0 F444
; --- FIX X Backlash ---
G0 X75.54 Y30.45 F410
G1 X69.263 Y30.445 Z0 F444
G1 X62.987 Y30.402 Z0 F444
G1 X62.805 Y30.445 Z0 F444
G1 X62.67 Y30.426 Z0 F444
; --- FIX Y Backlash ---
G0 X62.67 Y29.926 F410
G1 X62.576 Y29.855 Z0 F444
G1 X62.518 Y29.741 Z0 F444
G1 X62.489 Y29.591 Z0 F444
G1 X62.484 Y29.415 Z0 F444
G1 X62.496 Y29.22 Z0 F444
G1 X62.52 Y29.016 Z0 F444
; --- FIX X Backlash ---
G0 X63.22 Y29.016 F410
G1 X63.806 Y29.004 Z0 F444
G1 X64.399 Y29.025 Z0 F444
G1 X64.695 Z0 F444
G1 X64.987 Y29.008 Z0 F444
G1 X65.273 Y28.963 Z0 F444
G1 X65.553 Y28.883 Z0 F444
G1 X65.668 Y28.72 Z0 F444
G1 X65.735 Y28.539 Z0 F444
G1 X65.766 Y28.343 Z0 F444
G1 X65.772 Y28.137 Z0 F444
G1 X65.758 Y27.718 Z0 F444
G1 X65.782 Y27.318 Z0 F444
G1 X65.822 Y25.67 Z0 F444
G1 X65.843 Y24.02 Z0 F444
G1 X65.882 Y22.372 Z0 F444
G1 X65.975 Y20.728 Z0 F444
G1 X66.024 Y20.571 Z0 F444
G1 X66.092 Y20.435 Z0 F444
G1 X66.178 Y20.317 Z0 F444
G1 X66.279 Y20.217 Z0 F444
G1 X66.519 Y20.063 Z0 F444
G1 X66.797 Y19.96 Z0 F444
G1 X67.409 Y19.875 Z0 F444
G1 X67.994 Z0 F444
G1 X68.378 Y19.901 Z0 F444
; --- FIX Y Backlash ---
G0 X68.378 Y20.401 F410
G1 X68.741 Y20.501 Z0 F444
G1 X68.906 Y20.586 Z0 F444
G1 X69.056 Y20.696 Z0 F444
G1 X69.188 Y20.834 Z0 F444
G1 X69.296 Y21.004 Z0 F444
G1 X71.077 Y23.329 Z0 F444
G0 Z3.5 F444
G0 X75.3 Y23.294 Z3.5
G1 Z0 F444
G1 X75.746 Y23.571 Z0 F444
G1 X76.091 Y23.751 Z0 F444
; --- FIX X Backlash ---
G0 X75.391 Y23.751 F410
G1 X75.252 Y24.035 Z0 F444
G1 X75.125 Y24.23 Z0 F444
G1 X74.979 Y24.676 Z0 F444
G1 X74.954 Y25.14 Z0 F444
; --- FIX Y Backlash ---
G0 X74.954 Y24.64 F410
G1 X74.905 Y24.567 Z0 F444
G1 X74.611 Y24.168 Z0 F444
G1 X74.222 Y23.607 Z0 F444
G1 X73.821 Y23.044 Z0 F444
G1 X73.798 Y23.008 Z0 F444
; --- FIX X Backlash ---
G0 X74.498 Y23.008 F410
G1 X74.654 Y22.918 Z0 F444
G1 X75.018 Y22.657 Z0 F444
G1 X75.058 Y22.617 Z0 F444
; --- FIX Y Backlash ---
G0 X75.058 Y23.117 F410
G1 X75.3 Y23.294 Z0 F444
G0 Z3.5 F444
G0 X76.509 Y24.353 Z3.5
G1 Z0 F444
; --- FIX X Backlash ---
G0 X75.809 Y24.353 F410
G1 X75.707 Y24.509 Z0 F444
G1 X75.613 Y24.795 Z0 F444
G1 X75.597 Y25.09 Z0 F444
; --- FIX X Backlash ---
G0 X76.297 Y25.09 F410
G1 X76.358 Y25.379 Z0 F444
G1 X76.496 Y25.645 Z0 F444
G1 X76.703 Y25.867 Z0 F444
G1 X76.969 Y26.026 Z0 F444
G1 X77.17 Y26.082 Z0 F444
G1 X78.062 Y26.383 Z0 F444
G1 X78.483 Y26.515 Z0 F444
; --- FIX X Backlash ---
G0 X77.783 Y26.515 F410
; --- FIX Y Backlash ---
G0 X77.783 Y26.015 F410
G1 X76.338 Y25.912 Z0 F444
G1 X75.015 Y25.792 Z0 F444
G1 X74.887 Y25.663 Z0 F444
G1 X74.646 Y25.334 Z0 F444
G1 X74.381 Y24.935 Z0 F444
G1 X74.099 Y24.553 Z0 F444
G1 X73.699 Y23.975 Z0 F444
G1 X73.292 Y23.405 Z0 F444
G1 X72.929 Y22.848 Z0 F444
G1 X72.886 Y22.765 Z0 F444
; --- FIX X Backlash ---
G0 X73.586 Y22.765 F410
G1 X74.023 Y22.542 Z0 F444
G1 X74.308 Y22.379 Z0 F444
G1 X74.601 Y22.168 Z0 F444
G1 X74.879 Y21.888 Z0 F444
G1 X74.977 Y21.73 Z0 F444
; --- FIX Y Backlash ---
G0 X74.977 Y22.23 F410
G1 X75.275 Y22.483 Z0 F444
G1 X75.659 Y22.763 Z0 F444
G1 X76.063 Y23.015 Z0 F444
G1 X76.486 Y23.235 Z0 F444
G1 X76.927 Y23.423 Z0 F444
G1 X77.354 Y23.565 Z0 F444
; --- FIX X Backlash ---
G0 X76.654 Y23.565 F410
G1 X76.544 Y23.601 Z0 F444
G1 X76.222 Y23.788 Z0 F444
G1 X75.942 Y24.082 Z0 F444
G1 X75.809 Y24.353 Z0 F444
G0 Z3.5 F444
; --- FIX Y Backlash ---
G0 X75.809 Y23.853 F410
G0 X71.445 Y20.633 Z3.5
G1 Z0 F444
G1 X71.411 Y20.586 Z0 F444
G1 X71.116 Y20.162 Z0 F444
G1 X70.898 Y19.804 Z0 F444
; --- FIX X Backlash ---
G0 X71.598 Y19.804 F410
G1 X71.688 Y19.746 Z0 F444
G1 X72.264 Y19.409 Z0 F444
G1 X72.869 Y19.06 Z0 F444
G1 X73.081 Y18.926 Z0 F444
G1 X73.085 Y18.939 Z0 F444
; --- FIX Y Backlash ---
G0 X73.085 Y19.439 F410
G1 X73.261 Y19.882 Z0 F444
G1 X73.468 Y20.31 Z0 F444
G1 X73.555 Y20.46 Z0 F444
G1 X73.514 Y20.474 Z0 F444
; --- FIX X Backlash ---
G0 X72.814 Y20.474 F410
G1 X72.295 Y20.688 Z0 F444
G1 X71.819 Y20.942 Z0 F444
G1 X71.445 Y21.133 Z0 F444
G0 Z3.5 F444
G0 X70.892 Y21.46 Z3.5
G1 Z0 F444
; --- FIX Y Backlash ---
G0 X70.892 Y20.96 F410
G1 X70.578 Y20.509 Z0 F444
G1 X70.296 Y20.046 Z0 F444
G1 X70.078 Y19.574 Z0 F444
; --- FIX X Backlash ---
G0 X70.778 Y19.574 F410
G1 X71.352 Y19.201 Z0 F444
G1 X71.943 Y18.855 Z0 F444
G1 X72.538 Y18.512 Z0 F444
G1 X73.118 Y18.146 Z0 F444
G1 X73.2 Y18.083 Z0 F444
G1 X73.277 Y18.044 Z0 F444
G1 X73.346 Y18.03 Z0 F444
G1 X73.408 Y18.04 Z0 F444
G1 X73.461 Y18.073 Z0 F444
; --- FIX Y Backlash ---
G0 X73.461 Y18.573 F410
G1 X73.504 Y18.63 Z0 F444
G1 X73.537 Y18.71 Z0 F444
G1 X73.558 Y18.813 Z0 F444
G1 X73.688 Y19.224 Z0 F444
G1 X73.847 Y19.624 Z0 F444
G1 X74.035 Y20.011 Z0 F444
G1 X74.249 Y20.384 Z0 F444
G1 X74.488 Y20.742 Z0 F444
G1 X74.751 Y21.083 Z0 F444
G1 X75.037 Y21.403 Z0 F444
G1 X75.344 Y21.703 Z0 F444
G1 X75.671 Y21.98 Z0 F444
G1 X76.017 Y22.232 Z0 F444
G1 X76.38 Y22.458 Z0 F444
G1 X76.76 Y22.656 Z0 F444
G1 X77.154 Y22.824 Z0 F444
G1 X77.561 Y22.96 Z0 F444
G1 X77.98 Y23.063 Z0 F444
G1 X78.41 Y23.13 Z0 F444
G1 X78.786 Y23.172 Z0 F444
G1 X79.168 Y23.186 Z0 F444
G1 X79.914 Z0 F444
; --- FIX X Backlash ---
G0 X79.214 Y23.186 F410
G1 X79.125 Y23.381 Z0 F444
G1 X79.009 Y23.555 Z0 F444
G1 X78.869 Y23.706 Z0 F444
G1 X78.707 Y23.832 Z0 F444
G1 X78.528 Y23.931 Z0 F444
G1 X78.333 Y24.001 Z0 F444
G1 X78.128 Y24.042 Z0 F444
G1 X77.468 Y24.067 Z0 F444
G1 X77.013 Y24.122 Z0 F444
G1 X76.805 Y24.188 Z0 F444
G1 X76.622 Y24.295 Z0 F444
G1 X76.473 Y24.452 Z0 F444
G1 X76.367 Y24.668 Z0 F444
G1 X76.289 Y24.788 Z0 F444
G1 X76.248 Y24.914 Z0 F444
G1 X76.241 Y25.041 Z0 F444
G1 X76.266 Y25.162 Z0 F444
; --- FIX X Backlash ---
G0 X76.966 Y25.162 F410
G1 X77.023 Y25.272 Z0 F444
G1 X77.109 Y25.364 Z0 F444
G1 X77.223 Y25.432 Z0 F444
G1 X77.362 Y25.471 Z0 F444
G1 X78.26 Y25.774 Z0 F444
G1 X79.167 Y26.059 Z0 F444
G1 X80.078 Y26.321 Z0 F444
G1 X80.989 Y26.559 Z0 F444
; --- FIX Y Backlash ---
G0 X80.989 Y26.059 F410
G1 X81.199 Y25.953 Z0 F444
G1 X81.388 Y25.793 Z0 F444
G1 X81.567 Y25.603 Z0 F444
G1 X81.744 Y25.405 Z0 F444
G1 X81.93 Y25.225 Z0 F444
G1 X82.133 Y25.085 Z0 F444
G1 X82.364 Y25.01 Z0 F444
G1 X82.631 Y25.023 Z0 F444
; --- FIX Y Backlash ---
G0 X82.631 Y25.523 F410
G1 X82.841 Y25.575 Z0 F444
G1 X83.079 Y25.628 Z0 F444
G1 X83.289 Y25.698 Z0 F444
G1 X83.421 Y25.801 Z0 F444
; --- FIX X Backlash ---
G0 X82.721 Y25.801 F410
G1 X82.318 Y26.236 Z0 F444
G1 X81.908 Y26.673 Z0 F444
G1 X81.475 Y27.081 Z0 F444
G1 X81.001 Y27.427 Z0 F444
G1 X80.977 Z0 F444
; --- FIX Y Backlash ---
G0 X80.977 Y26.927 F410
G1 X79.416 Y26.775 Z0 F444
G1 X77.851 Y26.661 Z0 F444
G1 X76.286 Y26.549 Z0 F444
G1 X74.725 Y26.408 Z0 F444
G1 X74.401 Y26.081 Z0 F444
G1 X74.121 Y25.7 Z0 F444
G1 X73.857 Y25.302 Z0 F444
G1 X73.577 Y24.924 Z0 F444
G1 X73.175 Y24.343 Z0 F444
G1 X72.762 Y23.763 Z0 F444
G1 X72.375 Y23.17 Z0 F444
G1 X72.054 Y22.547 Z0 F444
; --- FIX X Backlash ---
G0 X72.754 Y22.547 F410
G1 X73.212 Y22.238 Z0 F444
G1 X73.719 Y21.979 Z0 F444
G1 X73.962 Y21.84 Z0 F444
G1 X74.184 Y21.68 Z0 F444
G1 X74.374 Y21.488 Z0 F444
G1 X74.521 Y21.253 Z0 F444
G1 X74.546 Y21.081 Z0 F444
G1 X74.521 Y20.918 Z0 F444
; --- FIX X Backlash ---
G0 X73.821 Y20.918 F410
G1 X73.754 Y20.773 Z0 F444
G1 X73.651 Y20.652 Z0 F444
G1 X73.52 Y20.564 Z0 F444
G1 X73.369 Y20.517 Z0 F444
G1 X73.206 Z0 F444
; --- FIX Y Backlash ---
G0 X73.206 Y21.017 F410
G1 X73.038 Y21.074 Z0 F444
G1 X72.569 Y21.267 Z0 F444
G1 X72.11 Y21.512 Z0 F444
G1 X71.658 Y21.743 Z0 F444
G1 X71.208 Y21.898 Z0 F444
; --- FIX Y Backlash ---
G0 X71.208 Y21.398 F410
G1 X70.892 Y20.96 Z0 F444
G0 Z3.5 F444
; --- FIX X Backlash ---
G0 X71.592 Y20.96 F410
G0 X79.495 Y16.509 Z3.5
G1 Z0 F444
G1 X79.514 Y16.521 Z0 F444
; --- FIX Y Backlash ---
G0 X79.514 Y17.021 F410
G1 X79.509 Y17.167 Z0 F444
G1 X79.496 Y17.204 Z0 F444
; --- FIX X Backlash ---
G0 X78.796 Y17.204 F410
G1 X78.742 Z0 F444
G1 X78.72 Y17.199 Z0 F444
G1 X78.697 Y17.186 Z0 F444
G1 X78.675 Y17.165 Z0 F444
G1 X78.663 Y17.146 Z0 F444
G1 X78.659 Y17.131 Z0 F444
G1 Y17.12 Z0 F444
; --- FIX Y Backlash ---
G0 X78.659 Y16.62 F410
G1 X78.686 Y16.526 Z0 F444
G1 X78.695 Y16.498 Z0 F444
G1 X78.745 Z0 F444
; --- FIX X Backlash ---
G0 X79.445 Y16.498 F410
G1 X79.495 Y16.509 Z0 F444
G0 Z3.5 F444
; --- FIX Y Backlash ---
G0 X79.495 Y17.009 F410
G0 X80.146 Y17.291 Z3.5
G1 Z0 F444
; --- FIX X Backlash ---
G0 X79.446 Y17.291 F410
G1 X79.342 Y17.572 Z0 F444
G1 X79.256 Y17.688 Z0 F444
G1 X79.147 Y17.778 Z0 F444
G1 X79.017 Y17.833 Z0 F444
G1 X78.867 Y17.843 Z0 F444
G1 X78.664 Y17.846 Z0 F444
; --- FIX Y Backlash ---
G0 X78.664 Y17.346 F410
G1 X78.476 Y17.296 Z0 F444
G1 X78.31 Y17.202 Z0 F444
G1 X78.174 Y17.071 Z0 F444
G1 X78.075 Y16.911 Z0 F444
G1 X78.021 Y16.731 Z0 F444
G1 X78.017 Y16.538 Z0 F444
; --- FIX X Backlash ---
G0 X78.717 Y16.538 F410
G1 X78.773 Y16.341 Z0 F444
G1 X78.813 Y16.21 Z0 F444
G1 X78.874 Y16.101 Z0 F444
G1 X78.955 Y16.011 Z0 F444
G1 X79.051 Y15.941 Z0 F444
G1 X79.276 Y15.86 Z0 F444
G1 X79.521 Y15.854 Z0 F444
; --- FIX Y Backlash ---
G0 X79.521 Y16.354 F410
G1 X79.76 Y16.418 Z0 F444
G1 X79.963 Y16.55 Z0 F444
G1 X80.043 Y16.641 Z0 F444
G1 X80.104 Y16.747 Z0 F444
G1 X80.142 Y16.868 Z0 F444
G1 X80.154 Y17.003 Z0 F444
G1 X80.146 Y17.291 Z0 F444
G0 Z3.5 F444
G0 X80.232 Y20.299 Z3.5
G1 Z0 F444
; --- FIX Y Backlash ---
G0 X80.232 Y19.799 F410
G1 X80.545 Y19.706 Z0 F444
G1 X80.845 Y19.579 Z0 F444
G1 X81.129 Y19.421 Z0 F444
G1 X81.397 Y19.235 Z0 F444
G1 X81.647 Y19.024 Z0 F444
G1 X81.875 Y18.789 Z0 F444
G1 X82.082 Y18.533 Z0 F444
G1 X82.263 Y18.26 Z0 F444
G1 X82.418 Y17.97 Z0 F444
G1 X82.545 Y17.668 Z0 F444
G1 X82.641 Y17.354 Z0 F444
G1 X82.704 Y17.033 Z0 F444
G1 X82.733 Y16.706 Z0 F444
G1 X82.726 Y16.376 Z0 F444
; --- FIX X Backlash ---
G0 X82.026 Y16.376 F410
G1 X81.974 Y15.921 Z0 F444
G1 X81.846 Y15.488 Z0 F444
G1 X81.651 Y15.08 Z0 F444
G1 X81.397 Y14.7 Z0 F444
G1 X81.096 Y14.353 Z0 F444
G1 X80.757 Y14.043 Z0 F444
G1 X80.388 Y13.773 Z0 F444
G1 X80 Y13.548 Z0 F444
G1 X79.713 Y13.461 Z0 F444
G1 X79.42 Y13.4 Z0 F444
G1 X79.122 Y13.363 Z0 F444
G1 X78.822 Y13.352 Z0 F444
G1 X78.225 Y13.402 Z0 F444
; --- FIX Y Backlash ---
G0 X78.225 Y13.902 F410
G1 X77.646 Y14.049 Z0 F444
G1 X77.368 Y14.157 Z0 F444
G1 X77.102 Y14.289 Z0 F444
G1 X76.849 Y14.443 Z0 F444
G1 X76.611 Y14.62 Z0 F444
G1 X76.39 Y14.819 Z0 F444
G1 X76.19 Y15.04 Z0 F444
G1 X76.01 Y15.282 Z0 F444
G1 X75.856 Y15.546 Z0 F444
G1 X75.68 Y15.927 Z0 F444
G1 X75.564 Y16.328 Z0 F444
G1 X75.504 Y16.743 Z0 F444
G1 X75.497 Y17.165 Z0 F444
G1 X75.54 Y17.586 Z0 F444
; --- FIX X Backlash ---
G0 X76.24 Y17.586 F410
G1 X76.327 Y18 Z0 F444
G1 X76.457 Y18.401 Z0 F444
G1 X76.624 Y18.781 Z0 F444
G1 X76.873 Y19.145 Z0 F444
G1 X77.171 Y19.465 Z0 F444
G1 X77.511 Y19.74 Z0 F444
G1 X77.885 Y19.969 Z0 F444
G1 X78.287 Y20.148 Z0 F444
G1 X78.707 Y20.277 Z0 F444
G1 X79.14 Y20.354 Z0 F444
G1 X79.577 Y20.376 Z0 F444
G1 X79.909 Y20.357 Z0 F444
; --- FIX Y Backlash ---
G0 X79.909 Y19.857 F410
G1 X80.232 Y19.799 Z0 F444
G0 Z3.5 F444
G0 X82.084 Y19.492 Z3.5
G1 Z0 F444
G1 X82.355 Y19.214 Z0 F444
G1 X82.599 Y18.912 Z0 F444
G1 X82.813 Y18.589 Z0 F444
G1 X82.997 Y18.246 Z0 F444
G1 X83.147 Y17.885 Z0 F444
G1 X83.262 Y17.51 Z0 F444
G1 X83.338 Y17.124 Z0 F444
G1 X83.374 Y16.728 Z0 F444
G1 X83.365 Y16.333 Z0 F444
; --- FIX X Backlash ---
G0 X82.665 Y16.333 F410
G1 X82.604 Y15.793 Z0 F444
G1 X82.445 Y15.258 Z0 F444
G1 X82.208 Y14.762 Z0 F444
G1 X81.907 Y14.312 Z0 F444
G1 X81.555 Y13.906 Z0 F444
G1 X81.162 Y13.547 Z0 F444
G1 X80.738 Y13.237 Z0 F444
G1 X80.257 Y12.958 Z0 F444
G1 X79.872 Y12.841 Z0 F444
G1 X79.525 Y12.768 Z0 F444
G1 X79.173 Y12.725 Z0 F444
G1 X78.807 Y12.711 Z0 F444
; --- FIX Y Backlash ---
G0 X78.807 Y13.211 F410
G1 X78.119 Y13.269 Z0 F444
G1 X77.45 Y13.438 Z0 F444
G1 X77.11 Y13.571 Z0 F444
G1 X76.793 Y13.727 Z0 F444
G1 X76.491 Y13.912 Z0 F444
G1 X76.204 Y14.124 Z0 F444
G1 X75.938 Y14.365 Z0 F444
G1 X75.694 Y14.633 Z0 F444
G1 X75.476 Y14.929 Z0 F444
G1 X75.288 Y15.249 Z0 F444
G1 X75.079 Y15.702 Z0 F444
G1 X74.937 Y16.192 Z0 F444
G1 X74.865 Y16.692 Z0 F444
G1 X74.857 Y17.191 Z0 F444
G1 X74.906 Y17.685 Z0 F444
; --- FIX X Backlash ---
G0 X75.606 Y17.685 F410
G1 X75.708 Y18.165 Z0 F444
G1 X75.857 Y18.629 Z0 F444
G1 X76.063 Y19.094 Z0 F444
G1 X76.372 Y19.546 Z0 F444
G1 X76.733 Y19.934 Z0 F444
G1 X77.141 Y20.264 Z0 F444
G1 X77.586 Y20.536 Z0 F444
G1 X78.061 Y20.749 Z0 F444
G1 X78.557 Y20.901 Z0 F444
G1 X79.067 Y20.991 Z0 F444
G1 X79.58 Y21.018 Z0 F444
G1 X79.984 Y20.994 Z0 F444
; --- FIX Y Backlash ---
G0 X79.984 Y20.494 F410
G1 X80.381 Y20.423 Z0 F444
G1 X80.762 Y20.309 Z0 F444
G1 X81.125 Y20.155 Z0 F444
G1 X81.467 Y19.966 Z0 F444
G1 X81.788 Y19.744 Z0 F444
G1 X82.084 Y19.492 Z0 F444
G0 Z3.5 F444
G0 X83.037 Y18.787 Z3.5
G1 Z0 F444
; --- FIX X Backlash ---
G0 X82.337 Y18.787 F410
; --- FIX Y Backlash ---
G0 X82.337 Y19.287 F410
G1 X82.043 Y19.708 Z0 F444
G1 X81.698 Y20.09 Z0 F444
G1 X81.307 Y20.429 Z0 F444
G1 X80.876 Y20.718 Z0 F444
G1 X80.416 Y20.95 Z0 F444
G1 X79.915 Y21.125 Z0 F444
G1 X79.622 Y21.206 Z0 F444
G1 X79.341 Y21.259 Z0 F444
G1 X79.04 Y21.291 Z0 F444
G1 X78.753 Y21.296 Z0 F444
G1 X78.186 Y21.266 Z0 F444
; --- FIX Y Backlash ---
G0 X78.186 Y20.766 F410
G1 X77.654 Y20.66 Z0 F444
G1 X77.141 Y20.482 Z0 F444
G1 X76.65 Y20.236 Z0 F444
G1 X76.195 Y19.929 Z0 F444
G1 X75.779 Y19.563 Z0 F444
G1 X75.418 Y19.151 Z0 F444
G1 X75.105 Y18.682 Z0 F444
G1 X74.888 Y18.3 Z0 F444
G1 X74.738 Y17.922 Z0 F444
G1 X74.635 Y17.526 Z0 F444
G1 X74.577 Y17.111 Z0 F444
G1 X74.56 Y16.675 Z0 F444
G1 X74.582 Y16.238 Z0 F444
; --- FIX X Backlash ---
G0 X75.282 Y16.238 F410
G1 X75.339 Y15.793 Z0 F444
G1 X75.421 Y15.382 Z0 F444
G1 X75.565 Y14.982 Z0 F444
G1 X75.762 Y14.583 Z0 F444
G1 X76.002 Y14.208 Z0 F444
G1 X76.282 Y13.858 Z0 F444
G1 X76.601 Y13.531 Z0 F444
G1 X76.945 Y13.241 Z0 F444
G1 X77.321 Y12.981 Z0 F444
G1 X77.684 Y12.78 Z0 F444
G1 X78.192 Y12.612 Z0 F444
G1 X78.742 Y12.496 Z0 F444
G1 X79.3 Y12.441 Z0 F444
G1 X79.867 Y12.451 Z0 F444
; --- FIX Y Backlash ---
G0 X79.867 Y12.951 F410
G1 X80.413 Y13.028 Z0 F444
G1 X80.942 Y13.175 Z0 F444
G1 X81.436 Y13.393 Z0 F444
G1 X81.906 Y13.694 Z0 F444
G1 X82.165 Y13.896 Z0 F444
G1 X82.402 Y14.116 Z0 F444
G1 X82.623 Y14.356 Z0 F444
G1 X82.825 Y14.614 Z0 F444
G1 X83.007 Y14.889 Z0 F444
G1 X83.167 Y15.175 Z0 F444
G1 X83.304 Y15.468 Z0 F444
G1 X83.422 Y15.781 Z0 F444
G1 X83.515 Y16.098 Z0 F444
G1 X83.582 Y16.415 Z0 F444
G1 X83.625 Y16.737 Z0 F444
G1 X83.643 Y17.066 Z0 F444
G1 X83.634 Y17.386 Z0 F444
G1 X83.6 Y17.708 Z0 F444
; --- FIX X Backlash ---
G0 X82.9 Y17.708 F410
G1 X82.838 Y18.021 Z0 F444
G1 X82.744 Y18.347 Z0 F444
G1 X82.569 Y18.84 Z0 F444
G1 X82.337 Y19.287 Z0 F444
G0 Z3.5 F444
G0 X81.696 Y20.939 Z3.5
G1 Z0 F444
G1 X81.199 Y21.272 Z0 F444
G1 X80.667 Y21.54 Z0 F444
G1 X80.104 Y21.737 Z0 F444
G1 X79.77 Y21.829 Z0 F444
G1 X79.429 Y21.894 Z0 F444
G1 X79.085 Y21.93 Z0 F444
G1 X78.738 Y21.937 Z0 F444
G1 X78.105 Y21.903 Z0 F444
; --- FIX Y Backlash ---
G0 X78.105 Y21.403 F410
G1 X77.487 Y21.28 Z0 F444
G1 X76.891 Y21.074 Z0 F444
G1 X76.327 Y20.791 Z0 F444
G1 X75.803 Y20.437 Z0 F444
G1 X75.327 Y20.018 Z0 F444
G1 X74.909 Y19.541 Z0 F444
G1 X74.556 Y19.012 Z0 F444
G1 X74.31 Y18.579 Z0 F444
G1 X74.128 Y18.123 Z0 F444
G1 X74.006 Y17.651 Z0 F444
G1 X73.938 Y17.167 Z0 F444
G1 X73.919 Y16.675 Z0 F444
G1 X73.944 Y16.182 Z0 F444
; --- FIX X Backlash ---
G0 X74.644 Y16.182 F410
G1 X74.707 Y15.692 Z0 F444
G1 X74.803 Y15.21 Z0 F444
G1 X74.976 Y14.729 Z0 F444
G1 X75.204 Y14.269 Z0 F444
G1 X75.481 Y13.836 Z0 F444
G1 X75.803 Y13.433 Z0 F444
G1 X76.163 Y13.063 Z0 F444
G1 X76.558 Y12.73 Z0 F444
G1 X76.98 Y12.438 Z0 F444
G1 X77.427 Y12.19 Z0 F444
G1 X78.023 Y11.994 Z0 F444
G1 X78.644 Y11.863 Z0 F444
G1 X79.278 Y11.8 Z0 F444
G1 X79.916 Y11.811 Z0 F444
; --- FIX Y Backlash ---
G0 X79.916 Y12.311 F410
G1 X80.545 Y12.4 Z0 F444
G1 X81.156 Y12.57 Z0 F444
G1 X81.738 Y12.827 Z0 F444
G1 X82.279 Y13.174 Z0 F444
G1 X82.578 Y13.407 Z0 F444
G1 X82.856 Y13.664 Z0 F444
G1 X83.111 Y13.942 Z0 F444
G1 X83.344 Y14.239 Z0 F444
G1 X83.553 Y14.553 Z0 F444
G1 X83.737 Y14.882 Z0 F444
G1 X83.896 Y15.224 Z0 F444
G1 X84.029 Y15.577 Z0 F444
G1 X84.135 Y15.938 Z0 F444
G1 X84.213 Y16.307 Z0 F444
G1 X84.263 Y16.679 Z0 F444
G1 X84.283 Y17.055 Z0 F444
G1 X84.273 Y17.43 Z0 F444
G1 X84.233 Y17.804 Z0 F444
; --- FIX X Backlash ---
G0 X83.533 Y17.804 F410
G1 X83.46 Y18.174 Z0 F444
G1 X83.355 Y18.539 Z0 F444
G1 X83.157 Y19.095 Z0 F444
G1 X82.885 Y19.62 Z0 F444
G1 X82.546 Y20.106 Z0 F444
G1 X82.147 Y20.549 Z0 F444
G1 X81.696 Y20.939 Z0 F444
G0 Z3.5 F444
G0 X57.301 Y25.912 Z3.5
G1 Z0 F444
G1 X57.25 Z0 F444
G1 Y25.885 Z0 F444
; --- FIX Y Backlash ---
G0 X57.25 Y25.385 F410
G1 X57.229 Y24.589 Z0 F444
; --- FIX X Backlash ---
G0 X57.929 Y24.589 F410
G1 X58.338 Y24.567 Z0 F444
; --- FIX X Backlash ---
G0 X57.638 Y24.567 F410
; --- FIX Y Backlash ---
G0 X57.638 Y25.067 F410
G1 X57.301 Y25.912 Z0 F444
G0 Z3.5 F444
G0 X56.635 Y26.554 Z3.5
G1 Z0 F444
; --- FIX Y Backlash ---
G0 X56.635 Y26.054 F410
G1 X56.61 Y25.426 Z0 F444
G1 X56.584 Y24.378 Z0 F444
G1 Y23.983 Z0 F444
; --- FIX X Backlash ---
G0 X57.284 Y23.983 F410
G1 X58.833 Y23.9 Z0 F444
G1 X60.446 Y23.852 Z0 F444
; --- FIX Y Backlash ---
G0 X60.446 Y24.352 F410
G1 X60.443 Y24.58 Z0 F444
; --- FIX X Backlash ---
G0 X59.743 Y24.58 F410
G1 X58.282 Y25.18 Z0 F444
G1 X57.735 Y26.551 Z0 F444
G1 X56.635 Y26.554 Z0 F444
G0 Z3.5 F444
; --- FIX Y Backlash ---
G0 X56.635 Y26.054 F410
G0 X55.971 Y25.458 Z3.5
G1 Z0 F444
G1 X55.945 Y24.398 Z0 F444
G1 X55.939 Y23.379 Z0 F444
; --- FIX X Backlash ---
G0 X56.639 Y23.379 F410
G1 X56.761 Y23.37 Z0 F444
G1 X58.8 Y23.26 Z0 F444
G1 X60.889 Y23.198 Z0 F444
G1 X61.096 Z0 F444
; --- FIX Y Backlash ---
G0 X61.096 Y23.698 F410
G1 X61.082 Y24.645 Z0 F444
G1 X61.071 Y25.013 Z0 F444
; --- FIX X Backlash ---
G0 X60.371 Y25.013 F410
G1 X58.776 Y25.669 Z0 F444
G1 X58.169 Y27.19 Z0 F444
G1 X56.02 Y27.195 Z0 F444
; --- FIX Y Backlash ---
G0 X56.02 Y26.695 F410
G1 X55.971 Y25.458 Z0 F444
G0 Z3.5 F444
G0 X56.019 Y22.731 Z3.5
G1 Z0 F444
; --- FIX X Backlash ---
G0 X56.719 Y22.731 F410
G1 X58.766 Y22.621 Z0 F444
G1 X60.865 Y22.559 Z0 F444
G1 X61.745 Y22.553 Z0 F444
; --- FIX Y Backlash ---
G0 X61.745 Y23.053 F410
G1 Y23.106 Z0 F444
G1 X61.722 Y24.642 Z0 F444
G1 X61.697 Y25.498 Z0 F444
; --- FIX X Backlash ---
G0 X60.997 Y25.498 F410
G1 X60.733 Y25.557 Z0 F444
G1 X59.27 Y26.158 Z0 F444
G1 X58.704 Y27.575 Z0 F444
G1 X58.651 Y27.794 Z0 F444
G1 X58.465 Y27.812 Z0 F444
G1 X58.347 Y27.83 Z0 F444
G1 X55.726 Y27.836 Z0 F444
G1 X55.404 Z0 F444
; --- FIX Y Backlash ---
G0 X55.404 Y27.336 F410
G1 X55.33 Y25.437 Z0 F444
G1 X55.304 Y24.418 Z0 F444
G1 X55.299 Y23.383 Z0 F444
G1 X55.312 Y22.786 Z0 F444
; --- FIX X Backlash ---
G0 X56.012 Y22.786 F410
G1 X56.719 Y22.731 Z0 F444
G0 Z3.5 F444
G0 X60.842 Y21.918 Z3.5
G1 Z0 F444
G1 X62.387 Y21.908 Z0 F444
; --- FIX Y Backlash ---
G0 X62.387 Y22.408 F410
G1 Y23.085 Z0 F444
G1 X62.362 Y24.66 Z0 F444
G1 X62.322 Y26.034 Z0 F444
; --- FIX X Backlash ---
G0 X61.622 Y26.034 F410
G1 X61.472 Y26.048 Z0 F444
G1 X60.925 Y26.169 Z0 F444
G1 X59.764 Y26.647 Z0 F444
G1 X59.316 Y27.77 Z0 F444
G1 X59.197 Y28.258 Z0 F444
G1 X59.18 Y28.392 Z0 F444
G1 X58.924 Y28.41 Z0 F444
G1 X58.543 Y28.447 Z0 F444
G1 X58.394 Y28.47 Z0 F444
G1 X55.729 Y28.476 Z0 F444
G1 X54.788 Y28.481 Z0 F444
; --- FIX Y Backlash ---
G0 X54.788 Y27.981 F410
G1 X54.777 Y27.655 Z0 F444
G1 X54.691 Y25.481 Z0 F444
G1 X54.664 Y24.413 Z0 F444
G1 X54.658 Y23.372 Z0 F444
G1 X54.681 Y22.354 Z0 F444
G1 X54.691 Y22.192 Z0 F444
; --- FIX X Backlash ---
G0 X55.391 Y22.192 F410
G1 X56.655 Y22.094 Z0 F444
G1 X58.775 Y21.98 Z0 F444
G1 X60.842 Y21.918 Z0 F444
G0 Z3.5 F444
G0 X63.029 Y21.266 Z3.5
G1 Z0 F444
; --- FIX Y Backlash ---
G0 X63.029 Y21.766 F410
G1 X63.025 Y23.095 Z0 F444
G1 X63.002 Y24.679 Z0 F444
G1 X62.956 Y26.257 Z0 F444
G1 X62.938 Y26.639 Z0 F444
; --- FIX X Backlash ---
G0 X62.238 Y26.639 F410
G1 X61.983 Y26.642 Z0 F444
G1 X61.572 Y26.681 Z0 F444
G1 X61.118 Y26.782 Z0 F444
G1 X60.258 Y27.136 Z0 F444
G1 X59.927 Y27.965 Z0 F444
G1 X59.827 Y28.375 Z0 F444
G1 X59.779 Y28.751 Z0 F444
G1 X59.764 Y28.999 Z0 F444
G1 X59.355 Y29.021 Z0 F444
G1 X58.977 Y29.048 Z0 F444
G1 X58.621 Y29.083 Z0 F444
G1 X58.442 Y29.109 Z0 F444
G1 X55.731 Y29.116 Z0 F444
G1 X54.17 Y29.125 Z0 F444
; --- FIX Y Backlash ---
G0 X54.17 Y28.625 F410
G1 X54.137 Y27.679 Z0 F444
G1 X54.051 Y25.506 Z0 F444
G1 X54.024 Y24.414 Z0 F444
G1 X54.018 Y23.386 Z0 F444
G1 X54.042 Y22.317 Z0 F444
G1 X54.084 Y21.598 Z0 F444
; --- FIX X Backlash ---
G0 X54.784 Y21.598 F410
G1 X56.631 Y21.454 Z0 F444
G1 X58.743 Y21.341 Z0 F444
G1 X60.839 Y21.278 Z0 F444
G1 X62.928 Y21.264 Z0 F444
G1 X63.029 Z0 F444
G0 Z3.5 F444
G0 X63.669 Y21.032 Z3.5
G1 Z0 F444
; --- FIX Y Backlash ---
G0 X63.669 Y21.532 F410
G1 X63.665 Y23.104 Z0 F444
G1 X63.641 Y24.707 Z0 F444
G1 X63.596 Y26.287 Z0 F444
G1 X63.548 Y27.293 Z0 F444
; --- FIX X Backlash ---
G0 X62.848 Y27.293 F410
G1 X62.34 Y27.278 Z0 F444
G1 X62.017 Y27.282 Z0 F444
G1 X61.673 Y27.314 Z0 F444
G1 X61.311 Y27.395 Z0 F444
G1 X60.752 Y27.625 Z0 F444
G1 X60.538 Y28.161 Z0 F444
G1 X60.457 Y28.492 Z0 F444
G1 X60.416 Y28.811 Z0 F444
G1 X60.399 Y29.114 Z0 F444
G1 X60.391 Y29.605 Z0 F444
G1 X59.395 Y29.66 Z0 F444
G1 X59.031 Y29.686 Z0 F444
G1 X58.699 Y29.718 Z0 F444
G1 X58.493 Y29.749 Z0 F444
G1 X55.734 Y29.756 Z0 F444
G1 X53.551 Y29.768 Z0 F444
; --- FIX Y Backlash ---
G0 X53.551 Y29.268 F410
G1 X53.498 Y27.702 Z0 F444
G1 X53.411 Y25.513 Z0 F444
G1 X53.384 Y24.442 Z0 F444
G1 X53.379 Y23.354 Z0 F444
G1 X53.402 Y22.308 Z0 F444
; --- FIX X Backlash ---
G0 X54.102 Y22.308 F410
G1 X54.164 Y21.228 Z0 F444
G1 X54.172 Y21.123 Z0 F444
G1 X54.184 Y21.081 Z0 F444
G1 X54.201 Y21.049 Z0 F444
G1 X54.223 Y21.024 Z0 F444
G1 X54.25 Y21.003 Z0 F444
G1 X54.28 Y20.989 Z0 F444
G1 X54.314 Y20.981 Z0 F444
G1 X54.455 Z0 F444
G1 X56.588 Y20.815 Z0 F444
G1 X58.71 Y20.702 Z0 F444
G1 X60.818 Y20.639 Z0 F444
G1 X62.933 Y20.625 Z0 F444
G1 X63.127 Z0 F444
G1 X63.28 Y20.651 Z0 F444
G1 X63.425 Y20.696 Z0 F444
; --- FIX Y Backlash ---
G0 X63.425 Y21.196 F410
G1 X63.54 Y21.252 Z0 F444
G1 X63.613 Y21.31 Z0 F444
G1 X63.646 Y21.354 Z0 F444
G1 X63.662 Y21.394 Z0 F444
G1 X63.669 Y21.532 Z0 F444
G0 Z3.5 F444
G0 X64.281 Y24.716 Z3.5
G1 Z0 F444
G1 X64.235 Y26.317 Z0 F444
; --- FIX X Backlash ---
G0 X63.535 Y26.317 F410
G1 X63.46 Y27.909 Z0 F444
G1 X62.904 Y27.936 Z0 F444
G1 X62.334 Y27.918 Z0 F444
G1 X62.05 Y27.921 Z0 F444
G1 X61.773 Y27.948 Z0 F444
G1 X61.504 Y28.008 Z0 F444
G1 X61.246 Y28.114 Z0 F444
G1 X61.149 Y28.356 Z0 F444
G1 X61.088 Y28.609 Z0 F444
G1 X61.054 Y28.871 Z0 F444
G1 X61.038 Y29.137 Z0 F444
G1 X61.03 Y29.675 Z0 F444
G1 X60.995 Y30.201 Z0 F444
G1 X60.791 Y30.222 Z0 F444
G1 X60.508 Y30.24 Z0 F444
G1 X59.435 Y30.299 Z0 F444
G1 X59.085 Y30.324 Z0 F444
G1 X58.778 Y30.354 Z0 F444
G1 X58.54 Y30.389 Z0 F444
G1 X55.736 Y30.396 Z0 F444
G1 X52.932 Y30.411 Z0 F444
; --- FIX Y Backlash ---
G0 X52.932 Y29.911 F410
G1 X52.858 Y27.726 Z0 F444
G1 X52.772 Y25.538 Z0 F444
G1 X52.744 Y24.446 Z0 F444
G1 X52.738 Y23.357 Z0 F444
G1 X52.763 Y22.271 Z0 F444
; --- FIX X Backlash ---
G0 X53.463 Y22.271 F410
G1 X53.525 Y21.191 Z0 F444
G1 X53.539 Y21.007 Z0 F444
G1 X53.588 Y20.837 Z0 F444
G1 X53.67 Y20.685 Z0 F444
G1 X53.781 Y20.556 Z0 F444
G1 X53.917 Y20.452 Z0 F444
G1 X54.072 Y20.38 Z0 F444
G1 X54.245 Y20.341 Z0 F444
G1 X54.43 Z0 F444
G1 X56.544 Y20.177 Z0 F444
G1 X58.677 Y20.063 Z0 F444
G1 X60.813 Y19.999 Z0 F444
G1 X62.938 Y19.984 Z0 F444
G1 X63.178 Y19.988 Z0 F444
G1 X63.424 Y20.026 Z0 F444
; --- FIX Y Backlash ---
G0 X63.424 Y20.526 F410
G1 X63.663 Y20.599 Z0 F444
G1 X63.882 Y20.708 Z0 F444
G1 X64.07 Y20.854 Z0 F444
G1 X64.211 Y21.038 Z0 F444
G1 X64.296 Y21.26 Z0 F444
G1 X64.309 Y21.52 Z0 F444
G1 X64.305 Y23.113 Z0 F444
G1 X64.281 Y24.716 Z0 F444
G0 Z3.5 F444
; --- FIX X Backlash ---
G0 X63.581 Y24.716 F410
G0 X55.991 Y34.029 Z3.5
G1 Z0 F444
G1 X55.728 Z0 F444
G1 X55.659 Y34.021 Z0 F444
; --- FIX X Backlash ---
G0 X56.359 Y34.021 F410
G1 X56.693 Z0 F444
G1 Y34.029 Z0 F444
G0 Z3.5 F444
G0 X56.714 Y34.669 Z3.5
G1 Z0 F444
; --- FIX X Backlash ---
G0 X56.014 Y34.669 F410
G1 X55.69 Z0 F444
G1 X55.404 Y34.639 Z0 F444
G1 X54.695 Y34.593 Z0 F444
G1 X53.999 Y34.558 Z0 F444
G1 X53.322 Y34.512 Z0 F444
G1 X53.137 Y34.49 Z0 F444
; --- FIX Y Backlash ---
G0 X53.137 Y33.99 F410
G1 X53.109 Y33.78 Z0 F444
G1 X53.04 Y33.518 Z0 F444
G1 X52.903 Y33.235 Z0 F444
G1 X52.657 Y32.969 Z0 F444
G1 X52.309 Y32.787 Z0 F444
G1 X51.987 Y32.74 Z0 F444
G1 X51.698 Y32.775 Z0 F444
; --- FIX Y Backlash ---
G0 X51.698 Y33.275 F410
G1 X51.436 Y33.375 Z0 F444
G1 X51.285 Y33.479 Z0 F444
; --- FIX Y Backlash ---
G0 X51.285 Y32.979 F410
G1 X51.27 Y32.546 Z0 F444
; --- FIX X Backlash ---
G0 X51.97 Y32.546 F410
; --- FIX Y Backlash ---
G0 X51.97 Y33.046 F410
G1 X52.135 Y33.12 Z0 F444
G1 X52.454 Y33.198 Z0 F444
G1 X52.802 Y33.251 Z0 F444
G1 X53.188 Y33.292 Z0 F444
G1 X53.61 Y33.323 Z0 F444
G1 X54.056 Y33.347 Z0 F444
G1 X54.517 Y33.362 Z0 F444
G1 X55.427 Y33.379 Z0 F444
G1 X56.243 Y33.382 Z0 F444
G1 X57.121 Y33.378 Z0 F444
G1 X57.259 Y33.402 Z0 F444
G1 X57.296 Y33.421 Z0 F444
G1 X57.313 Y33.438 Z0 F444
G1 X57.339 Y33.496 Z0 F444
G1 X57.364 Y33.615 Z0 F444
G1 X57.37 Y33.79 Z0 F444
G1 X57.35 Y34.001 Z0 F444
G1 X57.303 Y34.237 Z0 F444
; --- FIX X Backlash ---
G0 X56.603 Y34.237 F410
G1 X56.539 Y34.462 Z0 F444
G1 X56.458 Y34.686 Z0 F444
G1 X56.437 Y34.731 Z0 F444
G1 X56.241 Y34.688 Z0 F444
G1 X56.014 Y34.669 Z0 F444
G0 Z3.5 F444
G0 X53.385 Y39.49 Z3.5
G1 Z0 F444
; --- FIX X Backlash ---
G0 X54.085 Y39.49 F410
G1 X54.433 Y39.5 Z0 F444
G1 X54.744 Z0 F444
G1 X54.806 Y39.51 Z0 F444
G1 X54.843 Y40.269 Z0 F444
G1 X54.86 Y41.474 Z0 F444
G1 X54.838 Y42.68 Z0 F444
G1 X54.798 Y43.593 Z0 F444
; --- FIX X Backlash ---
G0 X54.098 Y43.593 F410
G1 X54.028 Y43.596 Z0 F444
G1 X53.783 Z0 F444
G1 X53.405 Y43.566 Z0 F444
; --- FIX Y Backlash ---
G0 X53.405 Y43.066 F410
G1 X53.384 Y42.773 Z0 F444
G1 X53.388 Y42.177 Z0 F444
G1 Y41.53 Z0 F444
G1 X53.318 Y40.645 Z0 F444
G1 X53.019 Y40.368 Z0 F444
; --- FIX X Backlash ---
G0 X53.719 Y40.368 F410
G1 X53.905 Y40.15 Z0 F444
G1 X54.029 Y39.843 Z0 F444
G1 X54.077 Y39.56 Z0 F444
G1 X54.081 Y39.16 Z0 F444
G1 X54.085 Y38.99 Z0 F444
G0 Z3.5 F444
; --- FIX X Backlash ---
G0 X53.385 Y38.99 F410
G0 X50.567 Y23.273 Z3.5
G1 Z0 F444
G1 X50.246 Y23.111 Z0 F444
G1 X49.946 Y23.061 Z0 F444
G1 X49.56 Y23.085 Z0 F444
G1 X49.268 Y23.123 Z0 F444
; --- FIX Y Backlash ---
G0 X49.268 Y23.623 F410
G1 X48.377 Y23.73 Z0 F444
G1 X47.467 Y23.857 Z0 F444
G1 X46.906 Y23.933 Z0 F444
; --- FIX X Backlash ---
G0 X47.606 Y23.933 F410
; --- FIX Y Backlash ---
G0 X47.606 Y23.433 F410
G1 X47.781 Y23.193 Z0 F444
G1 X48.094 Y22.864 Z0 F444
G1 X48.443 Y22.583 Z0 F444
G1 X48.823 Y22.359 Z0 F444
G1 X49.227 Y22.198 Z0 F444
G1 X49.7 Y22.094 Z0 F444
G1 X50.831 Y21.861 Z0 F444
G1 X51.233 Y21.787 Z0 F444
; --- FIX Y Backlash ---
G0 X51.233 Y22.287 F410
G1 X51.267 Y23.773 Z0 F444
G0 Z3.5 F444
; --- FIX X Backlash ---
G0 X50.567 Y23.773 F410
G0 X50.275 Y24.532 Z3.5
G1 Z0 F444
; --- FIX Y Backlash ---
G0 X50.275 Y24.032 F410
G1 X50.235 Y23.88 Z0 F444
G1 X50.155 Y23.781 Z0 F444
G1 X50.045 Y23.726 Z0 F444
G1 X49.914 Y23.704 Z0 F444
G1 X49.622 Y23.723 Z0 F444
G1 X49.351 Y23.758 Z0 F444
; --- FIX Y Backlash ---
G0 X49.351 Y24.258 F410
G1 X48.459 Y24.365 Z0 F444
G1 X47.556 Y24.491 Z0 F444
G1 X46.665 Y24.61 Z0 F444
G1 X45.812 Y24.695 Z0 F444
; --- FIX X Backlash ---
G0 X46.512 Y24.695 F410
; --- FIX Y Backlash ---
G0 X46.512 Y24.195 F410
G1 X46.71 Y23.693 Z0 F444
G1 X46.97 Y23.219 Z0 F444
G1 X47.289 Y22.782 Z0 F444
G1 X47.66 Y22.391 Z0 F444
G1 X48.078 Y22.055 Z0 F444
G1 X48.54 Y21.783 Z0 F444
G1 X49.039 Y21.584 Z0 F444
G1 X49.571 Y21.467 Z0 F444
G1 X50.711 Y21.232 Z0 F444
G1 X51.855 Y21.021 Z0 F444
; --- FIX Y Backlash ---
G0 X51.855 Y21.521 F410
G1 X51.981 Y26.941 Z0 F444
G1 X52.129 Y32.362 Z0 F444
G1 X52.188 Y32.443 Z0 F444
G1 X52.343 Y32.512 Z0 F444
G1 X52.579 Y32.569 Z0 F444
G1 X52.885 Y32.617 Z0 F444
G1 X53.246 Y32.655 Z0 F444
G1 X53.65 Y32.685 Z0 F444
G1 X54.083 Y32.707 Z0 F444
G1 X54.534 Y32.723 Z0 F444
G1 X55.434 Y32.739 Z0 F444
G1 X56.243 Y32.742 Z0 F444
G1 X57.174 Y32.737 Z0 F444
G1 X57.467 Y32.789 Z0 F444
G1 X57.69 Y32.905 Z0 F444
G1 X57.849 Y33.076 Z0 F444
G1 X57.95 Y33.291 Z0 F444
G1 X58.002 Y33.539 Z0 F444
G1 X58.011 Y33.811 Z0 F444
G1 X57.983 Y34.096 Z0 F444
; --- FIX X Backlash ---
G0 X57.283 Y34.096 F410
G1 X57.226 Y34.383 Z0 F444
G1 X57.147 Y34.662 Z0 F444
G1 X57.053 Y34.923 Z0 F444
G1 X56.949 Y35.155 Z0 F444
G1 X56.844 Y35.348 Z0 F444
G1 X56.745 Y35.491 Z0 F444
G1 X56.657 Y35.574 Z0 F444
G1 X56.589 Y35.587 Z0 F444
; --- FIX Y Backlash ---
G0 X56.589 Y35.087 F410
G1 X56.547 Y35.019 Z0 F444
G1 X56.429 Y34.918 Z0 F444
G1 X56.294 Y34.855 Z0 F444
G1 X56.145 Y34.822 Z0 F444
G1 X55.987 Y34.809 Z0 F444
G1 X55.66 Z0 F444
G1 X55.351 Y34.777 Z0 F444
G1 X54.657 Y34.732 Z0 F444
G1 X53.956 Y34.697 Z0 F444
G1 X53.262 Y34.65 Z0 F444
G1 X52.586 Y34.57 Z0 F444
G1 X52.526 Y34.25 Z0 F444
G1 X52.48 Y33.904 Z0 F444
G1 X52.437 Y33.742 Z0 F444
G1 X52.368 Y33.6 Z0 F444
G1 X52.262 Y33.484 Z0 F444
G1 X52.11 Y33.405 Z0 F444
G1 X51.979 Y33.386 Z0 F444
G1 X51.853 Y33.401 Z0 F444
G1 X51.736 Y33.445 Z0 F444
; --- FIX Y Backlash ---
G0 X51.736 Y33.945 F410
G1 X51.634 Y34.016 Z0 F444
G1 X51.554 Y34.107 Z0 F444
G1 X51.5 Y34.218 Z0 F444
G1 X51.477 Y34.342 Z0 F444
G1 X51.492 Y34.477 Z0 F444
G1 X51.527 Y37.117 Z0 F444
; --- FIX X Backlash ---
G0 X52.227 Y37.117 F410
G1 X52.303 Y39.755 Z0 F444
G1 X52.417 Y40.018 Z0 F444
G1 X52.593 Y40.262 Z0 F444
G1 X52.701 Y40.362 Z0 F444
G1 X52.822 Y40.441 Z0 F444
G1 X52.955 Y40.493 Z0 F444
G1 X53.097 Y40.511 Z0 F444
; --- FIX Y Backlash ---
G0 X53.097 Y40.011 F410
G1 X53.25 Y39.931 Z0 F444
G1 X53.351 Y39.813 Z0 F444
G1 X53.41 Y39.668 Z0 F444
G1 X53.437 Y39.504 Z0 F444
G1 X53.441 Y39.152 Z0 F444
G1 X53.449 Y38.827 Z0 F444
G1 X53.53 Y38.616 Z0 F444
G1 X53.684 Y38.445 Z0 F444
G1 X53.78 Y38.384 Z0 F444
G1 X53.886 Y38.346 Z0 F444
G1 X53.997 Y38.333 Z0 F444
G1 X54.111 Y38.35 Z0 F444
G1 X54.444 Y38.359 Z0 F444
G1 X54.788 Y38.362 Z0 F444
G1 X55.121 Y38.407 Z0 F444
; --- FIX Y Backlash ---
G0 X55.121 Y38.907 F410
G1 X55.423 Y39.043 Z0 F444
G1 X55.483 Y40.26 Z0 F444
G1 X55.5 Y41.476 Z0 F444
G1 X55.479 Y42.691 Z0 F444
; --- FIX X Backlash ---
G0 X54.779 Y42.691 F410
G1 X54.724 Y43.902 Z0 F444
G1 X54.68 Y44.041 Z0 F444
G1 X54.594 Y44.136 Z0 F444
G1 X54.477 Y44.194 Z0 F444
G1 X54.338 Y44.225 Z0 F444
G1 X54.034 Y44.236 Z0 F444
G1 X53.762 Z0 F444
G1 X53.208 Y44.194 Z0 F444
G1 X53.071 Y44.164 Z0 F444
; --- FIX Y Backlash ---
G0 X53.071 Y43.664 F410
G1 X52.95 Y43.612 Z0 F444
G1 X52.853 Y43.53 Z0 F444
G1 X52.787 Y43.411 Z0 F444
G1 X52.744 Y42.795 Z0 F444
G1 X52.748 Y42.174 Z0 F444
G1 Y41.555 Z0 F444
G1 X52.7 Y40.945 Z0 F444
G1 X52.516 Y40.774 Z0 F444
G1 X52.286 Y40.634 Z0 F444
G1 X52.161 Y40.587 Z0 F444
G1 X52.034 Y40.563 Z0 F444
G1 X51.907 Z0 F444
G1 X51.784 Y40.6 Z0 F444
; --- FIX Y Backlash ---
G0 X51.784 Y41.1 F410
G1 X51.691 Y41.245 Z0 F444
G1 X51.641 Y41.402 Z0 F444
G1 X51.622 Y41.571 Z0 F444
G1 X51.625 Y41.747 Z0 F444
G1 X51.657 Y42.106 Z0 F444
G1 Y42.455 Z0 F444
G1 X51.666 Y42.731 Z0 F444
G1 X51.673 Y43.005 Z0 F444
G1 X51.647 Y43.113 Z0 F444
G1 X51.586 Y43.186 Z0 F444
G1 X51.477 Y43.212 Z0 F444
G1 X51.31 Y43.182 Z0 F444
G1 X51.182 Y43.207 Z0 F444
G1 X51.092 Y43.19 Z0 F444
G1 X51.034 Y43.141 Z0 F444
; --- FIX Y Backlash ---
G0 X51.034 Y42.641 F410
G1 X51 Y42.565 Z0 F444
G1 X50.978 Y42.367 Z0 F444
G1 X50.792 Y37.63 Z0 F444
G1 X50.649 Y33.097 Z0 F444
G1 X50.492 Y28.562 Z0 F444
G1 X50.275 Y24.032 Z0 F444
G0 Z3.5 F444
G0 X39.461 Y21.766 Z3.5
G1 Z0 F444
G1 X39.501 Y21.778 Z0 F444
G1 X39.543 Y21.804 Z0 F444
G1 X39.571 Y21.833 Z0 F444
G1 X39.581 Y21.851 Z0 F444
G1 X39.559 Y21.892 Z0 F444
G1 X39.511 Y21.94 Z0 F444
G1 X39.438 Y21.933 Z0 F444
G1 X39.363 Y21.936 Z0 F444
G1 X39.36 Y21.93 Z0 F444
G1 X39.341 Y21.873 Z0 F444
G1 Y21.807 Z0 F444
G1 X39.344 Y21.788 Z0 F444
; --- FIX X Backlash ---
G0 X40.044 Y21.788 F410
G1 X40.131 Y21.764 Z0 F444
G1 X40.161 Z0 F444
G0 Z3.5 F444
; --- FIX Y Backlash ---
G0 X40.161 Y22.264 F410
G0 X40.931 Y22.331 Z3.5
G1 Z0 F444
G1 X40.903 Y22.546 Z0 F444
; --- FIX X Backlash ---
G0 X40.203 Y22.546 F410
G1 X40.078 Y22.777 Z0 F444
G1 X39.896 Y22.961 Z0 F444
G1 X39.789 Y23.026 Z0 F444
G1 X39.672 Y23.069 Z0 F444
G1 X39.548 Y23.086 Z0 F444
G1 X39.418 Y23.074 Z0 F444
G1 X39.275 Y23.079 Z0 F444
G1 X39.146 Y23.054 Z0 F444
; --- FIX Y Backlash ---
G0 X39.146 Y22.554 F410
G1 X39.032 Y22.503 Z0 F444
G1 X38.934 Y22.43 Z0 F444
G1 X38.785 Y22.23 Z0 F444
G1 X38.704 Y21.986 Z0 F444
G1 X38.696 Y21.729 Z0 F444
; --- FIX X Backlash ---
G0 X39.396 Y21.729 F410
G1 X39.464 Y21.487 Z0 F444
G1 X39.528 Y21.382 Z0 F444
G1 X39.614 Y21.293 Z0 F444
G1 X39.72 Y21.224 Z0 F444
G1 X39.849 Y21.177 Z0 F444
G1 X40.059 Y21.121 Z0 F444
G1 X40.27 Y21.129 Z0 F444
; --- FIX Y Backlash ---
G0 X40.27 Y21.629 F410
G1 X40.47 Y21.692 Z0 F444
G1 X40.647 Y21.802 Z0 F444
G1 X40.791 Y21.95 Z0 F444
G1 X40.89 Y22.129 Z0 F444
G1 X40.931 Y22.331 Z0 F444
G0 Z3.5 F444
G0 X41.248 Y24.253 Z3.5
G1 Z0 F444
; --- FIX Y Backlash ---
G0 X41.248 Y23.753 F410
G1 X41.46 Y23.588 Z0 F444
G1 X41.655 Y23.402 Z0 F444
G1 X41.832 Y23.198 Z0 F444
G1 X41.987 Y22.978 Z0 F444
G1 X42.121 Y22.745 Z0 F444
G1 X42.231 Y22.501 Z0 F444
G1 X42.316 Y22.25 Z0 F444
G1 X42.516 Y22.272 Z0 F444
G1 X42.714 Y22.252 Z0 F444
G1 X42.901 Y22.194 Z0 F444
G1 X43.069 Y22.099 Z0 F444
G1 X43.208 Y21.971 Z0 F444
G1 X43.309 Y21.813 Z0 F444
G1 X43.363 Y21.627 Z0 F444
G1 Y21.417 Z0 F444
G1 X43.317 Y21.123 Z0 F444
; --- FIX X Backlash ---
G0 X42.617 Y21.123 F410
G1 X42.545 Y20.837 Z0 F444
G1 X42.445 Y20.561 Z0 F444
G1 X42.319 Y20.295 Z0 F444
G1 X42.169 Y20.043 Z0 F444
G1 X41.996 Y19.806 Z0 F444
G1 X41.803 Y19.584 Z0 F444
G1 X41.592 Y19.379 Z0 F444
G1 X41.363 Y19.194 Z0 F444
G1 X41.119 Y19.03 Z0 F444
G1 X40.862 Y18.888 Z0 F444
G1 X40.593 Y18.771 Z0 F444
G1 X40.314 Y18.678 Z0 F444
G1 X40.027 Y18.613 Z0 F444
G1 X39.734 Y18.576 Z0 F444
G1 X39.436 Y18.57 Z0 F444
G1 X39.105 Y18.582 Z0 F444
G1 X38.78 Y18.631 Z0 F444
; --- FIX Y Backlash ---
G0 X38.78 Y19.131 F410
G1 X38.465 Y19.215 Z0 F444
G1 X38.16 Y19.331 Z0 F444
G1 X37.868 Y19.477 Z0 F444
G1 X37.592 Y19.65 Z0 F444
G1 X37.333 Y19.85 Z0 F444
G1 X37.094 Y20.073 Z0 F444
G1 X36.878 Y20.317 Z0 F444
G1 X36.686 Y20.581 Z0 F444
G1 X36.521 Y20.861 Z0 F444
G1 X36.384 Y21.157 Z0 F444
G1 X36.279 Y21.465 Z0 F444
G1 X36.208 Y21.783 Z0 F444
G1 X36.172 Y22.11 Z0 F444
G1 X36.175 Y22.443 Z0 F444
; --- FIX X Backlash ---
G0 X36.875 Y22.443 F410
G1 X36.927 Y22.84 Z0 F444
G1 X37.021 Y23.234 Z0 F444
G1 X37.158 Y23.619 Z0 F444
G1 X37.334 Y23.987 Z0 F444
G1 X37.55 Y24.332 Z0 F444
G1 X37.805 Y24.646 Z0 F444
G1 X38.096 Y24.923 Z0 F444
G1 X38.424 Y25.156 Z0 F444
G1 X38.83 Y25.331 Z0 F444
G1 X39.248 Y25.48 Z0 F444
G1 X39.677 Y25.59 Z0 F444
G1 X40.115 Y25.644 Z0 F444
G1 X40.327 Y25.598 Z0 F444
; --- FIX Y Backlash ---
G0 X40.327 Y25.098 F410
G1 X40.51 Y25.001 Z0 F444
G1 X40.665 Y24.864 Z0 F444
G1 X40.791 Y24.696 Z0 F444
G1 X40.89 Y24.505 Z0 F444
G1 X40.96 Y24.302 Z0 F444
G1 X41.003 Y24.095 Z0 F444
G1 X41.02 Y23.894 Z0 F444
G1 X41.248 Y23.753 Z0 F444
G0 Z3.5 F444
G0 X42.757 Y22.892 Z3.5
G1 Z0 F444
G1 X42.843 Y22.883 Z0 F444
G1 X43.157 Y22.784 Z0 F444
G1 X43.448 Y22.62 Z0 F444
G1 X43.703 Y22.385 Z0 F444
G1 X43.897 Y22.08 Z0 F444
G1 X44.003 Y21.715 Z0 F444
G1 X44 Y21.367 Z0 F444
; --- FIX X Backlash ---
G0 X43.3 Y21.367 F410
G1 X43.246 Y20.997 Z0 F444
G1 X43.157 Y20.648 Z0 F444
G1 X43.036 Y20.313 Z0 F444
G1 X42.884 Y19.994 Z0 F444
G1 X42.704 Y19.691 Z0 F444
G1 X42.498 Y19.407 Z0 F444
G1 X42.268 Y19.143 Z0 F444
G1 X42.016 Y18.899 Z0 F444
G1 X41.744 Y18.679 Z0 F444
G1 X41.453 Y18.484 Z0 F444
G1 X41.146 Y18.314 Z0 F444
G1 X40.823 Y18.172 Z0 F444
G1 X40.486 Y18.061 Z0 F444
G1 X40.138 Y17.981 Z0 F444
G1 X39.78 Y17.937 Z0 F444
G1 X39.431 Y17.93 Z0 F444
G1 X39.045 Y17.944 Z0 F444
; --- FIX Y Backlash ---
G0 X39.045 Y18.444 F410
G1 X38.65 Y18.504 Z0 F444
G1 X38.269 Y18.604 Z0 F444
G1 X37.903 Y18.744 Z0 F444
G1 X37.553 Y18.918 Z0 F444
G1 X37.224 Y19.125 Z0 F444
G1 X36.918 Y19.362 Z0 F444
G1 X36.635 Y19.625 Z0 F444
G1 X36.379 Y19.916 Z0 F444
G1 X36.15 Y20.229 Z0 F444
G1 X35.953 Y20.564 Z0 F444
G1 X35.789 Y20.919 Z0 F444
G1 X35.663 Y21.291 Z0 F444
G1 X35.575 Y21.678 Z0 F444
G1 X35.532 Y22.079 Z0 F444
G1 X35.535 Y22.488 Z0 F444
; --- FIX X Backlash ---
G0 X36.235 Y22.488 F410
G1 X36.296 Y22.957 Z0 F444
G1 X36.407 Y23.416 Z0 F444
G1 X36.566 Y23.865 Z0 F444
G1 X36.773 Y24.296 Z0 F444
G1 X37.028 Y24.704 Z0 F444
G1 X37.333 Y25.081 Z0 F444
G1 X37.688 Y25.419 Z0 F444
G1 X38.109 Y25.717 Z0 F444
G1 X38.595 Y25.926 Z0 F444
G1 X39.061 Y26.093 Z0 F444
G1 X39.558 Y26.22 Z0 F444
G1 X40.145 Y26.292 Z0 F444
; --- FIX Y Backlash ---
G0 X40.145 Y25.792 F410
G1 X40.548 Y25.705 Z0 F444
G1 X40.876 Y25.532 Z0 F444
G1 X41.138 Y25.3 Z0 F444
G1 X41.335 Y25.038 Z0 F444
G1 X41.479 Y24.759 Z0 F444
G1 X41.579 Y24.473 Z0 F444
G1 X41.62 Y24.274 Z0 F444
G1 X41.878 Y24.074 Z0 F444
G1 X42.119 Y23.844 Z0 F444
G1 X42.336 Y23.593 Z0 F444
G1 X42.527 Y23.323 Z0 F444
G1 X42.692 Y23.037 Z0 F444
G1 X42.757 Y22.892 Z0 F444
G0 Z3.5 F444
G0 X44.345 Y22.568 Z3.5
G1 Z0 F444
; --- FIX X Backlash ---
G0 X43.645 Y22.568 F410
; --- FIX Y Backlash ---
G0 X43.645 Y23.068 F410
G1 X43.561 Y23.378 Z0 F444
G1 X43.293 Y24.126 Z0 F444
G1 X42.966 Y24.84 Z0 F444
G1 X42.574 Y25.512 Z0 F444
G1 X42.364 Y25.814 Z0 F444
G1 X42.142 Y26.096 Z0 F444
G1 X41.902 Y26.366 Z0 F444
G1 X41.648 Y26.614 Z0 F444
G1 X41.38 Y26.842 Z0 F444
G1 X41.099 Y27.046 Z0 F444
G1 X40.805 Y27.228 Z0 F444
G1 X40.538 Y27.364 Z0 F444
G1 X40.17 Y27.484 Z0 F444
G1 X39.763 Y27.573 Z0 F444
G1 X39.342 Y27.624 Z0 F444
G1 X39.129 Y27.63 Z0 F444
; --- FIX X Backlash ---
G0 X39.829 Y27.63 F410
; --- FIX Y Backlash ---
G0 X39.829 Y27.13 F410
G1 X39.902 Y26.693 Z0 F444
; --- FIX X Backlash ---
G0 X39.202 Y26.693 F410
G1 X39.112 Y26.396 Z0 F444
; --- FIX X Backlash ---
G0 X39.812 Y26.396 F410
G1 X40.175 Y26.441 Z0 F444
G1 X40.769 Y26.311 Z0 F444
G1 X41.243 Y26.063 Z0 F444
G1 X41.61 Y25.736 Z0 F444
G1 X41.878 Y25.379 Z0 F444
G1 X42.068 Y25.013 Z0 F444
G1 X42.197 Y24.645 Z0 F444
G1 Y24.635 Z0 F444
G1 X42.296 Y24.559 Z0 F444
G1 X42.583 Y24.286 Z0 F444
G1 X42.84 Y23.988 Z0 F444
G1 X43.067 Y23.668 Z0 F444
G1 X43.197 Y23.442 Z0 F444
G1 X43.413 Y23.375 Z0 F444
G1 X43.827 Y23.141 Z0 F444
G1 X44.198 Y22.8 Z0 F444
G1 X44.345 Y22.568 Z0 F444
G0 Z3.5 F444
G0 X44.957 Y21.668 Z3.5
G1 Z0 F444
; --- FIX Y Backlash ---
G0 X44.957 Y22.168 F410
G1 X45.222 Y22.239 Z0 F444
; --- FIX X Backlash ---
G0 X44.522 Y22.239 F410
G1 X44.463 Y22.445 Z0 F444
G1 X44.395 Y22.75 Z0 F444
G1 X44.17 Y23.575 Z0 F444
G1 X43.885 Y24.37 Z0 F444
G1 X43.535 Y25.133 Z0 F444
G1 X43.113 Y25.858 Z0 F444
G1 X42.883 Y26.189 Z0 F444
G1 X42.632 Y26.508 Z0 F444
G1 X42.364 Y26.808 Z0 F444
G1 X42.079 Y27.087 Z0 F444
G1 X41.778 Y27.343 Z0 F444
G1 X41.455 Y27.579 Z0 F444
G1 X41.117 Y27.786 Z0 F444
G1 X40.781 Y27.958 Z0 F444
G1 X40.339 Y28.103 Z0 F444
G1 X39.871 Y28.205 Z0 F444
G1 X39.393 Y28.263 Z0 F444
G1 X38.898 Y28.277 Z0 F444
G1 X38.693 Y28.268 Z0 F444
G1 X38.497 Y28.234 Z0 F444
; --- FIX Y Backlash ---
G0 X38.497 Y27.734 F410
G1 X38.304 Y27.677 Z0 F444
G1 X38.125 Y27.598 Z0 F444
G1 X38.104 Y27.584 Z0 F444
; --- FIX X Backlash ---
G0 X38.804 Y27.584 F410
G1 X38.943 Y27.483 Z0 F444
G1 X39.173 Y27.17 Z0 F444
G1 X39.246 Y26.735 Z0 F444
; --- FIX X Backlash ---
G0 X38.546 Y26.735 F410
G1 X38.388 Y26.213 Z0 F444
G1 X37.668 Y25.695 Z0 F444
G1 X37.115 Y25.328 Z0 F444
G1 X36.869 Y25.152 Z0 F444
G1 X36.64 Y24.97 Z0 F444
G1 X36.444 Y24.787 Z0 F444
G1 X36.263 Y24.58 Z0 F444
G1 X35.921 Y24.117 Z0 F444
G1 X35.656 Y23.628 Z0 F444
G1 X35.459 Y23.106 Z0 F444
G1 X35.329 Y22.554 Z0 F444
G1 X35.27 Y21.995 Z0 F444
G1 X35.281 Y21.435 Z0 F444
; --- FIX X Backlash ---
G0 X35.981 Y21.435 F410
G1 X36.063 Y20.877 Z0 F444
G1 X36.217 Y20.34 Z0 F444
G1 X36.332 Y20.08 Z0 F444
G1 X36.483 Y19.798 Z0 F444
G1 X36.648 Y19.535 Z0 F444
G1 X36.838 Y19.277 Z0 F444
G1 X37.041 Y19.038 Z0 F444
G1 X37.263 Y18.811 Z0 F444
G1 X37.498 Y18.602 Z0 F444
G1 X37.751 Y18.407 Z0 F444
G1 X38.005 Y18.24 Z0 F444
G1 X38.286 Y18.083 Z0 F444
G1 X38.562 Y17.956 Z0 F444
G1 X38.852 Y17.85 Z0 F444
G1 X39.146 Y17.768 Z0 F444
G1 X39.45 Y17.71 Z0 F444
G1 X39.748 Y17.68 Z0 F444
G1 X40.081 Y17.677 Z0 F444
G1 X40.443 Y17.68 Z0 F444
G1 X40.776 Y17.714 Z0 F444
; --- FIX Y Backlash ---
G0 X40.776 Y18.214 F410
G1 X41.113 Y18.278 Z0 F444
G1 X41.44 Y18.37 Z0 F444
G1 X41.759 Y18.489 Z0 F444
G1 X42.073 Y18.636 Z0 F444
G1 X42.37 Y18.804 Z0 F444
G1 X42.655 Y18.997 Z0 F444
G1 X42.928 Y19.215 Z0 F444
G1 X43.173 Y19.445 Z0 F444
G1 X43.407 Y19.702 Z0 F444
G1 X43.618 Y19.975 Z0 F444
G1 X43.8 Y20.258 Z0 F444
G1 X43.958 Y20.556 Z0 F444
G1 X44.09 Y20.868 Z0 F444
G1 X44.189 Y21.181 Z0 F444
G1 X44.24 Y21.443 Z0 F444
G1 X44.417 Y21.771 Z0 F444
G1 X44.67 Y22.012 Z0 F444
G1 X44.957 Y22.168 Z0 F444
G0 Z3.5 F444
G0 X45.784 Y22.602 Z3.5
G1 Z0 F444
; --- FIX X Backlash ---
G0 X45.084 Y22.602 F410
G1 X45.015 Y22.91 Z0 F444
G1 X44.782 Y23.765 Z0 F444
G1 X44.479 Y24.61 Z0 F444
G1 X44.104 Y25.429 Z0 F444
G1 X43.653 Y26.204 Z0 F444
G1 X43.398 Y26.57 Z0 F444
G1 X43.122 Y26.92 Z0 F444
G1 X42.827 Y27.251 Z0 F444
G1 X42.51 Y27.561 Z0 F444
G1 X42.173 Y27.848 Z0 F444
G1 X41.813 Y28.109 Z0 F444
G1 X41.432 Y28.344 Z0 F444
G1 X41.029 Y28.55 Z0 F444
G1 X40.508 Y28.721 Z0 F444
G1 X39.977 Y28.837 Z0 F444
G1 X39.439 Y28.901 Z0 F444
G1 X38.894 Y28.917 Z0 F444
G1 X38.624 Y28.905 Z0 F444
G1 X38.351 Y28.858 Z0 F444
; --- FIX Y Backlash ---
G0 X38.351 Y28.358 F410
G1 X38.082 Y28.279 Z0 F444
G1 X37.826 Y28.166 Z0 F444
G1 X37.591 Y28.019 Z0 F444
G1 X37.385 Y27.841 Z0 F444
G1 X37.217 Y27.63 Z0 F444
G1 X37.095 Y27.389 Z0 F444
; --- FIX X Backlash ---
G0 X37.795 Y27.389 F410
G1 X38.063 Y27.254 Z0 F444
G1 X38.364 Y27.113 Z0 F444
G1 X38.486 Y27.024 Z0 F444
G1 X38.567 Y26.914 Z0 F444
G1 X38.59 Y26.777 Z0 F444
; --- FIX X Backlash ---
G0 X37.89 Y26.777 F410
G1 X37.838 Y26.605 Z0 F444
G1 X37.304 Y26.221 Z0 F444
G1 X36.752 Y25.854 Z0 F444
G1 X36.483 Y25.663 Z0 F444
G1 X36.224 Y25.457 Z0 F444
G1 X35.983 Y25.232 Z0 F444
G1 X35.763 Y24.98 Z0 F444
G1 X35.379 Y24.461 Z0 F444
G1 X35.073 Y23.895 Z0 F444
G1 X34.845 Y23.292 Z0 F444
G1 X34.697 Y22.664 Z0 F444
G1 X34.63 Y22.022 Z0 F444
G1 X34.642 Y21.378 Z0 F444
; --- FIX X Backlash ---
G0 X35.342 Y21.378 F410
G1 X35.437 Y20.742 Z0 F444
G1 X35.612 Y20.125 Z0 F444
G1 X35.758 Y19.797 Z0 F444
G1 X35.928 Y19.479 Z0 F444
G1 X36.12 Y19.173 Z0 F444
G1 X36.334 Y18.882 Z0 F444
G1 X36.568 Y18.606 Z0 F444
G1 X36.821 Y18.348 Z0 F444
G1 X37.091 Y18.107 Z0 F444
G1 X37.377 Y17.887 Z0 F444
G1 X37.678 Y17.689 Z0 F444
G1 X37.992 Y17.514 Z0 F444
G1 X38.318 Y17.364 Z0 F444
G1 X38.655 Y17.24 Z0 F444
G1 X39.001 Y17.144 Z0 F444
G1 X39.355 Y17.076 Z0 F444
G1 X39.716 Y17.04 Z0 F444
G1 X40.082 Y17.037 Z0 F444
G1 X40.478 Y17.041 Z0 F444
G1 X40.871 Y17.081 Z0 F444
; --- FIX Y Backlash ---
G0 X40.871 Y17.581 F410
G1 X41.258 Y17.654 Z0 F444
G1 X41.638 Y17.761 Z0 F444
G1 X42.007 Y17.898 Z0 F444
G1 X42.365 Y18.066 Z0 F444
G1 X42.708 Y18.261 Z0 F444
G1 X43.036 Y18.482 Z0 F444
G1 X43.345 Y18.729 Z0 F444
G1 X43.633 Y18.999 Z0 F444
G1 X43.898 Y19.291 Z0 F444
G1 X44.139 Y19.603 Z0 F444
G1 X44.353 Y19.934 Z0 F444
G1 X44.538 Y20.282 Z0 F444
G1 X44.691 Y20.646 Z0 F444
G1 X44.811 Y21.024 Z0 F444
G1 X44.85 Y21.226 Z0 F444
G1 X44.933 Y21.378 Z0 F444
G1 X45.05 Y21.491 Z0 F444
G1 X45.196 Y21.57 Z0 F444
G1 X45.538 Y21.661 Z0 F444
G1 X45.897 Y21.715 Z0 F444
G1 X45.93 Y21.838 Z0 F444
G1 Y21.976 Z0 F444
G1 X45.912 Y22.125 Z0 F444
G1 X45.875 Y22.281 Z0 F444
; --- FIX X Backlash ---
G0 X45.175 Y22.281 F410
G1 X45.084 Y22.602 Z0 F444
G0 Z3.5 F444
G0 X41.133 Y30.782 Z3.5
G1 Z0 F444
G1 X40.86 Y31.148 Z0 F444
; --- FIX Y Backlash ---
G0 X40.86 Y30.648 F410
G1 X40.73 Y30.594 Z0 F444
G1 X40.361 Y30.371 Z0 F444
; --- FIX X Backlash ---
G0 X41.061 Y30.371 F410
G1 X41.572 Y30.242 Z0 F444
G1 X41.979 Y30.094 Z0 F444
; --- FIX X Backlash ---
G0 X41.279 Y30.094 F410
; --- FIX Y Backlash ---
G0 X41.279 Y30.594 F410
G1 X41.133 Y30.782 Z0 F444
G0 Z3.5 F444
; --- FIX X Backlash ---
G0 X41.833 Y30.782 F410
; --- FIX Y Backlash ---
G0 X41.833 Y30.282 F410
G0 X44.046 Y28.963 Z3.5
G1 Z0 F444
G1 X44.443 Y28.654 Z0 F444
G1 X45.04 Y28.077 Z0 F444
G1 X45.553 Y27.458 Z0 F444
G1 X45.813 Y27.133 Z0 F444
G1 X46.07 Y26.786 Z0 F444
G1 X46.315 Y26.403 Z0 F444
G1 X46.351 Y26.332 Z0 F444
G1 X47.056 Y26.263 Z0 F444
; --- FIX X Backlash ---
G0 X46.356 Y26.263 F410
; --- FIX Y Backlash ---
G0 X46.356 Y26.763 F410
G1 X46.204 Y26.933 Z0 F444
G1 X45.04 Y28.367 Z0 F444
G1 X44.483 Y29.115 Z0 F444
G1 X43.951 Y29.878 Z0 F444
G1 X43.819 Y30.082 Z0 F444
; --- FIX Y Backlash ---
G0 X43.819 Y29.582 F410
G1 X43.584 Y29.135 Z0 F444
G1 X43.346 Y28.963 Z0 F444
G0 Z3.5 F444
G0 X42.724 Y28.636 Z3.5
G1 Z0 F444
; --- FIX X Backlash ---
G0 X43.424 Y28.636 F410
G1 X44.023 Y28.17 Z0 F444
G1 X44.569 Y27.642 Z0 F444
G1 X45.056 Y27.054 Z0 F444
G1 X45.305 Y26.743 Z0 F444
G1 X45.543 Y26.422 Z0 F444
G1 X45.758 Y26.086 Z0 F444
G1 X45.938 Y25.729 Z0 F444
G1 X47.285 Y25.597 Z0 F444
G1 X48.602 Y25.49 Z0 F444
; --- FIX X Backlash ---
G0 X47.902 Y25.49 F410
; --- FIX Y Backlash ---
G0 X47.902 Y25.99 F410
G1 X46.692 Y27.348 Z0 F444
G1 X45.546 Y28.76 Z0 F444
G1 X45.002 Y29.489 Z0 F444
G1 X44.482 Y30.235 Z0 F444
G1 X43.988 Y30.998 Z0 F444
G1 X43.523 Y31.779 Z0 F444
G1 X43.231 Y31.803 Z0 F444
G1 X42.882 Y31.874 Z0 F444
G1 X42.723 Y31.898 Z0 F444
G1 X42.594 Z0 F444
G1 X42.51 Y31.864 Z0 F444
; --- FIX Y Backlash ---
G0 X42.51 Y31.364 F410
G1 X42.487 Y31.282 Z0 F444
; --- FIX X Backlash ---
G0 X43.187 Y31.282 F410
G1 X43.36 Y30.893 Z0 F444
G1 X43.563 Y30.515 Z0 F444
G1 X43.749 Y30.131 Z0 F444
G1 X43.873 Y29.728 Z0 F444
; --- FIX X Backlash ---
G0 X43.173 Y29.728 F410
G1 X43.088 Y29.566 Z0 F444
G1 X42.974 Y29.484 Z0 F444
G1 X42.841 Y29.468 Z0 F444
G1 X42.698 Y29.506 Z0 F444
; --- FIX Y Backlash ---
G0 X42.698 Y30.006 F410
G1 X42.423 Y30.188 Z0 F444
G1 X42.22 Y30.422 Z0 F444
G1 X41.643 Y31.169 Z0 F444
G1 X41.078 Y31.925 Z0 F444
G1 X41 Y31.897 Z0 F444
; --- FIX Y Backlash ---
G0 X41 Y31.397 F410
G1 X40.441 Y31.167 Z0 F444
G1 X39.923 Y30.854 Z0 F444
G1 X39.694 Y30.661 Z0 F444
G1 X39.492 Y30.443 Z0 F444
G1 X39.323 Y30.197 Z0 F444
G1 X39.193 Y29.922 Z0 F444
; --- FIX X Backlash ---
G0 X39.893 Y29.922 F410
G1 X40.646 Y29.815 Z0 F444
G1 X41.384 Y29.629 Z0 F444
G1 X42.097 Y29.369 Z0 F444
G1 X42.78 Y29.037 Z0 F444
G1 X43.424 Y28.636 Z0 F444
G0 Z3.5 F444
; --- FIX X Backlash ---
G0 X42.724 Y28.636 F410
; --- FIX Y Backlash ---
G0 X42.724 Y29.136 F410
G0 X41.694 Y33.229 Z3.5
G1 Z0 F444
G1 X41.661 Y33.359 Z0 F444
G1 Y33.499 Z0 F444
G1 X41.676 Y33.634 Z0 F444
; --- FIX X Backlash ---
G0 X42.376 Y33.634 F410
G1 X42.483 Y34.338 Z0 F444
G1 X42.566 Y35.039 Z0 F444
G1 X42.621 Y36.179 Z0 F444
G1 X42.645 Y36.277 Z0 F444
G1 X42.695 Y36.365 Z0 F444
; --- FIX X Backlash ---
G0 X41.995 Y36.365 F410
G1 X41.736 Y36.397 Z0 F444
G1 X41.473 Y36.424 Z0 F444
; --- FIX X Backlash ---
G0 X42.173 Y36.424 F410
; --- FIX Y Backlash ---
G0 X42.173 Y35.924 F410
G1 X42.287 Y35.775 Z0 F444
G1 X42.371 Y35.607 Z0 F444
G1 X42.434 Y35.428 Z0 F444
G1 X42.482 Y35.246 Z0 F444
G1 X42.506 Y34.98 Z0 F444
G1 X42.493 Y34.713 Z0 F444
; --- FIX X Backlash ---
G0 X41.793 Y34.713 F410
G1 X41.727 Y34.182 Z0 F444
G1 X41.69 Y33.926 Z0 F444
G1 X41.639 Y33.671 Z0 F444
G1 X41.56 Y33.426 Z0 F444
G1 X41.437 Y33.199 Z0 F444
G1 X41.343 Y33.063 Z0 F444
G1 X41.239 Y32.934 Z0 F444
G1 X41.118 Y32.825 Z0 F444
G1 X40.972 Y32.75 Z0 F444
; --- FIX X Backlash ---
G0 X41.672 Y32.75 F410
G1 X42.074 Y32.68 Z0 F444
G1 X42.477 Y32.62 Z0 F444
; --- FIX X Backlash ---
G0 X41.777 Y32.62 F410
