
G0 Z10 F500;      ; Move to clearance level
; G0 X-10 Y-10 F1200; Homing
; G0 X-5 Y-5 F1200; go in
; G10 P0 L20 X0 Y0; set to zero
G1 F1200;           ; Set feed rate
;LightBurn 1.6.04
;Custom GCode device profile, absolute coords
;Bounds: X13.09 Y35.73 to X134.91 Y98.27
G00 G17 G40 G21 G54
G90
M3
G1 Z10 F500

; Color picking sequence
G1 Z10 F1000;         ; Raise brush
G0 X41 Y5 F1200;    ; Rapid move to color 1
G1 Z10 F1000;         ; Raise brush
G0 X41 Y5 F1200;    ; Rapid move to color 1
G1 Z0 F1000;         ; Lower into color
G1 X40.102 Y7.295 Z0 S800 F1200
G1 X40.026 Y7.642 Z0 F1200
G1 X40 Y8 Z0 F1200
G1 X40.026 Y8.358 Z0 F1200
G1 X40.102 Y8.705 Z0 F1200
G1 X40.225 Y9.041 Z0 F1200
G1 X40.393 Y9.362 Z0 F1200
G1 X40.603 Y9.668 Z0 F1200
G1 X40.854 Y9.957 Z0 F1200
G1 X41.142 Y10.226 Z0 F1200
G1 X41.464 Y10.475 Z0 F1200
G1 X41.82 Y10.701 Z0 F1200
G1 X42.204 Y10.902 Z0 F1200
G1 X42.617 Y11.078 Z0 F1200
G1 X43.054 Y11.225 Z0 F1200
G1 X43.513 Y11.343 Z0 F1200
G1 X43.992 Y11.429 Z0 F1200
G1 X44.489 Y11.482 Z0 F1200
G1 X45 Y11.5 Z0 F1200
G1 X45.511 Y11.482 Z0 F1200
G1 X46.008 Y11.429 Z0 F1200
G1 X46.487 Y11.343 Z0 F1200
G1 X46.946 Y11.225 Z0 F1200
G1 X47.383 Y11.078 Z0 F1200
G1 X47.796 Y10.902 Z0 F1200
G1 X48.18 Y10.701 Z0 F1200
G1 X48.536 Y10.475 Z0 F1200
G1 X48.858 Y10.226 Z0 F1200
G1 X49.146 Y9.957 Z0 F1200
G1 X49.397 Y9.668 Z0 F1200
G1 X49.607 Y9.362 Z0 F1200
G1 X49.775 Y9.041 Z0 F1200
G1 X49.898 Y8.705 Z0 F1200
G1 X49.974 Y8.358 Z0 F1200
G1 X50 Y8 Z0 F1200
G1 X49.974 Y7.642 Z0 F1200
G1 X49.898 Y7.295 Z0 F1200
G1 X49.775 Y6.959 Z0 F1200
G1 X49.607 Y6.638 Z0 F1200
G1 X49.397 Y6.332 Z0 F1200
G1 X49.146 Y6.043 Z0 F1200
G1 X48.858 Y5.774 Z0 F1200
G1 X48.536 Y5.525 Z0 F1200
G1 X48.18 Y5.299 Z0 F1200
G1 X47.796 Y5.098 Z0 F1200
G1 X47.383 Y4.922 Z0 F1200
G1 X46.946 Y4.775 Z0 F1200
G1 X46.487 Y4.657 Z0 F1200
G1 X46.008 Y4.571 Z0 F1200
G1 X45.511 Y4.518 Z0 F1200
G1 X45 Y4.5 Z0 F1200
G1 X44.489 Y4.518 Z0 F1200
G1 X43.992 Y4.571 Z0 F1200
G1 X43.513 Y4.657 Z0 F1200
G1 X43.054 Y4.775 Z0 F1200
G1 X42.617 Y4.922 Z0 F1200
G1 X42.204 Y5.098 Z0 F1200
G1 X41.82 Y5.299 Z0 F1200
G1 X41.464 Y5.525 Z0 F1200
G1 X41.142 Y5.774 Z0 F1200
G1 X40.854 Y6.043 Z0 F1200
G1 X40.603 Y6.332 Z0 F1200
G1 X40.393 Y6.638 Z0 F1200
G1 X40.225 Y6.959 Z0 F1200
G1 Z7 F800;         ; Raise from color
G1 X34 Y8 Z1 F1200;     ; Movement in paint
G1 X24 Y18 Z8 F500;     ; Move in paint
G1 F1200;           ; Set feed rate
G0 Z2.5 F1000 ; Safety Lift
;Cut @ 1300 mm/min, 90% power

M8
G0 Z3.5 F500
G0 X26.177 Y36.793 Z3.5
G1 Z0 F500
;Layer C1
; --- FIX X Backlash ---
G0 X24.877 Y36.793 F1200
G1 X23.109 Y37.854 Z0 S900 F1300
G0 Z3.5 F500
; --- FIX X Backlash ---
G0 X24.409 Y37.854 F1200
G0 X25.824 Y39.622 Z3.5 F1300
G1 Z0 F500
; --- FIX X Backlash ---
G0 X24.524 Y39.622 F1200
G1 X22.756 Y40.859 Z0 F1300
G0 Z3.5 F500
G0 X22.049 Y43.334 Z3.5
G1 Z0 F500
G1 X21.872 Z0 F1300
G0 Z3.5 F500
G0 X19.573 Y43.511 Z3.5
G1 Z0 F500
G1 Y43.688 Z0 F1300
G0 Z3.5 F500
G0 X18.159 Y45.633 Z3.5
G1 Z0 F500
G1 X17.275 Y45.986 Z0 F1300
G0 Z3.5 F500
G0 X15.154 Y47.4 Z3.5
G1 Z0 F500
G1 X14.977 Y47.577 Z0 F1300
G0 Z3.5 F500
G0 X13.916 Y48.992 Z3.5
G1 Z0 F500
G1 X11.795 Y50.583 Z0 F1300
; --- FIX X Backlash ---
G0 X13.095 Y50.583 F1200
G1 X13.519 Y50.671 Z0 F1300
G1 X13.912 Y50.678 Z0 F1300
G1 X14.285 Y50.635 Z0 F1300
; --- FIX Y Backlash ---
G0 X14.285 Y49.335 F1200
G1 X14.65 Y49.273 Z0 F1300
G1 X15.019 Y49.223 Z0 F1300
G1 X15.405 Y49.217 Z0 F1300
G1 X15.609 Y49.24 Z0 F1300
G1 X15.82 Y49.285 Z0 F1300
; --- FIX Y Backlash ---
G0 X15.82 Y50.585 F1200
G1 X16.043 Y50.657 Z0 F1300
G1 X16.277 Y50.76 Z0 F1300
G0 Z3.5 F500
; --- FIX X Backlash ---
G0 X14.977 Y50.76 F1200
G0 X14.446 Y51.29 Z3.5
G1 Z0 F500
; --- FIX X Backlash ---
G0 X15.746 Y51.29 F1200
; --- FIX Y Backlash ---
G0 X15.746 Y49.99 F1200
G1 X16.262 Y49.478 Z0 F1300
G1 X16.757 Y49.063 Z0 F1300
G1 X17.025 Y48.91 Z0 F1300
G1 X17.322 Y48.802 Z0 F1300
G1 X17.658 Y48.747 Z0 F1300
G1 X18.045 Y48.752 Z0 F1300
G0 Z3.5 F500
G0 X19.106 Y48.222 Z3.5
G1 Z0 F500
; --- FIX X Backlash ---
G0 X17.806 Y48.222 F1200
G1 X14.8 Y47.868 Z0 F1300
G0 Z3.5 F500
; --- FIX X Backlash ---
G0 X16.1 Y47.868 F1200
; --- FIX Y Backlash ---
G0 X16.1 Y49.168 F1200
G0 X17.691 Y50.936 Z3.5
G1 Z0 F500
G1 X18.575 Y51.113 Z0 F1300
G0 Z3.5 F500
G0 X18.929 Y51.467 Z3.5
G1 Z0 F500
; --- FIX X Backlash ---
G0 X17.629 Y51.467 F1200
G1 X17.452 Y51.644 Z0 F1300
G0 Z3.5 F500
G0 X16.214 Y52.174 Z3.5
G1 Z0 F500
G1 X16.038 Z0 F1300
G0 Z3.5 F500
; --- FIX X Backlash ---
G0 X17.338 Y52.174 F1200
G0 X17.868 Y52.704 Z3.5
G1 Z0 F500
; --- FIX X Backlash ---
G0 X16.568 Y52.704 F1200
G1 X16.214 Y52.881 Z0 F1300
G0 Z3.5 F500
; --- FIX X Backlash ---
G0 X17.514 Y52.881 F1200
G0 X18.045 Y53.411 Z3.5
G1 Z0 F500
; --- FIX X Backlash ---
G0 X16.745 Y53.411 F1200
G1 X16.038 Y54.119 Z0 F1300
G0 Z3.5 F500
; --- FIX X Backlash ---
G0 X17.338 Y54.119 F1200
G0 X17.514 Y54.649 Z3.5
G1 Z0 F500
; --- FIX X Backlash ---
G0 X16.214 Y54.649 F1200
G1 X15.154 Y55.533 Z0 F1300
G0 Z3.5 F500
G0 X14.8 Y56.063 Z3.5
G1 Z0 F500
; --- FIX X Backlash ---
G0 X16.1 Y56.063 F1200
; --- FIX Y Backlash ---
G0 X16.1 Y54.763 F1200
G1 X16.454 Y54.233 Z0 F1300
; --- FIX X Backlash ---
G0 X15.154 Y54.233 F1200
; --- FIX Y Backlash ---
G0 X15.154 Y55.533 F1200
G1 X14.093 Y56.417 Z0 F1300
G0 Z3.5 F500
G0 X13.562 Y56.947 Z3.5
G1 Z0 F500
G1 X13.386 Z0 F1300
G0 Z3.5 F500
; --- FIX X Backlash ---
G0 X14.686 Y56.947 F1200
G0 X14.862 Y57.831 Z3.5
G1 Z0 F500
; --- FIX X Backlash ---
G0 X13.562 Y57.831 F1200
G1 X13.386 Y58.008 Z0 F1300
G0 Z3.5 F500
; --- FIX X Backlash ---
G0 X14.686 Y58.008 F1200
G0 X15.393 Z3.5
G1 Z0 F500
G1 X15.923 Z0 F1300
G0 Z3.5 F500
; --- FIX Y Backlash ---
G0 X15.923 Y56.708 F1200
G0 X16.277 Y56.178 Z3.5
G1 Z0 F500
G1 Y56.001 Z0 F1300
G0 Z3.5 F500
; --- FIX Y Backlash ---
G0 X16.277 Y57.301 F1200
G0 X17.691 Y57.831 Z3.5
G1 Z0 F500
; --- FIX Y Backlash ---
G0 X17.691 Y56.531 F1200
G1 X17.868 Y56.355 Z0 F1300
G0 Z3.5 F500
; --- FIX Y Backlash ---
G0 X17.868 Y57.655 F1200
G0 X18.575 Y58.008 Z3.5
G1 Z0 F500
G1 X18.752 Z0 F1300
G0 Z3.5 F500
G0 X19.282 Y58.892 Z3.5
G1 Z0 F500
; --- FIX X Backlash ---
G0 X17.982 Y58.892 F1200
G1 X17.629 Y59.422 Z0 F1300
G0 Z3.5 F500
; --- FIX X Backlash ---
G0 X18.929 Y59.422 F1200
G0 X19.99 Y59.953 Z3.5
G1 Z0 F500
; --- FIX Y Backlash ---
G0 X19.99 Y58.653 F1200
G1 X20.09 Y58.322 Z0 F1300
G1 X20.216 Y58.04 Z0 F1300
G1 X20.362 Y57.795 Z0 F1300
G1 X20.525 Y57.576 Z0 F1300
G1 X20.876 Y57.165 Z0 F1300
G1 X21.227 Y56.708 Z0 F1300
G0 Z3.5 F500
; --- FIX X Backlash ---
G0 X19.927 Y56.708 F1200
G0 X19.043 Y55.824 Z3.5
G1 Z0 F500
G1 X18.866 Z0 F1300
G0 Z3.5 F500
G0 X17.629 Y54.41 Z3.5
G1 Z0 F500
G1 X17.452 Z0 F1300
G0 Z3.5 F500
G0 X17.098 Y54.233 Z3.5
G1 Z0 F500
; --- FIX Y Backlash ---
G0 X17.098 Y55.533 F1200
G1 X16.568 Y56.063 Z0 F1300
G0 Z3.5 F500
; --- FIX Y Backlash ---
G0 X16.568 Y54.763 F1200
G0 X14.446 Y52.995 Z3.5
G1 Z0 F500
; --- FIX X Backlash ---
G0 X15.746 Y52.995 F1200
G1 X16.1 Y52.819 Z0 F1300
G0 Z3.5 F500
; --- FIX X Backlash ---
G0 X14.8 Y52.819 F1200
; --- FIX Y Backlash ---
G0 X14.8 Y54.119 F1200
G0 X13.739 Y54.472 Z3.5
G1 Z0 F500
G1 X13.562 Z0 F1300
G0 Z3.5 F500
G0 X12.148 Y54.649 Z3.5
G1 Z0 F500
G1 X11.971 Z0 F1300
G0 Z3.5 F500
; --- FIX Y Backlash ---
G0 X11.971 Y53.349 F1200
G0 X11.795 Y52.642 Z3.5
G1 Z0 F500
; --- FIX X Backlash ---
G0 X13.095 Y52.642 F1200
G1 X13.625 Y52.111 Z0 F1300
G0 Z3.5 F500
G0 X15.039 Y51.581 Z3.5
G1 Z0 F500
; --- FIX X Backlash ---
G0 X13.739 Y51.581 F1200
G1 X13.032 Y50.52 Z0 F1300
G0 Z3.5 F500
; --- FIX X Backlash ---
G0 X14.332 Y50.52 F1200
; --- FIX Y Backlash ---
G0 X14.332 Y51.82 F1200
G0 X18.929 Y52.704 Z3.5
G1 Z0 F500
G1 X19.989 Y53.235 Z0 F1300
G0 Z3.5 F500
G0 X20.697 Y53.588 Z3.5
G1 Z0 F500
; --- FIX Y Backlash ---
G0 X20.697 Y52.288 F1200
G1 X21.05 Y49.813 Z0 F1300
; --- FIX X Backlash ---
G0 X19.75 Y49.813 F1200
; --- FIX Y Backlash ---
G0 X19.75 Y51.113 F1200
G1 X19.22 Y51.29 Z0 F1300
G0 Z3.5 F500
; --- FIX X Backlash ---
G0 X20.52 Y51.29 F1200
; --- FIX Y Backlash ---
G0 X20.52 Y49.99 F1200
G0 X21.227 Y49.813 Z3.5
G1 Z0 F500
G1 X21.359 Y49.536 Z0 F1300
G1 X21.46 Y49.286 Z0 F1300
G1 X21.537 Y49.061 Z0 F1300
G1 X21.592 Y48.856 Z0 F1300
G1 X21.659 Y48.498 Z0 F1300
G1 X21.697 Y48.186 Z0 F1300
G1 X21.741 Y47.896 Z0 F1300
G1 X21.83 Y47.604 Z0 F1300
G1 X21.901 Y47.448 Z0 F1300
G1 X21.997 Y47.283 Z0 F1300
G1 X22.122 Y47.104 Z0 F1300
G1 X22.281 Y46.909 Z0 F1300
G1 X22.398 Y46.793 Z0 F1300
G1 X22.515 Y46.715 Z0 F1300
G1 X22.629 Y46.675 Z0 F1300
G1 X22.736 Z0 F1300
G1 X22.835 Y46.709 Z0 F1300
; --- FIX Y Backlash ---
G0 X22.835 Y48.009 F1200
G1 X22.921 Y48.082 Z0 F1300
G1 X22.993 Y48.192 Z0 F1300
G1 X23.046 Y48.339 Z0 F1300
G1 X23.131 Y48.79 Z0 F1300
G1 X23.157 Y49.182 Z0 F1300
G1 Y49.492 Z0 F1300
G1 X23.162 Y49.609 Z0 F1300
G1 X23.172 Y49.699 Z0 F1300
; --- FIX Y Backlash ---
G0 X23.172 Y48.399 F1200
G1 X23.49 Y47.829 Z0 F1300
G1 X23.791 Y47.24 Z0 F1300
G1 X23.967 Y46.905 Z0 F1300
G1 X24.18 Y46.523 Z0 F1300
G1 X24.44 Y46.083 Z0 F1300
G1 X24.763 Y45.57 Z0 F1300
G0 Z3.5 F500
; --- FIX X Backlash ---
G0 X23.463 Y45.57 F1200
G0 X22.579 Y45.393 Z3.5
G1 Z0 F500
G1 X21.695 Z0 F1300
G0 Z3.5 F500
G0 X20.988 Y44.686 Z3.5
G1 Z0 F500
; --- FIX Y Backlash ---
G0 X20.988 Y45.986 F1200
G1 X19.397 Y46.693 Z0 F1300
G1 Y47.047 Z0 F1300
; --- FIX X Backlash ---
G0 X20.697 Y47.047 F1200
G1 X20.993 Y47.159 Z0 F1300
G1 X21.241 Y47.256 Z0 F1300
G1 X21.452 Y47.341 Z0 F1300
G1 X21.636 Y47.419 Z0 F1300
G1 X21.958 Y47.573 Z0 F1300
G1 X22.288 Y47.754 Z0 F1300
G0 Z3.5 F500
; --- FIX X Backlash ---
G0 X20.988 Y47.754 F1200
G0 X20.634 Y48.638 Z3.5
G1 Z0 F500
G1 X20.009 Y49.013 Z0 F1300
G1 X19.43 Y49.441 Z0 F1300
G1 X18.79 Y49.954 Z0 F1300
G1 X18.414 Y50.252 Z0 F1300
G1 X17.982 Y50.583 Z0 F1300
G0 Z3.5 F500
; --- FIX X Backlash ---
G0 X19.282 Y50.583 F1200
G0 X20.343 Y51.997 Z3.5
G1 Z0 F500
; --- FIX X Backlash ---
G0 X19.043 Y51.997 F1200
G1 X18.866 Y52.528 Z0 F1300
G0 Z3.5 F500
; --- FIX X Backlash ---
G0 X20.166 Y52.528 F1200
G0 X22.818 Y53.235 Z3.5
G1 Z0 F500
G1 Y53.411 Z0 F1300
G0 Z3.5 F500
G0 X22.995 Y54.295 Z3.5
G1 Z0 F500
; --- FIX X Backlash ---
G0 X21.695 Y54.295 F1200
G1 X20.988 Z0 F1300
G0 Z3.5 F500
G0 X20.104 Y54.472 Z3.5
G1 Z0 F500
; --- FIX X Backlash ---
G0 X21.404 Y54.472 F1200
G1 X21.581 Y55.533 Z0 F1300
G0 Z3.5 F500
; --- FIX Y Backlash ---
G0 X21.581 Y54.233 F1200
G0 X22.995 Y53.703 Z3.5
G1 Z0 F500
G1 X23.18 Y53.647 Z0 F1300
G1 X23.331 Y53.599 Z0 F1300
G1 X23.456 Y53.553 Z0 F1300
G1 X23.567 Y53.504 Z0 F1300
G1 X23.782 Y53.376 Z0 F1300
G1 X24.056 Y53.172 Z0 F1300
G0 Z3.5 F500
; --- FIX Y Backlash ---
G0 X24.056 Y54.472 F1200
G0 X24.763 Y54.826 Z3.5
G1 Z0 F500
; --- FIX Y Backlash ---
G0 X24.763 Y53.526 F1200
G1 X24.94 Y53.349 Z0 F1300
G0 Z3.5 F500
; --- FIX Y Backlash ---
G0 X24.94 Y54.649 F1200
G0 X25.647 Y55.356 Z3.5
G1 Z0 F500
G1 X26.354 Z0 F1300
G0 Z3.5 F500
G0 Y56.24 Z3.5
G1 Z0 F500
G1 X26.884 Z0 F1300
G0 Z3.5 F500
; --- FIX X Backlash ---
G0 X25.584 Y56.24 F1200
G0 X24.877 Y56.594 Z3.5
G1 Z0 F500
; --- FIX Y Backlash ---
G0 X24.877 Y55.294 F1200
G1 X24.833 Y55.177 Z0 F1300
G1 X24.755 Y55.117 Z0 F1300
G1 X24.651 Y55.11 Z0 F1300
G1 X24.528 Y55.156 Z0 F1300
; --- FIX Y Backlash ---
G0 X24.528 Y56.456 F1200
G1 X24.393 Y56.553 Z0 F1300
G1 X24.254 Y56.697 Z0 F1300
G1 X24.118 Y56.888 Z0 F1300
G1 X23.993 Y57.124 Z0 F1300
G0 Z3.5 F500
; --- FIX Y Backlash ---
G0 X23.993 Y55.824 F1200
G0 X22.579 Y55.471 Z3.5
G1 Z0 F500
; --- FIX Y Backlash ---
G0 X22.579 Y56.771 F1200
G1 X21.165 Y59.422 Z0 F1300
G0 Z3.5 F500
; --- FIX X Backlash ---
G0 X22.465 Y59.422 F1200
G0 X23.172 Y59.776 Z3.5
G1 Z0 F500
G1 X23.349 Z0 F1300
G0 Z3.5 F500
G0 X24.056 Y60.13 Z3.5
G1 Z0 F500
G1 Y60.306 Z0 F1300
G0 Z3.5 F500
; --- FIX Y Backlash ---
G0 X24.056 Y59.006 F1200
G0 X25.47 Y58.83 Z3.5
G1 Z0 F500
G1 X25.647 Z0 F1300
G0 Z3.5 F500
G0 Y57.946 Z3.5
G1 Z0 F500
; --- FIX X Backlash ---
G0 X24.347 Y57.946 F1200
G1 X24.17 Z0 F1300
G0 Z3.5 F500
; --- FIX X Backlash ---
G0 X25.47 Y57.946 F1200
; --- FIX Y Backlash ---
G0 X25.47 Y59.246 F1200
G0 X27.061 Y59.422 Z3.5
G1 Z0 F500
; --- FIX Y Backlash ---
G0 X27.061 Y58.122 F1200
G1 X27.238 Y57.946 Z0 F1300
G0 Z3.5 F500
; --- FIX Y Backlash ---
G0 X27.238 Y59.246 F1200
G0 X27.945 Y59.599 Z3.5
G1 Z0 F500
G1 X28.476 Z0 F1300
G0 Z3.5 F500
; --- FIX X Backlash ---
G0 X27.176 Y59.599 F1200
G0 X26.468 Y61.19 Z3.5
G1 Z0 F500
G1 Y61.367 Z0 F1300
G0 Z3.5 F500
G0 X25.761 Y61.721 Z3.5
G1 Z0 F500
G1 X25.408 Y61.898 Z0 F1300
G0 Z3.5 F500
G0 X24.7 Y62.251 Z3.5
G1 Z0 F500
G1 X24.524 Z0 F1300
G0 Z3.5 F500
G0 X23.993 Y62.782 Z3.5
G1 Z0 F500
; --- FIX Y Backlash ---
G0 X23.993 Y61.482 F1200
G1 X23.736 Y61.43 Z0 F1300
G1 X23.513 Y61.456 Z0 F1300
; --- FIX Y Backlash ---
G0 X23.513 Y62.756 F1200
G1 X23.318 Y62.847 Z0 F1300
G1 X23.147 Y62.991 Z0 F1300
G1 X22.851 Y63.386 Z0 F1300
G1 X22.579 Y63.842 Z0 F1300
G0 Z3.5 F500
G0 X21.872 Z3.5
G1 Z0 F500
G1 Y64.019 Z0 F1300
G0 Z3.5 F500
; --- FIX Y Backlash ---
G0 X21.872 Y62.719 F1200
G0 X21.165 Y62.366 Z3.5
G1 Z0 F500
G1 Y62.189 Z0 F1300
G0 Z3.5 F500
G0 X20.457 Y62.012 Z3.5
G1 Z0 F500
; --- FIX Y Backlash ---
G0 X20.457 Y63.312 F1200
G1 X20.104 Y63.489 Z0 F1300
G0 Z3.5 F500
G0 X19.22 Z3.5
G1 Z0 F500
; --- FIX Y Backlash ---
G0 X19.22 Y62.189 F1200
G1 Y62.012 Z0 F1300
G0 Z3.5 F500
; --- FIX X Backlash ---
G0 X20.52 Y62.012 F1200
G0 X20.873 Y61.305 Z3.5
G1 Z0 F500
G1 X21.227 Y61.128 Z0 F1300
G0 Z3.5 F500
G0 X21.404 Y60.421 Z3.5
G1 Z0 F500
G1 X22.111 Y59.89 Z0 F1300
G0 Z3.5 F500
G0 Y59.183 Z3.5
G1 Z0 F500
G1 Y59.006 Z0 F1300
G0 Z3.5 F500
; --- FIX X Backlash ---
G0 X20.811 Y59.006 F1200
; --- FIX Y Backlash ---
G0 X20.811 Y60.306 F1200
G0 X19.573 Y60.483 Z3.5
G1 Z0 F500
; --- FIX Y Backlash ---
G0 X19.573 Y59.183 F1200
G1 Y58.476 Z0 F1300
G0 Z3.5 F500
; --- FIX Y Backlash ---
G0 X19.573 Y59.776 F1200
G0 X18.689 Y61.014 Z3.5
G1 Z0 F500
G1 X17.098 Y61.898 Z0 F1300
G0 Z3.5 F500
; --- FIX Y Backlash ---
G0 X17.098 Y60.598 F1200
G0 X16.038 Y60.067 Z3.5
G1 Z0 F500
G1 Y59.89 Z0 F1300
G0 Z3.5 F500
; --- FIX Y Backlash ---
G0 X16.038 Y61.19 F1200
G0 X15.33 Y61.367 Z3.5
G1 Z0 F500
G1 X15.154 Y61.544 Z0 F1300
G0 Z3.5 F500
G0 X14.27 Z3.5
G1 Z0 F500
G1 X13.562 Y62.605 Z0 F1300
G0 Z3.5 F500
G0 X13.032 Y63.312 Z3.5
G1 Z0 F500
G1 X11.971 Y64.019 Z0 F1300
G0 Z3.5 F500
; --- FIX X Backlash ---
G0 X13.271 Y64.019 F1200
; --- FIX Y Backlash ---
G0 X13.271 Y62.719 F1200
G0 X15.216 Y62.542 Z3.5
G1 Z0 F500
G1 X16.1 Y61.482 Z0 F1300
G0 Z3.5 F500
; --- FIX Y Backlash ---
G0 X16.1 Y62.782 F1200
G0 X17.691 Y63.489 Z3.5
G1 Z0 F500
; --- FIX X Backlash ---
G0 X16.391 Y63.489 F1200
G1 X16.038 Y64.903 Z0 F1300
; --- FIX X Backlash ---
G0 X17.338 Y64.903 F1200
; --- FIX Y Backlash ---
G0 X17.338 Y63.603 F1200
G1 X17.691 Y63.426 Z0 F1300
G0 Z3.5 F500
; --- FIX X Backlash ---
G0 X16.391 Y63.426 F1200
G0 X15.861 Z3.5
G1 Z0 F500
G1 X15.507 Y63.073 Z0 F1300
G0 Z3.5 F500
; --- FIX X Backlash ---
G0 X16.807 Y63.073 F1200
G0 X18.398 Y62.366 Z3.5
G1 Z0 F500
G1 X18.575 Z0 F1300
G0 Z3.5 F500
; --- FIX Y Backlash ---
G0 X18.575 Y63.666 F1200
G0 X20.166 Y65.08 Z3.5
G1 Z0 F500
; --- FIX X Backlash ---
G0 X18.866 Y65.08 F1200
G1 X17.982 Y66.141 Z0 F1300
G0 Z3.5 F500
; --- FIX Y Backlash ---
G0 X17.982 Y64.841 F1200
G0 X17.452 Y64.664 Z3.5
G1 Z0 F500
; --- FIX X Backlash ---
G0 X18.752 Y64.664 F1200
G1 X18.82 Y64.141 Z0 F1300
G1 X18.904 Y63.648 Z0 F1300
G1 X19.009 Y63.177 Z0 F1300
G1 X19.138 Y62.717 Z0 F1300
G1 X19.297 Y62.256 Z0 F1300
G1 X19.489 Y61.786 Z0 F1300
G1 X19.718 Y61.295 Z0 F1300
G1 X19.989 Y60.774 Z0 F1300
G0 Z3.5 F500
; --- FIX Y Backlash ---
G0 X19.989 Y62.074 F1200
G0 X21.404 Y64.196 Z3.5
G1 Z0 F500
; --- FIX X Backlash ---
G0 X20.104 Y64.196 F1200
G1 X19.927 Y64.373 Z0 F1300
G0 Z3.5 F500
; --- FIX X Backlash ---
G0 X21.227 Y64.373 F1200
G0 X21.934 Y65.433 Z3.5
G1 Z0 F500
G1 Y65.61 Z0 F1300
G0 Z3.5 F500
; --- FIX Y Backlash ---
G0 X21.934 Y64.31 F1200
G0 X22.641 Y63.957 Z3.5
G1 Z0 F500
G1 Y63.78 Z0 F1300
G0 Z3.5 F500
G0 X24.586 Y63.426 Z3.5
G1 Z0 F500
; --- FIX X Backlash ---
G0 X23.286 Y63.426 F1200
G1 X23.109 Y62.896 Z0 F1300
G0 Z3.5 F500
; --- FIX X Backlash ---
G0 X24.409 Y62.896 F1200
; --- FIX Y Backlash ---
G0 X24.409 Y64.196 F1200
G0 X25.647 Y64.373 Z3.5
G1 Z0 F500
G1 Y64.903 Z0 F1300
G0 Z3.5 F500
G0 X26 Y65.787 Z3.5
G1 Z0 F500
G1 X26.354 Z0 F1300
G0 Z3.5 F500
G0 X27.061 Y66.317 Z3.5
G1 Z0 F500
G1 X27.592 Y66.494 Z0 F1300
; --- FIX X Backlash ---
G0 X26.292 Y66.494 F1200
G1 X26.097 Y66.711 Z0 F1300
G1 X25.901 Y66.839 Z0 F1300
G1 X25.781 Y66.871 Z0 F1300
G1 X25.636 Y66.883 Z0 F1300
G1 X25.455 Y66.875 Z0 F1300
G1 X25.231 Y66.848 Z0 F1300
G0 Z3.5 F500
G0 X24.347 Y67.025 Z3.5
G1 Z0 F500
G1 Y67.201 Z0 F1300
G0 Z3.5 F500
; --- FIX Y Backlash ---
G0 X24.347 Y65.901 F1200
G0 X23.817 Y65.371 Z3.5
G1 Z0 F500
; --- FIX Y Backlash ---
G0 X23.817 Y66.671 F1200
G1 X23.109 Y67.025 Z0 F1300
G0 Z3.5 F500
; --- FIX X Backlash ---
G0 X24.409 Y67.025 F1200
G0 X24.763 Y68.085 Z3.5
G1 Z0 F500
G1 Y68.262 Z0 F1300
G0 Z3.5 F500
G0 X25.824 Y68.439 Z3.5
G1 Z0 F500
; --- FIX Y Backlash ---
G0 X25.824 Y67.139 F1200
G1 X26.177 Y66.609 Z0 F1300
G0 Z3.5 F500
; --- FIX Y Backlash ---
G0 X26.177 Y67.909 F1200
G0 X27.945 Y68.262 Z3.5
G1 Z0 F500
; --- FIX Y Backlash ---
G0 X27.945 Y66.962 F1200
G1 X29.183 Y66.432 Z0 F1300
G0 Z3.5 F500
; --- FIX Y Backlash ---
G0 X29.183 Y67.732 F1200
G0 Y68.439 Z3.5
G1 Z0 F500
G1 Y68.762 Z0 F1300
G1 X29.172 Y69.039 Z0 F1300
G1 X29.15 Y69.279 Z0 F1300
G1 X29.121 Y69.49 Z0 F1300
; --- FIX X Backlash ---
G0 X27.821 Y69.49 F1200
G1 X27.756 Y69.857 Z0 F1300
G1 X27.706 Y70.207 Z0 F1300
G0 Z3.5 F500
G0 X25.938 Z3.5
G1 Z0 F500
G1 X25.365 Y70.728 Z0 F1300
G1 X24.879 Y71.274 Z0 F1300
G1 X24.683 Y71.561 Z0 F1300
G1 X24.525 Y71.861 Z0 F1300
G1 X24.411 Y72.175 Z0 F1300
G1 X24.347 Y72.505 Z0 F1300
G0 Z3.5 F500
; --- FIX X Backlash ---
G0 X25.647 Y72.505 F1200
G0 X26.354 Y72.682 Z3.5
G1 Z0 F500
; --- FIX Y Backlash ---
G0 X26.354 Y71.382 F1200
G1 X26.531 Y71.028 Z0 F1300
G0 Z3.5 F500
; --- FIX X Backlash ---
G0 X25.231 Y71.028 F1200
; --- FIX Y Backlash ---
G0 X25.231 Y72.328 F1200
G0 X23.286 Y72.505 Z3.5
G1 Z0 F500
G1 X23.016 Y72.625 Z0 F1300
G1 X22.754 Y72.72 Z0 F1300
G1 X22.504 Y72.781 Z0 F1300
G1 X22.268 Y72.795 Z0 F1300
G1 X22.049 Y72.75 Z0 F1300
; --- FIX Y Backlash ---
G0 X22.049 Y71.45 F1200
G1 X21.85 Y71.336 Z0 F1300
G1 X21.672 Y71.14 Z0 F1300
G1 X21.518 Y70.852 Z0 F1300
G0 Z3.5 F500
G0 X20.281 Z3.5
G1 Z0 F500
; --- FIX Y Backlash ---
G0 X20.281 Y72.152 F1200
G1 X19.927 Y72.505 Z0 F1300
G0 Z3.5 F500
; --- FIX X Backlash ---
G0 X21.227 Y72.505 F1200
; --- FIX Y Backlash ---
G0 X21.227 Y71.205 F1200
G0 X22.111 Y70.144 Z3.5
G1 Z0 F500
G1 X22.995 Y68.023 Z0 F1300
G0 Z3.5 F500
; --- FIX X Backlash ---
G0 X21.695 Y68.023 F1200
G0 X20.811 Y67.139 Z3.5
G1 Z0 F500
; --- FIX Y Backlash ---
G0 X20.811 Y68.439 F1200
G1 X20.104 Y69.146 Z0 F1300
G0 Z3.5 F500
; --- FIX Y Backlash ---
G0 X20.104 Y67.846 F1200
G0 X19.22 Y67.493 Z3.5
G1 Z0 F500
; --- FIX X Backlash ---
G0 X20.52 Y67.493 F1200
G1 X21.05 Y66.078 Z0 F1300
G0 Z3.5 F500
; --- FIX Y Backlash ---
G0 X21.05 Y67.378 F1200
G0 X22.288 Y67.555 Z3.5
G1 Z0 F500
; --- FIX Y Backlash ---
G0 X22.288 Y66.255 F1200
G1 X22.641 Y65.548 Z0 F1300
G0 Z3.5 F500
; --- FIX X Backlash ---
G0 X21.341 Y65.548 F1200
G0 X20.634 Y65.371 Z3.5
G1 Z0 F500
G1 Y65.194 Z0 F1300
G0 Z3.5 F500
; --- FIX Y Backlash ---
G0 X20.634 Y66.494 F1200
G0 X18.336 Y66.848 Z3.5
G1 Z0 F500
G1 Y67.378 Z0 F1300
G0 Z3.5 F500
G0 X17.629 Z3.5
G1 Z0 F500
; --- FIX X Backlash ---
G0 X18.929 Y67.378 F1200
; --- FIX Y Backlash ---
G0 X18.929 Y66.078 F1200
G1 X19.03 Y65.787 Z0 F1300
G1 X19.079 Y65.541 Z0 F1300
G1 X19.074 Y65.343 Z0 F1300
; --- FIX X Backlash ---
G0 X17.774 Y65.343 F1200
G1 X17.714 Y65.196 Z0 F1300
G1 X17.6 Y65.104 Z0 F1300
G1 X17.43 Y65.071 Z0 F1300
G1 X17.204 Y65.1 Z0 F1300
; --- FIX Y Backlash ---
G0 X17.204 Y66.4 F1200
G1 X16.922 Y66.494 Z0 F1300
G0 Z3.5 F500
; --- FIX X Backlash ---
G0 X18.222 Y66.494 F1200
G0 X18.398 Y67.201 Z3.5
G1 Z0 F500
; --- FIX X Backlash ---
G0 X17.098 Y67.201 F1200
G1 X16.745 Y67.555 Z0 F1300
G0 Z3.5 F500
G0 X15.507 Y68.439 Z3.5
G1 Z0 F500
G1 X15.33 Y69.146 Z0 F1300
G0 Z3.5 F500
G0 Y69.853 Z3.5
G1 Z0 F500
G1 X15.046 Y70.068 Z0 F1300
G1 X14.837 Y70.317 Z0 F1300
G1 X14.693 Y70.597 Z0 F1300
G1 X14.598 Y70.905 Z0 F1300
G1 X14.504 Y71.585 Z0 F1300
G1 X14.446 Y72.328 Z0 F1300
G0 Z3.5 F500
G0 X13.209 Y72.859 Z3.5
G1 Z0 F500
G1 Y73.212 Z0 F1300
G0 Z3.5 F500
; --- FIX X Backlash ---
G0 X14.509 Y73.212 F1200
G0 X14.862 Z3.5
G1 Z0 F500
; --- FIX X Backlash ---
G0 X13.562 Y73.212 F1200
G1 X13.445 Y73.418 Z0 F1300
G1 X13.353 Y73.588 Z0 F1300
G1 X13.281 Y73.731 Z0 F1300
G1 X13.223 Y73.86 Z0 F1300
G1 X13.13 Y74.118 Z0 F1300
G1 X13.032 Y74.45 Z0 F1300
G0 Z3.5 F500
G0 X12.855 Y74.98 Z3.5
G1 Z0 F500
G1 Y75.157 Z0 F1300
G0 Z3.5 F500
G0 X12.502 Y75.334 Z3.5
G1 Z0 F500
G1 X12.148 Y75.511 Z0 F1300
G0 Z3.5 F500
; --- FIX X Backlash ---
G0 X13.448 Y75.511 F1200
G0 X14.332 Y76.925 Z3.5
G1 Z0 F500
G1 X14.686 Z0 F1300
G0 Z3.5 F500
G0 X15.923 Z3.5
G1 Z0 F500
; --- FIX Y Backlash ---
G0 X15.923 Y75.625 F1200
G1 Y75.448 Z0 F1300
G0 Z3.5 F500
G0 X16.454 Z3.5
G1 Z0 F500
G1 X17.868 Y74.211 Z0 F1300
; --- FIX Y Backlash ---
G0 X17.868 Y75.511 F1200
G1 Y76.041 Z0 F1300
G0 Z3.5 F500
; --- FIX Y Backlash ---
G0 X17.868 Y74.741 F1200
G0 Y74.211 Z3.5
G1 Z0 F500
; --- FIX Y Backlash ---
G0 X17.868 Y75.511 F1200
G1 X18.929 Y75.687 Z0 F1300
G0 Z3.5 F500
G0 Y76.041 Z3.5
G1 Z0 F500
G1 X19.07 Y76.207 Z0 F1300
G1 X19.208 Y76.327 Z0 F1300
G1 X19.343 Y76.397 Z0 F1300
G1 X19.475 Y76.414 Z0 F1300
G1 X19.605 Y76.374 Z0 F1300
; --- FIX Y Backlash ---
G0 X19.605 Y75.074 F1200
G1 X19.734 Y74.971 Z0 F1300
G1 X19.862 Y74.803 Z0 F1300
G1 X19.99 Y74.564 Z0 F1300
; --- FIX X Backlash ---
G0 X18.69 Y74.564 F1200
G1 X18.448 Y74.532 Z0 F1300
G1 X18.257 Y74.491 Z0 F1300
G1 X18.11 Y74.437 Z0 F1300
G1 X18 Y74.367 Z0 F1300
G1 X17.921 Y74.278 Z0 F1300
G1 X17.867 Y74.165 Z0 F1300
G1 X17.83 Y74.026 Z0 F1300
G1 X17.806 Y73.857 Z0 F1300
G0 Z3.5 F500
G0 X17.275 Y73.15 Z3.5
G1 Z0 F500
; --- FIX X Backlash ---
G0 X18.575 Y73.15 F1200
G1 X18.78 Y72.731 Z0 F1300
G1 X18.977 Y72.374 Z0 F1300
G1 X19.459 Y71.559 Z0 F1300
G0 Z3.5 F500
G0 X19.636 Y70.321 Z3.5
G1 Z0 F500
G1 X20.52 Y69.437 Z0 F1300
G0 Z3.5 F500
G0 X21.05 Y68.73 Z3.5
G1 Z0 F500
; --- FIX X Backlash ---
G0 X19.75 Y68.73 F1200
; --- FIX Y Backlash ---
G0 X19.75 Y70.03 F1200
G1 X19.587 Y70.6 Z0 F1300
G1 X19.428 Y71.246 Z0 F1300
G1 X19.28 Y71.95 Z0 F1300
G1 X19.147 Y72.693 Z0 F1300
G1 X19.034 Y73.457 Z0 F1300
G1 X18.946 Y74.223 Z0 F1300
G1 X18.888 Y74.973 Z0 F1300
G1 X18.866 Y75.687 Z0 F1300
G0 Z3.5 F500
; --- FIX X Backlash ---
G0 X20.166 Y75.687 F1200
G0 X21.581 Y75.864 Z3.5
G1 Z0 F500
; --- FIX Y Backlash ---
G0 X21.581 Y74.564 F1200
G1 X21.934 Y73.327 Z0 F1300
G0 Z3.5 F500
G0 X24.056 Y71.382 Z3.5
G1 Z0 F500
G1 X24.035 Y70.735 Z0 F1300
G1 X24.025 Y70.18 Z0 F1300
G1 X24.031 Y69.652 Z0 F1300
G1 X24.056 Y69.084 Z0 F1300
G0 Z3.5 F500
; --- FIX Y Backlash ---
G0 X24.056 Y70.384 F1200
G0 X24.586 Y71.268 Z3.5
G1 Z0 F500
; --- FIX X Backlash ---
G0 X23.286 Y71.268 F1200
G1 X23.109 Y71.621 Z0 F1300
G0 Z3.5 F500
; --- FIX X Backlash ---
G0 X24.409 Y71.621 F1200
; --- FIX Y Backlash ---
G0 X24.409 Y70.321 F1200
G0 X25.117 Y68.2 Z3.5
G1 Z0 F500
G1 X25.293 Z0 F1300
G0 Z3.5 F500
; --- FIX Y Backlash ---
G0 X25.293 Y69.5 F1200
G0 X29.006 Y71.621 Z3.5
G1 Z0 F500
G1 X29.581 Y71.668 Z0 F1300
G1 X30.121 Y71.789 Z0 F1300
G1 X30.639 Y71.962 Z0 F1300
G1 X31.143 Y72.166 Z0 F1300
G1 X31.646 Y72.379 Z0 F1300
G1 X32.158 Y72.58 Z0 F1300
G1 X32.688 Y72.747 Z0 F1300
G1 X33.249 Y72.859 Z0 F1300
G0 Z3.5 F500
; --- FIX X Backlash ---
G0 X31.949 Y72.859 F1200
; --- FIX Y Backlash ---
G0 X31.949 Y71.559 F1200
G0 X29.651 Y70.498 Z3.5
G1 Z0 F500
; --- FIX X Backlash ---
G0 X30.951 Y70.498 F1200
G1 X31.304 Y70.144 Z0 F1300
G0 Z3.5 F500
; --- FIX X Backlash ---
G0 X30.004 Y70.144 F1200
G0 X29.474 Y69.26 Z3.5
G1 Z0 F500
; --- FIX X Backlash ---
G0 X30.774 Y69.26 F1200
G1 X33.249 Y69.084 Z0 F1300
G0 Z3.5 F500
; --- FIX X Backlash ---
G0 X31.949 Y69.084 F1200
G0 X29.828 Y68.907 Z3.5
G1 Z0 F500
G1 Y68.553 Z0 F1300
G0 Z3.5 F500
G0 X29.12 Y67.846 Z3.5
G1 Z0 F500
G1 X28.944 Z0 F1300
G0 Z3.5 F500
; --- FIX Y Backlash ---
G0 X28.944 Y69.146 F1200
G0 X27.352 Y72.859 Z3.5
G1 Z0 F500
G1 Y73.566 Z0 F1300
G0 Z3.5 F500
; --- FIX X Backlash ---
G0 X28.652 Y73.566 F1200
G0 X31.304 Y74.98 Z3.5
G1 Z0 F500
G1 X31.804 Y75.087 Z0 F1300
G1 X32.244 Y75.139 Z0 F1300
G1 X32.7 Y75.155 Z0 F1300
G1 X33.249 Z0 F1300
G0 Z3.5 F500
G0 X33.426 Y75.864 Z3.5
G1 Z0 F500
; --- FIX Y Backlash ---
G0 X33.426 Y74.564 F1200
G1 X33.422 Y74.295 Z0 F1300
G1 X33.429 Y73.996 Z0 F1300
G1 X33.445 Y73.671 Z0 F1300
G1 X33.467 Y73.324 Z0 F1300
G1 X33.519 Y72.581 Z0 F1300
G1 X33.563 Y71.801 Z0 F1300
G1 X33.578 Y71.015 Z0 F1300
G1 X33.543 Y70.258 Z0 F1300
G1 X33.5 Y69.899 Z0 F1300
; --- FIX X Backlash ---
G0 X32.2 Y69.899 F1200
G1 X32.136 Y69.561 Z0 F1300
G1 X32.05 Y69.245 Z0 F1300
G1 X31.937 Y68.957 Z0 F1300
G1 X31.797 Y68.713 Z0 F1300
G1 X31.632 Y68.522 Z0 F1300
G1 X31.445 Y68.379 Z0 F1300
G1 X31.24 Y68.28 Z0 F1300
G1 X31.019 Y68.221 Z0 F1300
G1 X30.788 Y68.196 Z0 F1300
G1 X30.548 Y68.203 Z0 F1300
G1 X30.303 Y68.236 Z0 F1300
; --- FIX Y Backlash ---
G0 X30.303 Y69.536 F1200
G1 X29.814 Y69.662 Z0 F1300
G1 X29.347 Y69.84 Z0 F1300
G1 X28.93 Y70.033 Z0 F1300
G1 X28.59 Y70.207 Z0 F1300
; --- FIX X Backlash ---
G0 X29.89 Y70.207 F1200
G1 X30.605 Y70.647 Z0 F1300
G1 X31.298 Y71.108 Z0 F1300
G1 X31.685 Y71.31 Z0 F1300
G1 X32.126 Y71.472 Z0 F1300
G1 X32.373 Y71.534 Z0 F1300
G1 X32.641 Y71.581 Z0 F1300
G1 X32.932 Y71.61 Z0 F1300
G1 X33.249 Y71.621 Z0 F1300
G0 Z3.5 F500

; Color picking sequence
G1 Z10 F1000;         ; Raise brush
G0 X41 Y5 F1200;    ; Rapid move to color 1
G1 Z10 F1000;         ; Raise brush
G0 X41 Y5 F1200;    ; Rapid move to color 1
G1 Z0 F1000;         ; Lower into color
G1 X40.102 Y7.295 Z0 S800 F1200
G1 X40.026 Y7.642 Z0 F1200
G1 X40 Y8 Z0 F1200
G1 X40.026 Y8.358 Z0 F1200
G1 X40.102 Y8.705 Z0 F1200
G1 X40.225 Y9.041 Z0 F1200
G1 X40.393 Y9.362 Z0 F1200
G1 X40.603 Y9.668 Z0 F1200
G1 X40.854 Y9.957 Z0 F1200
G1 X41.142 Y10.226 Z0 F1200
G1 X41.464 Y10.475 Z0 F1200
G1 X41.82 Y10.701 Z0 F1200
G1 X42.204 Y10.902 Z0 F1200
G1 X42.617 Y11.078 Z0 F1200
G1 X43.054 Y11.225 Z0 F1200
G1 X43.513 Y11.343 Z0 F1200
G1 X43.992 Y11.429 Z0 F1200
G1 X44.489 Y11.482 Z0 F1200
G1 X45 Y11.5 Z0 F1200
G1 X45.511 Y11.482 Z0 F1200
G1 X46.008 Y11.429 Z0 F1200
G1 X46.487 Y11.343 Z0 F1200
G1 X46.946 Y11.225 Z0 F1200
G1 X47.383 Y11.078 Z0 F1200
G1 X47.796 Y10.902 Z0 F1200
G1 X48.18 Y10.701 Z0 F1200
G1 X48.536 Y10.475 Z0 F1200
G1 X48.858 Y10.226 Z0 F1200
G1 X49.146 Y9.957 Z0 F1200
G1 X49.397 Y9.668 Z0 F1200
G1 X49.607 Y9.362 Z0 F1200
G1 X49.775 Y9.041 Z0 F1200
G1 X49.898 Y8.705 Z0 F1200
G1 X49.974 Y8.358 Z0 F1200
G1 X50 Y8 Z0 F1200
G1 X49.974 Y7.642 Z0 F1200
G1 X49.898 Y7.295 Z0 F1200
G1 X49.775 Y6.959 Z0 F1200
G1 X49.607 Y6.638 Z0 F1200
G1 X49.397 Y6.332 Z0 F1200
G1 X49.146 Y6.043 Z0 F1200
G1 X48.858 Y5.774 Z0 F1200
G1 X48.536 Y5.525 Z0 F1200
G1 X48.18 Y5.299 Z0 F1200
G1 X47.796 Y5.098 Z0 F1200
G1 X47.383 Y4.922 Z0 F1200
G1 X46.946 Y4.775 Z0 F1200
G1 X46.487 Y4.657 Z0 F1200
G1 X46.008 Y4.571 Z0 F1200
G1 X45.511 Y4.518 Z0 F1200
G1 X45 Y4.5 Z0 F1200
G1 X44.489 Y4.518 Z0 F1200
G1 X43.992 Y4.571 Z0 F1200
G1 X43.513 Y4.657 Z0 F1200
G1 X43.054 Y4.775 Z0 F1200
G1 X42.617 Y4.922 Z0 F1200
G1 X42.204 Y5.098 Z0 F1200
G1 X41.82 Y5.299 Z0 F1200
G1 X41.464 Y5.525 Z0 F1200
G1 X41.142 Y5.774 Z0 F1200
G1 X40.854 Y6.043 Z0 F1200
G1 X40.603 Y6.332 Z0 F1200
G1 X40.393 Y6.638 Z0 F1200
G1 X40.225 Y6.959 Z0 F1200
G1 Z7 F800;         ; Raise from color
G1 X34 Y8 Z1 F1200;     ; Movement in paint
G1 X24 Y18 Z8 F500;     ; Move in paint
G1 F1200;           ; Set feed rate
G0 Z2.5 F1000 ; Safety Lift
G0 X33.249 Y71.621 F1200 ; Return to pos
G0 Y74.096 Z3.5
G1 Z0 F500
; --- FIX X Backlash ---
G0 X31.949 Y74.096 F1200
G1 X31.548 Y74.064 Z0 F1300
; --- FIX Y Backlash ---
G0 X31.548 Y72.764 F1200
G1 X31.164 Y72.711 Z0 F1300
G1 X30.805 Y72.63 Z0 F1300
G1 X30.479 Y72.515 Z0 F1300
G1 X30.193 Y72.357 Z0 F1300
G1 X29.955 Y72.15 Z0 F1300
G1 X29.771 Y71.886 Z0 F1300
G1 X29.651 Y71.559 Z0 F1300
G1 X29.318 Y71.523 Z0 F1300
G1 X28.987 Y71.442 Z0 F1300
G1 X28.665 Y71.322 Z0 F1300
G1 X28.359 Y71.169 Z0 F1300
G1 X28.076 Y70.989 Z0 F1300
G1 X27.824 Y70.788 Z0 F1300
G1 X27.61 Y70.572 Z0 F1300
G1 X27.441 Y70.346 Z0 F1300
G1 X27.324 Y70.116 Z0 F1300
G1 X27.268 Y69.889 Z0 F1300
G1 X27.278 Y69.671 Z0 F1300
; --- FIX X Backlash ---
G0 X28.578 Y69.671 F1200
G1 X28.662 Y69.466 Z0 F1300
G1 X28.829 Y69.282 Z0 F1300
G1 X29.084 Y69.123 Z0 F1300
G1 X29.247 Y69.055 Z0 F1300
G1 X29.435 Y68.996 Z0 F1300
G1 X29.649 Y68.946 Z0 F1300
G1 X29.89 Y68.907 Z0 F1300
G0 Z3.5 F500
; --- FIX Y Backlash ---
G0 X29.89 Y70.207 F1200
G0 X30.951 Y75.511 Z3.5
G1 Z0 F500
G1 Y75.864 Z0 F1300
G0 Z3.5 F500
G0 Z3.5
G1 Z0 F500
; --- FIX X Backlash ---
G0 X29.651 Y75.864 F1200
G1 X29.259 Y75.982 Z0 F1300
G1 X28.858 Y76.073 Z0 F1300
G1 X28.629 Y76.099 Z0 F1300
G1 X28.367 Y76.105 Z0 F1300
G1 X28.063 Y76.087 Z0 F1300
G1 X27.706 Y76.041 Z0 F1300
G0 Z3.5 F500
; --- FIX X Backlash ---
G0 X29.006 Y76.041 F1200
G0 X29.713 Y76.571 Z3.5
G1 Z0 F500
; --- FIX X Backlash ---
G0 X28.413 Y76.571 F1200
G1 X27.883 Y76.925 Z0 F1300
G0 Z3.5 F500
G0 Z3.5
G1 Z0 F500
; --- FIX Y Backlash ---
G0 X27.883 Y75.625 F1200
G1 X27.7 Y75.37 Z0 F1300
G1 X27.551 Y75.081 Z0 F1300
G1 X27.438 Y74.756 Z0 F1300
G1 X27.366 Y74.389 Z0 F1300
G1 X27.336 Y73.979 Z0 F1300
G1 X27.351 Y73.52 Z0 F1300
; --- FIX X Backlash ---
G0 X28.651 Y73.52 F1200
G1 X28.715 Y73.009 Z0 F1300
G1 X28.829 Y72.443 Z0 F1300
; --- FIX Y Backlash ---
G0 X28.829 Y73.743 F1200
G1 X30.951 Y74.096 Z0 F1300
G1 X30.992 Y74.418 Z0 F1300
G1 X31.007 Y74.516 Z0 F1300
G1 X31.021 Y74.592 Z0 F1300
G1 X31.059 Y74.74 Z0 F1300
G1 X31.128 Y74.98 Z0 F1300
; --- FIX X Backlash ---
G0 X29.828 Y74.98 F1200
G1 X29.474 Y75.334 Z0 F1300
; --- FIX Y Backlash ---
G0 X29.474 Y74.034 F1200
G1 X27.529 Y73.68 Z0 F1300
G0 Z3.5 F500
; --- FIX X Backlash ---
G0 X28.829 Y73.68 F1200
; --- FIX Y Backlash ---
G0 X28.829 Y74.98 F1200
G0 X31.128 Y76.571 Z3.5
G1 Z0 F500
; --- FIX Y Backlash ---
G0 X31.128 Y75.271 F1200
G1 X31.315 Y75.018 Z0 F1300
G1 X31.556 Y74.826 Z0 F1300
G1 X31.839 Y74.702 Z0 F1300
G1 X32.151 Y74.649 Z0 F1300
G1 X32.479 Y74.674 Z0 F1300
; --- FIX Y Backlash ---
G0 X32.479 Y75.974 F1200
G1 X32.809 Y76.083 Z0 F1300
G1 X33.129 Y76.28 Z0 F1300
G1 X33.426 Y76.571 Z0 F1300
G0 Z3.5 F500
; --- FIX X Backlash ---
G0 X32.126 Y76.571 F1200
G0 X31.772 Y77.455 Z3.5
G1 Z0 F500
G1 X31.242 Z0 F1300
G0 Z3.5 F500
G0 X29.828 Y77.632 Z3.5
G1 Z0 F500
; --- FIX X Backlash ---
G0 X31.128 Y77.632 F1200
G1 X31.527 Y77.622 Z0 F1300
G1 X31.839 Y77.599 Z0 F1300
; --- FIX Y Backlash ---
G0 X31.839 Y76.299 F1200
G1 X32.148 Y76.248 Z0 F1300
G1 X32.542 Y76.155 Z0 F1300
; --- FIX X Backlash ---
G0 X31.242 Y76.155 F1200
G1 X30.996 Y76.079 Z0 F1300
G1 X30.791 Y76.019 Z0 F1300
G1 X30.617 Y75.971 Z0 F1300
G1 X30.463 Y75.932 Z0 F1300
G1 X30.171 Y75.869 Z0 F1300
G1 X29.828 Y75.802 Z0 F1300
G0 Z3.5 F500
G0 Z3.5
G1 Z0 F500
; --- FIX X Backlash ---
G0 X31.128 Y75.802 F1200
G1 X31.283 Y75.597 Z0 F1300
G1 X31.476 Y75.468 Z0 F1300
G1 X31.703 Y75.399 Z0 F1300
G1 X31.962 Y75.377 Z0 F1300
; --- FIX Y Backlash ---
G0 X31.962 Y76.677 F1200
G1 X33.249 Y76.748 Z0 F1300
G1 X33.426 Y78.87 Z0 F1300
G0 Z3.5 F500
; --- FIX X Backlash ---
G0 X32.126 Y78.87 F1200
; --- FIX Y Backlash ---
G0 X32.126 Y77.57 F1200
G0 X31.949 Y77.039 Z3.5
G1 Z0 F500
G1 X28.236 Y76.863 Z0 F1300
G0 Z3.5 F500
; --- FIX Y Backlash ---
G0 X28.236 Y78.163 F1200
G0 X28.06 Y78.516 Z3.5
G1 Z0 F500
G1 X27.529 Z0 F1300
G0 Z3.5 F500
G0 X27.352 Y79.047 Z3.5
G1 Z0 F500
; --- FIX Y Backlash ---
G0 X27.352 Y77.747 F1200
G1 X27.37 Y77.375 Z0 F1300
G1 X27.388 Y77.053 Z0 F1300
G1 X27.41 Y76.772 Z0 F1300
G1 X27.44 Y76.52 Z0 F1300
; --- FIX X Backlash ---
G0 X28.74 Y76.52 F1200
G1 X28.836 Y76.069 Z0 F1300
G1 X29.006 Y75.625 Z0 F1300
; --- FIX Y Backlash ---
G0 X29.006 Y76.925 F1200
G1 X29.451 Y77.107 Z0 F1300
G1 X29.87 Y77.213 Z0 F1300
G1 X30.095 Y77.244 Z0 F1300
G1 X30.343 Y77.264 Z0 F1300
G1 X30.625 Y77.274 Z0 F1300
G1 X30.951 Y77.279 Z0 F1300
G1 X30.959 Y77.516 Z0 F1300
G1 X30.964 Y77.716 Z0 F1300
G1 Y77.889 Z0 F1300
G1 Y78.045 Z0 F1300
G1 X30.96 Y78.344 Z0 F1300
G1 X30.951 Y78.693 Z0 F1300
G0 Z3.5 F500
G0 X34.487 Y79.047 Z3.5
G1 Z0 F500
; --- FIX X Backlash ---
G0 X33.187 Y79.047 F1200
G1 X32.684 Y79.023 Z0 F1300
G1 X32.222 Y78.985 Z0 F1300
; --- FIX Y Backlash ---
G0 X32.222 Y77.685 F1200
G1 X31.359 Y77.595 Z0 F1300
G1 X30.929 Y77.56 Z0 F1300
G1 X30.481 Y77.542 Z0 F1300
G1 X30.001 Y77.549 Z0 F1300
G1 X29.474 Y77.59 Z0 F1300
; --- FIX Y Backlash ---
G0 X29.474 Y78.89 F1200
G1 X28.394 Y79.003 Z0 F1300
G1 X27.321 Y79.102 Z0 F1300
G1 X26.264 Y79.18 Z0 F1300
G1 X25.231 Y79.23 Z0 F1300
G1 X23.286 Y79.393 Z0 F1300
G1 X21.258 Y79.468 Z0 F1300
G1 X19.22 Y79.563 Z0 F1300
G1 X18.893 Y79.575 Z0 F1300
G1 X18.594 Y79.579 Z0 F1300
G1 X18.319 Y79.576 Z0 F1300
G1 X18.066 Y79.569 Z0 F1300
G1 X17.609 Y79.549 Z0 F1300
G1 X17.199 Y79.539 Z0 F1300
G1 X16.809 Y79.554 Z0 F1300
G1 X16.415 Y79.613 Z0 F1300
G1 X15.989 Y79.733 Z0 F1300
G1 X15.507 Y79.931 Z0 F1300
G0 Z3.5 F500
; --- FIX X Backlash ---
G0 X16.807 Y79.931 F1200
G0 X17.161 Y80.284 Z3.5
G1 Z0 F500
; --- FIX X Backlash ---
G0 X15.861 Y80.284 F1200
; --- FIX Y Backlash ---
G0 X15.861 Y78.984 F1200
G1 X14.8 Y78.277 Z0 F1300
G0 Z3.5 F500
; --- FIX X Backlash ---
G0 X16.1 Y78.277 F1200
; --- FIX Y Backlash ---
G0 X16.1 Y79.577 F1200
G0 X16.277 Y80.461 Z3.5
G1 Z0 F500
G1 X16.63 Y81.168 Z0 F1300
G0 Z3.5 F500
G0 X17.161 Z3.5
G1 Z0 F500
; --- FIX Y Backlash ---
G0 X17.161 Y79.868 F1200
G1 Y78.984 Z0 F1300
G1 X18.333 Y78.992 Z0 F1300
G1 X19.562 Y79.005 Z0 F1300
G1 X20.784 Z0 F1300
G1 X21.934 Y78.97 Z0 F1300
G1 X22.616 Y78.924 Z0 F1300
G1 X23.221 Y78.87 Z0 F1300
G1 X23.525 Y78.846 Z0 F1300
G1 X23.846 Y78.826 Z0 F1300
G1 X24.196 Y78.813 Z0 F1300
G1 X24.586 Y78.807 Z0 F1300
G1 X26.563 Z0 F1300
G1 X28.476 Z0 F1300
G1 X28.993 Y78.802 Z0 F1300
G1 X29.461 Y78.795 Z0 F1300
G1 X29.886 Y78.785 Z0 F1300
G1 X30.275 Y78.773 Z0 F1300
G1 X30.97 Y78.744 Z0 F1300
G1 X32.21 Y78.682 Z0 F1300
G1 X32.861 Y78.656 Z0 F1300
G1 X33.217 Y78.645 Z0 F1300
G1 X33.602 Y78.637 Z0 F1300
G1 X34.023 Y78.632 Z0 F1300
G1 X34.487 Z0 F1300
G0 Z3.5 F500
; --- FIX Y Backlash ---
G0 X34.487 Y79.932 F1200
G0 X34.663 Y83.997 Z3.5
G1 Z0 F500
; --- FIX Y Backlash ---
G0 X34.663 Y82.697 F1200
G1 X34.64 Y80.329 Z0 F1300
G1 X34.632 Y77.923 Z0 F1300
G1 Y74.272 Z0 F1300
; --- FIX X Backlash ---
G0 X33.332 Y74.272 F1200
G1 X33.279 Y70.553 Z0 F1300
G1 X33.217 Y66.806 Z0 F1300
G1 X33.187 Y63.073 Z0 F1300
G1 X33.197 Y62.191 Z0 F1300
G1 X33.24 Y60.53 Z0 F1300
G1 X33.245 Y59.762 Z0 F1300
G1 X33.221 Y59.044 Z0 F1300
G1 X33.153 Y58.38 Z0 F1300
G1 X33.028 Y57.777 Z0 F1300
G1 X32.833 Y57.238 Z0 F1300
; --- FIX Y Backlash ---
G0 X32.833 Y58.538 F1200
G1 X32.126 Y59.599 Z0 F1300
G0 Z3.5 F500
; --- FIX Y Backlash ---
G0 X32.126 Y58.299 F1200
G0 X31.242 Y56.355 Z3.5
G1 Z0 F500
G1 X28.413 Y55.647 Z0 F1300
G0 Z3.5 F500
G0 X26.822 Y55.471 Z3.5
G1 Z0 F500
G1 X26.468 Y55.294 Z0 F1300
G0 Z3.5 F500
; --- FIX X Backlash ---
G0 X27.768 Y55.294 F1200
G0 X29.183 Y52.819 Z3.5
G1 Z0 F500
G1 X30.42 Y52.288 Z0 F1300
G0 Z3.5 F500
; --- FIX Y Backlash ---
G0 X30.42 Y53.588 F1200
G0 X30.951 Y54.472 Z3.5
G1 Z0 F500
; --- FIX X Backlash ---
G0 X29.651 Y54.472 F1200
G1 X29.297 Y54.649 Z0 F1300
G0 Z3.5 F500
; --- FIX X Backlash ---
G0 X30.597 Y54.649 F1200
G0 X32.895 Y54.826 Z3.5
G1 Z0 F500
G1 X33.072 Y55.356 Z0 F1300
G0 Z3.5 F500
; --- FIX X Backlash ---
G0 X31.772 Y55.356 F1200
; --- FIX Y Backlash ---
G0 X31.772 Y54.056 F1200
G0 X30.181 Y50.52 Z3.5
G1 Z0 F500
; --- FIX Y Backlash ---
G0 X30.181 Y51.82 F1200
G1 X27.176 Y52.881 Z0 F1300
G0 Z3.5 F500
G0 X24.7 Y53.235 Z3.5
G1 Z0 F500
G1 X24.17 Y53.588 Z0 F1300
G0 Z3.5 F500
G0 X22.049 Y55.887 Z3.5
G1 Z0 F500
G1 X21.872 Y56.063 Z0 F1300
G0 Z3.5 F500
; --- FIX X Backlash ---
G0 X23.172 Y56.063 F1200
G0 X24.233 Y58.008 Z3.5
G1 Z0 F500
G1 X24.409 Z0 F1300
G0 Z3.5 F500
; --- FIX X Backlash ---
G0 X23.109 Y58.008 F1200
G0 X22.049 Y58.892 Z3.5
G1 Z0 F500
G1 X21.872 Z0 F1300
G0 Z3.5 F500
; --- FIX X Backlash ---
G0 X23.172 Y58.892 F1200
G0 X23.879 Y61.367 Z3.5
G1 Z0 F500
G1 X24.233 Z0 F1300
G0 Z3.5 F500
G0 X26.354 Y63.842 Z3.5
G1 Z0 F500
; --- FIX Y Backlash ---
G0 X26.354 Y62.542 F1200
G1 X27.415 Y62.189 Z0 F1300
G0 Z3.5 F500
; --- FIX Y Backlash ---
G0 X27.415 Y63.489 F1200
G0 X27.592 Y64.019 Z3.5
G1 Z0 F500
; --- FIX Y Backlash ---
G0 X27.592 Y62.719 F1200
G1 X28.476 Y62.542 Z0 F1300
; --- FIX X Backlash ---
G0 X27.176 Y62.542 F1200
G1 X26.115 Y62.365 Z0 F1300
; --- FIX X Backlash ---
G0 X27.415 Y62.365 F1200
G1 X28.122 Y61.658 Z0 F1300
G0 Z3.5 F500
; --- FIX Y Backlash ---
G0 X28.122 Y62.958 F1200
G0 X28.829 Y63.312 Z3.5
G1 Z0 F500
; --- FIX Y Backlash ---
G0 X28.829 Y62.012 F1200
G1 X29.89 Y61.658 Z0 F1300
G0 Z3.5 F500
; --- FIX X Backlash ---
G0 X28.59 Y61.658 F1200
G0 X27.352 Y60.774 Z3.5
G1 Z0 F500
; --- FIX X Backlash ---
G0 X28.652 Y60.774 F1200
G1 X30.244 Y60.598 Z0 F1300
; --- FIX X Backlash ---
G0 X28.944 Y60.598 F1200
G1 X27.883 Y60.244 Z0 F1300
G0 Z3.5 F500
; --- FIX X Backlash ---
G0 X29.183 Y60.244 F1200
; --- FIX Y Backlash ---
G0 X29.183 Y61.544 F1200
G0 X40.498 Y62.958 Z3.5
G1 Z0 F500
G1 X40.851 Z0 F1300
G0 Z3.5 F500
; --- FIX Y Backlash ---
G0 X40.851 Y61.658 F1200
G0 X41.558 Y60.774 Z3.5
G1 Z0 F500
G1 X42.119 Y60.643 Z0 F1300
G1 X42.641 Y60.499 Z0 F1300
G1 X43.152 Y60.364 Z0 F1300
G1 X43.68 Y60.256 Z0 F1300
G1 X44.342 Y60.159 Z0 F1300
G1 X44.965 Y60.079 Z0 F1300
G1 X46.123 Y59.943 Z0 F1300
G1 X47.208 Y59.784 Z0 F1300
G1 X48.276 Y59.537 Z0 F1300
; --- FIX X Backlash ---
G0 X46.976 Y59.537 F1200
G1 X45.739 Y59.36 Z0 F1300
G0 Z3.5 F500
; --- FIX X Backlash ---
G0 X47.039 Y59.36 F1200
G0 X47.216 Y59.183 Z3.5
G1 Z0 F500
; --- FIX Y Backlash ---
G0 X47.216 Y60.483 F1200
G1 X47.393 Y60.66 Z0 F1300
G0 Z3.5 F500
; --- FIX Y Backlash ---
G0 X47.393 Y59.36 F1200
G0 X47.569 Y58.83 Z3.5
G1 Z0 F500
G1 X47.538 Y58.316 Z0 F1300
; --- FIX X Backlash ---
G0 X46.238 Y58.316 F1200
G1 X46.17 Y57.843 Z0 F1300
G1 X46.07 Y57.407 Z0 F1300
G1 X45.941 Y57.004 Z0 F1300
G1 X45.786 Y56.631 Z0 F1300
G1 X45.61 Y56.283 Z0 F1300
G1 X45.416 Y55.956 Z0 F1300
G1 X45.209 Y55.647 Z0 F1300
G0 Z3.5 F500
; --- FIX X Backlash ---
G0 X46.509 Y55.647 F1200
G0 X47.393 Z3.5
G1 Z0 F500
; --- FIX Y Backlash ---
G0 X47.393 Y56.947 F1200
G1 Y57.655 Z0 F1300
G0 Z3.5 F500
; --- FIX X Backlash ---
G0 X46.093 Y57.655 F1200
G0 X45.916 Y58.362 Z3.5
G1 Z0 F500
G1 X45.622 Y58.313 Z0 F1300
; --- FIX Y Backlash ---
G0 X45.622 Y57.013 F1200
G1 X45.257 Y56.958 Z0 F1300
G1 X45.008 Y56.933 Z0 F1300
G1 X44.692 Y56.911 Z0 F1300
G1 X44.292 Y56.894 Z0 F1300
G1 X43.794 Y56.885 Z0 F1300
G0 Z3.5 F500
G0 X42.38 Y56.708 Z3.5
G1 Z0 F500
; --- FIX X Backlash ---
G0 X43.68 Y56.708 F1200
; --- FIX Y Backlash ---
G0 X43.68 Y58.008 F1200
G1 X43.908 Y58.364 Z0 F1300
G1 X44.048 Y58.748 Z0 F1300
G1 X44.118 Y59.155 Z0 F1300
G1 X44.135 Y59.58 Z0 F1300
; --- FIX X Backlash ---
G0 X42.835 Y59.58 F1200
G1 X42.783 Y60.465 Z0 F1300
G1 X42.733 Y61.367 Z0 F1300
G0 Z3.5 F500
G0 X42.203 Z3.5
G1 Z0 F500
; --- FIX Y Backlash ---
G0 X42.203 Y60.067 F1200
G1 X42.186 Y59.55 Z0 F1300
G1 X42.145 Y59.077 Z0 F1300
G1 X42.098 Y58.638 Z0 F1300
G1 X42.061 Y58.221 Z0 F1300
G1 X42.052 Y57.816 Z0 F1300
G1 X42.087 Y57.411 Z0 F1300
; --- FIX X Backlash ---
G0 X43.387 Y57.411 F1200
G1 X43.484 Y56.994 Z0 F1300
G1 X43.659 Y56.556 Z0 F1300
G1 X43.811 Y56.303 Z0 F1300
G1 X43.993 Y56.101 Z0 F1300
G1 X44.204 Y55.942 Z0 F1300
G1 X44.442 Y55.818 Z0 F1300
G1 X44.991 Y55.64 Z0 F1300
G1 X45.625 Y55.503 Z0 F1300
G1 X45.916 Y55.446 Z0 F1300
G1 X46.158 Y55.406 Z0 F1300
G1 X46.366 Y55.381 Z0 F1300
G1 X46.553 Y55.371 Z0 F1300
G1 X46.735 Z0 F1300
G1 X46.925 Y55.385 Z0 F1300
G1 X47.14 Y55.407 Z0 F1300
G1 X47.393 Y55.436 Z0 F1300
; --- FIX Y Backlash ---
G0 X47.393 Y56.736 F1200
G1 X47.708 Y56.793 Z0 F1300
G1 X48.018 Y56.888 Z0 F1300
G1 X48.311 Y57.024 Z0 F1300
G1 X48.577 Y57.203 Z0 F1300
G1 X48.806 Y57.424 Z0 F1300
G1 X48.986 Y57.69 Z0 F1300
G1 X49.108 Y58.002 Z0 F1300
G1 X49.16 Y58.362 Z0 F1300
G1 X49.572 Y58.34 Z0 F1300
G1 X49.985 Y58.297 Z0 F1300
; --- FIX Y Backlash ---
G0 X49.985 Y56.997 F1200
G1 X50.472 Y56.942 Z0 F1300
G1 X50.766 Y56.913 Z0 F1300
G1 X51.105 Y56.885 Z0 F1300
G0 Z3.5 F500

; Color picking sequence
G1 Z10 F1000;         ; Raise brush
G0 X41 Y5 F1200;    ; Rapid move to color 1
G1 Z10 F1000;         ; Raise brush
G0 X41 Y5 F1200;    ; Rapid move to color 1
G1 Z0 F1000;         ; Lower into color
G1 X40.102 Y7.295 Z0 S800 F1200
G1 X40.026 Y7.642 Z0 F1200
G1 X40 Y8 Z0 F1200
G1 X40.026 Y8.358 Z0 F1200
G1 X40.102 Y8.705 Z0 F1200
G1 X40.225 Y9.041 Z0 F1200
G1 X40.393 Y9.362 Z0 F1200
G1 X40.603 Y9.668 Z0 F1200
G1 X40.854 Y9.957 Z0 F1200
G1 X41.142 Y10.226 Z0 F1200
G1 X41.464 Y10.475 Z0 F1200
G1 X41.82 Y10.701 Z0 F1200
G1 X42.204 Y10.902 Z0 F1200
G1 X42.617 Y11.078 Z0 F1200
G1 X43.054 Y11.225 Z0 F1200
G1 X43.513 Y11.343 Z0 F1200
G1 X43.992 Y11.429 Z0 F1200
G1 X44.489 Y11.482 Z0 F1200
G1 X45 Y11.5 Z0 F1200
G1 X45.511 Y11.482 Z0 F1200
G1 X46.008 Y11.429 Z0 F1200
G1 X46.487 Y11.343 Z0 F1200
G1 X46.946 Y11.225 Z0 F1200
G1 X47.383 Y11.078 Z0 F1200
G1 X47.796 Y10.902 Z0 F1200
G1 X48.18 Y10.701 Z0 F1200
G1 X48.536 Y10.475 Z0 F1200
G1 X48.858 Y10.226 Z0 F1200
G1 X49.146 Y9.957 Z0 F1200
G1 X49.397 Y9.668 Z0 F1200
G1 X49.607 Y9.362 Z0 F1200
G1 X49.775 Y9.041 Z0 F1200
G1 X49.898 Y8.705 Z0 F1200
G1 X49.974 Y8.358 Z0 F1200
G1 X50 Y8 Z0 F1200
G1 X49.974 Y7.642 Z0 F1200
G1 X49.898 Y7.295 Z0 F1200
G1 X49.775 Y6.959 Z0 F1200
G1 X49.607 Y6.638 Z0 F1200
G1 X49.397 Y6.332 Z0 F1200
G1 X49.146 Y6.043 Z0 F1200
G1 X48.858 Y5.774 Z0 F1200
G1 X48.536 Y5.525 Z0 F1200
G1 X48.18 Y5.299 Z0 F1200
G1 X47.796 Y5.098 Z0 F1200
G1 X47.383 Y4.922 Z0 F1200
G1 X46.946 Y4.775 Z0 F1200
G1 X46.487 Y4.657 Z0 F1200
G1 X46.008 Y4.571 Z0 F1200
G1 X45.511 Y4.518 Z0 F1200
G1 X45 Y4.5 Z0 F1200
G1 X44.489 Y4.518 Z0 F1200
G1 X43.992 Y4.571 Z0 F1200
G1 X43.513 Y4.657 Z0 F1200
G1 X43.054 Y4.775 Z0 F1200
G1 X42.617 Y4.922 Z0 F1200
G1 X42.204 Y5.098 Z0 F1200
G1 X41.82 Y5.299 Z0 F1200
G1 X41.464 Y5.525 Z0 F1200
G1 X41.142 Y5.774 Z0 F1200
G1 X40.854 Y6.043 Z0 F1200
G1 X40.603 Y6.332 Z0 F1200
G1 X40.393 Y6.638 Z0 F1200
G1 X40.225 Y6.959 Z0 F1200
G1 Z7 F800;         ; Raise from color
G1 X34 Y8 Z1 F1200;     ; Movement in paint
G1 X24 Y18 Z8 F500;     ; Move in paint
G1 F1200;           ; Set feed rate
G0 Z2.5 F1000 ; Safety Lift
G0 X51.105 Y56.885 F1200 ; Return to pos
G0 X51.459 Y56.708 Z3.5
G1 Z0 F500
G1 X51.812 Z0 F1300
G0 Z3.5 F500
; --- FIX Y Backlash ---
G0 X51.812 Y58.008 F1200
G0 X51.989 Y58.892 Z3.5
G1 Z0 F500
; --- FIX Y Backlash ---
G0 X51.989 Y57.592 F1200
G1 X52.046 Y57.388 Z0 F1300
G1 X52.115 Y57.206 Z0 F1300
G1 X52.205 Y57.045 Z0 F1300
G1 X52.323 Y56.904 Z0 F1300
G1 X52.477 Y56.783 Z0 F1300
G1 X52.674 Y56.68 Z0 F1300
G1 X52.921 Y56.597 Z0 F1300
G1 X53.227 Y56.531 Z0 F1300
G0 Z3.5 F500
G0 X53.58 Y56.355 Z3.5
G1 Z0 F500
G1 X54.287 Z0 F1300
; --- FIX Y Backlash ---
G0 X54.287 Y57.655 F1200
G1 Y58.008 Z0 F1300
G0 Z3.5 F500
G0 Y58.362 Z3.5
G1 Z0 F500
; --- FIX X Backlash ---
G0 X52.987 Y58.362 F1200
G1 X52.457 Z0 F1300
G0 Z3.5 F500
; --- FIX X Backlash ---
G0 X53.757 Y58.362 F1200
; --- FIX Y Backlash ---
G0 X53.757 Y57.062 F1200
G0 X54.287 Y56.355 Z3.5
G1 Z0 F500
G1 X54.818 Y55.824 Z0 F1300
G0 Z3.5 F500
; --- FIX X Backlash ---
G0 X53.518 Y55.824 F1200
G0 X53.164 Z3.5
G1 Z0 F500
G1 X53.046 Y54.901 Z0 F1300
G1 X52.987 Y54.056 Z0 F1300
G1 X52.521 Y54.047 Z0 F1300
G1 X52.007 Y54.027 Z0 F1300
G1 X51.454 Y53.998 Z0 F1300
G1 X50.871 Y53.966 Z0 F1300
G1 X49.644 Y53.906 Z0 F1300
G1 X48.391 Y53.879 Z0 F1300
; --- FIX Y Backlash ---
G0 X48.391 Y55.179 F1200
G1 X48.037 Y56.063 Z0 F1300
G0 Z3.5 F500
G0 Y56.417 Z3.5
G1 Z0 F500
G1 Y56.771 Z0 F1300
G0 Z3.5 F500
G0 X47.86 Y57.301 Z3.5
G1 Z0 F500
; --- FIX X Backlash ---
G0 X49.16 Y57.301 F1200
; --- FIX Y Backlash ---
G0 X49.16 Y56.001 F1200
G1 X49.25 Y55.756 Z0 F1300
G1 Y55.547 Z0 F1300
; --- FIX X Backlash ---
G0 X47.95 Y55.547 F1200
G1 X47.872 Y55.365 Z0 F1300
G1 X47.729 Y55.199 Z0 F1300
G1 X47.535 Y55.041 Z0 F1300
G1 X47.302 Y54.882 Z0 F1300
G1 X47.043 Y54.711 Z0 F1300
G1 X46.77 Y54.519 Z0 F1300
G1 X46.624 Y54.391 Z0 F1300
G1 X46.508 Y54.251 Z0 F1300
G1 X46.419 Y54.1 Z0 F1300
G1 X46.355 Y53.941 Z0 F1300
G1 X46.289 Y53.603 Z0 F1300
G1 X46.285 Y53.249 Z0 F1300
; --- FIX X Backlash ---
G0 X47.585 Y53.249 F1200
G1 X47.677 Y52.545 Z0 F1300
G1 X47.746 Y51.935 Z0 F1300
G0 Z3.5 F500
; --- FIX X Backlash ---
G0 X46.446 Y51.935 F1200
G0 X44.678 Y50.874 Z3.5
G1 Z0 F500
G1 Y50.697 Z0 F1300
G0 Z3.5 F500
G0 X43.617 Y49.46 Z3.5
G1 Z0 F500
; --- FIX X Backlash ---
G0 X44.917 Y49.46 F1200
G1 X46.155 Y48.929 Z0 F1300
G0 Z3.5 F500
G0 X47.039 Y48.576 Z3.5
G1 Z0 F500
G1 X47.216 Z0 F1300
G0 Z3.5 F500
; --- FIX X Backlash ---
G0 X45.916 Y48.576 F1200
G0 X44.325 Y47.515 Z3.5
G1 Z0 F500
; --- FIX X Backlash ---
G0 X45.625 Y47.515 F1200
G1 X46.332 Y47.161 Z0 F1300
G0 Z3.5 F500
; --- FIX Y Backlash ---
G0 X46.332 Y48.461 F1200
G0 X49.691 Y49.699 Z3.5
G1 Z0 F500
; --- FIX Y Backlash ---
G0 X49.691 Y48.399 F1200
G1 X50.398 Y48.045 Z0 F1300
G0 Z3.5 F500
G0 X50.928 Y47.338 Z3.5
G1 Z0 F500
G1 X51.105 Z0 F1300
G0 Z3.5 F500
; --- FIX Y Backlash ---
G0 X51.105 Y48.638 F1200
G0 X53.934 Y49.168 Z3.5
G1 Z0 F500
; --- FIX Y Backlash ---
G0 X53.934 Y47.868 F1200
G1 X54.287 Y47.692 Z0 F1300
G0 Z3.5 F500
G0 X56.409 Z3.5
G1 Z0 F500
G1 X56.939 Y47.338 Z0 F1300
G0 Z3.5 F500
; --- FIX X Backlash ---
G0 X55.639 Y47.338 F1200
G0 X54.402 Y45.216 Z3.5
G1 Z0 F500
; --- FIX X Backlash ---
G0 X55.702 Y45.216 F1200
G1 X56.409 Y45.04 Z0 F1300
G0 Z3.5 F500
; --- FIX X Backlash ---
G0 X55.109 Y45.04 F1200
G0 X51.573 Y44.509 Z3.5
G1 Z0 F500
; --- FIX Y Backlash ---
G0 X51.573 Y45.809 F1200
G1 X48.921 Y46.693 Z0 F1300
G0 Z3.5 F500
; --- FIX Y Backlash ---
G0 X48.921 Y45.393 F1200
G0 X46.8 Y44.509 Z3.5
G1 Z0 F500
; --- FIX Y Backlash ---
G0 X46.8 Y45.809 F1200
G1 X40.612 Y48.638 Z0 F1300
G0 Z3.5 F500
; --- FIX X Backlash ---
G0 X41.912 Y48.638 F1200
; --- FIX Y Backlash ---
G0 X41.912 Y47.338 F1200
G0 X42.973 Y45.216 Z3.5
G1 Z0 F500
G1 X47.216 Y43.979 Z0 F1300
G0 Z3.5 F500
G0 X50.752 Y41.681 Z3.5
G1 Z0 F500
G1 X52.873 Y40.973 Z0 F1300
G0 Z3.5 F500
G0 X53.404 Y40.797 Z3.5
G1 Z0 F500
G1 X55.702 Y39.736 Z0 F1300
G0 Z3.5 F500
; --- FIX X Backlash ---
G0 X54.402 Y39.736 F1200
G0 X51.396 Y37.614 Z3.5
G1 Z0 F500
; --- FIX Y Backlash ---
G0 X51.396 Y38.914 F1200
G1 X50.512 Y39.268 Z0 F1300
G0 Z3.5 F500
; --- FIX X Backlash ---
G0 X51.812 Y39.268 F1200
; --- FIX Y Backlash ---
G0 X51.812 Y37.968 F1200
G0 X53.934 Y35.846 Z3.5
G1 Z0 F500
G1 X55.171 Y35.316 Z0 F1300
G0 Z3.5 F500
; --- FIX Y Backlash ---
G0 X55.171 Y36.616 F1200
G0 X60.475 Y37.323 Z3.5
G1 Z0 F500
; --- FIX Y Backlash ---
G0 X60.475 Y36.023 F1200
G1 X64.011 Y34.609 Z0 F1300
G0 Z3.5 F500
; --- FIX Y Backlash ---
G0 X64.011 Y35.909 F1200
G0 X65.779 Y36.262 Z3.5
G1 Z0 F500
; --- FIX Y Backlash ---
G0 X65.779 Y34.962 F1200
G1 X66.663 Y34.432 Z0 F1300
G0 Z3.5 F500
; --- FIX X Backlash ---
G0 X65.363 Y34.432 F1200
; --- FIX Y Backlash ---
G0 X65.363 Y35.732 F1200
G0 X65.009 Y36.616 Z3.5
G1 Z0 F500
; --- FIX X Backlash ---
G0 X66.309 Y36.616 F1200
; --- FIX Y Backlash ---
G0 X66.309 Y35.316 F1200
G1 X68.961 Y34.432 Z0 F1300
G0 Z3.5 F500
; --- FIX X Backlash ---
G0 X67.661 Y34.432 F1200
; --- FIX Y Backlash ---
G0 X67.661 Y35.732 F1200
G0 X66.601 Y40.329 Z3.5
G1 Z0 F500
G1 X66.606 Y41.015 Z0 F1300
G1 X66.622 Y41.75 Z0 F1300
G1 X66.646 Y42.529 Z0 F1300
G1 X66.676 Y43.344 Z0 F1300
; --- FIX X Backlash ---
G0 X67.976 Y43.344 F1200
G1 X68.045 Y45.055 Z0 F1300
G1 X68.113 Y46.827 Z0 F1300
G1 X68.164 Y48.604 Z0 F1300
G1 X68.18 Y50.331 Z0 F1300
G1 X68.17 Y51.158 Z0 F1300
G1 X68.145 Y51.952 Z0 F1300
G1 X68.103 Y52.705 Z0 F1300
; --- FIX X Backlash ---
G0 X66.803 Y52.705 F1200
G1 X66.743 Y53.411 Z0 F1300
G1 X66.647 Y54.625 Z0 F1300
G1 X66.606 Y55.792 Z0 F1300
G1 X66.598 Y56.962 Z0 F1300
G1 X66.601 Y58.185 Z0 F1300
G0 Z3.5 F500
; --- FIX X Backlash ---
G0 X67.901 Y58.185 F1200
; --- FIX Y Backlash ---
G0 X67.901 Y56.885 F1200
G0 X74.796 Y56.178 Z3.5
G1 Z0 F500
; --- FIX Y Backlash ---
G0 X74.796 Y57.478 F1200
G1 X74.888 Y57.804 Z0 F1300
G1 X74.991 Y58.102 Z0 F1300
G1 X75.106 Y58.379 Z0 F1300
G1 X75.24 Y58.638 Z0 F1300
G1 X75.395 Y58.885 Z0 F1300
G1 X75.576 Y59.124 Z0 F1300
G1 X75.788 Y59.36 Z0 F1300
G1 X76.033 Y59.599 Z0 F1300
G0 Z3.5 F500
G0 X77.271 Y60.13 Z3.5
G1 Z0 F500
; --- FIX Y Backlash ---
G0 X77.271 Y58.83 F1200
G1 X77.978 Y58.122 Z0 F1300
; --- FIX X Backlash ---
G0 X76.678 Y58.122 F1200
G1 X76.432 Y58.02 Z0 F1300
G1 X76.204 Y57.942 Z0 F1300
G1 X75.989 Y57.893 Z0 F1300
G1 X75.78 Y57.881 Z0 F1300
G1 X75.573 Y57.91 Z0 F1300
; --- FIX Y Backlash ---
G0 X75.573 Y59.21 F1200
G1 X75.363 Y59.285 Z0 F1300
G1 X75.144 Y59.413 Z0 F1300
G1 X74.91 Y59.599 Z0 F1300
; --- FIX X Backlash ---
G0 X76.21 Y59.599 F1200
G1 X76.55 Y59.827 Z0 F1300
G1 X76.806 Y60.058 Z0 F1300
G1 X76.989 Y60.297 Z0 F1300
G1 X77.107 Y60.547 Z0 F1300
G1 X77.167 Y60.811 Z0 F1300
G1 X77.18 Y61.093 Z0 F1300
G1 X77.152 Y61.395 Z0 F1300
; --- FIX X Backlash ---
G0 X75.852 Y61.395 F1200
G1 X75.794 Y61.721 Z0 F1300
; --- FIX X Backlash ---
G0 X77.094 Y61.721 F1200
G1 X77.37 Y61.788 Z0 F1300
G1 X77.62 Y61.842 Z0 F1300
G1 X77.846 Y61.884 Z0 F1300
G1 X78.053 Y61.915 Z0 F1300
G1 X78.425 Y61.945 Z0 F1300
G1 X78.767 Y61.941 Z0 F1300
G1 X79.11 Y61.907 Z0 F1300
; --- FIX Y Backlash ---
G0 X79.11 Y60.607 F1200
G1 X79.484 Y60.551 Z0 F1300
G1 X79.922 Y60.478 Z0 F1300
G1 X80.918 Y60.325 Z0 F1300
G1 X81.856 Y60.172 Z0 F1300
G1 X82.111 Y60.136 Z0 F1300
G1 X82.385 Y60.108 Z0 F1300
G1 X82.707 Y60.085 Z0 F1300
G1 X83.105 Y60.067 Z0 F1300
G0 Z3.5 F500
; --- FIX Y Backlash ---
G0 X83.105 Y61.367 F1200
G0 X85.58 Y61.721 Z3.5
G1 Z0 F500
; --- FIX Y Backlash ---
G0 X85.58 Y60.421 F1200
G1 X85.757 Y54.233 Z0 F1300
G0 Z3.5 F500
G0 X85.934 Y53.703 Z3.5
G1 Z0 F500
G1 Y52.465 Z0 F1300
G0 Z3.5 F500
; --- FIX X Backlash ---
G0 X84.634 Y52.465 F1200
; --- FIX Y Backlash ---
G0 X84.634 Y53.765 F1200
G0 X82.158 Y55.356 Z3.5
G1 Z0 F500
; --- FIX Y Backlash ---
G0 X82.158 Y54.056 F1200
G1 X82.146 Y52.769 Z0 F1300
G1 X82.111 Y51.464 Z0 F1300
G1 X82.057 Y50.129 Z0 F1300
G1 X81.988 Y48.752 Z0 F1300
G1 X81.965 Y48.336 Z0 F1300
G1 X81.942 Y47.836 Z0 F1300
G1 X81.926 Y47.282 Z0 F1300
G1 Y46.704 Z0 F1300
G1 X81.95 Y46.132 Z0 F1300
; --- FIX X Backlash ---
G0 X83.25 Y46.132 F1200
G1 X83.305 Y45.598 Z0 F1300
G1 X83.347 Y45.354 Z0 F1300
G1 X83.4 Y45.131 Z0 F1300
G1 X83.465 Y44.932 Z0 F1300
G1 X83.542 Y44.761 Z0 F1300
G1 X83.72 Y44.518 Z0 F1300
G1 X83.958 Y44.323 Z0 F1300
G1 X84.248 Y44.172 Z0 F1300
G1 X84.582 Y44.063 Z0 F1300
G1 X84.954 Y43.99 Z0 F1300
G1 X85.355 Y43.952 Z0 F1300
G1 X85.777 Y43.944 Z0 F1300
G1 X86.213 Y43.964 Z0 F1300
; --- FIX Y Backlash ---
G0 X86.213 Y45.264 F1200
G1 X87.097 Y45.371 Z0 F1300
G1 X87.946 Y45.545 Z0 F1300
G1 X88.338 Y45.649 Z0 F1300
G1 X88.698 Y45.759 Z0 F1300
G1 X89.019 Y45.873 Z0 F1300
G1 X89.293 Y45.986 Z0 F1300
G0 Z3.5 F500
; --- FIX X Backlash ---
G0 X87.993 Y45.986 F1200
; --- FIX Y Backlash ---
G0 X87.993 Y44.686 F1200
G0 X86.932 Y44.509 Z3.5
G1 Z0 F500
; --- FIX Y Backlash ---
G0 X86.932 Y45.809 F1200
G1 Y50.406 Z0 F1300
G0 Z3.5 F500
G0 X85.871 Y50.583 Z3.5
G1 Z0 F500
; --- FIX Y Backlash ---
G0 X85.871 Y49.283 F1200
G1 Y46.984 Z0 F1300
G0 Z3.5 F500
; --- FIX X Backlash ---
G0 X87.171 Y46.984 F1200
G0 X90.353 Z3.5
G1 Z0 F500
; --- FIX X Backlash ---
G0 X89.053 Y46.984 F1200
; --- FIX Y Backlash ---
G0 X89.053 Y48.284 F1200
G1 X88.877 Y52.704 Z0 F1300
G0 Z3.5 F500
; --- FIX X Backlash ---
G0 X90.177 Y52.704 F1200
G0 X92.298 Z3.5
G1 Z0 F500
; --- FIX Y Backlash ---
G0 X92.298 Y51.404 F1200
G1 X92.652 Y46.984 Z0 F1300
G0 Z3.5 F500
; --- FIX X Backlash ---
G0 X91.352 Y46.984 F1200
; --- FIX Y Backlash ---
G0 X91.352 Y48.284 F1200
G0 X89.937 Y49.522 Z3.5
G1 Z0 F500
G1 X89.407 Y57.301 Z0 F1300
G0 Z3.5 F500
G0 X86.932 Z3.5
G1 Z0 F500
G1 Y58.008 Z0 F1300
G0 Z3.5 F500
G0 X86.755 Y58.538 Z3.5
G1 Z0 F500
; --- FIX X Backlash ---
G0 X88.055 Y58.538 F1200
; --- FIX Y Backlash ---
G0 X88.055 Y57.238 F1200
G1 X88.232 Y56.708 Z0 F1300
; --- FIX Y Backlash ---
G0 X88.232 Y58.008 F1200
G1 X88.323 Y58.438 Z0 F1300
G1 X88.39 Y58.906 Z0 F1300
G1 X88.437 Y59.409 Z0 F1300
G1 X88.464 Y59.942 Z0 F1300
G1 X88.474 Y61.075 Z0 F1300
G1 X88.439 Y62.267 Z0 F1300
; --- FIX X Backlash ---
G0 X87.139 Y62.267 F1200
G1 X87.077 Y63.479 Z0 F1300
G1 X87.009 Y64.673 Z0 F1300
G1 X86.979 Y65.25 Z0 F1300
G1 X86.955 Y65.809 Z0 F1300
G1 X86.938 Y66.343 Z0 F1300
G1 X86.932 Y66.848 Z0 F1300
G0 Z3.5 F500
G0 X85.694 Y67.555 Z3.5
G1 Z0 F500
; --- FIX Y Backlash ---
G0 X85.694 Y66.255 F1200
G1 Y64.133 Z0 F1300
G0 Z3.5 F500
; --- FIX X Backlash ---
G0 X86.994 Y64.133 F1200
; --- FIX Y Backlash ---
G0 X86.994 Y65.433 F1200
G0 X89.646 Y65.61 Z3.5
G1 Z0 F500
; --- FIX X Backlash ---
G0 X88.346 Y65.61 F1200
G1 X88.169 Y80.815 Z0 F1300
G0 Z3.5 F500

; Color picking sequence
G1 Z10 F1000;         ; Raise brush
G0 X41 Y5 F1200;    ; Rapid move to color 1
G1 Z10 F1000;         ; Raise brush
G0 X41 Y5 F1200;    ; Rapid move to color 1
G1 Z0 F1000;         ; Lower into color
G1 X40.102 Y7.295 Z0 S800 F1200
G1 X40.026 Y7.642 Z0 F1200
G1 X40 Y8 Z0 F1200
G1 X40.026 Y8.358 Z0 F1200
G1 X40.102 Y8.705 Z0 F1200
G1 X40.225 Y9.041 Z0 F1200
G1 X40.393 Y9.362 Z0 F1200
G1 X40.603 Y9.668 Z0 F1200
G1 X40.854 Y9.957 Z0 F1200
G1 X41.142 Y10.226 Z0 F1200
G1 X41.464 Y10.475 Z0 F1200
G1 X41.82 Y10.701 Z0 F1200
G1 X42.204 Y10.902 Z0 F1200
G1 X42.617 Y11.078 Z0 F1200
G1 X43.054 Y11.225 Z0 F1200
G1 X43.513 Y11.343 Z0 F1200
G1 X43.992 Y11.429 Z0 F1200
G1 X44.489 Y11.482 Z0 F1200
G1 X45 Y11.5 Z0 F1200
G1 X45.511 Y11.482 Z0 F1200
G1 X46.008 Y11.429 Z0 F1200
G1 X46.487 Y11.343 Z0 F1200
G1 X46.946 Y11.225 Z0 F1200
G1 X47.383 Y11.078 Z0 F1200
G1 X47.796 Y10.902 Z0 F1200
G1 X48.18 Y10.701 Z0 F1200
G1 X48.536 Y10.475 Z0 F1200
G1 X48.858 Y10.226 Z0 F1200
G1 X49.146 Y9.957 Z0 F1200
G1 X49.397 Y9.668 Z0 F1200
G1 X49.607 Y9.362 Z0 F1200
G1 X49.775 Y9.041 Z0 F1200
G1 X49.898 Y8.705 Z0 F1200
G1 X49.974 Y8.358 Z0 F1200
G1 X50 Y8 Z0 F1200
G1 X49.974 Y7.642 Z0 F1200
G1 X49.898 Y7.295 Z0 F1200
G1 X49.775 Y6.959 Z0 F1200
G1 X49.607 Y6.638 Z0 F1200
G1 X49.397 Y6.332 Z0 F1200
G1 X49.146 Y6.043 Z0 F1200
G1 X48.858 Y5.774 Z0 F1200
G1 X48.536 Y5.525 Z0 F1200
G1 X48.18 Y5.299 Z0 F1200
G1 X47.796 Y5.098 Z0 F1200
G1 X47.383 Y4.922 Z0 F1200
G1 X46.946 Y4.775 Z0 F1200
G1 X46.487 Y4.657 Z0 F1200
G1 X46.008 Y4.571 Z0 F1200
G1 X45.511 Y4.518 Z0 F1200
G1 X45 Y4.5 Z0 F1200
G1 X44.489 Y4.518 Z0 F1200
G1 X43.992 Y4.571 Z0 F1200
G1 X43.513 Y4.657 Z0 F1200
G1 X43.054 Y4.775 Z0 F1200
G1 X42.617 Y4.922 Z0 F1200
G1 X42.204 Y5.098 Z0 F1200
G1 X41.82 Y5.299 Z0 F1200
G1 X41.464 Y5.525 Z0 F1200
G1 X41.142 Y5.774 Z0 F1200
G1 X40.854 Y6.043 Z0 F1200
G1 X40.603 Y6.332 Z0 F1200
G1 X40.393 Y6.638 Z0 F1200
G1 X40.225 Y6.959 Z0 F1200
G1 Z7 F800;         ; Raise from color
G1 X34 Y8 Z1 F1200;     ; Movement in paint
G1 X24 Y18 Z8 F500;     ; Move in paint
G1 F1200;           ; Set feed rate
G0 Z2.5 F1000 ; Safety Lift
G0 X88.169 Y80.815 F1200 ; Return to pos
G0 X87.462 Y80.991 Z3.5
G1 Z0 F500
G1 Y81.522 Z0 F1300
G0 Z3.5 F500
; --- FIX Y Backlash ---
G0 X87.462 Y80.222 F1200
G0 X87.285 Y79.338 Z3.5
G1 Z0 F500
G1 Y69.614 Z0 F1300
G1 X87.269 Y68.479 Z0 F1300
G1 X87.212 Y67.408 Z0 F1300
G1 X87.165 Y66.903 Z0 F1300
G1 X87.103 Y66.423 Z0 F1300
G1 X87.026 Y65.97 Z0 F1300
G1 X86.932 Y65.548 Z0 F1300
; --- FIX Y Backlash ---
G0 X86.932 Y66.848 F1200
G1 X86.826 Y67.298 Z0 F1300
G1 X86.738 Y67.791 Z0 F1300
G1 X86.665 Y68.32 Z0 F1300
G1 X86.605 Y68.877 Z0 F1300
G1 X86.509 Y70.054 Z0 F1300
G1 X86.426 Y71.268 Z0 F1300
G1 X86.265 Y73.869 Z0 F1300
G1 X86.146 Y76.479 Z0 F1300
G1 X86.073 Y79.091 Z0 F1300
G1 X86.048 Y81.698 Z0 F1300
G0 Z3.5 F500
; --- FIX Y Backlash ---
G0 X86.048 Y80.398 F1200
G0 X85.164 Y80.222 Z3.5
G1 Z0 F500
; --- FIX X Backlash ---
G0 X86.464 Y80.222 F1200
G1 X86.641 Y74.211 Z0 F1300
G0 Z3.5 F500
; --- FIX X Backlash ---
G0 X85.341 Y74.211 F1200
; --- FIX Y Backlash ---
G0 X85.341 Y75.511 F1200
G0 X84.103 Y76.925 Z3.5
G1 Z0 F500
G1 X83.926 Y83.997 Z0 F1300
G0 Z3.5 F500
; --- FIX X Backlash ---
G0 X85.226 Y83.997 F1200
; --- FIX Y Backlash ---
G0 X85.226 Y82.697 F1200
G0 X87.171 Y82.166 Z3.5
G1 Z0 F500
G1 Y81.459 Z0 F1300
G0 Z3.5 F500
; --- FIX X Backlash ---
G0 X85.871 Y81.459 F1200
G0 X82.158 Y81.283 Z3.5
G1 Z0 F500
G1 X81.865 Y81.251 Z0 F1300
G1 X81.611 Y81.231 Z0 F1300
G1 X81.388 Y81.225 Z0 F1300
G1 X81.186 Y81.235 Z0 F1300
; --- FIX Y Backlash ---
G0 X81.186 Y82.535 F1200
G1 X80.804 Y82.607 Z0 F1300
G1 X80.391 Y82.76 Z0 F1300
G0 Z3.5 F500
; --- FIX Y Backlash ---
G0 X80.391 Y81.46 F1200
G0 X79.507 Y81.106 Z3.5
G1 Z0 F500
G1 X78.99 Y81.133 Z0 F1300
G1 X78.529 Z0 F1300
G1 X78.07 Y81.119 Z0 F1300
G1 X77.562 Y81.106 Z0 F1300
G0 Z3.5 F500
G0 X76.147 Y80.575 Z3.5
G1 Z0 F500
; --- FIX X Backlash ---
G0 X77.447 Y80.575 F1200
; --- FIX Y Backlash ---
G0 X77.447 Y81.875 F1200
G1 X77.778 Y82.149 Z0 F1300
G1 X78.048 Y82.452 Z0 F1300
G1 X78.263 Y82.784 Z0 F1300
G1 X78.428 Y83.145 Z0 F1300
G1 X78.548 Y83.535 Z0 F1300
G1 X78.627 Y83.955 Z0 F1300
G1 X78.671 Y84.403 Z0 F1300
G1 X78.685 Y84.881 Z0 F1300
G0 Z3.5 F500
; --- FIX X Backlash ---
G0 X77.385 Y84.881 F1200
; --- FIX Y Backlash ---
G0 X77.385 Y83.581 F1200
G0 X74.556 Y83.404 Z3.5
G1 Z0 F500
G1 X74.147 Y83.395 Z0 F1300
G1 X73.691 Y83.373 Z0 F1300
G1 X73.194 Y83.337 Z0 F1300
G1 X72.666 Y83.292 Z0 F1300
G1 X71.55 Y83.178 Z0 F1300
G1 X70.41 Y83.048 Z0 F1300
G1 X68.802 Y82.859 Z0 F1300
G1 X68.327 Y82.805 Z0 F1300
G1 X67.896 Y82.761 Z0 F1300
G1 X67.518 Y82.726 Z0 F1300
G1 X67.201 Y82.704 Z0 F1300
G1 X66.954 Y82.697 Z0 F1300
G0 Z3.5 F500
G0 Y81.99 Z3.5
G1 Z0 F500
; --- FIX X Backlash ---
G0 X68.254 Y81.99 F1200
G1 X68.428 Y81.942 Z0 F1300
G1 X68.61 Y81.896 Z0 F1300
G1 X68.837 Y81.857 Z0 F1300
G1 X69.149 Y81.827 Z0 F1300
G1 X69.71 Y81.819 Z0 F1300
G1 X70.223 Y81.851 Z0 F1300
G1 X70.727 Y81.9 Z0 F1300
; --- FIX Y Backlash ---
G0 X70.727 Y83.2 F1200
G1 X72.479 Y83.345 Z0 F1300
G1 X73.113 Y83.372 Z0 F1300
G1 X73.716 Y83.343 Z0 F1300
G1 X73.996 Y83.298 Z0 F1300
; --- FIX Y Backlash ---
G0 X73.996 Y81.998 F1200
G1 X74.256 Y81.928 Z0 F1300
G1 X74.491 Y81.828 Z0 F1300
G1 X74.697 Y81.694 Z0 F1300
G1 X74.871 Y81.524 Z0 F1300
G1 X75.007 Y81.313 Z0 F1300
G1 X75.101 Y81.057 Z0 F1300
G1 X75.149 Y80.752 Z0 F1300
; --- FIX Y Backlash ---
G0 X75.149 Y82.052 F1200
G1 X75.389 Y82.129 Z0 F1300
G1 X75.569 Y82.241 Z0 F1300
G1 X75.698 Y82.382 Z0 F1300
G1 X75.784 Y82.549 Z0 F1300
G1 X75.854 Y82.941 Z0 F1300
G1 X75.844 Y83.377 Z0 F1300
G1 X75.814 Y83.821 Z0 F1300
G1 X75.827 Y84.235 Z0 F1300
G1 X75.869 Y84.418 Z0 F1300
G1 X75.945 Y84.581 Z0 F1300
G1 X76.062 Y84.717 Z0 F1300
G1 X76.229 Y84.822 Z0 F1300
G1 X76.551 Y84.943 Z0 F1300
G1 X76.936 Y85.049 Z0 F1300
G1 X77.374 Y85.141 Z0 F1300
G1 X77.856 Y85.221 Z0 F1300
G1 X78.912 Y85.349 Z0 F1300
G1 X80.024 Y85.445 Z0 F1300
G1 X80.577 Y85.486 Z0 F1300
G1 X81.625 Y85.559 Z0 F1300
G1 X82.102 Y85.594 Z0 F1300
G1 X82.533 Y85.631 Z0 F1300
G1 X82.91 Y85.67 Z0 F1300
G1 X83.221 Y85.715 Z0 F1300
G1 X83.458 Y85.765 Z0 F1300
G0 Z3.5 F500
; --- FIX X Backlash ---
G0 X82.158 Y85.765 F1200
; --- FIX Y Backlash ---
G0 X82.158 Y84.465 F1200
G0 X80.567 Y83.934 Z3.5
G1 Z0 F500
G1 X80.526 Y83.457 Z0 F1300
G1 X80.417 Y82.961 Z0 F1300
G1 X80.262 Y82.451 Z0 F1300
G1 X80.08 Y81.933 Z0 F1300
G1 X79.894 Y81.41 Z0 F1300
G1 X79.724 Y80.888 Z0 F1300
G1 X79.592 Y80.372 Z0 F1300
G1 X79.519 Y79.867 Z0 F1300
G1 Y79.005 Z0 F1300
G1 X79.566 Y78.204 Z0 F1300
G1 Y77.821 Z0 F1300
G1 X79.525 Y77.448 Z0 F1300
G1 X79.429 Y77.082 Z0 F1300
G1 X79.262 Y76.722 Z0 F1300
G1 X79.125 Y76.515 Z0 F1300
G1 X78.98 Y76.343 Z0 F1300
G1 X78.826 Y76.204 Z0 F1300
G1 X78.665 Y76.096 Z0 F1300
G1 X78.318 Y75.955 Z0 F1300
G1 X77.94 Y75.897 Z0 F1300
G1 X77.533 Z0 F1300
G1 X77.097 Y75.925 Z0 F1300
G1 X76.635 Y75.961 Z0 F1300
G1 X76.147 Y75.979 Z0 F1300
; --- FIX X Backlash ---
G0 X77.447 Y75.979 F1200
; --- FIX Y Backlash ---
G0 X77.447 Y77.279 F1200
G1 X77.54 Y78.271 Z0 F1300
G1 X77.683 Y79.347 Z0 F1300
G1 X77.709 Y79.905 Z0 F1300
G1 X77.671 Y80.471 Z0 F1300
; --- FIX X Backlash ---
G0 X76.371 Y80.471 F1200
G1 X76.32 Y80.756 Z0 F1300
G1 X76.244 Y81.041 Z0 F1300
G1 X76.139 Y81.325 Z0 F1300
G1 X76.002 Y81.609 Z0 F1300
G1 X75.88 Y81.781 Z0 F1300
G1 X75.735 Y81.896 Z0 F1300
G1 X75.571 Y81.963 Z0 F1300
G1 X75.391 Y81.99 Z0 F1300
G1 X74.99 Y81.96 Z0 F1300
; --- FIX Y Backlash ---
G0 X74.99 Y80.66 F1200
G1 X74.556 Y80.575 Z0 F1300
G0 Z3.5 F500
; --- FIX Y Backlash ---
G0 X74.556 Y81.875 F1200
G0 X73.849 Y82.052 Z3.5
G1 Z0 F500
; --- FIX Y Backlash ---
G0 X73.849 Y80.752 F1200
G1 X73.142 Y80.045 Z0 F1300
G0 Z3.5 F500
; --- FIX Y Backlash ---
G0 X73.142 Y81.345 F1200
G0 X70.136 Y81.876 Z3.5
G1 Z0 F500
G1 Y83.113 Z0 F1300
G0 Z3.5 F500
; --- FIX Y Backlash ---
G0 X70.136 Y81.813 F1200
G0 X66.601 Y79.868 Z3.5
G1 Z0 F500
G1 Y79.515 Z0 F1300
G0 Z3.5 F500
; --- FIX X Backlash ---
G0 X67.901 Y79.515 F1200
G0 X70.906 Y75.095 Z3.5
G1 Z0 F500
G1 Y74.582 Z0 F1300
G1 X70.892 Y74.135 Z0 F1300
; --- FIX X Backlash ---
G0 X69.592 Y74.135 F1200
G1 X69.541 Y73.682 Z0 F1300
G1 X69.429 Y73.15 Z0 F1300
G0 Z3.5 F500
G0 X68.192 Y69.791 Z3.5
G1 Z0 F500
G1 Y68.2 Z0 F1300
G0 Z3.5 F500
; --- FIX X Backlash ---
G0 X69.492 Y68.2 F1200
G0 X70.906 Z3.5
G1 Z0 F500
; --- FIX Y Backlash ---
G0 X70.906 Y69.5 F1200
G1 X70.912 Y71.975 Z0 F1300
; --- FIX X Backlash ---
G0 X69.612 Y71.975 F1200
G1 X69.105 Y75.334 Z0 F1300
; --- FIX X Backlash ---
G0 X70.405 Y75.334 F1200
G1 X70.906 Y78.693 Z0 F1300
G0 Z3.5 F500
; --- FIX Y Backlash ---
G0 X70.906 Y77.393 F1200
G0 X74.796 Y75.802 Z3.5
G1 Z0 F500
G1 X77.271 Z0 F1300
G0 Z3.5 F500
G0 X77.447 Y75.625 Z3.5
G1 Z0 F500
G1 X77.44 Y75.401 Z0 F1300
G1 X77.421 Y75.148 Z0 F1300
G1 X77.393 Y74.871 Z0 F1300
; --- FIX X Backlash ---
G0 X76.093 Y74.871 F1200
G1 X75.984 Y73.94 Z0 F1300
G1 X75.923 Y73.282 Z0 F1300
G1 X75.899 Y72.64 Z0 F1300
G1 X75.936 Y72.049 Z0 F1300
G1 X75.985 Y71.785 Z0 F1300
; --- FIX X Backlash ---
G0 X77.285 Y71.785 F1200
G1 X77.359 Y71.548 Z0 F1300
G1 X77.461 Y71.343 Z0 F1300
G1 X77.593 Y71.174 Z0 F1300
G1 X77.786 Y71.027 Z0 F1300
G1 X78.041 Y70.906 Z0 F1300
G1 X78.348 Y70.809 Z0 F1300
G1 X78.699 Y70.734 Z0 F1300
G1 X79.501 Y70.639 Z0 F1300
G1 X80.378 Y70.603 Z0 F1300
G1 X81.262 Y70.607 Z0 F1300
G1 X82.086 Y70.632 Z0 F1300
G1 X83.06 Y70.671 Z0 F1300
G1 X83.282 Y70.675 Z0 F1300
G0 Z3.5 F500
; --- FIX Y Backlash ---
G0 X83.282 Y71.975 F1200
G0 X84.342 Y73.743 Z3.5
G1 Z0 F500
; --- FIX Y Backlash ---
G0 X84.342 Y72.443 F1200
G1 X84.696 Y58.299 Z0 F1300
G0 Z3.5 F500
; --- FIX X Backlash ---
G0 X83.396 Y58.299 F1200
; --- FIX Y Backlash ---
G0 X83.396 Y59.599 F1200
G0 X76.855 Y59.776 Z3.5
G1 Z0 F500
; --- FIX X Backlash ---
G0 X78.155 Y59.776 F1200
; --- FIX Y Backlash ---
G0 X78.155 Y58.476 F1200
G1 X78.431 Y58.211 Z0 F1300
G1 X78.627 Y57.892 Z0 F1300
G1 X78.756 Y57.527 Z0 F1300
G1 X78.83 Y57.124 Z0 F1300
G1 X78.872 Y56.237 Z0 F1300
G1 X78.862 Y55.294 Z0 F1300
G0 Z3.5 F500
; --- FIX X Backlash ---
G0 X77.562 Y55.294 F1200
; --- FIX Y Backlash ---
G0 X77.562 Y56.594 F1200
G0 X76.678 Y57.124 Z3.5
G1 Z0 F500
G1 Y57.478 Z0 F1300
G0 Z3.5 F500
; --- FIX Y Backlash ---
G0 X76.678 Y56.178 F1200
G0 X75.971 Y56.001 Z3.5
G1 Z0 F500
; --- FIX X Backlash ---
G0 X77.271 Y56.001 F1200
; --- FIX Y Backlash ---
G0 X77.271 Y57.301 F1200
G1 X77.447 Y58.008 Z0 F1300
G0 Z3.5 F500
; --- FIX X Backlash ---
G0 X76.147 Y58.008 F1200
; --- FIX Y Backlash ---
G0 X76.147 Y56.708 F1200
G0 X75.44 Y56.531 Z3.5
G1 Z0 F500
G1 X75.178 Y56.407 Z0 F1300
G1 X74.954 Y56.285 Z0 F1300
G1 X74.761 Y56.157 Z0 F1300
G1 X74.592 Y56.013 Z0 F1300
G1 X74.441 Y55.846 Z0 F1300
G1 X74.301 Y55.646 Z0 F1300
G1 X74.165 Y55.406 Z0 F1300
G1 X74.026 Y55.117 Z0 F1300
G0 Z3.5 F500
; --- FIX X Backlash ---
G0 X75.326 Y55.117 F1200
; --- FIX Y Backlash ---
G0 X75.326 Y56.417 F1200
G0 X76.917 Y56.594 Z3.5
G1 Z0 F500
; --- FIX Y Backlash ---
G0 X76.917 Y55.294 F1200
G1 Y54.94 Z0 F1300
G0 Z3.5 F500
; --- FIX X Backlash ---
G0 X75.617 Y54.94 F1200
G0 X75.087 Y53.879 Z3.5
G1 Z0 F500
; --- FIX X Backlash ---
G0 X76.387 Y53.879 F1200
G1 X76.537 Y53.738 Z0 F1300
G1 X76.658 Y53.616 Z0 F1300
G1 X76.756 Y53.505 Z0 F1300
G1 X76.836 Y53.397 Z0 F1300
G1 X76.966 Y53.155 Z0 F1300
G1 X77.094 Y52.819 Z0 F1300
G0 Z3.5 F500
; --- FIX Y Backlash ---
G0 X77.094 Y54.119 F1200
G0 X78.155 Y54.295 Z3.5
G1 Z0 F500
G1 X78.444 Y54.782 Z0 F1300
G1 X78.693 Y55.192 Z0 F1300
G1 X78.924 Y55.531 Z0 F1300
G1 X79.16 Y55.8 Z0 F1300
G1 X79.426 Y56.002 Z0 F1300
G1 X79.744 Y56.141 Z0 F1300
G1 X79.93 Y56.188 Z0 F1300
G1 X80.138 Y56.219 Z0 F1300
G1 X80.37 Y56.237 Z0 F1300
G1 X80.63 Y56.24 Z0 F1300
G1 X80.602 Y57.46 Z0 F1300
; --- FIX X Backlash ---
G0 X79.302 Y57.46 F1200
G1 X79.209 Y59.207 Z0 F1300
G1 X79.181 Y59.853 Z0 F1300
G1 X79.161 Y60.566 Z0 F1300
G1 X79.153 Y61.367 Z0 F1300
G1 Y63.135 Z0 F1300
; --- FIX X Backlash ---
G0 X80.453 Y63.135 F1200
G1 X80.509 Y65.373 Z0 F1300
G1 X80.751 Y69.944 Z0 F1300
G1 X80.807 Y72.152 Z0 F1300
G1 Y77.455 Z0 F1300
G1 X83.282 Z0 F1300
G0 Z3.5 F500

; Color picking sequence
G1 Z10 F1000;         ; Raise brush
G0 X41 Y5 F1200;    ; Rapid move to color 1
G1 Z10 F1000;         ; Raise brush
G0 X41 Y5 F1200;    ; Rapid move to color 1
G1 Z0 F1000;         ; Lower into color
G1 X40.102 Y7.295 Z0 S800 F1200
G1 X40.026 Y7.642 Z0 F1200
G1 X40 Y8 Z0 F1200
G1 X40.026 Y8.358 Z0 F1200
G1 X40.102 Y8.705 Z0 F1200
G1 X40.225 Y9.041 Z0 F1200
G1 X40.393 Y9.362 Z0 F1200
G1 X40.603 Y9.668 Z0 F1200
G1 X40.854 Y9.957 Z0 F1200
G1 X41.142 Y10.226 Z0 F1200
G1 X41.464 Y10.475 Z0 F1200
G1 X41.82 Y10.701 Z0 F1200
G1 X42.204 Y10.902 Z0 F1200
G1 X42.617 Y11.078 Z0 F1200
G1 X43.054 Y11.225 Z0 F1200
G1 X43.513 Y11.343 Z0 F1200
G1 X43.992 Y11.429 Z0 F1200
G1 X44.489 Y11.482 Z0 F1200
G1 X45 Y11.5 Z0 F1200
G1 X45.511 Y11.482 Z0 F1200
G1 X46.008 Y11.429 Z0 F1200
G1 X46.487 Y11.343 Z0 F1200
G1 X46.946 Y11.225 Z0 F1200
G1 X47.383 Y11.078 Z0 F1200
G1 X47.796 Y10.902 Z0 F1200
G1 X48.18 Y10.701 Z0 F1200
G1 X48.536 Y10.475 Z0 F1200
G1 X48.858 Y10.226 Z0 F1200
G1 X49.146 Y9.957 Z0 F1200
G1 X49.397 Y9.668 Z0 F1200
G1 X49.607 Y9.362 Z0 F1200
G1 X49.775 Y9.041 Z0 F1200
G1 X49.898 Y8.705 Z0 F1200
G1 X49.974 Y8.358 Z0 F1200
G1 X50 Y8 Z0 F1200
G1 X49.974 Y7.642 Z0 F1200
G1 X49.898 Y7.295 Z0 F1200
G1 X49.775 Y6.959 Z0 F1200
G1 X49.607 Y6.638 Z0 F1200
G1 X49.397 Y6.332 Z0 F1200
G1 X49.146 Y6.043 Z0 F1200
G1 X48.858 Y5.774 Z0 F1200
G1 X48.536 Y5.525 Z0 F1200
G1 X48.18 Y5.299 Z0 F1200
G1 X47.796 Y5.098 Z0 F1200
G1 X47.383 Y4.922 Z0 F1200
G1 X46.946 Y4.775 Z0 F1200
G1 X46.487 Y4.657 Z0 F1200
G1 X46.008 Y4.571 Z0 F1200
G1 X45.511 Y4.518 Z0 F1200
G1 X45 Y4.5 Z0 F1200
G1 X44.489 Y4.518 Z0 F1200
G1 X43.992 Y4.571 Z0 F1200
G1 X43.513 Y4.657 Z0 F1200
G1 X43.054 Y4.775 Z0 F1200
G1 X42.617 Y4.922 Z0 F1200
G1 X42.204 Y5.098 Z0 F1200
G1 X41.82 Y5.299 Z0 F1200
G1 X41.464 Y5.525 Z0 F1200
G1 X41.142 Y5.774 Z0 F1200
G1 X40.854 Y6.043 Z0 F1200
G1 X40.603 Y6.332 Z0 F1200
G1 X40.393 Y6.638 Z0 F1200
G1 X40.225 Y6.959 Z0 F1200
G1 Z7 F800;         ; Raise from color
G1 X34 Y8 Z1 F1200;     ; Movement in paint
G1 X24 Y18 Z8 F500;     ; Move in paint
G1 F1200;           ; Set feed rate
G0 Z2.5 F1000 ; Safety Lift
G0 X83.282 Y77.455 F1200 ; Return to pos
; --- FIX Y Backlash ---
G0 X83.282 Y76.155 F1200
G0 X91.414 Y71.736 Z3.5
G1 Z0 F500
G1 X91.469 Y68.068 Z0 F1300
G1 X91.711 Y60.73 Z0 F1300
G1 X91.792 Y55.575 Z0 F1300
G1 X91.875 Y54.036 Z0 F1300
G1 X91.944 Y53.294 Z0 F1300
G1 X92.037 Y52.596 Z0 F1300
G1 X92.154 Y51.96 Z0 F1300
G1 X92.298 Y51.405 Z0 F1300
; --- FIX Y Backlash ---
G0 X92.298 Y52.705 F1200
G1 X92.364 Y53.023 Z0 F1300
G1 X92.417 Y53.396 Z0 F1300
G1 X92.459 Y53.819 Z0 F1300
G1 X92.49 Y54.283 Z0 F1300
G1 X92.525 Y55.311 Z0 F1300
G1 X92.532 Y56.426 Z0 F1300
G1 X92.521 Y57.572 Z0 F1300
G1 X92.483 Y59.744 Z0 F1300
G1 X92.477 Y60.222 Z0 F1300
G1 Y60.66 Z0 F1300
; --- FIX X Backlash ---
G0 X91.177 Y60.66 F1200
G1 X91.12 Y66.272 Z0 F1300
G1 X90.877 Y77.501 Z0 F1300
G1 X90.821 Y83.113 Z0 F1300
G0 Z3.5 F500
; --- FIX X Backlash ---
G0 X92.121 Y83.113 F1200
G0 X93.182 Y83.466 Z3.5
G1 Z0 F500
; --- FIX Y Backlash ---
G0 X93.182 Y82.166 F1200
G1 X93.713 Y57.592 Z0 F1300
G0 Z3.5 F500
; --- FIX Y Backlash ---
G0 X93.713 Y58.892 F1200
G0 X94.42 Y64.726 Z3.5
G1 Z0 F500
; --- FIX X Backlash ---
G0 X93.12 Y64.726 F1200
G1 X92.943 Y71.621 Z0 F1300
G0 Z3.5 F500
; --- FIX X Backlash ---
G0 X94.243 Y71.621 F1200
G0 X95.657 Y72.505 Z3.5
G1 Z0 F500
; --- FIX Y Backlash ---
G0 X95.657 Y71.205 F1200
G1 X96.18 Y67.316 Z0 F1300
G1 X96.364 Y64.664 Z0 F1300
G0 Z3.5 F500
; --- FIX X Backlash ---
G0 X95.064 Y64.664 F1200
; --- FIX Y Backlash ---
G0 X95.064 Y65.964 F1200
G0 X94.004 Y67.732 Z3.5
G1 Z0 F500
G1 Y68.439 Z0 F1300
G0 Z3.5 F500
; --- FIX X Backlash ---
G0 X95.304 Y68.439 F1200
G0 X96.188 Y69.676 Z3.5
G1 Z0 F500
G1 X96.304 Y70.275 Z0 F1300
G1 X96.355 Y70.873 Z0 F1300
G1 X96.364 Y71.193 Z0 F1300
G1 Y71.536 Z0 F1300
G1 Y72.328 Z0 F1300
G0 Z3.5 F500
G0 X103.436 Y74.98 Z3.5
G1 Z0 F500
G1 X111.569 Z0 F1300
G0 Z3.5 F500
G0 X112.629 Y75.334 Z3.5
G1 Z0 F500
; --- FIX Y Backlash ---
G0 X112.629 Y74.034 F1200
G1 Y71.559 Z0 F1300
G0 Z3.5 F500
; --- FIX Y Backlash ---
G0 X112.629 Y72.859 F1200
G0 X114.928 Y73.92 Z3.5
G1 Z0 F500
; --- FIX Y Backlash ---
G0 X114.928 Y72.62 F1200
G1 X114.934 Y71.734 Z0 F1300
G1 X114.931 Y71.344 Z0 F1300
G1 X114.914 Y70.979 Z0 F1300
G1 X114.877 Y70.632 Z0 F1300
; --- FIX X Backlash ---
G0 X113.577 Y70.632 F1200
G1 X113.513 Y70.294 Z0 F1300
G1 X113.414 Y69.957 Z0 F1300
G1 X113.274 Y69.614 Z0 F1300
; --- FIX Y Backlash ---
G0 X113.274 Y70.914 F1200
G1 X113.173 Y71.187 Z0 F1300
G1 X113.09 Y71.49 Z0 F1300
G1 X113.023 Y71.819 Z0 F1300
G1 X112.971 Y72.168 Z0 F1300
G1 X112.904 Y72.913 Z0 F1300
G1 X112.877 Y73.69 Z0 F1300
G1 Y74.461 Z0 F1300
G1 X112.893 Y75.193 Z0 F1300
G1 X112.912 Y75.849 Z0 F1300
G1 X112.918 Y76.138 Z0 F1300
G1 X112.921 Y76.395 Z0 F1300
G0 Z3.5 F500
; --- FIX Y Backlash ---
G0 X112.921 Y75.095 F1200
G0 X112.39 Y74.741 Z3.5
G1 Z0 F500
G1 X112.341 Y74.237 Z0 F1300
G1 X112.325 Y73.783 Z0 F1300
G1 X112.329 Y73.361 Z0 F1300
G1 X112.34 Y72.95 Z0 F1300
G1 X112.346 Y72.532 Z0 F1300
G1 X112.335 Y72.085 Z0 F1300
G1 X112.295 Y71.59 Z0 F1300
G1 X112.098 Y70.221 Z0 F1300
G1 X112.027 Y69.388 Z0 F1300
G1 X111.993 Y68.535 Z0 F1300
G1 X111.984 Y67.667 Z0 F1300
G1 X112.011 Y65.903 Z0 F1300
G1 X112.037 Y64.133 Z0 F1300
G0 Z3.5 F500
; --- FIX X Backlash ---
G0 X113.337 Y64.133 F1200
; --- FIX Y Backlash ---
G0 X113.337 Y65.433 F1200
G0 X114.397 Y66.671 Z3.5
G1 Z0 F500
G1 Y67.555 Z0 F1300
G0 Z3.5 F500
; --- FIX X Backlash ---
G0 X113.097 Y67.555 F1200
G0 X112.921 Y67.732 Z3.5
G1 Z0 F500
; --- FIX Y Backlash ---
G0 X112.921 Y66.432 F1200
G1 X112.567 Y65.725 Z0 F1300
G0 Z3.5 F500
; --- FIX X Backlash ---
G0 X113.867 Y65.725 F1200
; --- FIX Y Backlash ---
G0 X113.867 Y67.025 F1200
G0 X115.635 Y67.909 Z3.5
G1 Z0 F500
; --- FIX Y Backlash ---
G0 X115.635 Y66.609 F1200
G1 X116.696 Y62.189 Z0 F1300
G0 Z3.5 F500
; --- FIX X Backlash ---
G0 X115.396 Y62.189 F1200
G0 X114.158 Z3.5
G1 Z0 F500
G1 Y61.482 Z0 F1300
G0 Z3.5 F500
; --- FIX X Backlash ---
G0 X115.458 Y61.482 F1200
G0 X115.812 Y61.128 Z3.5
G1 Z0 F500
G1 X115.816 Y60.65 Z0 F1300
G1 X115.829 Y60.258 Z0 F1300
G1 X115.853 Y59.936 Z0 F1300
G1 X115.888 Y59.668 Z0 F1300
G1 X115.997 Y59.234 Z0 F1300
G1 X116.165 Y58.83 Z0 F1300
G0 Z3.5 F500
G0 X117.049 Y58.653 Z3.5
G1 Z0 F500
G1 Y55.824 Z0 F1300
G0 Z3.5 F500
; --- FIX X Backlash ---
G0 X115.749 Y55.824 F1200
G0 X114.689 Y55.647 Z3.5
G1 Z0 F500
G1 X114.335 Z0 F1300
G0 Z3.5 F500
; --- FIX Y Backlash ---
G0 X114.335 Y56.947 F1200
G0 Y57.478 Z3.5
G1 Z0 F500
; --- FIX Y Backlash ---
G0 X114.335 Y56.178 F1200
G1 X114.158 Y55.471 Z0 F1300
G1 X113.805 Z0 F1300
; --- FIX Y Backlash ---
G0 X113.805 Y56.771 F1200
G1 X113.709 Y57.203 Z0 F1300
G1 X113.634 Y57.66 Z0 F1300
G1 X113.576 Y58.142 Z0 F1300
G1 X113.533 Y58.645 Z0 F1300
G1 X113.479 Y59.709 Z0 F1300
G1 X113.451 Y60.837 Z0 F1300
G0 Z3.5 F500
; --- FIX Y Backlash ---
G0 X113.451 Y59.537 F1200
G0 X112.213 Y59.183 Z3.5
G1 Z0 F500
G1 Y56.531 Z0 F1300
G0 Z3.5 F500
; --- FIX Y Backlash ---
G0 X112.213 Y57.831 F1200
G0 X111.683 Y58.715 Z3.5
G1 Z0 F500
G1 X111.506 Y59.599 Z0 F1300
G0 Z3.5 F500
G0 X110.092 Y59.776 Z3.5
G1 Z0 F500
; --- FIX Y Backlash ---
G0 X110.092 Y58.476 F1200
G1 Y57.592 Z0 F1300
G0 Z3.5 F500
; --- FIX Y Backlash ---
G0 X110.092 Y58.892 F1200
G0 X109.385 Y59.069 Z3.5
G1 Z0 F500
G1 Y61.544 Z0 F1300
G0 Z3.5 F500
; --- FIX Y Backlash ---
G0 X109.385 Y60.244 F1200
G0 X108.854 Y59.714 Z3.5
G1 Z0 F500
; --- FIX Y Backlash ---
G0 X108.854 Y61.014 F1200
G1 X108.678 Y62.605 Z0 F1300
G0 Z3.5 F500
; --- FIX Y Backlash ---
G0 X108.678 Y61.305 F1200
G0 X108.147 Y61.128 Z3.5
G1 Z0 F500
; --- FIX X Backlash ---
G0 X109.447 Y61.128 F1200
G1 X109.624 Y58.476 Z0 F1300
G0 Z3.5 F500

; Color picking sequence
G1 Z10 F1000;         ; Raise brush
G0 X41 Y5 F1200;    ; Rapid move to color 1
G1 Z10 F1000;         ; Raise brush
G0 X41 Y5 F1200;    ; Rapid move to color 1
G1 Z0 F1000;         ; Lower into color
G1 X40.102 Y7.295 Z0 S800 F1200
G1 X40.026 Y7.642 Z0 F1200
G1 X40 Y8 Z0 F1200
G1 X40.026 Y8.358 Z0 F1200
G1 X40.102 Y8.705 Z0 F1200
G1 X40.225 Y9.041 Z0 F1200
G1 X40.393 Y9.362 Z0 F1200
G1 X40.603 Y9.668 Z0 F1200
G1 X40.854 Y9.957 Z0 F1200
G1 X41.142 Y10.226 Z0 F1200
G1 X41.464 Y10.475 Z0 F1200
G1 X41.82 Y10.701 Z0 F1200
G1 X42.204 Y10.902 Z0 F1200
G1 X42.617 Y11.078 Z0 F1200
G1 X43.054 Y11.225 Z0 F1200
G1 X43.513 Y11.343 Z0 F1200
G1 X43.992 Y11.429 Z0 F1200
G1 X44.489 Y11.482 Z0 F1200
G1 X45 Y11.5 Z0 F1200
G1 X45.511 Y11.482 Z0 F1200
G1 X46.008 Y11.429 Z0 F1200
G1 X46.487 Y11.343 Z0 F1200
G1 X46.946 Y11.225 Z0 F1200
G1 X47.383 Y11.078 Z0 F1200
G1 X47.796 Y10.902 Z0 F1200
G1 X48.18 Y10.701 Z0 F1200
G1 X48.536 Y10.475 Z0 F1200
G1 X48.858 Y10.226 Z0 F1200
G1 X49.146 Y9.957 Z0 F1200
G1 X49.397 Y9.668 Z0 F1200
G1 X49.607 Y9.362 Z0 F1200
G1 X49.775 Y9.041 Z0 F1200
G1 X49.898 Y8.705 Z0 F1200
G1 X49.974 Y8.358 Z0 F1200
G1 X50 Y8 Z0 F1200
G1 X49.974 Y7.642 Z0 F1200
G1 X49.898 Y7.295 Z0 F1200
G1 X49.775 Y6.959 Z0 F1200
G1 X49.607 Y6.638 Z0 F1200
G1 X49.397 Y6.332 Z0 F1200
G1 X49.146 Y6.043 Z0 F1200
G1 X48.858 Y5.774 Z0 F1200
G1 X48.536 Y5.525 Z0 F1200
G1 X48.18 Y5.299 Z0 F1200
G1 X47.796 Y5.098 Z0 F1200
G1 X47.383 Y4.922 Z0 F1200
G1 X46.946 Y4.775 Z0 F1200
G1 X46.487 Y4.657 Z0 F1200
G1 X46.008 Y4.571 Z0 F1200
G1 X45.511 Y4.518 Z0 F1200
G1 X45 Y4.5 Z0 F1200
G1 X44.489 Y4.518 Z0 F1200
G1 X43.992 Y4.571 Z0 F1200
G1 X43.513 Y4.657 Z0 F1200
G1 X43.054 Y4.775 Z0 F1200
G1 X42.617 Y4.922 Z0 F1200
G1 X42.204 Y5.098 Z0 F1200
G1 X41.82 Y5.299 Z0 F1200
G1 X41.464 Y5.525 Z0 F1200
G1 X41.142 Y5.774 Z0 F1200
G1 X40.854 Y6.043 Z0 F1200
G1 X40.603 Y6.332 Z0 F1200
G1 X40.393 Y6.638 Z0 F1200
G1 X40.225 Y6.959 Z0 F1200
G1 Z7 F800;         ; Raise from color
G1 X34 Y8 Z1 F1200;     ; Movement in paint
G1 X24 Y18 Z8 F500;     ; Move in paint
G1 F1200;           ; Set feed rate
G0 Z2.5 F1000 ; Safety Lift
G0 X109.624 Y58.476 F1200 ; Return to pos
; --- FIX X Backlash ---
G0 X108.324 Y58.476 F1200
G0 X107.97 Y57.946 Z3.5
G1 Z0 F500
; --- FIX Y Backlash ---
G0 X107.97 Y59.246 F1200
G1 X107.794 Y62.251 Z0 F1300
G0 Z3.5 F500
; --- FIX Y Backlash ---
G0 X107.794 Y60.951 F1200
G0 X107.263 Y60.598 Z3.5
G1 Z0 F500
; --- FIX X Backlash ---
G0 X108.563 Y60.598 F1200
G1 X108.74 Y55.647 Z0 F1300
G0 Z3.5 F500
; --- FIX X Backlash ---
G0 X107.44 Y55.647 F1200
; --- FIX Y Backlash ---
G0 X107.44 Y56.947 F1200
G0 X106.733 Y57.478 Z3.5
G1 Z0 F500
G1 X106.673 Y57.918 Z0 F1300
G1 X106.62 Y58.348 Z0 F1300
G1 X106.598 Y58.578 Z0 F1300
G1 X106.579 Y58.829 Z0 F1300
G1 X106.565 Y59.108 Z0 F1300
G1 X106.556 Y59.422 Z0 F1300
G0 Z3.5 F500
G0 X105.849 Y60.13 Z3.5
G1 Z0 F500
; --- FIX Y Backlash ---
G0 X105.849 Y58.83 F1200
G1 X105.83 Y58.342 Z0 F1300
G1 X105.791 Y57.756 Z0 F1300
G1 X105.759 Y57.118 Z0 F1300
G1 Y56.47 Z0 F1300
G1 X105.779 Y56.157 Z0 F1300
G1 X105.817 Y55.859 Z0 F1300
; --- FIX X Backlash ---
G0 X107.117 Y55.859 F1200
G1 X107.177 Y55.581 Z0 F1300
G1 X107.261 Y55.329 Z0 F1300
G1 X107.372 Y55.108 Z0 F1300
G1 X107.515 Y54.924 Z0 F1300
G1 X107.692 Y54.782 Z0 F1300
G1 X107.906 Y54.689 Z0 F1300
G1 X108.229 Y54.617 Z0 F1300
G1 X108.6 Y54.571 Z0 F1300
G1 X109.013 Y54.549 Z0 F1300
G1 X109.461 Z0 F1300
; --- FIX Y Backlash ---
G0 X109.461 Y55.849 F1200
G1 X110.43 Y55.908 Z0 F1300
G1 X111.452 Y56.036 Z0 F1300
G1 X112.469 Y56.217 Z0 F1300
G1 X113.425 Y56.439 Z0 F1300
G1 X113.863 Y56.561 Z0 F1300
G1 X114.264 Y56.687 Z0 F1300
G1 X114.621 Y56.817 Z0 F1300
G1 X114.928 Y56.947 Z0 F1300
G0 Z3.5 F500
G0 X118.64 Y59.069 Z3.5
G1 Z0 F500
G1 Y63.489 Z0 F1300
G0 Z3.5 F500
G0 X119.171 Y63.842 Z3.5
G1 Z0 F500
G1 Y64.019 Z0 F1300
G0 Z3.5 F500
; --- FIX Y Backlash ---
G0 X119.171 Y62.719 F1200
G0 X120.055 Y62.542 Z3.5
G1 Z0 F500
; --- FIX X Backlash ---
G0 X118.755 Y62.542 F1200
G1 X118.592 Y58.83 Z0 F1300
; --- FIX X Backlash ---
G0 X119.892 Y58.83 F1200
G1 X120.055 Y56.178 Z0 F1300
G0 Z3.5 F500
G0 X120.939 Z3.5
G1 Z0 F500
; --- FIX X Backlash ---
G0 X119.639 Y56.178 F1200
G1 X118.434 Y56.018 Z0 F1300
G1 X117.19 Y55.838 Z0 F1300
G1 X116.574 Y55.773 Z0 F1300
G1 X115.976 Y55.741 Z0 F1300
G1 X115.403 Y55.753 Z0 F1300
; --- FIX Y Backlash ---
G0 X115.403 Y57.053 F1200
G1 X114.865 Y57.124 Z0 F1300
G1 X114.911 Y57.369 Z0 F1300
G1 X114.943 Y57.582 Z0 F1300
G1 X114.962 Y57.768 Z0 F1300
G1 X114.971 Y57.932 Z0 F1300
G1 X114.962 Y58.211 Z0 F1300
G1 X114.929 Y58.454 Z0 F1300
G1 X114.886 Y58.696 Z0 F1300
G1 X114.846 Y58.973 Z0 F1300
G1 X114.831 Y59.136 Z0 F1300
G1 X114.823 Y59.321 Z0 F1300
G1 Y59.533 Z0 F1300
G1 X114.829 Y59.776 Z0 F1300
G1 X114.861 Y60.342 Z0 F1300
G1 X114.896 Y60.846 Z0 F1300
; --- FIX X Backlash ---
G0 X116.196 Y60.846 F1200
G1 X116.266 Y61.762 Z0 F1300
G1 X116.296 Y62.217 Z0 F1300
G1 X116.32 Y62.701 Z0 F1300
G1 X116.336 Y63.235 Z0 F1300
G1 X116.342 Y63.842 Z0 F1300
G0 Z3.5 F500
; --- FIX X Backlash ---
G0 X115.042 Y63.842 F1200
; --- FIX Y Backlash ---
G0 X115.042 Y62.542 F1200
G0 X113.451 Y62.366 Z3.5
G1 Z0 F500
G1 Y61.305 Z0 F1300
G0 Z3.5 F500
; --- FIX X Backlash ---
G0 X114.751 Y61.305 F1200
G0 X119.171 Y60.774 Z3.5
G1 Z0 F500
G1 X119.348 Y58.476 Z0 F1300
G0 Z3.5 F500
; --- FIX Y Backlash ---
G0 X119.348 Y59.776 F1200
G0 X120.585 Y59.953 Z3.5
G1 Z0 F500
G1 X120.942 Y67.378 Z0 F1300
; --- FIX X Backlash ---
G0 X119.642 Y67.378 F1200
G1 X119.54 Y73.566 Z0 F1300
G1 X119.147 Y75.157 Z0 F1300
G1 X119.108 Y78.339 Z0 F1300
G0 Z3.5 F500
; --- FIX X Backlash ---
G0 X120.408 Y78.339 F1200
G0 X121.116 Z3.5
G1 Z0 F500
; --- FIX Y Backlash ---
G0 X121.116 Y77.039 F1200
G1 Y73.327 Z0 F1300
G0 Z3.5 F500
; --- FIX Y Backlash ---
G0 X121.116 Y74.627 F1200
G0 X121.646 Y74.804 Z3.5
G1 Z0 F500
G1 X121.823 Y79.931 Z0 F1300
G0 Z3.5 F500
; --- FIX X Backlash ---
G0 X120.523 Y79.931 F1200
; --- FIX Y Backlash ---
G0 X120.523 Y78.631 F1200
G0 X119.462 Y78.1 Z3.5
G1 Z0 F500
G1 X119.108 Y77.04 Z0 F1300
; --- FIX Y Backlash ---
G0 X119.108 Y78.34 F1200
G1 X118.936 Y78.719 Z0 F1300
G1 X118.808 Y79.066 Z0 F1300
G1 X118.738 Y79.392 Z0 F1300
G1 Y79.707 Z0 F1300
; --- FIX X Backlash ---
G0 X120.038 Y79.707 F1200
G1 X120.126 Y80.021 Z0 F1300
G1 X120.313 Y80.345 Z0 F1300
G1 X120.447 Y80.515 Z0 F1300
G1 X120.612 Y80.69 Z0 F1300
G1 X120.809 Y80.874 Z0 F1300
G1 X121.039 Y81.066 Z0 F1300
G1 X121.315 Y81.275 Z0 F1300
G1 X121.532 Y81.424 Z0 F1300
G1 X121.701 Y81.537 Z0 F1300
G1 X121.831 Y81.638 Z0 F1300
G1 X121.933 Y81.751 Z0 F1300
G1 X122.018 Y81.901 Z0 F1300
G1 X122.096 Y82.111 Z0 F1300
G1 X122.176 Y82.406 Z0 F1300
G0 Z3.5 F500
; --- FIX X Backlash ---
G0 X120.876 Y82.406 F1200
G0 X119.639 Y82.583 Z3.5
G1 Z0 F500
; --- FIX Y Backlash ---
G0 X119.639 Y81.283 F1200
G1 Y80.222 Z0 F1300
; --- FIX Y Backlash ---
G0 X119.639 Y81.522 F1200
G1 X119.391 Y81.691 Z0 F1300
G1 X119.205 Y81.872 Z0 F1300
G1 X119.128 Y81.992 Z0 F1300
G1 X119.058 Y82.143 Z0 F1300
G1 X118.994 Y82.337 Z0 F1300
G1 X118.932 Y82.583 Z0 F1300
G0 Z3.5 F500
; --- FIX Y Backlash ---
G0 X118.932 Y81.283 F1200
G0 X118.755 Y80.398 Z3.5
G1 Z0 F500
G1 X118.439 Y80.345 Z0 F1300
G1 X118.157 Y80.314 Z0 F1300
G1 X117.899 Y80.302 Z0 F1300
G1 X117.655 Y80.306 Z0 F1300
G1 X117.173 Y80.343 Z0 F1300
; --- FIX Y Backlash ---
G0 X117.173 Y81.643 F1200
G1 X116.633 Y81.698 Z0 F1300
G0 Z3.5 F500
G0 X115.219 Y81.876 Z3.5
G1 Z0 F500
G1 X114.924 Z0 F1300
G1 X114.233 Y81.865 Z0 F1300
G1 X113.849 Y81.862 Z0 F1300
G1 X113.036 Y81.872 Z0 F1300
G1 X112.206 Y81.914 Z0 F1300
G1 X111.801 Y81.953 Z0 F1300
G1 X111.411 Y82.007 Z0 F1300
G1 X111.041 Y82.078 Z0 F1300
G1 X110.7 Y82.167 Z0 F1300
G1 X110.392 Y82.278 Z0 F1300
G1 X110.125 Y82.413 Z0 F1300
G1 X109.905 Y82.572 Z0 F1300
G1 X109.738 Y82.76 Z0 F1300
G0 Z3.5 F500
; --- FIX Y Backlash ---
G0 X109.738 Y81.46 F1200
G0 X109.561 Y80.929 Z3.5
G1 Z0 F500
G1 X109.178 Y80.907 Z0 F1300
G1 X108.806 Y80.855 Z0 F1300
G1 X108.445 Y80.775 Z0 F1300
G1 X108.096 Y80.669 Z0 F1300
G1 X107.428 Y80.395 Z0 F1300
G1 X106.8 Y80.053 Z0 F1300
G1 X106.208 Y79.665 Z0 F1300
G1 X105.648 Y79.255 Z0 F1300
G1 X104.611 Y78.454 Z0 F1300
; --- FIX Y Backlash ---
G0 X104.611 Y79.754 F1200
G1 X104.258 Y80.991 Z0 F1300
G0 Z3.5 F500
G0 X103.727 Y81.345 Z3.5
G1 Z0 F500
; --- FIX Y Backlash ---
G0 X103.727 Y80.045 F1200
G1 X103.551 Y78.631 Z0 F1300
G0 Z3.5 F500
G0 X103.02 Y78.277 Z3.5
G1 Z0 F500
; --- FIX Y Backlash ---
G0 X103.02 Y79.577 F1200
G1 X103.054 Y80.199 Z0 F1300
; --- FIX X Backlash ---
G0 X104.354 Y80.199 F1200
G1 X104.419 Y80.743 Z0 F1300
G1 X104.504 Y81.232 Z0 F1300
G1 X104.692 Y82.135 Z0 F1300
G1 X104.773 Y82.595 Z0 F1300
G1 X104.829 Y83.09 Z0 F1300
G1 X104.851 Y83.643 Z0 F1300
G0 Z3.5 F500
; --- FIX Y Backlash ---
G0 X104.851 Y82.343 F1200
G0 X105.734 Y82.166 Z3.5
G1 Z0 F500
G1 Y80.929 Z0 F1300
G0 Z3.5 F500
; --- FIX Y Backlash ---
G0 X105.734 Y82.229 F1200
G0 X106.795 Y82.406 Z3.5
G1 Z0 F500
; --- FIX Y Backlash ---
G0 X106.795 Y81.106 F1200
G1 Y80.399 Z0 F1300
G0 Z3.5 F500
; --- FIX X Backlash ---
G0 X105.495 Y80.399 F1200
G0 X104.965 Y79.868 Z3.5
G1 Z0 F500
; --- FIX X Backlash ---
G0 X106.265 Y79.868 F1200
; --- FIX Y Backlash ---
G0 X106.265 Y81.168 F1200
G1 X107.326 Y83.82 Z0 F1300
G0 Z3.5 F500
; --- FIX Y Backlash ---
G0 X107.326 Y82.52 F1200
G0 X108.033 Y81.813 Z3.5
G1 Z0 F500
G1 Y80.929 Z0 F1300
G0 Z3.5 F500
; --- FIX X Backlash ---
G0 X106.733 Y80.929 F1200
; --- FIX Y Backlash ---
G0 X106.733 Y82.229 F1200
G0 X106.202 Y82.406 Z3.5
G1 Z0 F500
G1 X105.849 Y82.936 Z0 F1300
G0 Z3.5 F500
; --- FIX Y Backlash ---
G0 X105.849 Y81.636 F1200
G0 X102.666 Y81.106 Z3.5
G1 Z0 F500
G1 X102.688 Y80.438 Z0 F1300
G1 X102.735 Y79.829 Z0 F1300
G1 X102.783 Y79.269 Z0 F1300
G1 X102.805 Y78.748 Z0 F1300
G1 X102.777 Y78.256 Z0 F1300
G1 X102.673 Y77.785 Z0 F1300
G1 X102.585 Y77.553 Z0 F1300
G1 X102.468 Y77.323 Z0 F1300
G1 X102.319 Y77.093 Z0 F1300
G1 X102.136 Y76.863 Z0 F1300
; --- FIX Y Backlash ---
G0 X102.136 Y78.163 F1200
G1 X102.071 Y78.462 Z0 F1300
G1 X102.019 Y78.793 Z0 F1300
G1 X101.978 Y79.15 Z0 F1300
G1 X101.948 Y79.53 Z0 F1300
G1 X101.913 Y80.337 Z0 F1300
G1 X101.905 Y81.179 Z0 F1300
G1 X101.915 Y82.019 Z0 F1300
G1 X101.943 Y83.199 Z0 F1300
G1 X101.957 Y83.879 Z0 F1300
G1 Y84.174 Z0 F1300
G0 Z3.5 F500
G0 X96.125 Y85.058 Z3.5
G1 Z0 F500
; --- FIX Y Backlash ---
G0 X96.125 Y83.758 F1200
G1 Y72.73 Z0 F1300
G1 X96.128 Y63.171 Z0 F1300
G1 X96.125 Y58.653 Z0 F1300
G1 X96.102 Y57.946 Z0 F1300
G1 X96.052 Y57.315 Z0 F1300
G1 X95.996 Y56.69 Z0 F1300
G1 X95.955 Y56.001 Z0 F1300
G1 X95.949 Y54.931 Z0 F1300
G1 X95.984 Y53.808 Z0 F1300
; --- FIX X Backlash ---
G0 X97.284 Y53.808 F1200
G1 X97.397 Y51.476 Z0 F1300
G1 X97.432 Y50.304 Z0 F1300
G1 X97.425 Y49.154 Z0 F1300
G1 X97.399 Y48.592 Z0 F1300
G1 X97.354 Y48.042 Z0 F1300
; --- FIX X Backlash ---
G0 X96.054 Y48.042 F1200
G1 X95.988 Y47.507 Z0 F1300
G1 X95.898 Y46.989 Z0 F1300
G1 X95.837 Y46.763 Z0 F1300
G1 X95.753 Y46.565 Z0 F1300
G1 X95.648 Y46.393 Z0 F1300
G1 X95.524 Y46.245 Z0 F1300
G1 X95.222 Y46.012 Z0 F1300
G1 X94.863 Y45.846 Z0 F1300
G1 X94.025 Y45.638 Z0 F1300
G1 X93.12 Y45.47 Z0 F1300
G1 X92.563 Y45.342 Z0 F1300
G1 X91.522 Y45.087 Z0 F1300
G1 X91.041 Y44.976 Z0 F1300
G1 X90.589 Y44.887 Z0 F1300
G1 X90.167 Y44.826 Z0 F1300
G1 X89.777 Y44.802 Z0 F1300
G1 X89.421 Y44.823 Z0 F1300
; --- FIX Y Backlash ---
G0 X89.421 Y46.123 F1200
G1 X89.1 Y46.196 Z0 F1300
G1 X88.816 Y46.328 Z0 F1300
G1 X88.572 Y46.529 Z0 F1300
G1 X88.368 Y46.804 Z0 F1300
G1 X88.282 Y46.973 Z0 F1300
G1 X88.206 Y47.163 Z0 F1300
G1 X88.142 Y47.376 Z0 F1300
G1 X88.089 Y47.613 Z0 F1300
G1 X88.047 Y47.874 Z0 F1300
G1 X88.017 Y48.161 Z0 F1300
G1 X87.999 Y48.474 Z0 F1300
G1 X87.993 Y48.815 Z0 F1300
G0 Z3.5 F500

; Color picking sequence
G1 Z10 F1000;         ; Raise brush
G0 X41 Y5 F1200;    ; Rapid move to color 1
G1 Z10 F1000;         ; Raise brush
G0 X41 Y5 F1200;    ; Rapid move to color 1
G1 Z0 F1000;         ; Lower into color
G1 X40.102 Y7.295 Z0 S800 F1200
G1 X40.026 Y7.642 Z0 F1200
G1 X40 Y8 Z0 F1200
G1 X40.026 Y8.358 Z0 F1200
G1 X40.102 Y8.705 Z0 F1200
G1 X40.225 Y9.041 Z0 F1200
G1 X40.393 Y9.362 Z0 F1200
G1 X40.603 Y9.668 Z0 F1200
G1 X40.854 Y9.957 Z0 F1200
G1 X41.142 Y10.226 Z0 F1200
G1 X41.464 Y10.475 Z0 F1200
G1 X41.82 Y10.701 Z0 F1200
G1 X42.204 Y10.902 Z0 F1200
G1 X42.617 Y11.078 Z0 F1200
G1 X43.054 Y11.225 Z0 F1200
G1 X43.513 Y11.343 Z0 F1200
G1 X43.992 Y11.429 Z0 F1200
G1 X44.489 Y11.482 Z0 F1200
G1 X45 Y11.5 Z0 F1200
G1 X45.511 Y11.482 Z0 F1200
G1 X46.008 Y11.429 Z0 F1200
G1 X46.487 Y11.343 Z0 F1200
G1 X46.946 Y11.225 Z0 F1200
G1 X47.383 Y11.078 Z0 F1200
G1 X47.796 Y10.902 Z0 F1200
G1 X48.18 Y10.701 Z0 F1200
G1 X48.536 Y10.475 Z0 F1200
G1 X48.858 Y10.226 Z0 F1200
G1 X49.146 Y9.957 Z0 F1200
G1 X49.397 Y9.668 Z0 F1200
G1 X49.607 Y9.362 Z0 F1200
G1 X49.775 Y9.041 Z0 F1200
G1 X49.898 Y8.705 Z0 F1200
G1 X49.974 Y8.358 Z0 F1200
G1 X50 Y8 Z0 F1200
G1 X49.974 Y7.642 Z0 F1200
G1 X49.898 Y7.295 Z0 F1200
G1 X49.775 Y6.959 Z0 F1200
G1 X49.607 Y6.638 Z0 F1200
G1 X49.397 Y6.332 Z0 F1200
G1 X49.146 Y6.043 Z0 F1200
G1 X48.858 Y5.774 Z0 F1200
G1 X48.536 Y5.525 Z0 F1200
G1 X48.18 Y5.299 Z0 F1200
G1 X47.796 Y5.098 Z0 F1200
G1 X47.383 Y4.922 Z0 F1200
G1 X46.946 Y4.775 Z0 F1200
G1 X46.487 Y4.657 Z0 F1200
G1 X46.008 Y4.571 Z0 F1200
G1 X45.511 Y4.518 Z0 F1200
G1 X45 Y4.5 Z0 F1200
G1 X44.489 Y4.518 Z0 F1200
G1 X43.992 Y4.571 Z0 F1200
G1 X43.513 Y4.657 Z0 F1200
G1 X43.054 Y4.775 Z0 F1200
G1 X42.617 Y4.922 Z0 F1200
G1 X42.204 Y5.098 Z0 F1200
G1 X41.82 Y5.299 Z0 F1200
G1 X41.464 Y5.525 Z0 F1200
G1 X41.142 Y5.774 Z0 F1200
G1 X40.854 Y6.043 Z0 F1200
G1 X40.603 Y6.332 Z0 F1200
G1 X40.393 Y6.638 Z0 F1200
G1 X40.225 Y6.959 Z0 F1200
G1 Z7 F800;         ; Raise from color
G1 X34 Y8 Z1 F1200;     ; Movement in paint
G1 X24 Y18 Z8 F500;     ; Move in paint
G1 F1200;           ; Set feed rate
G0 Z2.5 F1000 ; Safety Lift
G0 X87.993 Y48.815 F1200 ; Return to pos
; --- FIX X Backlash ---
G0 X89.293 Y48.815 F1200
; --- FIX Y Backlash ---
G0 X89.293 Y47.515 F1200
G0 X90.53 Y45.393 Z3.5
G1 Z0 F500
G1 Y44.863 Z0 F1300
G0 Z3.5 F500
; --- FIX Y Backlash ---
G0 X90.53 Y46.163 F1200
G0 X97.425 Y47.4 Z3.5
G1 Z0 F500
; --- FIX Y Backlash ---
G0 X97.425 Y46.1 F1200
G1 X97.811 Y45.981 Z0 F1300
G1 X98.483 Y45.777 Z0 F1300
G1 X98.782 Y45.682 Z0 F1300
G1 X99.343 Y45.478 Z0 F1300
G1 X99.9 Y45.217 Z0 F1300
G0 Z3.5 F500
; --- FIX Y Backlash ---
G0 X99.9 Y46.517 F1200
G0 X101.315 Y46.693 Z3.5
G1 Z0 F500
; --- FIX Y Backlash ---
G0 X101.315 Y45.393 F1200
G1 X101.59 Y45.342 Z0 F1300
G1 X101.839 Y45.318 Z0 F1300
G1 X102.071 Y45.322 Z0 F1300
G1 X102.293 Y45.354 Z0 F1300
; --- FIX Y Backlash ---
G0 X102.293 Y46.654 F1200
G1 X102.515 Y46.712 Z0 F1300
G1 X102.745 Y46.797 Z0 F1300
G1 X102.99 Y46.909 Z0 F1300
G1 X103.259 Y47.047 Z0 F1300
G0 Z3.5 F500
; --- FIX Y Backlash ---
G0 X103.259 Y45.747 F1200
G0 X103.79 Y43.625 Z3.5
G1 Z0 F500
G1 X115.989 Y41.294 Z0 F1300
G1 X128.894 Y38.852 Z0 F1300
G0 Z3.5 F500
; --- FIX X Backlash ---
G0 X127.594 Y38.852 F1200
G0 X125.119 Y38.498 Z3.5
G1 Z0 F500
G1 X124.318 Y38.25 Z0 F1300
G1 X123.525 Y37.974 Z0 F1300
G1 X122.74 Y37.674 Z0 F1300
G1 X121.963 Y37.354 Z0 F1300
G1 X120.432 Y36.663 Z0 F1300
G1 X118.932 Y35.927 Z0 F1300
G1 X118.582 Y35.742 Z0 F1300
G1 X118.27 Y35.563 Z0 F1300
G1 X117.706 Y35.223 Z0 F1300
G1 X117.428 Y35.062 Z0 F1300
G1 X117.136 Y34.906 Z0 F1300
G1 X116.817 Y34.755 Z0 F1300
G1 X116.456 Y34.609 Z0 F1300
G0 Z3.5 F500
; --- FIX X Backlash ---
G0 X117.756 Y34.609 F1200
; --- FIX Y Backlash ---
G0 X117.756 Y35.909 F1200
G0 X118.994 Y36.262 Z3.5
G1 Z0 F500
G1 X119.281 Y36.299 Z0 F1300
G1 X119.62 Y36.365 Z0 F1300
G1 X120.006 Y36.459 Z0 F1300
G1 X120.43 Y36.575 Z0 F1300
G1 X121.372 Y36.865 Z0 F1300
G1 X122.393 Y37.208 Z0 F1300
G1 X123.443 Y37.576 Z0 F1300
G1 X124.469 Y37.943 Z0 F1300
G1 X125.419 Y38.28 Z0 F1300
G1 X125.85 Y38.429 Z0 F1300
G1 X126.243 Y38.561 Z0 F1300
G0 Z3.5 F500
G0 X126.596 Y38.738 Z3.5
G1 Z0 F500
G1 X126.773 Z0 F1300
G0 Z3.5 F500
; --- FIX X Backlash ---
G0 X125.473 Y38.738 F1200
G0 X123.351 Y40.152 Z3.5
G1 Z0 F500
; --- FIX Y Backlash ---
G0 X123.351 Y38.852 F1200
G1 X122.291 Y38.498 Z0 F1300
G0 Z3.5 F500
G0 X117.34 Y35.846 Z3.5
G1 Z0 F500
G1 X114.335 Y34.609 Z0 F1300
G0 Z3.5 F500
; --- FIX Y Backlash ---
G0 X114.335 Y35.909 F1200
G0 X113.274 Y36.086 Z3.5
G1 Z0 F500
; --- FIX X Backlash ---
G0 X114.574 Y36.086 F1200
G1 X116.519 Y37.146 Z0 F1300
G0 Z3.5 F500
; --- FIX X Backlash ---
G0 X115.219 Y37.146 F1200
G0 X110.092 Y39.622 Z3.5
G1 Z0 F500
G1 X107.97 Y40.329 Z0 F1300
G0 Z3.5 F500
; --- FIX X Backlash ---
G0 X109.27 Y40.329 F1200
; --- FIX Y Backlash ---
G0 X109.27 Y39.029 F1200
G0 X109.801 Y38.145 Z3.5
G1 Z0 F500
G1 X109.978 Z0 F1300
G0 Z3.5 F500
; --- FIX X Backlash ---
G0 X108.678 Y38.145 F1200
G0 X107.263 Y36.907 Z3.5
G1 Z0 F500
G1 X107.086 Z0 F1300
G0 Z3.5 F500
; --- FIX X Backlash ---
G0 X108.386 Y36.907 F1200
G0 X108.917 Y34.962 Z3.5
G1 Z0 F500
G1 X109.801 Y34.432 Z0 F1300
G0 Z3.5 F500
; --- FIX X Backlash ---
G0 X108.501 Y34.432 F1200
G0 X104.081 Z3.5
G1 Z0 F500
; --- FIX Y Backlash ---
G0 X104.081 Y35.732 F1200
G1 X102.667 Y36.616 Z0 F1300
G0 Z3.5 F500
G0 X100.722 Y39.091 Z3.5
G1 Z0 F500
G1 X96.832 Y40.505 Z0 F1300
G0 Z3.5 F500
; --- FIX Y Backlash ---
G0 X96.832 Y39.205 F1200
G0 X96.302 Y36.907 Z3.5
G1 Z0 F500
; --- FIX Y Backlash ---
G0 X96.302 Y38.207 F1200
G1 X92.059 Y39.622 Z0 F1300
G0 Z3.5 F500
; --- FIX Y Backlash ---
G0 X92.059 Y38.322 F1200
G0 X91.175 Y35.139 Z3.5
G1 Z0 F500
; --- FIX X Backlash ---
G0 X92.475 Y35.139 F1200
G1 X92.829 Y34.962 Z0 F1300
G0 Z3.5 F500
; --- FIX X Backlash ---
G0 X91.529 Y34.962 F1200
; --- FIX Y Backlash ---
G0 X91.529 Y36.262 F1200
G0 X81.805 Y45.809 Z3.5
G1 Z0 F500
G1 X81.377 Y45.824 Z0 F1300
G1 X80.971 Y45.847 Z0 F1300
G1 X80.594 Y45.893 Z0 F1300
G1 X80.253 Y45.98 Z0 F1300
G1 X79.953 Y46.123 Z0 F1300
G1 X79.704 Y46.34 Z0 F1300
G1 X79.6 Y46.48 Z0 F1300
G1 X79.51 Y46.645 Z0 F1300
G1 X79.437 Y46.836 Z0 F1300
G1 X79.38 Y47.056 Z0 F1300
G1 X79.318 Y47.383 Z0 F1300
G1 X79.27 Y47.683 Z0 F1300
G1 X79.236 Y47.96 Z0 F1300
G1 X79.214 Y48.216 Z0 F1300
G1 X79.199 Y48.681 Z0 F1300
G1 X79.214 Y49.106 Z0 F1300
G1 X79.247 Y49.517 Z0 F1300
G1 X79.285 Y49.941 Z0 F1300
G1 X79.317 Y50.405 Z0 F1300
G1 X79.33 Y50.936 Z0 F1300
; --- FIX X Backlash ---
G0 X80.63 Y50.936 F1200
; --- FIX Y Backlash ---
G0 X80.63 Y49.636 F1200
G1 X81.237 Y49.502 Z0 F1300
G1 X81.783 Y49.402 Z0 F1300
G1 X82.326 Y49.331 Z0 F1300
G1 X82.928 Y49.283 Z0 F1300
G0 Z3.5 F500
; --- FIX X Backlash ---
G0 X81.628 Y49.283 F1200
; --- FIX Y Backlash ---
G0 X81.628 Y50.583 F1200
G0 X77.031 Y50.936 Z3.5
G1 Z0 F500
; --- FIX X Backlash ---
G0 X78.331 Y50.936 F1200
; --- FIX Y Backlash ---
G0 X78.331 Y49.636 F1200
G1 X78.628 Y48.737 Z0 F1300
G1 X78.947 Y47.83 Z0 F1300
G1 X79.048 Y47.376 Z0 F1300
G1 X79.074 Y46.921 Z0 F1300
G1 X79.05 Y46.694 Z0 F1300
; --- FIX X Backlash ---
G0 X77.75 Y46.694 F1200
G1 X77.697 Y46.468 Z0 F1300
G1 X77.612 Y46.242 Z0 F1300
G1 X77.492 Y46.016 Z0 F1300
G1 X77.328 Y45.824 Z0 F1300
G1 X77.136 Y45.718 Z0 F1300
G1 X76.923 Y45.683 Z0 F1300
G1 X76.697 Y45.707 Z0 F1300
; --- FIX Y Backlash ---
G0 X76.697 Y47.007 F1200
G1 X76.231 Y47.171 Z0 F1300
G1 X75.794 Y47.4 Z0 F1300
G0 Z3.5 F500
; --- FIX Y Backlash ---
G0 X75.794 Y46.1 F1200
G0 X75.264 Y45.216 Z3.5
G1 Z0 F500
; --- FIX X Backlash ---
G0 X76.564 Y45.216 F1200
G1 X77.978 Y44.686 Z0 F1300
G0 Z3.5 F500
; --- FIX Y Backlash ---
G0 X77.978 Y45.986 F1200
G0 X78.862 Y46.87 Z3.5
G1 Z0 F500
; --- FIX Y Backlash ---
G0 X78.862 Y45.57 F1200
G1 X80.453 Y45.04 Z0 F1300
G0 Z3.5 F500
; --- FIX X Backlash ---
G0 X79.153 Y45.04 F1200
G0 X73.319 Y43.802 Z3.5
G1 Z0 F500
; --- FIX Y Backlash ---
G0 X73.319 Y45.102 F1200
G1 X73.206 Y45.448 Z0 F1300
G1 X73.122 Y45.755 Z0 F1300
G1 X73.061 Y46.03 Z0 F1300
G1 X73.019 Y46.282 Z0 F1300
G1 X72.978 Y46.75 Z0 F1300
G1 X72.965 Y47.224 Z0 F1300
G0 Z3.5 F500
G0 Y47.577 Z3.5
G1 Z0 F500
G1 X72.435 Y47.931 Z0 F1300
G0 Z3.5 F500
; --- FIX Y Backlash ---
G0 X72.435 Y46.631 F1200
G0 X70.844 Y45.57 Z3.5
G1 Z0 F500
; --- FIX Y Backlash ---
G0 X70.844 Y46.87 F1200
G1 X68.899 Y47.754 Z0 F1300
G0 Z3.5 F500
; --- FIX X Backlash ---
G0 X70.199 Y47.754 F1200
G0 X70.376 Y48.638 Z3.5
G1 Z0 F500
; --- FIX X Backlash ---
G0 X69.076 Y48.638 F1200
; --- FIX Y Backlash ---
G0 X69.076 Y47.338 F1200
G1 X68.886 Y47.27 Z0 F1300
G1 X68.726 Y47.189 Z0 F1300
G1 X68.593 Y47.097 Z0 F1300
G1 X68.485 Y46.995 Z0 F1300
G1 X68.333 Y46.761 Z0 F1300
G1 X68.249 Y46.495 Z0 F1300
G1 X68.205 Y45.886 Z0 F1300
G1 X68.192 Y45.216 Z0 F1300
G0 Z3.5 F500
; --- FIX X Backlash ---
G0 X69.492 Y45.216 F1200
G0 X70.553 Y44.333 Z3.5
G1 Z0 F500
G1 X71.083 Z0 F1300
G0 Z3.5 F500
; --- FIX X Backlash ---
G0 X69.783 Y44.333 F1200
; --- FIX Y Backlash ---
G0 X69.783 Y45.633 F1200
G0 X67.131 Y48.992 Z3.5
G1 Z0 F500
; --- FIX X Backlash ---
G0 X68.431 Y48.992 F1200
G1 X68.614 Y48.982 Z0 F1300
G1 X68.782 Y49.001 Z0 F1300
G1 X68.936 Y49.047 Z0 F1300
G1 X69.075 Y49.116 Z0 F1300
G1 X69.312 Y49.316 Z0 F1300
G1 X69.5 Y49.583 Z0 F1300
G1 X69.643 Y49.897 Z0 F1300
G1 X69.745 Y50.24 Z0 F1300
G1 X69.811 Y50.593 Z0 F1300
G1 X69.845 Y50.936 Z0 F1300
G0 Z3.5 F500
; --- FIX Y Backlash ---
G0 X69.845 Y49.636 F1200
G0 X70.906 Y49.46 Z3.5
G1 Z0 F500
G1 X71.301 Y49.363 Z0 F1300
G1 X71.973 Y49.195 Z0 F1300
G1 X72.268 Y49.124 Z0 F1300
G1 X72.821 Y49.008 Z0 F1300
G1 X73.381 Y48.929 Z0 F1300
G0 Z3.5 F500
; --- FIX Y Backlash ---
G0 X73.381 Y50.229 F1200
G0 Y50.76 Z3.5
G1 Z0 F500
G1 X73.486 Y50.983 Z0 F1300
G1 X73.564 Y51.163 Z0 F1300
G1 X73.62 Y51.311 Z0 F1300
G1 X73.658 Y51.44 Z0 F1300
G1 X73.702 Y51.686 Z0 F1300
G1 X73.735 Y51.997 Z0 F1300
G0 Z3.5 F500
; --- FIX X Backlash ---
G0 X72.435 Y51.997 F1200
G0 X71.904 Y52.351 Z3.5
G1 Z0 F500
; --- FIX Y Backlash ---
G0 X71.904 Y51.051 F1200
G1 X71.448 Y50.968 Z0 F1300
G1 X71.042 Y50.938 Z0 F1300
G1 X70.669 Y50.955 Z0 F1300
; --- FIX Y Backlash ---
G0 X70.669 Y52.255 F1200
G1 X70.312 Y52.314 Z0 F1300
G1 X69.955 Y52.411 Z0 F1300
G1 X69.582 Y52.541 Z0 F1300
G1 X69.177 Y52.7 Z0 F1300
G1 X68.722 Y52.881 Z0 F1300
; --- FIX X Backlash ---
G0 X70.022 Y52.881 F1200
G1 X70.906 Y53.765 Z0 F1300
G0 Z3.5 F500
; --- FIX X Backlash ---
G0 X69.606 Y53.765 F1200
; --- FIX Y Backlash ---
G0 X69.606 Y52.465 F1200
G0 X68.722 Y51.758 Z3.5
G1 Z0 F500
G1 X68.467 Y51.786 Z0 F1300
G1 X68.25 Y51.814 Z0 F1300
G1 X68.061 Y51.845 Z0 F1300
G1 X67.888 Y51.88 Z0 F1300
; --- FIX Y Backlash ---
G0 X67.888 Y53.18 F1200
G1 X67.544 Y53.273 Z0 F1300
G1 X67.131 Y53.411 Z0 F1300
G0 Z3.5 F500
; --- FIX X Backlash ---
G0 X68.431 Y53.411 F1200
; --- FIX Y Backlash ---
G0 X68.431 Y52.111 F1200
G0 X70.199 Y51.404 Z3.5
G1 Z0 F500
; --- FIX X Backlash ---
G0 X68.899 Y51.404 F1200
G1 X68.799 Y50.678 Z0 F1300
G1 X68.778 Y50.499 Z0 F1300
G1 X68.758 Y50.303 Z0 F1300
G1 X68.74 Y50.077 Z0 F1300
G1 X68.722 Y49.813 Z0 F1300
; --- FIX X Backlash ---
G0 X70.022 Y49.813 F1200
; --- FIX Y Backlash ---
G0 X70.022 Y51.113 F1200
G1 X70.274 Y51.232 Z0 F1300
G1 X70.456 Y51.362 Z0 F1300
G1 X70.581 Y51.506 Z0 F1300
G1 X70.66 Y51.665 Z0 F1300
G1 X70.702 Y51.845 Z0 F1300
G1 X70.721 Y52.046 Z0 F1300
G1 X70.726 Y52.273 Z0 F1300
G1 X70.729 Y52.527 Z0 F1300
G0 Z3.5 F500
G0 X72.144 Y53.235 Z3.5
G1 Z0 F500
G1 X73.028 Y53.411 Z0 F1300
G0 Z3.5 F500
G0 X73.735 Y54.119 Z3.5
G1 Z0 F500
G1 Y54.295 Z0 F1300
G0 Z3.5 F500
G0 Y54.649 Z3.5
G1 Z0 F500
; --- FIX X Backlash ---
G0 X72.435 Y54.649 F1200
; --- FIX Y Backlash ---
G0 X72.435 Y53.349 F1200
G1 X72.198 Y53.175 Z0 F1300
G1 X71.892 Y52.969 Z0 F1300
G1 X71.54 Y52.76 Z0 F1300
G1 X71.164 Y52.574 Z0 F1300
G1 X70.786 Y52.44 Z0 F1300
G1 X70.426 Y52.387 Z0 F1300
G1 X70.261 Y52.4 Z0 F1300
G1 X70.108 Y52.443 Z0 F1300
; --- FIX Y Backlash ---
G0 X70.108 Y53.743 F1200
G1 X69.971 Y53.82 Z0 F1300
G1 X69.853 Y53.935 Z0 F1300
G1 X69.753 Y54.095 Z0 F1300
G1 X69.68 Y54.287 Z0 F1300
G1 X69.633 Y54.505 Z0 F1300
G1 X69.608 Y54.745 Z0 F1300
G1 X69.615 Y55.277 Z0 F1300
; --- FIX X Backlash ---
G0 X70.915 Y55.277 F1200
G1 X70.982 Y55.848 Z0 F1300
G1 X71.088 Y56.422 Z0 F1300
G1 X71.213 Y56.967 Z0 F1300
G1 X71.276 Y57.218 Z0 F1300
G1 X71.436 Y57.831 Z0 F1300
; --- FIX Y Backlash ---
G0 X71.436 Y56.531 F1200
G1 X71.771 Y56.445 Z0 F1300
G1 X72.08 Y56.393 Z0 F1300
G1 X72.362 Y56.356 Z0 F1300
G1 X72.619 Y56.315 Z0 F1300
G1 X72.852 Y56.251 Z0 F1300
G1 X73.061 Y56.146 Z0 F1300
G1 X73.248 Y55.981 Z0 F1300
G1 X73.413 Y55.737 Z0 F1300
G1 X73.499 Y55.519 Z0 F1300
G1 X73.557 Y55.263 Z0 F1300
G1 X73.593 Y54.979 Z0 F1300
G1 X73.616 Y54.679 Z0 F1300
G1 X73.654 Y54.07 Z0 F1300
G1 X73.735 Y53.526 Z0 F1300
; --- FIX Y Backlash ---
G0 X73.735 Y54.826 F1200
G1 X74.011 Y55.342 Z0 F1300
G1 X74.233 Y55.87 Z0 F1300
G1 X74.331 Y56.165 Z0 F1300
G1 X74.426 Y56.495 Z0 F1300
G1 X74.521 Y56.87 Z0 F1300
G1 X74.619 Y57.301 Z0 F1300
; --- FIX X Backlash ---
G0 X73.319 Y57.301 F1200
G1 X73.075 Y57.4 Z0 F1300
G1 X72.877 Y57.557 Z0 F1300
G1 X72.72 Y57.764 Z0 F1300
G1 X72.6 Y58.017 Z0 F1300
G1 X72.512 Y58.308 Z0 F1300
G1 X72.455 Y58.631 Z0 F1300
G1 X72.422 Y58.98 Z0 F1300
G1 X72.411 Y59.349 Z0 F1300
G1 X72.436 Y60.12 Z0 F1300
; --- FIX X Backlash ---
G0 X73.736 Y60.12 F1200
G1 X73.799 Y60.895 Z0 F1300
G1 X73.868 Y61.622 Z0 F1300
G1 X73.895 Y61.952 Z0 F1300
G1 X73.912 Y62.251 Z0 F1300
G0 Z3.5 F500
G0 X74.265 Y62.428 Z3.5
G1 Z0 F500
; --- FIX Y Backlash ---
G0 X74.265 Y61.128 F1200
G1 X75.031 Y60.952 Z0 F1300
G1 X75.749 Y60.846 Z0 F1300
G1 X76.432 Y60.793 Z0 F1300
G1 X77.094 Y60.774 Z0 F1300
; --- FIX Y Backlash ---
G0 X77.094 Y62.074 F1200
G1 X77.101 Y62.591 Z0 F1300
G1 X77.121 Y63.192 Z0 F1300
G1 X77.15 Y63.853 Z0 F1300
G1 X77.214 Y65.258 Z0 F1300
G1 X77.243 Y65.953 Z0 F1300
G1 X77.263 Y66.608 Z0 F1300
G1 X77.271 Y67.201 Z0 F1300
; --- FIX X Backlash ---
G0 X75.971 Y67.201 F1200
G1 X73.319 Z0 F1300
G0 Z3.5 F500
G0 X69.606 Y67.378 Z3.5
G1 Z0 F500
; --- FIX Y Backlash ---
G0 X69.606 Y66.078 F1200
G1 Y64.841 Z0 F1300
G0 Z3.5 F500
G0 X68.899 Y64.31 Z3.5
G1 Z0 F500
; --- FIX Y Backlash ---
G0 X68.899 Y65.61 F1200
G1 X68.939 Y66.045 Z0 F1300
; --- FIX X Backlash ---
G0 X70.239 Y66.045 F1200
G1 X70.299 Y66.439 Z0 F1300
G1 X70.368 Y66.806 Z0 F1300
G1 X70.438 Y67.156 Z0 F1300
G1 X70.5 Y67.501 Z0 F1300
G1 X70.546 Y67.852 Z0 F1300
G1 X70.566 Y68.219 Z0 F1300
G1 X70.553 Y68.616 Z0 F1300
G0 Z3.5 F500
; --- FIX X Backlash ---
G0 X69.253 Y68.616 F1200
; --- FIX Y Backlash ---
G0 X69.253 Y67.316 F1200
G0 X68.192 Y65.725 Z3.5
G1 Z0 F500
; --- FIX X Backlash ---
G0 X69.492 Y65.725 F1200
G1 X69.669 Y63.073 Z0 F1300
G0 Z3.5 F500
; --- FIX Y Backlash ---
G0 X69.669 Y64.373 F1200
G0 X70.376 Y64.726 Z3.5
G1 Z0 F500
G1 X70.553 Z0 F1300
G0 Z3.5 F500
; --- FIX Y Backlash ---
G0 X70.553 Y63.426 F1200
G0 X71.26 Y61.128 Z3.5
G1 Z0 F500
G1 X71.232 Y60.039 Z0 F1300
; --- FIX X Backlash ---
G0 X69.932 Y60.039 F1200
G1 X69.811 Y57.76 Z0 F1300
G1 X69.783 Y56.708 Z0 F1300
G1 X69.313 Y56.684 Z0 F1300
G1 X68.876 Y56.629 Z0 F1300
G1 X68.472 Y56.575 Z0 F1300
G1 X68.1 Y56.549 Z0 F1300
G1 X67.759 Y56.58 Z0 F1300
; --- FIX Y Backlash ---
G0 X67.759 Y57.88 F1200
G1 X67.45 Y57.999 Z0 F1300
G1 X67.307 Y58.1 Z0 F1300
G1 X67.171 Y58.234 Z0 F1300
G1 X67.043 Y58.404 Z0 F1300
G1 X66.923 Y58.613 Z0 F1300
G1 X66.756 Y59.067 Z0 F1300
G1 X66.664 Y59.584 Z0 F1300
G1 X66.631 Y60.146 Z0 F1300
G1 X66.64 Y60.734 Z0 F1300
G1 X66.676 Y61.327 Z0 F1300
G1 X66.721 Y61.909 Z0 F1300
G1 X66.761 Y62.459 Z0 F1300
G1 X66.777 Y62.958 Z0 F1300
G0 Z3.5 F500

; Color picking sequence
G1 Z10 F1000;         ; Raise brush
