G90 ; Force absolute mode
;LightBurn 1.6.04
;Custom GCode device profile, absolute coords
;Bounds: X33.32 Y13.98 to X103.78 Y59.38
G00 G17 G40 G21 G54
M3
G1 Z10 F600
;Cut @ 444 mm/min, 80% power

M8
G0 Z3.5 F600
G0 X58.226 Y30.889 Z3.5
G1 Z0 F600
;Layer C3 Pass 1 of 2
G1 X58.938 Y31.634 Z0 F600
; --- FIX X Backlash ---
G0 X58.238 Y31.634 F410
G1 X57.785 Y32.378 Z0 F600
; --- FIX X Backlash ---
G0 X58.485 Y32.378 F410
G1 X58.743 Y34.773 Z0 F600
G1 X59.035 Y35.032 Z0 F600
; --- FIX X Backlash ---
G0 X58.335 Y35.032 F410
G1 X58.173 Y39.079 Z0 F600
G1 X57.623 Y39.208 Z0 F600
; --- FIX X Backlash ---
G0 X58.323 Y39.208 F410
; --- FIX Y Backlash ---
G0 X58.323 Y38.708 F410
G1 X58.452 Y35.083 Z0 F600
G1 X58.42 Y34.047 Z0 F600
G1 X58.582 Y33.205 Z0 F600
; --- FIX X Backlash ---
G0 X57.882 Y33.205 F410
G1 X57.785 Y32.169 Z0 F600
G1 X57.17 Y31.198 Z0 F600
; --- FIX X Backlash ---
G0 X57.87 Y31.198 F410
G1 X58.226 Y30.389 Z0 F600
;Layer C3 Pass 2 of 2
; --- FIX Y Backlash ---
G0 X58.226 Y30.889 F410
G1 X58.938 Y31.634 Z0 F600
; --- FIX X Backlash ---
G0 X58.238 Y31.634 F410
G1 X57.785 Y32.378 Z0 F600
; --- FIX X Backlash ---
G0 X58.485 Y32.378 F410
G1 X58.743 Y34.773 Z0 F600
G1 X59.035 Y35.032 Z0 F600
; --- FIX X Backlash ---
G0 X58.335 Y35.032 F410
G1 X58.173 Y39.079 Z0 F600
G1 X57.623 Y39.208 Z0 F600
; --- FIX X Backlash ---
G0 X58.323 Y39.208 F410
; --- FIX Y Backlash ---
G0 X58.323 Y38.708 F410
G1 X58.452 Y35.083 Z0 F600
G1 X58.42 Y34.047 Z0 F600
G1 X58.582 Y33.205 Z0 F600
; --- FIX X Backlash ---
G0 X57.882 Y33.205 F410
G1 X57.785 Y32.169 Z0 F600
G1 X57.17 Y31.198 Z0 F600
; --- FIX X Backlash ---
G0 X57.87 Y31.198 F410
G1 X58.226 Y30.389 Z0 F600
G0 Z3.5 F600
; --- FIX Y Backlash ---
G0 X58.226 Y30.889 F410
G0 X61.721 Y31.666 Z3.5 F600
G1 Z0 F600
;Layer C3 Pass 1 of 2
G1 X62.595 Y31.698 Z0 F600
G1 X62.628 Y31.957 Z0 F600
; --- FIX X Backlash ---
G0 X61.928 Y31.957 F410
G1 X61.151 Y32.216 Z0 F600
G1 X60.504 Y34.547 Z0 F600
; --- FIX X Backlash ---
G0 X61.204 Y34.547 F410
G1 X61.43 Y39.338 Z0 F600
; --- FIX X Backlash ---
G0 X60.73 Y39.338 F410
G1 X60.374 Y41.053 Z0 F600
G1 X60.309 Y41.992 Z0 F600
G1 X57.979 Z0 F600
; --- FIX X Backlash ---
G0 X58.679 Y41.992 F410
G1 X58.776 Y44.419 Z0 F600
; --- FIX X Backlash ---
G0 X58.076 Y44.419 F410
G1 X57.979 Y49.081 Z0 F600
G1 X57.558 Y49.242 Z0 F600
; --- FIX Y Backlash ---
G0 X57.558 Y48.742 F410
G1 Y43.887 Z0 F600
; --- FIX X Backlash ---
G0 X58.258 Y43.887 F410
G1 X58.549 Y43.758 Z0 F600
G1 X58.711 Y41.427 Z0 F600
G1 X61.009 Y41.298 Z0 F600
G1 X61.171 Y39.355 Z0 F600
; --- FIX X Backlash ---
G0 X60.471 Y39.355 F410
G1 X60.18 Y38.87 Z0 F600
G1 X60.212 Y33.982 Z0 F600
; --- FIX X Backlash ---
G0 X60.912 Y33.982 F410
G1 X61.236 Y32.979 Z0 F600
G1 X61.721 Y31.166 Z0 F600
;Layer C3 Pass 2 of 2
G1 X62.595 Y31.198 Z0 F600
; --- FIX Y Backlash ---
G0 X62.595 Y31.698 F410
G1 X62.628 Y31.957 Z0 F600
; --- FIX X Backlash ---
G0 X61.928 Y31.957 F410
G1 X61.151 Y32.216 Z0 F600
G1 X60.504 Y34.547 Z0 F600
; --- FIX X Backlash ---
G0 X61.204 Y34.547 F410
G1 X61.43 Y39.338 Z0 F600
; --- FIX X Backlash ---
G0 X60.73 Y39.338 F410
G1 X60.374 Y41.053 Z0 F600
G1 X60.309 Y41.992 Z0 F600
G1 X57.979 Z0 F600
; --- FIX X Backlash ---
G0 X58.679 Y41.992 F410
G1 X58.776 Y44.419 Z0 F600
; --- FIX X Backlash ---
G0 X58.076 Y44.419 F410
G1 X57.979 Y49.081 Z0 F600
G1 X57.558 Y49.242 Z0 F600
; --- FIX Y Backlash ---
G0 X57.558 Y48.742 F410
G1 Y43.887 Z0 F600
; --- FIX X Backlash ---
G0 X58.258 Y43.887 F410
G1 X58.549 Y43.758 Z0 F600
G1 X58.711 Y41.427 Z0 F600
G1 X61.009 Y41.298 Z0 F600
G1 X61.171 Y39.355 Z0 F600
; --- FIX X Backlash ---
G0 X60.471 Y39.355 F410
G1 X60.18 Y38.87 Z0 F600
G1 X60.212 Y33.982 Z0 F600
; --- FIX X Backlash ---
G0 X60.912 Y33.982 F410
G1 X61.236 Y32.979 Z0 F600
G1 X61.721 Y31.166 Z0 F600
G0 Z3.5 F600
; --- FIX Y Backlash ---
G0 X61.721 Y31.666 F410
G0 X64.149 Y34.353 Z3.5
G1 Z0 F600
;Layer C3 Pass 1 of 2
; --- FIX X Backlash ---
G0 X63.449 Y34.353 F410
G1 X63.19 Y35.518 Z0 F600
; --- FIX X Backlash ---
G0 X63.89 Y35.518 F410
G1 X64.084 Y37.848 Z0 F600
; --- FIX X Backlash ---
G0 X63.384 Y37.848 F410
G1 X63.255 Y39.273 Z0 F600
G1 X62.737 Y39.499 Z0 F600
; --- FIX X Backlash ---
G0 X63.437 Y39.499 F410
; --- FIX Y Backlash ---
G0 X63.437 Y38.999 F410
G1 X63.599 Y34.176 Z0 F600
G1 X64.149 Y33.853 Z0 F600
;Layer C3 Pass 2 of 2
; --- FIX X Backlash ---
G0 X63.449 Y33.853 F410
; --- FIX Y Backlash ---
G0 X63.449 Y34.353 F410
G1 X63.19 Y35.518 Z0 F600
; --- FIX X Backlash ---
G0 X63.89 Y35.518 F410
G1 X64.084 Y37.848 Z0 F600
; --- FIX X Backlash ---
G0 X63.384 Y37.848 F410
G1 X63.255 Y39.273 Z0 F600
G1 X62.737 Y39.499 Z0 F600
; --- FIX X Backlash ---
G0 X63.437 Y39.499 F410
; --- FIX Y Backlash ---
G0 X63.437 Y38.999 F410
G1 X63.599 Y34.176 Z0 F600
G1 X64.149 Y33.853 Z0 F600
G0 Z3.5 F600
G0 X66.091 Y33.885 Z3.5
G1 Z0 F600
;Layer C3 Pass 1 of 2
; --- FIX Y Backlash ---
G0 X66.091 Y34.385 F410
G1 X66.609 Y34.547 Z0 F600
; --- FIX X Backlash ---
G0 X65.909 Y34.547 F410
G1 X65.844 Y36.845 Z0 F600
G1 X65.877 Y39.435 Z0 F600
; --- FIX Y Backlash ---
G0 X65.877 Y38.935 F410
G1 X65.424 Y38.837 Z0 F600
; --- FIX X Backlash ---
G0 X66.124 Y38.837 F410
G1 X66.35 Y35.277 Z0 F600
; --- FIX X Backlash ---
G0 X65.65 Y35.277 F410
G1 X65.391 Y33.885 Z0 F600
;Layer C3 Pass 2 of 2
; --- FIX X Backlash ---
G0 X66.091 Y33.885 F410
; --- FIX Y Backlash ---
G0 X66.091 Y34.385 F410
G1 X66.609 Y34.547 Z0 F600
; --- FIX X Backlash ---
G0 X65.909 Y34.547 F410
G1 X65.844 Y36.845 Z0 F600
G1 X65.877 Y39.435 Z0 F600
; --- FIX Y Backlash ---
G0 X65.877 Y38.935 F410
G1 X65.424 Y38.837 Z0 F600
; --- FIX X Backlash ---
G0 X66.124 Y38.837 F410
G1 X66.35 Y35.277 Z0 F600
; --- FIX X Backlash ---
G0 X65.65 Y35.277 F410
G1 X65.391 Y33.885 Z0 F600
G0 Z3.5 F600
; --- FIX X Backlash ---
G0 X66.091 Y33.885 F410
; --- FIX Y Backlash ---
G0 X66.091 Y34.385 F410
G0 X68.681 Y35.097 Z3.5
G1 Z0 F600
;Layer C3 Pass 1 of 2
; --- FIX Y Backlash ---
G0 X68.681 Y34.597 F410
G1 X69.231 Y34.112 Z0 F600
; --- FIX Y Backlash ---
G0 X69.231 Y34.612 F410
G1 X69.211 Y35.065 Z0 F600
G1 X69.19 Y35.404 Z0 F600
G1 X69.178 Y35.535 Z0 F600
G1 X69.16 Y35.66 Z0 F600
G1 X69.145 Y35.854 Z0 F600
G1 X69.121 Y36.327 Z0 F600
G1 X69.106 Y36.699 Z0 F600
G1 X69.069 Y37.687 Z0 F600
G1 X69.231 Y38.82 Z0 F600
G1 X69.328 Y39.564 Z0 F600
; --- FIX X Backlash ---
G0 X68.628 Y39.564 F410
; --- FIX Y Backlash ---
G0 X68.628 Y39.064 F410
G1 X67.948 Y38.805 Z0 F600
G1 X67.916 Y36.118 Z0 F600
; --- FIX X Backlash ---
G0 X68.616 Y36.118 F410
G1 X68.681 Y34.597 Z0 F600
;Layer C3 Pass 2 of 2
G1 X69.231 Y34.112 Z0 F600
; --- FIX Y Backlash ---
G0 X69.231 Y34.612 F410
G1 X69.211 Y35.065 Z0 F600
G1 X69.19 Y35.404 Z0 F600
G1 X69.178 Y35.535 Z0 F600
G1 X69.16 Y35.66 Z0 F600
G1 X69.145 Y35.854 Z0 F600
G1 X69.121 Y36.327 Z0 F600
G1 X69.106 Y36.699 Z0 F600
G1 X69.069 Y37.687 Z0 F600
G1 X69.231 Y38.82 Z0 F600
G1 X69.328 Y39.564 Z0 F600
; --- FIX X Backlash ---
G0 X68.628 Y39.564 F410
; --- FIX Y Backlash ---
G0 X68.628 Y39.064 F410
G1 X67.948 Y38.805 Z0 F600
G1 X67.916 Y36.118 Z0 F600
; --- FIX X Backlash ---
G0 X68.616 Y36.118 F410
G1 X68.681 Y34.597 Z0 F600
G0 Z3.5 F600
; --- FIX X Backlash ---
G0 X67.981 Y34.597 F410
G0 X55.454 Y34.015 Z3.5
G1 Z0 F600
;Layer C3 Pass 1 of 2
; --- FIX X Backlash ---
G0 X56.154 Y34.015 F410
; --- FIX Y Backlash ---
G0 X56.154 Y34.515 F410
G1 X56.283 Y39.208 Z0 F600
; --- FIX X Backlash ---
G0 X55.583 Y39.208 F410
G1 X55.357 Y39.499 Z0 F600
G1 X55.13 Y48.951 Z0 F600
G1 X54.936 Y49.145 Z0 F600
; --- FIX Y Backlash ---
G0 X54.936 Y48.645 F410
G1 X54.968 Y43.822 Z0 F600
; --- FIX X Backlash ---
G0 X55.668 Y43.822 F410
G1 X56.089 Y43.758 Z0 F600
; --- FIX Y Backlash ---
G0 X56.089 Y44.258 F410
G1 X56.122 Y49.275 Z0 F600
; --- FIX X Backlash ---
G0 X55.422 Y49.275 F410
; --- FIX Y Backlash ---
G0 X55.422 Y48.775 F410
G1 X55.195 Y47.901 Z0 F600
G1 X55.163 Y38.902 Z0 F600
G1 X54.904 Y38.773 Z0 F600
G1 Y33.982 Z0 F600
; --- FIX X Backlash ---
G0 X55.604 Y33.982 F410
G1 X56.154 Y34.015 Z0 F600
;Layer C3 Pass 2 of 2
; --- FIX Y Backlash ---
G0 X56.154 Y34.515 F410
G1 X56.283 Y39.208 Z0 F600
; --- FIX X Backlash ---
G0 X55.583 Y39.208 F410
G1 X55.357 Y39.499 Z0 F600
G1 X55.13 Y48.951 Z0 F600
G1 X54.936 Y49.145 Z0 F600
; --- FIX Y Backlash ---
G0 X54.936 Y48.645 F410
G1 X54.968 Y43.822 Z0 F600
; --- FIX X Backlash ---
G0 X55.668 Y43.822 F410
G1 X56.089 Y43.758 Z0 F600
; --- FIX Y Backlash ---
G0 X56.089 Y44.258 F410
G1 X56.122 Y49.275 Z0 F600
; --- FIX X Backlash ---
G0 X55.422 Y49.275 F410
; --- FIX Y Backlash ---
G0 X55.422 Y48.775 F410
G1 X55.195 Y47.901 Z0 F600
G1 X55.163 Y38.902 Z0 F600
G1 X54.904 Y38.773 Z0 F600
G1 Y33.982 Z0 F600
; --- FIX X Backlash ---
G0 X55.604 Y33.982 F410
G1 X56.154 Y34.015 Z0 F600
G0 Z3.5 F600
; --- FIX Y Backlash ---
G0 X56.154 Y34.515 F410
G0 X60.847 Y44.484 Z3.5
G1 Z0 F600
;Layer C3 Pass 1 of 2
G1 X61.268 Z0 F600
G1 X61.365 Y46.103 Z0 F600
; --- FIX X Backlash ---
G0 X60.665 Y46.103 F410
G1 X60.601 Y49.372 Z0 F600
G1 X60.406 Y49.825 Z0 F600
G1 Y52.156 Z0 F600
G1 X59.921 Y52.285 Z0 F600
; --- FIX X Backlash ---
G0 X60.621 Y52.285 F410
; --- FIX Y Backlash ---
G0 X60.621 Y51.785 F410
G1 X60.945 Y50.846 Z0 F600
G1 X61.171 Y48.84 Z0 F600
; --- FIX X Backlash ---
G0 X60.471 Y48.84 F410
G1 X60.147 Y48.71 Z0 F600
G1 Y43.984 Z0 F600
;Layer C3 Pass 2 of 2
; --- FIX X Backlash ---
G0 X60.847 Y43.984 F410
G1 X61.268 Z0 F600
; --- FIX Y Backlash ---
G0 X61.268 Y44.484 F410
G1 X61.365 Y46.103 Z0 F600
; --- FIX X Backlash ---
G0 X60.665 Y46.103 F410
G1 X60.601 Y49.372 Z0 F600
G1 X60.406 Y49.825 Z0 F600
G1 Y52.156 Z0 F600
G1 X59.921 Y52.285 Z0 F600
; --- FIX X Backlash ---
G0 X60.621 Y52.285 F410
; --- FIX Y Backlash ---
G0 X60.621 Y51.785 F410
G1 X60.945 Y50.846 Z0 F600
G1 X61.171 Y48.84 Z0 F600
; --- FIX X Backlash ---
G0 X60.471 Y48.84 F410
G1 X60.147 Y48.71 Z0 F600
G1 Y43.984 Z0 F600
G0 Z3.5 F600
; --- FIX X Backlash ---
G0 X60.847 Y43.984 F410
; --- FIX Y Backlash ---
G0 X60.847 Y44.484 F410
G0 X63.566 Y44.581 Z3.5
G1 Z0 F600
;Layer C3 Pass 1 of 2
G1 X64.02 Y44.549 Z0 F600
; --- FIX X Backlash ---
G0 X63.32 Y44.549 F410
G1 X63.028 Y47.915 Z0 F600
; --- FIX X Backlash ---
G0 X63.728 Y47.915 F410
G1 X63.89 Y49.631 Z0 F600
G1 X64.182 Y50.375 Z0 F600
G1 X65.865 Y51.605 Z0 F600
G1 X66.027 Y52.285 Z0 F600
; --- FIX X Backlash ---
G0 X65.327 Y52.285 F410
G1 X64.873 Y52.447 Z0 F600
; --- FIX Y Backlash ---
G0 X64.873 Y51.947 F410
G1 X63.935 Y50.652 Z0 F600
G1 X62.996 Y49.098 Z0 F600
G1 X62.737 Y49.034 Z0 F600
; --- FIX X Backlash ---
G0 X63.437 Y49.034 F410
G1 X63.566 Y44.081 Z0 F600
;Layer C3 Pass 2 of 2
G1 X64.02 Y44.049 Z0 F600
; --- FIX X Backlash ---
G0 X63.32 Y44.049 F410
; --- FIX Y Backlash ---
G0 X63.32 Y44.549 F410
G1 X63.028 Y47.915 Z0 F600
; --- FIX X Backlash ---
G0 X63.728 Y47.915 F410
G1 X63.89 Y49.631 Z0 F600
G1 X64.182 Y50.375 Z0 F600
G1 X65.865 Y51.605 Z0 F600
G1 X66.027 Y52.285 Z0 F600
; --- FIX X Backlash ---
G0 X65.327 Y52.285 F410
G1 X64.873 Y52.447 Z0 F600
; --- FIX Y Backlash ---
G0 X64.873 Y51.947 F410
G1 X63.935 Y50.652 Z0 F600
G1 X62.996 Y49.098 Z0 F600
G1 X62.737 Y49.034 Z0 F600
; --- FIX X Backlash ---
G0 X63.437 Y49.034 F410
G1 X63.566 Y44.081 Z0 F600
G0 Z3.5 F600
G0 X66.027 Y43.919 Z3.5
G1 Z0 F600
;Layer C3 Pass 1 of 2
; --- FIX Y Backlash ---
G0 X66.027 Y44.419 F410
G1 X66.48 Y44.516 Z0 F600
G1 X66.512 Y48.336 Z0 F600
G1 X66.544 Y49.307 Z0 F600
; --- FIX X Backlash ---
G0 X65.844 Y49.307 F410
G1 X65.262 Y49.275 Z0 F600
; --- FIX X Backlash ---
G0 X65.962 Y49.275 F410
; --- FIX Y Backlash ---
G0 X65.962 Y48.775 F410
G1 X66.027 Y43.919 Z0 F600
;Layer C3 Pass 2 of 2
; --- FIX Y Backlash ---
G0 X66.027 Y44.419 F410
G1 X66.48 Y44.516 Z0 F600
G1 X66.512 Y48.336 Z0 F600
G1 X66.544 Y49.307 Z0 F600
; --- FIX X Backlash ---
G0 X65.844 Y49.307 F410
G1 X65.262 Y49.275 Z0 F600
; --- FIX X Backlash ---
G0 X65.962 Y49.275 F410
; --- FIX Y Backlash ---
G0 X65.962 Y48.775 F410
G1 X66.027 Y43.919 Z0 F600
G0 Z3.5 F600
G0 X68.681 Y43.952 Z3.5
G1 Z0 F600
;Layer C3 Pass 1 of 2
G1 X69.069 Y43.919 Z0 F600
; --- FIX X Backlash ---
G0 X68.369 Y43.919 F410
; --- FIX Y Backlash ---
G0 X68.369 Y44.419 F410
G1 X68.24 Y49.113 Z0 F600
G1 X67.916 Z0 F600
; --- FIX X Backlash ---
G0 X68.616 Y49.113 F410
; --- FIX Y Backlash ---
G0 X68.616 Y48.613 F410
G1 X68.681 Y43.952 Z0 F600
;Layer C3 Pass 2 of 2
G1 X69.069 Y43.919 Z0 F600
; --- FIX X Backlash ---
G0 X68.369 Y43.919 F410
; --- FIX Y Backlash ---
G0 X68.369 Y44.419 F410
G1 X68.24 Y49.113 Z0 F600
G1 X67.916 Z0 F600
; --- FIX X Backlash ---
G0 X68.616 Y49.113 F410
; --- FIX Y Backlash ---
G0 X68.616 Y48.613 F410
G1 X68.681 Y43.952 Z0 F600
G0 Z3.5 F600
G0 X71.238 Y43.887 Z3.5
G1 Z0 F600
;Layer C3 Pass 1 of 2
; --- FIX Y Backlash ---
G0 X71.238 Y44.387 F410
G1 X71.691 Y44.517 Z0 F600
G1 X71.756 Y46.297 Z0 F600
; --- FIX X Backlash ---
G0 X71.056 Y46.297 F410
G1 X70.894 Y48.077 Z0 F600
; --- FIX X Backlash ---
G0 X71.594 Y48.077 F410
G1 X71.756 Y48.854 Z0 F600
; --- FIX X Backlash ---
G0 X71.056 Y48.854 F410
G1 X70.473 Y49.048 Z0 F600
; --- FIX X Backlash ---
G0 X71.173 Y49.048 F410
; --- FIX Y Backlash ---
G0 X71.173 Y48.548 F410
G1 X71.238 Y43.887 Z0 F600
;Layer C3 Pass 2 of 2
; --- FIX Y Backlash ---
G0 X71.238 Y44.387 F410
G1 X71.691 Y44.517 Z0 F600
G1 X71.756 Y46.297 Z0 F600
; --- FIX X Backlash ---
G0 X71.056 Y46.297 F410
G1 X70.894 Y48.077 Z0 F600
; --- FIX X Backlash ---
G0 X71.594 Y48.077 F410
G1 X71.756 Y48.854 Z0 F600
; --- FIX X Backlash ---
G0 X71.056 Y48.854 F410
G1 X70.473 Y49.048 Z0 F600
; --- FIX X Backlash ---
G0 X71.173 Y49.048 F410
; --- FIX Y Backlash ---
G0 X71.173 Y48.548 F410
G1 X71.238 Y43.887 Z0 F600
;Cut @ 444 mm/min, 90% power

M8
G0 Z3.5 F600
; --- FIX Y Backlash ---
G0 X71.238 Y44.387 F410
G0 X91.645 Y45.238 Z3.5
G1 Z0 F600
;Layer C2
G1 X95 Y46.95 Z0 F600
; --- FIX Y Backlash ---
G0 X95 Y46.45 F410
G1 X96.675 Y43.399 Z0 F600
; --- FIX X Backlash ---
G0 X95.975 Y43.399 F410
; --- FIX Y Backlash ---
G0 X95.975 Y43.899 F410
G1 X93.164 Y49.417 Z0 F600
; --- FIX X Backlash ---
G0 X93.864 Y49.417 F410
; --- FIX Y Backlash ---
G0 X93.864 Y48.917 F410
G1 X94.103 Y48.073 Z0 F600
; --- FIX X Backlash ---
G0 X93.403 Y48.073 F410
G1 X90.138 Y46.461 Z0 F600
; --- FIX X Backlash ---
G0 X90.838 Y46.461 F410
; --- FIX Y Backlash ---
G0 X90.838 Y46.961 F410
G1 X91.407 Y47.382 Z0 F600
; --- FIX X Backlash ---
G0 X90.707 Y47.382 F410
G1 X90.542 Y47.814 Z0 F600
G1 X90.345 Y48.464 Z0 F600
G1 X90.009 Y48.961 Z0 F600
G1 X89.654 Y49.701 Z0 F600
G1 X89.472 Y50.135 Z0 F600
G1 X89.17 Y50.349 Z0 F600
G1 X88.788 Y50.593 Z0 F600
G1 X88.523 Y50.616 Z0 F600
G1 X88.337 Y50.61 Z0 F600
; --- FIX Y Backlash ---
G0 X88.337 Y50.11 F410
G1 X87.977 Y49.773 Z0 F600
G1 X87.884 Y49.204 Z0 F600
; --- FIX X Backlash ---
G0 X88.584 Y49.204 F410
G1 X88.653 Y48.818 Z0 F600
G1 X88.879 Y48.563 Z0 F600
G1 X89.143 Y48.258 Z0 F600
G1 X89.443 Y48.069 Z0 F600
G1 X89.768 Y47.876 Z0 F600
G1 X90.083 Y47.749 Z0 F600
G1 X90.413 Y47.646 Z0 F600
G1 X90.713 Y47.656 Z0 F600
G1 X90.933 Y47.697 Z0 F600
; --- FIX Y Backlash ---
G0 X90.933 Y48.197 F410
G1 X91.078 Y48.302 Z0 F600
G1 X91.247 Y48.437 Z0 F600
G1 X91.675 Y48.962 Z0 F600
G1 Y49.398 Z0 F600
; --- FIX X Backlash ---
G0 X90.975 Y49.398 F410
G1 X90.717 Y50.048 Z0 F600
; --- FIX X Backlash ---
G0 X91.417 Y50.048 F410
; --- FIX Y Backlash ---
G0 X91.417 Y49.548 F410
G1 X91.523 Y49.252 Z0 F600
G1 X91.934 Y48.932 Z0 F600
G1 X92.399 Y48.7 Z0 F600
G1 X92.771 Y48.728 Z0 F600
; --- FIX Y Backlash ---
G0 X92.771 Y49.228 F410
G1 X93.19 Y49.685 Z0 F600
G1 X93.268 Y50.214 Z0 F600
; --- FIX X Backlash ---
G0 X92.568 Y50.214 F410
G1 X92.434 Y50.685 Z0 F600
G1 X92.15 Y51.192 Z0 F600
G1 X91.594 Y51.702 Z0 F600
G1 X91.042 Y51.732 Z0 F600
; --- FIX Y Backlash ---
G0 X91.042 Y51.232 F410
G1 X90.668 Y51.05 Z0 F600
G1 X90.487 Y50.655 Z0 F600
G0 Z3.5 F600
; --- FIX X Backlash ---
G0 X91.187 Y50.655 F410
; --- FIX Y Backlash ---
G0 X91.187 Y51.155 F410
G0 X92.108 Y52.752 Z3.5
G1 Z0 F600
; --- FIX X Backlash ---
G0 X91.408 Y52.752 F410
G1 X88.232 Y59.259 Z0 F600
; --- FIX X Backlash ---
G0 X88.932 Y59.259 F410
; --- FIX Y Backlash ---
G0 X88.932 Y58.759 F410
G1 X92.108 Y52.252 Z0 F600
G0 Z3.5 F600
; --- FIX X Backlash ---
G0 X91.408 Y52.252 F410
; --- FIX Y Backlash ---
G0 X91.408 Y52.752 F410
G0 X90.605 Y53.405 Z3.5
G1 Z0 F600
; --- FIX Y Backlash ---
G0 X90.605 Y52.905 F410
G1 X87.705 Y51.407 Z0 F600
G0 Z3.5 F600
; --- FIX X Backlash ---
G0 X88.405 Y51.407 F410
; --- FIX Y Backlash ---
G0 X88.405 Y51.907 F410
G0 X91.663 Y54.042 Z3.5
G1 Z0 F600
G1 X91.836 Y53.993 Z0 F600
G1 X92.188 Y54.263 Z0 F600
G1 X92.476 Y54.635 Z0 F600
G1 X92.812 Y55.301 Z0 F600
G1 X92.803 Y55.943 Z0 F600
; --- FIX X Backlash ---
G0 X92.103 Y55.943 F410
G1 X91.702 Y56.406 Z0 F600
G1 X91.236 Y56.699 Z0 F600
G1 X90.467 Z0 F600
; --- FIX Y Backlash ---
G0 X90.467 Y56.199 F410
G1 X89.942 Y55.977 Z0 F600
G1 X89.486 Y55.507 Z0 F600
; --- FIX Y Backlash ---
G0 X89.486 Y56.007 F410
G1 X89.003 Y56.361 Z0 F600
G1 X88.589 Y56.98 Z0 F600
G1 X88.173 Y57.129 Z0 F600
; --- FIX Y Backlash ---
G0 X88.173 Y56.629 F410
G1 X87.875 Y56.446 Z0 F600
G1 X87.749 Y56.078 Z0 F600
; --- FIX X Backlash ---
G0 X88.449 Y56.078 F410
G1 X88.507 Y55.831 Z0 F600
G1 X88.582 Y55.53 Z0 F600
G1 X88.703 Y55.309 Z0 F600
G1 X88.804 Y55.142 Z0 F600
G1 X88.789 Y54.375 Z0 F600
; --- FIX X Backlash ---
G0 X88.089 Y54.375 F410
G1 X88.024 Y53.947 Z0 F600
G1 X87.598 Y53.576 Z0 F600
; --- FIX Y Backlash ---
G0 X87.598 Y54.076 F410
G1 X87.061 Y54.147 Z0 F600
G1 X86.48 Y54.608 Z0 F600
G1 X85.997 Y55.159 Z0 F600
G1 X85.693 Y55.832 Z0 F600
G1 X85.544 Y56.322 Z0 F600
G1 X85.523 Y56.684 Z0 F600
; --- FIX X Backlash ---
G0 X86.223 Y56.684 F410
G1 X86.432 Y57.101 Z0 F600
G1 X86.608 Y57.266 Z0 F600
G1 X86.937 Y57.231 Z0 F600
; --- FIX Y Backlash ---
G0 X86.937 Y56.731 F410
G1 X87.266 Y56.44 Z0 F600
G0 Z3.5 F600
G0 X97.316 Y41.971 Z3.5
G1 Z0 F600
G1 X98.521 Y39.572 Z0 F600
G0 Z3.5 F600
; --- FIX Y Backlash ---
G0 X98.521 Y40.072 F410
G0 X99.616 Y42.151 Z3.5
G1 Z0 F600
G1 X99.651 Y42.223 Z0 F600
; --- FIX X Backlash ---
G0 X98.951 Y42.223 F410
G1 X98.873 Y42.857 Z0 F600
G1 X98.472 Y43.124 Z0 F600
G1 X97.724 Y43.291 Z0 F600
G1 X97.171 Y43.245 Z0 F600
; --- FIX Y Backlash ---
G0 X97.171 Y42.745 F410
G1 X96.909 Y42.121 Z0 F600
G1 X96.759 Z0 F600
G1 X96.537 Y42.153 Z0 F600
; --- FIX Y Backlash ---
G0 X96.537 Y42.653 F410
G1 X96.29 Y42.795 Z0 F600
G1 X96.086 Y42.926 Z0 F600
G1 X95.819 Y43.197 Z0 F600
G1 X95.582 Y43.446 Z0 F600
G1 X95.213 Y43.747 Z0 F600
G1 X94.782 Y44.056 Z0 F600
; --- FIX Y Backlash ---
G0 X94.782 Y43.556 F410
G1 X94.587 Y43.487 Z0 F600
G1 X94.455 Y43.411 Z0 F600
; --- FIX X Backlash ---
G0 X95.155 Y43.411 F410
G1 X95.211 Y42.805 Z0 F600
G1 X95.385 Y42.047 Z0 F600
G1 X95.614 Y41.452 Z0 F600
; --- FIX X Backlash ---
G0 X94.914 Y41.452 F410
G1 X94.813 Y41.143 Z0 F600
G1 X94.679 Y40.774 Z0 F600
G1 X94.466 Y40.599 Z0 F600
G1 X94.22 Y40.467 Z0 F600
; --- FIX Y Backlash ---
G0 X94.22 Y40.967 F410
G1 X93.883 Y41.02 Z0 F600
G1 X93.612 Y41.09 Z0 F600
G1 X93.367 Y41.253 Z0 F600
G1 X93.069 Y41.444 Z0 F600
G1 X92.831 Y41.741 Z0 F600
G1 X92.648 Y42.012 Z0 F600
G1 X92.252 Y42.706 Z0 F600
G1 X92.135 Y43.371 Z0 F600
; --- FIX X Backlash ---
G0 X92.835 Y43.371 F410
G1 X93.24 Y43.848 Z0 F600
; --- FIX Y Backlash ---
G0 X93.24 Y43.348 F410
G1 X93.7 Y43.141 Z0 F600
G1 X94.095 Y42.764 Z0 F600
G1 X94.254 Y42.222 Z0 F600
G1 X94.219 Y41.44 Z0 F600
; --- FIX X Backlash ---
G0 X93.519 Y41.44 F410
G1 X93.234 Y40.708 Z0 F600
G1 X92.728 Y39.792 Z0 F600
G0 Z3.5 F600
; --- FIX X Backlash ---
G0 X93.428 Y39.792 F410
G0 X97.862 Y36.787 Z3.5
G1 Z0 F600
; --- FIX Y Backlash ---
G0 X97.862 Y37.287 F410
G1 X98.41 Y37.359 Z0 F600
G1 X99.095 Y37.825 Z0 F600
G1 X99.241 Y38.147 Z0 F600
G1 X99.235 Y38.747 Z0 F600
; --- FIX X Backlash ---
G0 X98.535 Y38.747 F410
G1 X97.958 Y39.302 Z0 F600
G1 X97.197 Y39.624 Z0 F600
; --- FIX Y Backlash ---
G0 X97.197 Y39.124 F410
G1 X96.668 Y39.066 Z0 F600
G1 X96.089 Y38.955 Z0 F600
G1 X95.513 Y38.543 Z0 F600
G1 X94.929 Y38.005 Z0 F600
G1 X94.838 Y37.316 Z0 F600
; --- FIX X Backlash ---
G0 X95.538 Y37.316 F410
G1 X96.082 Y36.645 Z0 F600
G1 X96.508 Y36.307 Z0 F600
G1 X97.153 Y36.077 Z0 F600
G1 X97.747 Y36.109 Z0 F600
G1 X98.259 Y35.973 Z0 F600
; --- FIX Y Backlash ---
G0 X98.259 Y36.473 F410
G1 X99.146 Y36.715 Z0 F600
G1 X99.6 Y36.852 Z0 F600
; --- FIX X Backlash ---
G0 X98.9 Y36.852 F410
; --- FIX Y Backlash ---
G0 X98.9 Y36.352 F410
G1 X96.005 Y34.887 Z0 F600
G0 Z3.5 F600
; --- FIX X Backlash ---
G0 X96.705 Y34.887 F410
G0 X97.474 Y33.076 Z3.5
G1 Z0 F600
; --- FIX Y Backlash ---
G0 X97.474 Y33.576 F410
G1 X100.942 Y35.298 Z0 F600
; --- FIX X Backlash ---
G0 X100.242 Y35.298 F410
G1 X99.089 Y37.571 Z0 F600
G0 Z3.5 F600
; --- FIX X Backlash ---
G0 X99.789 Y37.571 F410
; --- FIX Y Backlash ---
G0 X99.789 Y37.071 F410
G0 X101.162 Y34.325 Z3.5
G1 Z0 F600
G1 X103.777 Y29.132 Z0 F600
G0 Z3.5 F600
; --- FIX X Backlash ---
G0 X103.077 Y29.132 F410
; --- FIX Y Backlash ---
G0 X103.077 Y29.632 F410
G0 X102.497 Y30.276 Z3.5
G1 Z0 F600
; --- FIX Y Backlash ---
G0 X102.497 Y29.776 F410
G1 X99.38 Y28.241 Z0 F600
G0 Z3.5 F600
; --- FIX X Backlash ---
G0 X100.08 Y28.241 F410
; --- FIX Y Backlash ---
G0 X100.08 Y28.741 F410
G0 X101.032 Y29.45 Z3.5
G1 Z0 F600
; --- FIX X Backlash ---
G0 X100.332 Y29.45 F410
G1 X100.026 Y29.493 Z0 F600
G1 X99.67 Y29.562 Z0 F600
G1 X99.059 Y29.884 Z0 F600
G1 X98.89 Y30.216 Z0 F600
G1 X98.682 Y30.599 Z0 F600
G1 X98.553 Y30.935 Z0 F600
G1 X98.462 Y31.22 Z0 F600
; --- FIX X Backlash ---
G0 X99.162 Y31.22 F410
G1 X99.395 Y31.976 Z0 F600
G1 X99.801 Y32.309 Z0 F600
; --- FIX Y Backlash ---
G0 X99.801 Y31.809 F410
G1 X100.321 Y31.716 Z0 F600
G1 X100.525 Y31.338 Z0 F600
G1 X100.714 Y31.131 Z0 F600
G1 X100.858 Y30.963 Z0 F600
G1 X100.954 Y30.834 Z0 F600
G1 X101.08 Y30.745 Z0 F600
G1 X101.29 Y30.665 Z0 F600
G1 X101.396 Y30.632 Z0 F600
G1 X101.574 Y30.583 Z0 F600
; --- FIX Y Backlash ---
G0 X101.574 Y31.083 F410
G1 X102.071 Y31.272 Z0 F600
G1 X102.297 Y32.257 Z0 F600
;Offset @ 555 mm/min, 90% power

M8
G0 Z3.5 F600
; --- FIX X Backlash ---
G0 X101.597 Y32.257 F410
G0 X83.91 Y33.387 Z3.5
G1 Z0 F600
;Layer C1
; --- FIX Y Backlash ---
G0 X83.91 Y32.887 F410
G1 X83.187 Y32.836 Z0 F600
G1 X83.159 Z0 F600
; --- FIX X Backlash ---
G0 X83.859 Y32.836 F410
G1 X83.974 Y32.727 Z0 F600
G1 X83.99 Y32.709 Z0 F600
; --- FIX Y Backlash ---
G0 X83.99 Y33.209 F410
G1 X84.61 Y33.387 Z0 F600
G0 Z3.5 F600
G0 X87.361 Y34.22 Z3.5 F600
G1 Z0 F600
; --- FIX X Backlash ---
G0 X86.661 Y34.22 F410
; --- FIX Y Backlash ---
G0 X86.661 Y33.72 F410
G1 X83.145 Y33.475 Z0 F600
G1 X81.38 Y33.365 Z0 F600
; --- FIX X Backlash ---
G0 X82.08 Y33.365 F410
G1 X82.53 Y33.107 Z0 F600
G1 X83.098 Y32.672 Z0 F600
G1 X83.521 Y32.274 Z0 F600
G1 X83.79 Y31.987 Z0 F600
; --- FIX Y Backlash ---
G0 X83.79 Y32.487 F410
G1 X85.996 Y33.118 Z0 F600
G1 X87.631 Y33.566 Z0 F600
G1 X87.581 Y33.645 Z0 F600
; --- FIX X Backlash ---
G0 X86.881 Y33.645 F410
G1 X86.661 Y34.22 Z0 F600
G0 Z3.5 F600
; --- FIX X Backlash ---
G0 X87.361 Y34.22 F410
G0 X87.751 Y34.889 Z3.5
G1 Z0 F600
; --- FIX X Backlash ---
G0 X87.051 Y34.889 F410
; --- FIX Y Backlash ---
G0 X87.051 Y34.389 F410
G1 X83.102 Y34.114 Z0 F600
G1 X79.895 Y33.913 Z0 F600
G1 X79.863 Y33.279 Z0 F600
; --- FIX X Backlash ---
G0 X80.563 Y33.279 F410
G1 X80.891 Y33.307 Z0 F600
G1 X82.175 Y32.573 Z0 F600
G1 X82.683 Y32.183 Z0 F600
G1 X83.068 Y31.822 Z0 F600
G1 X83.355 Y31.515 Z0 F600
G1 X83.58 Y31.261 Z0 F600
; --- FIX Y Backlash ---
G0 X83.58 Y31.761 F410
G1 X86.169 Y32.501 Z0 F600
G1 X88.667 Y33.187 Z0 F600
; --- FIX X Backlash ---
G0 X87.967 Y33.187 F410
G1 X87.868 Y33.289 Z0 F600
G1 X87.456 Y33.935 Z0 F600
G1 X87.181 Y34.65 Z0 F600
G1 X87.138 Y34.903 Z0 F600
G1 X87.051 Y34.889 Z0 F600
G0 Z3.5 F600
; --- FIX Y Backlash ---
G0 X87.051 Y34.389 F410
G0 X80.047 Y32.652 Z3.5
G1 Z0 F600
; --- FIX X Backlash ---
G0 X80.747 Y32.652 F410
G1 X81.82 Y32.039 Z0 F600
G1 X82.268 Y31.695 Z0 F600
G1 X82.615 Y31.369 Z0 F600
G1 X82.882 Y31.084 Z0 F600
G1 X83.211 Y30.711 Z0 F600
G1 X83.385 Y30.54 Z0 F600
; --- FIX Y Backlash ---
G0 X83.385 Y31.04 F410
G1 X86.342 Y31.885 Z0 F600
G1 X89.93 Y32.87 Z0 F600
G1 X89.983 Y32.925 Z0 F600
; --- FIX X Backlash ---
G0 X89.283 Y32.925 F410
G1 X88.869 Y33.174 Z0 F600
G1 X88.373 Y33.687 Z0 F600
G1 X88.03 Y34.225 Z0 F600
G1 X87.801 Y34.821 Z0 F600
G1 X87.744 Y35.151 Z0 F600
G1 X87.639 Y35.632 Z0 F600
; --- FIX Y Backlash ---
G0 X87.639 Y35.132 F410
G1 X86.978 Y35.025 Z0 F600
G1 X83.06 Y34.752 Z0 F600
G1 X79.25 Y34.514 Z0 F600
G1 X79.008 Y34.5 Z0 F600
; --- FIX X Backlash ---
G0 X79.708 Y34.5 F410
G1 X79.957 Y33.964 Z0 F600
; --- FIX X Backlash ---
G0 X79.257 Y33.964 F410
G1 X79.196 Y32.769 Z0 F600
G1 X79.119 Y32.572 Z0 F600
; --- FIX X Backlash ---
G0 X79.819 Y32.572 F410
; --- FIX Y Backlash ---
G0 X79.819 Y33.072 F410
G1 X80.747 Y33.152 Z0 F600
G0 Z3.5 F600
G0 X89.578 Y34.085 Z3.5
G1 Z0 F600
; --- FIX X Backlash ---
G0 X88.878 Y34.085 F410
G1 X88.604 Y34.514 Z0 F600
G1 X88.421 Y34.991 Z0 F600
G1 X88.374 Y35.266 Z0 F600
G1 X88.163 Y36.234 Z0 F600
G1 X88.096 Y36.588 Z0 F600
; --- FIX Y Backlash ---
G0 X88.096 Y36.088 F410
G1 X87.465 Y35.752 Z0 F600
G1 X86.904 Y35.662 Z0 F600
G1 X83.018 Y35.391 Z0 F600
G1 X79.211 Y35.153 Z0 F600
G1 X77.84 Y35.073 Z0 F600
; --- FIX X Backlash ---
G0 X78.54 Y35.073 F410
G1 X78.849 Y34.833 Z0 F600
G1 X79.31 Y33.839 Z0 F600
G1 X79.262 Y32.904 Z0 F600
; --- FIX X Backlash ---
G0 X78.562 Y32.904 F410
G1 X78.308 Y32.25 Z0 F600
G1 X78.023 Y31.834 Z0 F600
; --- FIX X Backlash ---
G0 X78.723 Y31.834 F410
; --- FIX Y Backlash ---
G0 X78.723 Y32.334 F410
G1 X80.603 Y32.498 Z0 F600
; --- FIX Y Backlash ---
G0 X80.603 Y31.998 F410
G1 X81.464 Y31.505 Z0 F600
G1 X81.853 Y31.207 Z0 F600
G1 X82.162 Y30.917 Z0 F600
G1 X82.409 Y30.653 Z0 F600
G1 X82.748 Y30.27 Z0 F600
G1 X83.086 Y29.934 Z0 F600
G1 X83.203 Y29.822 Z0 F600
; --- FIX Y Backlash ---
G0 X83.203 Y30.322 F410
G1 X86.514 Y31.269 Z0 F600
G1 X90.323 Y32.314 Z0 F600
G1 X90.407 Y32.442 Z0 F600
G1 X90.851 Y32.896 Z0 F600
G1 X91.268 Y33.118 Z0 F600
; --- FIX X Backlash ---
G0 X90.568 Y33.118 F410
G1 X89.934 Y33.28 Z0 F600
G1 X89.271 Y33.679 Z0 F600
G1 X88.878 Y34.085 Z0 F600
G0 Z3.5 F600
G0 X86.831 Y36.798 Z3.5
G1 Z0 F600
; --- FIX Y Backlash ---
G0 X86.831 Y36.298 F410
G1 X82.976 Y36.029 Z0 F600
G1 X79.173 Y35.792 Z0 F600
G1 X75.371 Y35.571 Z0 F600
G1 X71.59 Y35.358 Z0 F600
G1 Y35.088 Z0 F600
; --- FIX X Backlash ---
G0 X72.29 Y35.088 F410
G1 X72.542 Z0 F600
G1 X74.084 Y35.096 Z0 F600
G1 X75.654 Y35.079 Z0 F600
G1 X77.613 Y34.983 Z0 F600
G1 X78.333 Y34.423 Z0 F600
G1 X78.662 Y33.714 Z0 F600
G1 X78.627 Y33.04 Z0 F600
; --- FIX X Backlash ---
G0 X77.927 Y33.04 F410
G1 X77.738 Y32.55 Z0 F600
G1 X77.412 Y32.076 Z0 F600
G1 X77.169 Y31.772 Z0 F600
G1 X76.638 Y31.095 Z0 F600
G1 X76.651 Z0 F600
; --- FIX X Backlash ---
G0 X77.351 Y31.095 F410
; --- FIX Y Backlash ---
G0 X77.351 Y31.595 F410
G1 X78.688 Y31.689 Z0 F600
G1 X80.459 Y31.842 Z0 F600
; --- FIX Y Backlash ---
G0 X80.459 Y31.342 F410
G1 X81.109 Y30.971 Z0 F600
G1 X81.438 Y30.718 Z0 F600
G1 X81.709 Y30.464 Z0 F600
G1 X81.936 Y30.222 Z0 F600
G1 X82.287 Y29.826 Z0 F600
G1 X82.636 Y29.479 Z0 F600
G1 X82.888 Y29.237 Z0 F600
G1 X83.016 Y29.103 Z0 F600
; --- FIX Y Backlash ---
G0 X83.016 Y29.603 F410
G1 X86.687 Y30.652 Z0 F600
G1 X90.726 Y31.761 Z0 F600
G1 Y31.764 Z0 F600
G1 X90.908 Y32.039 Z0 F600
G1 X91.239 Y32.378 Z0 F600
G1 X91.66 Y32.602 Z0 F600
G1 X92.409 Y32.835 Z0 F600
G1 X92.988 Y32.918 Z0 F600
G1 X92.996 Y33.083 Z0 F600
G1 X93.064 Y33.508 Z0 F600
G1 X93.186 Y33.934 Z0 F600
G1 X93.343 Y34.3 Z0 F600
; --- FIX X Backlash ---
G0 X92.643 Y34.3 F410
; --- FIX Y Backlash ---
G0 X92.643 Y33.8 F410
G1 X92.365 Y33.569 Z0 F600
G1 X91.843 Y33.332 Z0 F600
G1 X91.308 Y33.223 Z0 F600
G1 X90.757 Y33.23 Z0 F600
; --- FIX Y Backlash ---
G0 X90.757 Y33.73 F410
G1 X90.184 Y33.877 Z0 F600
G1 X89.672 Y34.184 Z0 F600
G1 X89.383 Y34.484 Z0 F600
G1 X89.178 Y34.804 Z0 F600
G1 X89.041 Y35.162 Z0 F600
G1 X89.002 Y35.391 Z0 F600
G1 X88.79 Y36.361 Z0 F600
G1 X88.608 Y37.332 Z0 F600
G1 X88.508 Y37.734 Z0 F600
G1 X88.405 Y38.042 Z0 F600
; --- FIX Y Backlash ---
G0 X88.405 Y37.542 F410
G1 X88.378 Y37.43 Z0 F600
G1 X88.115 Y36.984 Z0 F600
G1 X87.747 Y36.626 Z0 F600
G1 X87.258 Y36.367 Z0 F600
G1 X86.831 Y36.298 Z0 F600
G0 Z3.5 F600
; --- FIX Y Backlash ---
G0 X86.831 Y36.798 F410
G0 X51.491 Y54.074 Z3.5
G1 Z0 F600
; --- FIX X Backlash ---
G0 X52.191 Y54.074 F410
G1 X52.398 Y55.537 Z0 F600
G1 X53.065 Y56.415 Z0 F600
; --- FIX X Backlash ---
G0 X52.365 Y56.415 F410
G1 X51.216 Y56.375 Z0 F600
; --- FIX Y Backlash ---
G0 X51.216 Y55.875 F410
G1 X51.258 Y54.668 Z0 F600
G1 X51.269 Y53.813 Z0 F600
; --- FIX X Backlash ---
G0 X51.969 Y53.813 F410
G1 X52.044 Y53.752 Z0 F600
G1 X52.191 Y53.574 Z0 F600
G0 Z3.5 F600
G0 X52.686 Y52.561 Z3.5
G1 Z0 F600
; --- FIX Y Backlash ---
G0 X52.686 Y53.061 F410
G1 X52.815 Y53.915 Z0 F600
G1 X53.008 Y55.282 Z0 F600
G1 X53.641 Y56.115 Z0 F600
G1 X54.337 Y56.545 Z0 F600
G1 X54.964 Y56.708 Z0 F600
G1 X55.437 Y56.74 Z0 F600
G1 X55.846 Y56.724 Z0 F600
G1 X56.159 Y56.741 Z0 F600
G1 X67.71 Y56.886 Z0 F600
G1 X79.831 Y57.005 Z0 F600
; --- FIX Y Backlash ---
G0 X79.831 Y56.505 F410
G1 X80.738 Y56.239 Z0 F600
G1 X80.804 Y56.192 Z0 F600
; --- FIX X Backlash ---
G0 X80.104 Y56.192 F410
; --- FIX Y Backlash ---
G0 X80.104 Y56.692 F410
G1 X79.92 Y57.237 Z0 F600
G1 X79.881 Y57.262 Z0 F600
G1 X79.76 Y57.312 Z0 F600
G1 X79.553 Y57.366 Z0 F600
G1 X79.28 Y57.406 Z0 F600
G1 X78.946 Y57.431 Z0 F600
G1 X78.58 Y57.438 Z0 F600
G1 X76.9 Y57.463 Z0 F600
G1 X75.255 Z0 F600
; --- FIX Y Backlash ---
G0 X75.255 Y56.963 F410
G1 X68.915 Y56.913 Z0 F600
G1 X62.566 Y56.829 Z0 F600
G1 X56.258 Y56.69 Z0 F600
G1 X50.568 Y56.493 Z0 F600
G1 Y56.382 Z0 F600
G1 X50.577 Y55.826 Z0 F600
G1 X50.618 Y54.653 Z0 F600
G1 X50.633 Y53.502 Z0 F600
; --- FIX X Backlash ---
G0 X51.333 Y53.502 F410
G1 X51.593 Y53.294 Z0 F600
G1 X51.926 Y52.891 Z0 F600
G1 X52.159 Y52.441 Z0 F600
G1 X52.658 Y52.417 Z0 F600
; --- FIX Y Backlash ---
G0 X52.658 Y52.917 F410
G1 X52.686 Y53.061 Z0 F600
G0 Z3.5 F600
G0 X53.619 Y55.028 Z3.5
G1 Z0 F600
G1 X54.078 Y55.633 Z0 F600
G1 X54.591 Y55.95 Z0 F600
G1 X55.067 Y56.074 Z0 F600
G1 X55.445 Y56.099 Z0 F600
G1 X55.845 Y56.083 Z0 F600
G1 X56.18 Y56.101 Z0 F600
G1 X67.717 Y56.246 Z0 F600
G1 X79.742 Y56.364 Z0 F600
; --- FIX Y Backlash ---
G0 X79.742 Y55.864 F410
G1 X80.455 Y55.655 Z0 F600
G1 X80.948 Y55.306 Z0 F600
G1 X81.33 Y54.731 Z0 F600
G1 X81.362 Y54.439 Z0 F600
G1 X81.365 Z0 F600
G1 X81.855 Y54.435 Z0 F600
; --- FIX Y Backlash ---
G0 X81.855 Y54.935 F410
G1 X81.815 Y55.172 Z0 F600
; --- FIX X Backlash ---
G0 X81.115 Y55.172 F410
G1 X80.948 Y56.002 Z0 F600
G1 X80.744 Y56.799 Z0 F600
G1 X80.498 Y57.525 Z0 F600
G1 X80.468 Y57.584 Z0 F600
G1 X80.43 Y57.64 Z0 F600
G1 X80.388 Y57.688 Z0 F600
G1 X80.357 Y57.717 Z0 F600
G1 X80.18 Y57.831 Z0 F600
G1 X79.962 Y57.921 Z0 F600
G1 X79.685 Y57.993 Z0 F600
G1 X79.344 Y58.044 Z0 F600
G1 X78.988 Y58.07 Z0 F600
G1 X78.581 Y58.079 Z0 F600
G1 X76.909 Y58.103 Z0 F600
G1 X75.25 Z0 F600
; --- FIX Y Backlash ---
G0 X75.25 Y57.603 F410
G1 X68.906 Y57.553 Z0 F600
G1 X62.569 Y57.469 Z0 F600
G1 X56.225 Y57.33 Z0 F600
G1 X49.944 Y57.112 Z0 F600
G1 X49.933 Y56.92 Z0 F600
G1 X49.927 Y56.389 Z0 F600
G1 X49.937 Y55.835 Z0 F600
G1 X49.978 Y54.638 Z0 F600
G1 X49.994 Y53.46 Z0 F600
G1 X50.009 Y53.143 Z0 F600
; --- FIX X Backlash ---
G0 X50.709 Y53.143 F410
G1 X50.825 Y53.088 Z0 F600
G1 X51.142 Y52.835 Z0 F600
G1 X51.389 Y52.536 Z0 F600
G1 X51.606 Y52.115 Z0 F600
G1 X51.705 Y51.842 Z0 F600
G1 X52.02 Y51.807 Z0 F600
G1 X52.722 Y51.774 Z0 F600
G1 X53.185 Y51.768 Z0 F600
; --- FIX Y Backlash ---
G0 X53.185 Y52.268 F410
G1 X53.316 Y52.952 Z0 F600
G1 X53.446 Y53.807 Z0 F600
G1 X53.619 Y55.028 Z0 F600
G0 Z3.5 F600
G0 X54.516 Y55.151 Z3.5
G1 Z0 F600
G1 X54.846 Y55.355 Z0 F600
G1 X55.17 Y55.439 Z0 F600
G1 X55.454 Y55.458 Z0 F600
G1 X55.854 Y55.442 Z0 F600
G1 X56.202 Y55.461 Z0 F600
G1 X67.724 Y55.606 Z0 F600
G1 X79.653 Y55.723 Z0 F600
; --- FIX Y Backlash ---
G0 X79.653 Y55.223 F410
G1 X80.172 Y55.071 Z0 F600
G1 X80.48 Y54.853 Z0 F600
G1 X80.71 Y54.507 Z0 F600
G1 X80.759 Y54.062 Z0 F600
; --- FIX X Backlash ---
G0 X80.059 Y54.062 F410
G1 X79.929 Y53.687 Z0 F600
G1 X79.65 Y53.211 Z0 F600
G1 X79.34 Y52.747 Z0 F600
G1 X79.089 Y52.49 Z0 F600
G1 X78.763 Y52.281 Z0 F600
G1 X78.356 Y52.166 Z0 F600
G1 X78.032 Y52.181 Z0 F600
G1 X76.435 Y52.114 Z0 F600
G1 X74.807 Y52.091 Z0 F600
G1 X73.189 Z0 F600
G1 X72.072 Y52.088 Z0 F600
G1 X71.932 Y51.538 Z0 F600
G1 X71.879 Y51.309 Z0 F600
; --- FIX X Backlash ---
G0 X72.579 Y51.309 F410
G1 X73.79 Y51.324 Z0 F600
G1 X75.802 Y51.367 Z0 F600
; --- FIX Y Backlash ---
G0 X75.802 Y51.867 F410
G1 X77.826 Y51.945 Z0 F600
G1 X79.693 Y52.065 Z0 F600
G1 X79.807 Y52.123 Z0 F600
G1 X79.967 Y52.246 Z0 F600
G1 X80.117 Y52.404 Z0 F600
G1 X80.249 Y52.588 Z0 F600
G1 X80.503 Y53.077 Z0 F600
G1 X80.717 Y53.651 Z0 F600
G1 X80.842 Y53.924 Z0 F600
G1 X81.13 Y54.18 Z0 F600
G1 X81.471 Y54.299 Z0 F600
G1 X81.808 Y54.295 Z0 F600
; --- FIX Y Backlash ---
G0 X81.808 Y53.795 F410
G1 X82.128 Y53.685 Z0 F600
G1 X82.409 Y53.455 Z0 F600
G1 X82.591 Y53.112 Z0 F600
G1 X82.613 Y52.822 Z0 F600
G1 X82.627 Y52.363 Z0 F600
G1 X82.62 Y51.88 Z0 F600
G1 X82.576 Y51.379 Z0 F600
; --- FIX X Backlash ---
G0 X81.876 Y51.379 F410
G1 X81.78 Y50.871 Z0 F600
G1 X81.614 Y50.365 Z0 F600
G1 X81.365 Y49.894 Z0 F600
G1 X81.185 Y49.654 Z0 F600
G1 X80.985 Y49.442 Z0 F600
G1 X80.756 Y49.25 Z0 F600
G1 X80.481 Y49.071 Z0 F600
G1 X80.299 Y48.995 Z0 F600
; --- FIX X Backlash ---
G0 X80.999 Y48.995 F410
G1 X81.412 Y48.76 Z0 F600
G1 X81.445 Y48.729 Z0 F600
; --- FIX Y Backlash ---
G0 X81.445 Y49.229 F410
G1 X81.483 Y49.57 Z0 F600
G1 X81.686 Y49.906 Z0 F600
G1 X82 Y50.144 Z0 F600
G1 X82.37 Y50.221 Z0 F600
G1 X82.674 Y50.182 Z0 F600
; --- FIX Y Backlash ---
G0 X82.674 Y49.682 F410
G1 X83.043 Y49.413 Z0 F600
G1 X83.274 Y49.173 Z0 F600
G1 X83.458 Y48.927 Z0 F600
G1 X83.608 Y48.685 Z0 F600
G1 X83.847 Y48.264 Z0 F600
G1 X84.104 Y47.88 Z0 F600
G1 X85.044 Y46.398 Z0 F600
; --- FIX X Backlash ---
G0 X84.344 Y46.398 F410
; --- FIX Y Backlash ---
G0 X84.344 Y46.898 F410
G1 X83.957 Y47.708 Z0 F600
G1 X83.292 Y49.198 Z0 F600
G1 X82.66 Y50.734 Z0 F600
G1 X82.401 Y51.664 Z0 F600
G1 X82.203 Y52.582 Z0 F600
G1 X82.042 Y53.494 Z0 F600
G1 X81.895 Y54.397 Z0 F600
G1 X81.748 Y55.271 Z0 F600
G1 X81.573 Y56.139 Z0 F600
G1 X81.357 Y56.982 Z0 F600
G1 X81.088 Y57.778 Z0 F600
G1 X81.021 Y57.91 Z0 F600
G1 X80.937 Y58.033 Z0 F600
G1 X80.844 Y58.14 Z0 F600
G1 X80.75 Y58.225 Z0 F600
G1 X80.477 Y58.401 Z0 F600
G1 X80.166 Y58.53 Z0 F600
G1 X79.81 Y58.622 Z0 F600
G1 X79.42 Y58.68 Z0 F600
G1 X79.01 Y58.71 Z0 F600
G1 X78.599 Y58.719 Z0 F600
G1 X76.918 Y58.743 Z0 F600
G1 X75.244 Z0 F600
; --- FIX Y Backlash ---
G0 X75.244 Y58.243 F410
G1 X68.898 Y58.192 Z0 F600
G1 X62.549 Y58.109 Z0 F600
G1 X56.214 Y57.97 Z0 F600
G1 X49.893 Y57.75 Z0 F600
G1 X49.592 Y57.717 Z0 F600
G1 X49.348 Y57.721 Z0 F600
G1 X49.324 Y57.501 Z0 F600
G1 X49.294 Y56.951 Z0 F600
G1 X49.287 Y56.394 Z0 F600
G1 X49.298 Y55.803 Z0 F600
G1 X49.338 Y54.622 Z0 F600
G1 X49.354 Y53.433 Z0 F600
G1 X49.375 Y53.012 Z0 F600
G1 X49.365 Y52.691 Z0 F600
; --- FIX X Backlash ---
G0 X50.065 Y52.691 F410
G1 X50.234 Y52.658 Z0 F600
G1 X50.486 Y52.541 Z0 F600
G1 X50.69 Y52.377 Z0 F600
G1 X50.852 Y52.181 Z0 F600
G1 X51.019 Y51.858 Z0 F600
G1 X51.202 Y51.353 Z0 F600
G1 X51.257 Y51.249 Z0 F600
G1 X51.266 Z0 F600
G1 X51.974 Y51.168 Z0 F600
G1 X52.682 Y51.135 Z0 F600
G1 X53.436 Y51.124 Z0 F600
G1 X53.688 Z0 F600
; --- FIX Y Backlash ---
G0 X53.688 Y51.624 F410
G1 X53.784 Y51.992 Z0 F600
G1 X53.947 Y52.842 Z0 F600
G1 X54.08 Y53.717 Z0 F600
G1 X54.229 Y54.773 Z0 F600
G1 X54.516 Y55.151 Z0 F600
G0 Z3.5 F600
; --- FIX Y Backlash ---
G0 X54.516 Y54.651 F410
G0 X79.455 Y40.997 Z3.5
G1 Z0 F600
G1 X79.546 Y40.133 Z0 F600
G1 X79.627 Z0 F600
G1 X79.93 Y40.148 Z0 F600
; --- FIX X Backlash ---
G0 X79.23 Y40.148 F410
; --- FIX Y Backlash ---
G0 X79.23 Y40.648 F410
G1 X78.99 Y41.055 Z0 F600
G1 X78.755 Y41.497 Z0 F600
G0 Z3.5 F600
G0 X77.82 Y44.228 Z3.5
G1 Z0 F600
; --- FIX X Backlash ---
G0 X78.52 Y44.228 F410
; --- FIX Y Backlash ---
G0 X78.52 Y43.728 F410
G1 X78.973 Y39.482 Z0 F600
G1 X79.651 Y39.495 Z0 F600
G1 X80.613 Y39.539 Z0 F600
G1 X81.052 Y39.547 Z0 F600
; --- FIX X Backlash ---
G0 X80.352 Y39.547 F410
; --- FIX Y Backlash ---
G0 X80.352 Y40.047 F410
G1 X80.094 Y40.445 Z0 F600
G1 X79.548 Y41.369 Z0 F600
G1 X79.04 Y42.32 Z0 F600
G1 X78.576 Y43.298 Z0 F600
G1 X78.161 Y44.303 Z0 F600
G1 X77.8 Y45.332 Z0 F600
G1 X77.649 Y45.862 Z0 F600
; --- FIX X Backlash ---
G0 X78.349 Y45.862 F410
; --- FIX Y Backlash ---
G0 X78.349 Y45.362 F410
G1 X78.52 Y43.728 Z0 F600
G0 Z3.5 F600
G0 X78.767 Y38.838 Z3.5
G1 Z0 F600
G1 X79.674 Y38.855 Z0 F600
G1 X80.633 Y38.899 Z0 F600
G1 X81.597 Y38.917 Z0 F600
G1 X82.717 Y38.947 Z0 F600
; --- FIX X Backlash ---
G0 X82.017 Y38.947 F410
G1 X81.793 Y38.955 Z0 F600
; --- FIX Y Backlash ---
G0 X81.793 Y39.455 F410
G1 X81.422 Y39.634 Z0 F600
G1 X81.216 Y39.89 Z0 F600
G1 X80.638 Y40.782 Z0 F600
G1 X80.106 Y41.683 Z0 F600
G1 X79.612 Y42.608 Z0 F600
G1 X79.161 Y43.558 Z0 F600
G1 X78.759 Y44.531 Z0 F600
G1 X78.41 Y45.526 Z0 F600
G1 X78.12 Y46.542 Z0 F600
G1 X77.882 Y47.634 Z0 F600
G1 X77.894 Y47.99 Z0 F600
; --- FIX X Backlash ---
G0 X78.594 Y47.99 F410
G1 X78.75 Y48.368 Z0 F600
G1 X79.086 Y48.67 Z0 F600
G1 X79.491 Y48.764 Z0 F600
G1 X79.85 Y48.743 Z0 F600
G1 X79.901 Y48.698 Z0 F600
G1 Y48.71 Z0 F600
G1 X80.042 Y49.084 Z0 F600
G1 X80.188 Y49.211 Z0 F600
; --- FIX X Backlash ---
G0 X79.488 Y49.211 F410
G1 X79.315 Y49.162 Z0 F600
; --- FIX Y Backlash ---
G0 X79.315 Y48.662 F410
G1 X78.738 Y48.555 Z0 F600
G1 X78.167 Y48.488 Z0 F600
G1 X77.096 Y48.409 Z0 F600
G1 X76.691 Y48.366 Z0 F600
; --- FIX X Backlash ---
G0 X77.391 Y48.366 F410
G1 X77.884 Y43.659 Z0 F600
G1 X78.395 Y38.863 Z0 F600
G1 X78.767 Y38.838 Z0 F600
G0 Z3.5 F600
; --- FIX Y Backlash ---
G0 X78.767 Y39.338 F410
G0 X87.54 Y40.197 Z3.5
G1 Z0 F600
G1 X87.886 Y40.193 Z0 F600
; --- FIX X Backlash ---
G0 X87.186 Y40.193 F410
G1 X87.008 Y40.504 Z0 F600
G1 X86.877 Y40.459 Z0 F600
; --- FIX Y Backlash ---
G0 X86.877 Y39.959 F410
G1 X86.84 Y39.697 Z0 F600
G0 Z3.5 F600
G0 X86.758 Y36.935 Z3.5
G1 Z0 F600
G1 X82.933 Y36.668 Z0 F600
G1 X79.134 Y36.431 Z0 F600
G1 X75.335 Y36.209 Z0 F600
G1 X71.293 Y35.982 Z0 F600
; --- FIX Y Backlash ---
G0 X71.293 Y36.482 F410
G1 X70.945 Y36.759 Z0 F600
; --- FIX Y Backlash ---
G0 X70.945 Y36.259 F410
G1 X70.948 Y36.072 Z0 F600
G1 X70.951 Y34.94 Z0 F600
G1 Y34.45 Z0 F600
; --- FIX X Backlash ---
G0 X71.651 Y34.45 F410
G1 X72.544 Y34.447 Z0 F600
G1 X74.083 Y34.456 Z0 F600
G1 X75.635 Y34.439 Z0 F600
G1 X77.38 Y34.354 Z0 F600
G1 X77.818 Y34.013 Z0 F600
G1 X78.015 Y33.588 Z0 F600
G1 X77.994 Y33.175 Z0 F600
; --- FIX X Backlash ---
G0 X77.294 Y33.175 F410
G1 X77.168 Y32.851 Z0 F600
G1 X76.898 Y32.458 Z0 F600
G1 X76.674 Y32.178 Z0 F600
G1 X76.105 Y31.453 Z0 F600
G1 X75.517 Y30.747 Z0 F600
G1 X75.225 Y30.372 Z0 F600
; --- FIX X Backlash ---
G0 X75.925 Y30.372 F410
G1 X76.018 Y30.377 Z0 F600
; --- FIX Y Backlash ---
G0 X76.018 Y30.877 F410
G1 X77.381 Y30.956 Z0 F600
G1 X78.754 Y31.052 Z0 F600
G1 X80.315 Y31.188 Z0 F600
; --- FIX Y Backlash ---
G0 X80.315 Y30.688 F410
G1 X80.754 Y30.437 Z0 F600
G1 X81.023 Y30.23 Z0 F600
G1 X81.256 Y30.011 Z0 F600
G1 X81.462 Y29.792 Z0 F600
G1 X81.816 Y29.391 Z0 F600
G1 X82.179 Y29.031 Z0 F600
G1 X82.434 Y28.786 Z0 F600
G1 X82.667 Y28.541 Z0 F600
G1 X82.841 Y28.387 Z0 F600
; --- FIX Y Backlash ---
G0 X82.841 Y28.887 F410
G1 X86.859 Y30.036 Z0 F600
G1 X91.154 Y31.215 Z0 F600
G1 X91.197 Y31.289 Z0 F600
G1 X91.276 Y31.434 Z0 F600
G1 X91.409 Y31.636 Z0 F600
G1 X91.627 Y31.859 Z0 F600
G1 X91.907 Y32.008 Z0 F600
G1 X92.551 Y32.208 Z0 F600
G1 X93.177 Y32.299 Z0 F600
G1 X93.632 Y32.344 Z0 F600
G1 X93.616 Y32.664 Z0 F600
G1 X93.633 Y33.016 Z0 F600
G1 X93.69 Y33.369 Z0 F600
G1 X93.79 Y33.719 Z0 F600
G1 X93.936 Y34.06 Z0 F600
G1 X94.009 Y34.182 Z0 F600
G1 X93.998 Y34.43 Z0 F600
; --- FIX X Backlash ---
G0 X93.298 Y34.43 F410
G1 X93.237 Y34.854 Z0 F600
G1 X93.161 Y35.239 Z0 F600
G1 X92.794 Y35.199 Z0 F600
G1 X92.66 Y35.164 Z0 F600
G1 X92.555 Y35.116 Z0 F600
; --- FIX Y Backlash ---
G0 X92.555 Y34.616 F410
G1 X92.48 Y34.56 Z0 F600
G1 X92.326 Y34.369 Z0 F600
G1 X92.022 Y34.116 Z0 F600
G1 X91.645 Y33.944 Z0 F600
G1 X91.248 Y33.864 Z0 F600
G1 X90.842 Y33.869 Z0 F600
; --- FIX Y Backlash ---
G0 X90.842 Y34.369 F410
G1 X90.433 Y34.474 Z0 F600
G1 X90.074 Y34.689 Z0 F600
G1 X89.888 Y34.882 Z0 F600
G1 X89.753 Y35.094 Z0 F600
G1 X89.661 Y35.333 Z0 F600
G1 X89.63 Y35.513 Z0 F600
G1 X89.417 Y36.489 Z0 F600
G1 X89.234 Y37.465 Z0 F600
G1 X89.124 Y37.913 Z0 F600
G1 X88.986 Y38.322 Z0 F600
G1 X88.81 Y38.698 Z0 F600
G1 X88.546 Y39.099 Z0 F600
G1 X87.252 Y41.371 Z0 F600
; --- FIX Y Backlash ---
G0 X87.252 Y40.871 F410
G1 X87.065 Y40.701 Z0 F600
G1 X86.732 Y40.586 Z0 F600
G1 X86.411 Y40.582 Z0 F600
; --- FIX Y Backlash ---
G0 X86.411 Y41.082 F410
G1 X86.103 Y41.168 Z0 F600
G1 X85.817 Y41.355 Z0 F600
G1 X85.682 Y41.531 Z0 F600
G1 X85.622 Y41.598 Z0 F600
; --- FIX X Backlash ---
G0 X86.322 Y41.598 F410
; --- FIX Y Backlash ---
G0 X86.322 Y41.098 F410
G1 X86.811 Y40.429 Z0 F600
G1 X86.943 Y40.042 Z0 F600
; --- FIX X Backlash ---
G0 X86.243 Y40.042 F410
G1 X86.181 Y39.609 Z0 F600
G1 X85.94 Y39.277 Z0 F600
G1 X85.627 Y39.093 Z0 F600
G1 X85.51 Y39.069 Z0 F600
; --- FIX X Backlash ---
G0 X86.21 Y39.069 F410
G1 X87.851 Y39.054 Z0 F600
G1 X88.275 Y38.79 Z0 F600
G1 X88.511 Y38.426 Z0 F600
G1 X88.564 Y38.024 Z0 F600
; --- FIX X Backlash ---
G0 X87.864 Y38.024 F410
G1 X87.779 Y37.673 Z0 F600
G1 X87.608 Y37.383 Z0 F600
G1 X87.366 Y37.149 Z0 F600
G1 X87.051 Y36.982 Z0 F600
G1 X86.758 Y36.935 Z0 F600
G0 Z3.5 F600
; --- FIX Y Backlash ---
G0 X86.758 Y37.435 F410
G0 X82.202 Y39.453 Z3.5
G1 Z0 F600
; --- FIX X Backlash ---
G0 X82.902 Y39.453 F410
G1 X83.096 Y39.458 Z0 F600
G1 X84.615 Y39.523 Z0 F600
G1 X85.732 Y39.557 Z0 F600
; --- FIX X Backlash ---
G0 X85.032 Y39.557 F410
G1 X84.948 Y39.567 Z0 F600
G1 X84.614 Y39.735 Z0 F600
G1 X84.453 Y39.92 Z0 F600
G1 X83.65 Y40.715 Z0 F600
G1 X82.874 Y41.593 Z0 F600
G1 X82.158 Y42.516 Z0 F600
G1 X82.093 Y42.611 Z0 F600
; --- FIX X Backlash ---
G0 X82.793 Y42.611 F410
; --- FIX Y Backlash ---
G0 X82.793 Y42.111 F410
G1 X82.907 Y41.858 Z0 F600
G1 X83.604 Y40.334 Z0 F600
G1 X83.72 Y40.034 Z0 F600
G1 X83.682 Y39.615 Z0 F600
; --- FIX X Backlash ---
G0 X82.982 Y39.615 F410
G1 X82.788 Y39.281 Z0 F600
G1 X82.508 Y39.058 Z0 F600
G1 X82.202 Y38.953 Z0 F600
G0 Z3.5 F600
; --- FIX Y Backlash ---
G0 X82.202 Y39.453 F410
G0 X40.796 Y39.691 Z3.5
G1 Z0 F600
G1 X40.765 Y39.813 Z0 F600
G1 X40.749 Y40.176 Z0 F600
; --- FIX Y Backlash ---
G0 X40.749 Y39.676 F410
G1 X40.716 Y39.626 Z0 F600
G1 X40.575 Y39.385 Z0 F600
G1 X40.51 Y39.233 Z0 F600
; --- FIX X Backlash ---
G0 X41.21 Y39.233 F410
G1 X41.496 Y39.191 Z0 F600
G0 Z3.5 F600
; --- FIX Y Backlash ---
G0 X41.496 Y39.691 F410
G0 X87.195 Y41.723 Z3.5
G1 Z0 F600
; --- FIX X Backlash ---
G0 X86.495 Y41.723 F410
G1 X86.37 Y41.758 Z0 F600
G1 X86.259 Y41.831 Z0 F600
G1 X86.176 Y41.939 Z0 F600
G1 X85.441 Y42.75 Z0 F600
G1 X84.744 Y43.597 Z0 F600
G1 X84.088 Y44.475 Z0 F600
G1 X83.471 Y45.382 Z0 F600
G1 X82.893 Y46.314 Z0 F600
G1 X82.354 Y47.27 Z0 F600
G1 X81.853 Y48.244 Z0 F600
G1 X81.389 Y49.234 Z0 F600
G1 X81.404 Y49.359 Z0 F600
; --- FIX X Backlash ---
G0 X82.104 Y49.359 F410
G1 X82.17 Y49.47 Z0 F600
G1 X82.272 Y49.547 Z0 F600
G1 X82.396 Y49.573 Z0 F600
G1 X82.43 Y49.568 Z0 F600
; --- FIX Y Backlash ---
G0 X82.43 Y49.068 F410
G1 X82.621 Y48.929 Z0 F600
G1 X82.785 Y48.758 Z0 F600
G1 X82.929 Y48.566 Z0 F600
G1 X83.058 Y48.358 Z0 F600
G1 X83.301 Y47.929 Z0 F600
G1 X83.568 Y47.53 Z0 F600
G1 X84.525 Y46.021 Z0 F600
G1 X85.518 Y44.541 Z0 F600
G1 X87.541 Y41.601 Z0 F600
G1 X87.557 Y41.452 Z0 F600
G1 X87.516 Y41.339 Z0 F600
; --- FIX X Backlash ---
G0 X86.816 Y41.339 F410
G1 X86.732 Y41.263 Z0 F600
G1 X86.621 Y41.225 Z0 F600
G1 X86.495 Z0 F600
G0 Z3.5 F600
; --- FIX Y Backlash ---
G0 X86.495 Y41.725 F410
G0 X83.367 Y42.001 Z3.5
G1 Z0 F600
G1 X82.675 Y42.894 Z0 F600
G1 X82.036 Y43.826 Z0 F600
G1 X81.449 Y44.794 Z0 F600
G1 X80.915 Y45.792 Z0 F600
G1 X80.43 Y46.814 Z0 F600
G1 X79.996 Y47.854 Z0 F600
G1 X79.907 Y48.133 Z0 F600
G1 X79.836 Y48.444 Z0 F600
G1 X79.839 Y48.587 Z0 F600
G1 X79.884 Y48.707 Z0 F600
; --- FIX X Backlash ---
G0 X80.584 Y48.707 F410
G1 X80.685 Y48.795 Z0 F600
G1 X80.855 Y48.84 Z0 F600
; --- FIX Y Backlash ---
G0 X80.855 Y48.34 F410
G1 X81.026 Y48.243 Z0 F600
G1 X81.166 Y48.109 Z0 F600
G1 X81.28 Y47.948 Z0 F600
G1 X81.377 Y47.769 Z0 F600
G1 X81.552 Y47.39 Z0 F600
G1 X81.748 Y47.044 Z0 F600
G1 X82.229 Y46.129 Z0 F600
G1 X82.74 Y45.234 Z0 F600
G1 X83.28 Y44.355 Z0 F600
G1 X83.842 Y43.49 Z0 F600
G1 X85.019 Y41.795 Z0 F600
G1 X86.237 Y40.13 Z0 F600
G1 X86.288 Y39.981 Z0 F600
G1 X86.27 Y39.856 Z0 F600
; --- FIX X Backlash ---
G0 X85.57 Y39.856 F410
G1 X85.501 Y39.761 Z0 F600
G1 X85.395 Y39.699 Z0 F600
G1 X85.268 Y39.673 Z0 F600
G1 X85.136 Y39.689 Z0 F600
; --- FIX Y Backlash ---
G0 X85.136 Y40.189 F410
G1 X85.014 Y40.25 Z0 F600
G1 X84.918 Y40.361 Z0 F600
G1 X84.115 Y41.155 Z0 F600
G1 X83.367 Y42.001 Z0 F600
G0 Z3.5 F600
G0 X80.276 Y45.122 Z3.5
G1 Z0 F600
; --- FIX X Backlash ---
G0 X80.976 Y45.122 F410
; --- FIX Y Backlash ---
G0 X80.976 Y44.622 F410
G1 X81.642 Y43.104 Z0 F600
G1 X82.325 Y41.592 Z0 F600
G1 X83.014 Y40.085 Z0 F600
G1 X83.069 Y39.943 Z0 F600
G1 X83.057 Y39.814 Z0 F600
; --- FIX X Backlash ---
G0 X82.357 Y39.814 F410
G1 X82.295 Y39.706 Z0 F600
G1 X82.196 Y39.627 Z0 F600
G1 X82.075 Y39.586 Z0 F600
G1 X81.949 Y39.59 Z0 F600
; --- FIX Y Backlash ---
G0 X81.949 Y40.09 F410
G1 X81.831 Y40.147 Z0 F600
G1 X81.736 Y40.266 Z0 F600
G1 X81.183 Y41.119 Z0 F600
G1 X80.664 Y41.996 Z0 F600
G1 X80.184 Y42.896 Z0 F600
G1 X79.746 Y43.817 Z0 F600
G1 X79.357 Y44.759 Z0 F600
G1 X79.02 Y45.72 Z0 F600
G1 X78.741 Y46.698 Z0 F600
G1 X78.524 Y47.692 Z0 F600
G1 X78.529 Y47.853 Z0 F600
; --- FIX X Backlash ---
G0 X79.229 Y47.853 F410
G1 X79.286 Y47.989 Z0 F600
G1 X79.391 Y48.084 Z0 F600
G1 X79.545 Y48.12 Z0 F600
G1 X79.594 Y48.117 Z0 F600
; --- FIX Y Backlash ---
G0 X79.594 Y47.617 F410
G1 X79.748 Y47.483 Z0 F600
G1 X79.867 Y47.32 Z0 F600
G1 X79.961 Y47.136 Z0 F600
G1 X80.038 Y46.938 Z0 F600
G1 X80.173 Y46.528 Z0 F600
G1 X80.341 Y46.146 Z0 F600
G1 X80.976 Y44.622 Z0 F600
G0 Z3.5 F600
G0 X83.123 Y38.318 Z3.5
G1 Z0 F600
; --- FIX Y Backlash ---
G0 X83.123 Y38.818 F410
G1 X84.638 Y38.883 Z0 F600
G1 X86.153 Y38.93 Z0 F600
G1 X87.666 Y38.916 Z0 F600
; --- FIX Y Backlash ---
G0 X87.666 Y38.416 F410
G1 X87.815 Y38.322 Z0 F600
G1 X87.895 Y38.199 Z0 F600
G1 X87.914 Y38.059 Z0 F600
G1 X87.879 Y37.916 Z0 F600
; --- FIX X Backlash ---
G0 X87.179 Y37.916 F410
G1 X87.1 Y37.783 Z0 F600
G1 X86.986 Y37.672 Z0 F600
G1 X86.844 Y37.597 Z0 F600
G1 X86.684 Y37.571 Z0 F600
G1 X82.891 Y37.307 Z0 F600
G1 X79.095 Y37.069 Z0 F600
G1 X75.298 Y36.849 Z0 F600
G1 X71.501 Y36.635 Z0 F600
; --- FIX Y Backlash ---
G0 X71.501 Y37.135 F410
G1 X71.329 Y37.271 Z0 F600
G1 X71.227 Y37.44 Z0 F600
G1 X71.179 Y37.635 Z0 F600
G1 X71.17 Y37.846 Z0 F600
G1 X71.201 Y38.288 Z0 F600
G1 X71.184 Y38.938 Z0 F600
G1 X71.189 Y39.191 Z0 F600
G1 X71.169 Y39.296 Z0 F600
G1 X71.121 Y39.375 Z0 F600
G1 X71.034 Y39.413 Z0 F600
G1 X70.899 Y39.402 Z0 F600
G1 X70.721 Y39.421 Z0 F600
G1 X70.561 Y39.424 Z0 F600
G1 X70.422 Y39.405 Z0 F600
G1 X70.311 Y39.36 Z0 F600
; --- FIX Y Backlash ---
G0 X70.311 Y38.86 F410
G1 X70.233 Y38.784 Z0 F600
G1 X70.193 Y38.672 Z0 F600
G1 X70.197 Y38.519 Z0 F600
; --- FIX X Backlash ---
G0 X70.897 Y38.519 F410
G1 X70.951 Y38.32 Z0 F600
G1 X70.991 Y37.194 Z0 F600
G1 X71.008 Y36.066 Z0 F600
G1 X71.011 Y34.939 Z0 F600
G1 Y33.812 Z0 F600
G1 X72.545 Y33.807 Z0 F600
G1 X74.081 Y33.815 Z0 F600
G1 X75.616 Y33.799 Z0 F600
G1 X77.147 Y33.724 Z0 F600
G1 X77.303 Y33.603 Z0 F600
G1 X77.368 Y33.463 Z0 F600
G1 X77.36 Y33.311 Z0 F600
; --- FIX X Backlash ---
G0 X76.66 Y33.311 F410
G1 X76.598 Y33.152 Z0 F600
G1 X76.384 Y32.839 Z0 F600
G1 X76.17 Y32.573 Z0 F600
G1 X75.608 Y31.855 Z0 F600
G1 X75.021 Y31.151 Z0 F600
G1 X74.461 Y30.432 Z0 F600
G1 X73.976 Y29.665 Z0 F600
; --- FIX X Backlash ---
G0 X74.676 Y29.665 F410
; --- FIX Y Backlash ---
G0 X74.676 Y30.165 F410
G1 X76.052 Y30.238 Z0 F600
G1 X77.426 Y30.318 Z0 F600
G1 X78.798 Y30.414 Z0 F600
G1 X80.171 Y30.533 Z0 F600
; --- FIX Y Backlash ---
G0 X80.171 Y30.033 F410
G1 X80.399 Y29.902 Z0 F600
G1 X80.608 Y29.742 Z0 F600
G1 X80.803 Y29.559 Z0 F600
G1 X80.989 Y29.36 Z0 F600
G1 X81.352 Y28.95 Z0 F600
G1 X81.735 Y28.57 Z0 F600
G1 X81.98 Y28.334 Z0 F600
G1 X82.222 Y28.08 Z0 F600
G1 X82.478 Y27.854 Z0 F600
G1 X82.763 Y27.699 Z0 F600
; --- FIX Y Backlash ---
G0 X82.763 Y28.199 F410
G1 X87.032 Y29.42 Z0 F600
G1 X91.468 Y30.637 Z0 F600
G1 X91.585 Y30.722 Z0 F600
G1 X91.675 Y30.837 Z0 F600
G1 X91.751 Y30.969 Z0 F600
G1 X91.826 Y31.105 Z0 F600
G1 X91.91 Y31.233 Z0 F600
G1 X92.015 Y31.341 Z0 F600
G1 X92.155 Y31.415 Z0 F600
G1 X92.693 Y31.583 Z0 F600
G1 X93.254 Y31.664 Z0 F600
G1 X93.821 Y31.719 Z0 F600
G1 X94.38 Y31.81 Z0 F600
; --- FIX X Backlash ---
G0 X93.68 Y31.81 F410
G1 X93.613 Y32.092 Z0 F600
G1 X93.571 Y32.377 Z0 F600
G1 X93.557 Y32.664 Z0 F600
G1 X93.571 Y32.949 Z0 F600
G1 X93.616 Y33.23 Z0 F600
; --- FIX X Backlash ---
G0 X94.316 Y33.23 F410
G1 X94.394 Y33.504 Z0 F600
G1 X94.507 Y33.768 Z0 F600
G1 X94.658 Y34.02 Z0 F600
G1 X94.635 Y34.491 Z0 F600
; --- FIX X Backlash ---
G0 X93.935 Y34.491 F410
G1 X93.866 Y34.967 Z0 F600
G1 X93.773 Y35.444 Z0 F600
G1 X93.675 Y35.917 Z0 F600
G1 X93.178 Y35.885 Z0 F600
; --- FIX Y Backlash ---
G0 X93.178 Y35.385 F410
G1 X92.678 Y35.331 Z0 F600
G1 X92.443 Y35.269 Z0 F600
G1 X92.225 Y35.169 Z0 F600
G1 X92.031 Y35.023 Z0 F600
G1 X91.867 Y34.82 Z0 F600
G1 X91.679 Y34.663 Z0 F600
G1 X91.446 Y34.557 Z0 F600
G1 X91.188 Y34.505 Z0 F600
G1 X90.926 Y34.508 Z0 F600
; --- FIX Y Backlash ---
G0 X90.926 Y35.008 F410
G1 X90.682 Y35.071 Z0 F600
G1 X90.476 Y35.195 Z0 F600
G1 X90.393 Y35.281 Z0 F600
G1 X90.327 Y35.383 Z0 F600
G1 X90.281 Y35.503 Z0 F600
G1 X90.258 Y35.639 Z0 F600
G1 X90.045 Y36.616 Z0 F600
G1 X89.859 Y37.606 Z0 F600
G1 X89.739 Y38.091 Z0 F600
G1 X89.581 Y38.561 Z0 F600
G1 X89.37 Y39.011 Z0 F600
G1 X89.092 Y39.434 Z0 F600
G1 X87.494 Y42.238 Z0 F600
G1 X85.962 Y45.081 Z0 F600
G1 X85.234 Y46.521 Z0 F600
G1 X84.538 Y47.977 Z0 F600
G1 X83.881 Y49.45 Z0 F600
G1 X83.267 Y50.943 Z0 F600
G1 X83.023 Y51.818 Z0 F600
G1 X82.831 Y52.705 Z0 F600
G1 X82.673 Y53.601 Z0 F600
G1 X82.527 Y54.5 Z0 F600
G1 X82.375 Y55.396 Z0 F600
G1 X82.196 Y56.286 Z0 F600
G1 X81.971 Y57.164 Z0 F600
G1 X81.68 Y58.025 Z0 F600
G1 X81.572 Y58.236 Z0 F600
G1 X81.445 Y58.424 Z0 F600
G1 X81.3 Y58.59 Z0 F600
G1 X81.139 Y58.735 Z0 F600
G1 X80.777 Y58.97 Z0 F600
G1 X80.371 Y59.138 Z0 F600
G1 X79.938 Y59.25 Z0 F600
G1 X79.49 Y59.316 Z0 F600
G1 X79.042 Y59.349 Z0 F600
G1 X78.608 Y59.358 Z0 F600
G1 X76.927 Y59.383 Z0 F600
G1 X75.239 Z0 F600
; --- FIX Y Backlash ---
G0 X75.239 Y58.883 F410
G1 X68.89 Y58.833 Z0 F600
G1 X62.54 Y58.749 Z0 F600
G1 X56.192 Y58.609 Z0 F600
G1 X49.847 Y58.389 Z0 F600
G1 X49.562 Y58.358 Z0 F600
G1 X49.246 Y58.362 Z0 F600
G1 X49.095 Y58.352 Z0 F600
G1 X48.957 Y58.317 Z0 F600
G1 X48.84 Y58.25 Z0 F600
G1 X48.751 Y58.138 Z0 F600
G1 X48.686 Y57.556 Z0 F600
G1 X48.654 Y56.97 Z0 F600
G1 X48.647 Y56.382 Z0 F600
G1 X48.657 Y55.791 Z0 F600
G1 X48.698 Y54.607 Z0 F600
G1 X48.714 Y53.425 Z0 F600
G1 X48.734 Y53.006 Z0 F600
G1 X48.721 Y52.592 Z0 F600
G1 X48.684 Y52.394 Z0 F600
G1 X48.615 Y52.206 Z0 F600
G1 X48.508 Y52.031 Z0 F600
G1 X48.354 Y51.873 Z0 F600
G1 X46.29 Y48.913 Z0 F600
G1 X44.244 Y45.936 Z0 F600
G1 X40.175 Y39.97 Z0 F600
G1 X40.002 Y39.674 Z0 F600
G1 X39.864 Y39.35 Z0 F600
G1 X39.779 Y39.017 Z0 F600
G1 X39.763 Y38.698 Z0 F600
; --- FIX X Backlash ---
G0 X40.463 Y38.698 F410
G1 X41.666 Y38.519 Z0 F600
G1 X42.256 Y38.438 Z0 F600
G1 X42.77 Y38.38 Z0 F600
; --- FIX X Backlash ---
G0 X42.07 Y38.38 F410
; --- FIX Y Backlash ---
G0 X42.07 Y38.88 F410
G1 X41.815 Y39.079 Z0 F600
G1 X41.617 Y39.325 Z0 F600
G1 X41.479 Y39.605 Z0 F600
G1 X41.402 Y39.907 Z0 F600
G1 X41.388 Y40.217 Z0 F600
; --- FIX X Backlash ---
G0 X42.088 Y40.217 F410
G1 X42.143 Y40.523 Z0 F600
G1 X42.266 Y40.812 Z0 F600
G1 X42.46 Y41.071 Z0 F600
G1 X42.646 Y41.264 Z0 F600
G1 X42.88 Y41.418 Z0 F600
G1 X43.125 Y41.526 Z0 F600
G1 X43.34 Y41.581 Z0 F600
; --- FIX X Backlash ---
G0 X42.64 Y41.581 F410
G1 X42.465 Y41.655 Z0 F600
G1 X42.33 Y41.765 Z0 F600
G1 X42.236 Y41.903 Z0 F600
G1 X42.182 Y42.062 Z0 F600
G1 X42.167 Y42.23 Z0 F600
G1 X42.19 Y42.403 Z0 F600
; --- FIX X Backlash ---
G0 X42.89 Y42.403 F410
G1 X42.951 Y42.57 Z0 F600
G1 X44.16 Y44.472 Z0 F600
G1 X45.315 Y46.193 Z0 F600
G1 X46.491 Y47.901 Z0 F600
G1 X47.867 Y49.91 Z0 F600
G1 X48.115 Y50.214 Z0 F600
G1 X48.257 Y50.324 Z0 F600
G1 X48.413 Y50.381 Z0 F600
G1 X48.581 Y50.37 Z0 F600
; --- FIX Y Backlash ---
G0 X48.581 Y49.87 F410
G1 X48.763 Y49.77 Z0 F600
G1 X48.979 Y49.59 Z0 F600
G1 X49.179 Y49.391 Z0 F600
G1 X49.357 Y49.174 Z0 F600
G1 X49.509 Y48.94 Z0 F600
G1 X49.63 Y48.69 Z0 F600
G1 X49.713 Y48.427 Z0 F600
G1 X49.754 Y48.151 Z0 F600
G1 X49.748 Y47.863 Z0 F600
G1 X49.77 Y46.926 Z0 F600
G1 Y45.989 Z0 F600
G1 X49.979 Y45.948 Z0 F600
G1 X50.142 Y45.957 Z0 F600
; --- FIX Y Backlash ---
G0 X50.142 Y46.457 F410
G1 X50.266 Y46.511 Z0 F600
G1 X50.354 Y46.603 Z0 F600
G1 X50.412 Y46.728 Z0 F600
G1 X50.444 Y46.88 Z0 F600
G1 X50.456 Y47.053 Z0 F600
G1 X50.451 Y47.242 Z0 F600
G1 X50.469 Y48.008 Z0 F600
; --- FIX X Backlash ---
G0 X49.769 Y48.008 F410
G1 X49.706 Y48.79 Z0 F600
G1 X49.621 Y49.168 Z0 F600
G1 X49.489 Y49.532 Z0 F600
G1 X49.302 Y49.872 Z0 F600
G1 X49.051 Y50.182 Z0 F600
G1 X48.801 Y50.462 Z0 F600
G1 X48.501 Y50.71 Z0 F600
G1 X48.36 Y50.837 Z0 F600
G1 X48.242 Y50.973 Z0 F600
G1 X48.157 Y51.125 Z0 F600
G1 X48.116 Y51.297 Z0 F600
; --- FIX X Backlash ---
G0 X48.816 Y51.297 F410
G1 X49.035 Y51.652 Z0 F600
G1 X49.272 Y52.016 Z0 F600
G1 X49.405 Y52.186 Z0 F600
G1 X49.551 Y52.339 Z0 F600
G1 X49.715 Y52.47 Z0 F600
G1 X49.898 Y52.572 Z0 F600
G1 X50.034 Y52.545 Z0 F600
; --- FIX Y Backlash ---
G0 X50.034 Y52.045 F410
G1 X50.146 Y51.993 Z0 F600
G1 X50.239 Y51.918 Z0 F600
G1 X50.315 Y51.826 Z0 F600
G1 X50.431 Y51.602 Z0 F600
G1 X50.615 Y51.093 Z0 F600
G1 X50.735 Y50.866 Z0 F600
G1 X50.814 Y50.772 Z0 F600
G1 X50.911 Y50.697 Z0 F600
G1 X51.028 Y50.643 Z0 F600
G1 X51.169 Y50.613 Z0 F600
G1 X51.919 Y50.53 Z0 F600
G1 X52.672 Y50.495 Z0 F600
G1 X53.426 Y50.484 Z0 F600
G1 X54.181 Y50.476 Z0 F600
; --- FIX Y Backlash ---
G0 X54.181 Y50.976 F410
G1 X54.409 Y51.853 Z0 F600
G1 X54.579 Y52.737 Z0 F600
G1 X54.713 Y53.627 Z0 F600
G1 X54.839 Y54.519 Z0 F600
G1 X54.954 Y54.669 Z0 F600
G1 X55.101 Y54.76 Z0 F600
G1 X55.273 Y54.805 Z0 F600
G1 X55.462 Y54.817 Z0 F600
G1 X55.857 Y54.801 Z0 F600
G1 X56.223 Y54.821 Z0 F600
G1 X67.731 Y54.966 Z0 F600
G1 X79.564 Y55.082 Z0 F600
; --- FIX Y Backlash ---
G0 X79.564 Y54.582 F410
G1 X79.89 Y54.487 Z0 F600
G1 X80.014 Y54.399 Z0 F600
G1 X80.091 Y54.282 Z0 F600
G1 X80.107 Y54.135 Z0 F600
; --- FIX X Backlash ---
G0 X79.407 Y54.135 F410
G1 X79.345 Y53.957 Z0 F600
G1 X79.108 Y53.551 Z0 F600
G1 X78.841 Y53.152 Z0 F600
G1 X78.682 Y52.989 Z0 F600
G1 X78.498 Y52.871 Z0 F600
G1 X78.282 Y52.81 Z0 F600
G1 X78.029 Y52.822 Z0 F600
G1 X76.417 Y52.753 Z0 F600
G1 X74.802 Y52.731 Z0 F600
G1 X73.188 Z0 F600
G1 X71.573 Y52.728 Z0 F600
G1 X71.312 Y51.695 Z0 F600
G1 X71.072 Y50.658 Z0 F600
; --- FIX X Backlash ---
G0 X71.772 Y50.658 F410
G1 X73.797 Y50.684 Z0 F600
G1 X75.827 Y50.727 Z0 F600
; --- FIX Y Backlash ---
G0 X75.827 Y51.227 F410
G1 X77.853 Y51.306 Z0 F600
G1 X79.868 Y51.435 Z0 F600
G1 X80.151 Y51.58 Z0 F600
G1 X80.397 Y51.77 Z0 F600
G1 X80.611 Y51.996 Z0 F600
G1 X80.795 Y52.25 Z0 F600
G1 X81.089 Y52.816 Z0 F600
G1 X81.308 Y53.405 Z0 F600
G1 X81.368 Y53.535 Z0 F600
G1 X81.461 Y53.618 Z0 F600
G1 X81.576 Y53.658 Z0 F600
G1 X81.697 Z0 F600
G1 X81.811 Y53.617 Z0 F600
; --- FIX Y Backlash ---
G0 X81.811 Y53.117 F410
G1 X81.904 Y53.041 Z0 F600
G1 X81.963 Y52.93 Z0 F600
G1 X81.974 Y52.788 Z0 F600
G1 X81.987 Y52.358 Z0 F600
G1 X81.98 Y51.913 Z0 F600
G1 X81.941 Y51.466 Z0 F600
; --- FIX X Backlash ---
G0 X81.241 Y51.466 F410
G1 X81.159 Y51.03 Z0 F600
G1 X81.024 Y50.616 Z0 F600
G1 X80.823 Y50.238 Z0 F600
G1 X80.694 Y50.066 Z0 F600
G1 X80.545 Y49.908 Z0 F600
G1 X80.374 Y49.765 Z0 F600
G1 X80.18 Y49.639 Z0 F600
G1 X79.685 Y49.431 Z0 F600
G1 X79.17 Y49.286 Z0 F600
G1 X78.642 Y49.188 Z0 F600
G1 X78.106 Y49.125 Z0 F600
G1 X77.03 Y49.045 Z0 F600
G1 X75.987 Y48.936 Z0 F600
; --- FIX X Backlash ---
G0 X76.687 Y48.936 F410
G1 X77.247 Y43.592 Z0 F600
G1 X77.815 Y38.259 Z0 F600
G1 X78.749 Y38.198 Z0 F600
G1 X79.698 Y38.216 Z0 F600
G1 X80.654 Y38.26 Z0 F600
G1 X81.608 Y38.277 Z0 F600
G1 X83.123 Y38.318 Z0 F600
G0 Z3.5 F600
; --- FIX X Backlash ---
G0 X82.423 Y38.318 F410
; --- FIX Y Backlash ---
G0 X82.423 Y38.818 F410
G0 X74.331 Y39.386 Z3.5
G1 Z0 F600
; --- FIX X Backlash ---
G0 X75.031 Y39.386 F410
G1 X75.349 Y39.404 Z0 F600
; --- FIX X Backlash ---
G0 X74.649 Y39.404 F410
G1 X74.146 Y44.039 Z0 F600
G1 X73.581 Y48.742 Z0 F600
G1 X73.531 Y48.747 Z0 F600
; --- FIX Y Backlash ---
G0 X73.531 Y48.247 F410
G1 X73.55 Y47.772 Z0 F600
; --- FIX X Backlash ---
G0 X74.25 Y47.772 F410
G1 X74.458 Y43.001 Z0 F600
G1 X74.647 Y38.872 Z0 F600
G1 X75.031 Y38.886 Z0 F600
G0 Z3.5 F600
G0 X76.054 Y38.338 Z3.5
G1 Z0 F600
; --- FIX X Backlash ---
G0 X75.354 Y38.338 F410
; --- FIX Y Backlash ---
G0 X75.354 Y38.838 F410
G1 X74.781 Y44.115 Z0 F600
G1 X74.149 Y49.385 Z0 F600
G1 X73.753 Y49.369 Z0 F600
G1 X73.296 Y49.412 Z0 F600
G1 X73.098 Y49.403 Z0 F600
; --- FIX Y Backlash ---
G0 X73.098 Y48.903 F410
G1 X72.948 Y48.849 Z0 F600
G1 X72.898 Y48.798 Z0 F600
G1 X72.868 Y48.728 Z0 F600
G1 X72.861 Y48.636 Z0 F600
G1 X72.879 Y48.519 Z0 F600
G1 X72.91 Y47.747 Z0 F600
; --- FIX X Backlash ---
G0 X73.61 Y47.747 F410
G1 X73.819 Y42.972 Z0 F600
G1 X74.038 Y38.198 Z0 F600
G1 X74.545 Y38.229 Z0 F600
G1 X75.067 Y38.247 Z0 F600
G1 X75.579 Y38.275 Z0 F600
; --- FIX Y Backlash ---
G0 X75.579 Y38.775 F410
G1 X76.054 Y38.838 Z0 F600
G0 Z3.5 F600
; --- FIX X Backlash ---
G0 X75.354 Y38.838 F410
; --- FIX Y Backlash ---
G0 X75.354 Y38.338 F410
G0 X67.264 Y28.428 Z3.5
G1 Z0 F600
G1 X67.254 Z0 F600
G1 X66.285 Y28.421 Z0 F600
G1 X66.309 Y27.412 Z0 F600
G1 X66.313 Y27.127 Z0 F600
; --- FIX X Backlash ---
G0 X67.013 Y27.127 F410
; --- FIX Y Backlash ---
G0 X67.013 Y27.627 F410
G1 X67.964 Y28.928 Z0 F600
G0 Z3.5 F600
G0 X67.968 Y29.568 Z3.5
G1 Z0 F600
; --- FIX X Backlash ---
G0 X67.268 Y29.568 F410
G1 X65.629 Y29.557 Z0 F600
; --- FIX Y Backlash ---
G0 X65.629 Y29.057 F410
G1 X65.669 Y27.4 Z0 F600
G1 X65.69 Y25.763 Z0 F600
G1 X65.702 Y25.246 Z0 F600
; --- FIX X Backlash ---
G0 X66.402 Y25.246 F410
; --- FIX Y Backlash ---
G0 X66.402 Y25.746 F410
G1 X67.011 Y26.541 Z0 F600
G1 X68.716 Y28.872 Z0 F600
G1 X69.217 Y29.569 Z0 F600
; --- FIX X Backlash ---
G0 X68.517 Y29.569 F410
G1 X67.268 Z0 F600
G0 Z3.5 F600
G0 X64.988 Y29.583 Z3.5
G1 Z0 F600
; --- FIX Y Backlash ---
G0 X64.988 Y29.083 F410
G1 X65.029 Y27.389 Z0 F600
G1 X65.05 Y25.748 Z0 F600
G1 X65.088 Y24.134 Z0 F600
G1 X65.125 Y23.477 Z0 F600
G1 X65.154 Z0 F600
; --- FIX X Backlash ---
G0 X65.854 Y23.477 F410
; --- FIX Y Backlash ---
G0 X65.854 Y23.977 F410
G1 X67.531 Y26.168 Z0 F600
G1 X69.235 Y28.498 Z0 F600
G1 X70.465 Y30.21 Z0 F600
; --- FIX X Backlash ---
G0 X69.765 Y30.21 F410
G1 X67.264 Z0 F600
G1 X64.976 Y30.192 Z0 F600
; --- FIX Y Backlash ---
G0 X64.976 Y29.692 F410
G1 X64.967 Y29.426 Z0 F600
G1 X64.988 Y29.083 Z0 F600
G0 Z3.5 F600
; --- FIX X Backlash ---
G0 X65.688 Y29.083 F410
G0 X66.148 Y22.852 Z3.5
G1 Z0 F600
G1 X66.198 Y22.866 Z0 F600
; --- FIX Y Backlash ---
G0 X66.198 Y23.366 F410
G1 X66.235 Y23.423 Z0 F600
G1 X68.042 Y25.781 Z0 F600
G1 X69.755 Y28.125 Z0 F600
G1 X71.468 Y30.509 Z0 F600
G1 X71.716 Y30.852 Z0 F600
; --- FIX X Backlash ---
G0 X71.016 Y30.852 F410
G1 X67.259 Y30.848 Z0 F600
G1 X64.301 Y30.828 Z0 F600
; --- FIX Y Backlash ---
G0 X64.301 Y30.328 F410
G1 X64.33 Y30.147 Z0 F600
G1 X64.341 Y29.818 Z0 F600
G1 X64.326 Y29.418 Z0 F600
G1 X64.348 Y29.056 Z0 F600
G1 X64.389 Y27.377 Z0 F600
G1 X64.41 Y25.733 Z0 F600
G1 X64.448 Y24.098 Z0 F600
; --- FIX X Backlash ---
G0 X65.148 Y24.098 F410
G1 X65.218 Y22.875 Z0 F600
G1 X65.489 Y22.837 Z0 F600
G1 X65.934 Z0 F600
G1 X66.148 Y22.852 Z0 F600
G0 Z3.5 F600
G0 X66.76 Y22.555 Z3.5
G1 Z0 F600
; --- FIX Y Backlash ---
G0 X66.76 Y23.055 F410
G1 X68.556 Y25.401 Z0 F600
G1 X70.275 Y27.751 Z0 F600
G1 X71.987 Y30.134 Z0 F600
G1 X72.972 Y31.492 Z0 F600
; --- FIX X Backlash ---
G0 X72.272 Y31.492 F410
G1 X67.255 Y31.488 Z0 F600
G1 X63.345 Y31.461 Z0 F600
; --- FIX X Backlash ---
G0 X64.045 Y31.461 F410
; --- FIX Y Backlash ---
G0 X64.045 Y30.961 F410
G1 X64.227 Y30.704 Z0 F600
G1 X64.344 Y30.384 Z0 F600
G1 X64.392 Y30.086 Z0 F600
G1 X64.4 Y29.819 Z0 F600
G1 X64.386 Y29.408 Z0 F600
G1 X64.409 Y29.029 Z0 F600
G1 X64.45 Y27.365 Z0 F600
G1 X64.471 Y25.711 Z0 F600
G1 X64.508 Y24.091 Z0 F600
G1 X64.597 Y22.526 Z0 F600
G1 X64.606 Y22.497 Z0 F600
G1 X64.629 Y22.451 Z0 F600
G1 X64.654 Y22.417 Z0 F600
G1 X64.668 Y22.402 Z0 F600
G1 X64.793 Y22.322 Z0 F600
G1 X64.939 Y22.269 Z0 F600
G1 X65.441 Y22.198 Z0 F600
G1 X65.958 Z0 F600
G1 X66.258 Y22.218 Z0 F600
; --- FIX Y Backlash ---
G0 X66.258 Y22.718 F410
G1 X66.495 Y22.784 Z0 F600
G1 X66.557 Y22.816 Z0 F600
G1 X66.618 Y22.861 Z0 F600
G1 X66.668 Y22.914 Z0 F600
G1 X66.76 Y23.055 Z0 F600
G0 Z3.5 F600
G0 X69.064 Y25.012 Z3.5
G1 Z0 F600
G1 X70.795 Y27.378 Z0 F600
G1 X72.506 Y29.76 Z0 F600
G1 X74.227 Y32.133 Z0 F600
; --- FIX X Backlash ---
G0 X73.527 Y32.133 F410
G1 X67.251 Y32.128 Z0 F600
G1 X60.974 Y32.085 Z0 F600
G1 X60.792 Y32.128 Z0 F600
G1 X60.657 Y32.109 Z0 F600
; --- FIX Y Backlash ---
G0 X60.657 Y31.609 F410
G1 X60.564 Y31.539 Z0 F600
G1 X60.506 Y31.424 Z0 F600
G1 X60.477 Y31.275 Z0 F600
G1 X60.471 Y31.098 Z0 F600
G1 X60.484 Y30.903 Z0 F600
G1 X60.508 Y30.699 Z0 F600
; --- FIX X Backlash ---
G0 X61.208 Y30.699 F410
G1 X61.793 Y30.688 Z0 F600
G1 X62.387 Y30.708 Z0 F600
G1 X62.682 Z0 F600
G1 X62.974 Y30.691 Z0 F600
G1 X63.261 Y30.646 Z0 F600
G1 X63.541 Y30.566 Z0 F600
G1 X63.655 Y30.403 Z0 F600
G1 X63.722 Y30.222 Z0 F600
G1 X63.753 Y30.026 Z0 F600
G1 X63.76 Y29.82 Z0 F600
G1 X63.745 Y29.401 Z0 F600
G1 X63.77 Y29.001 Z0 F600
G1 X63.81 Y27.353 Z0 F600
G1 X63.831 Y25.703 Z0 F600
G1 X63.869 Y24.055 Z0 F600
G1 X63.962 Y22.411 Z0 F600
G1 X64.011 Y22.254 Z0 F600
G1 X64.08 Y22.118 Z0 F600
G1 X64.165 Y22 Z0 F600
G1 X64.266 Y21.9 Z0 F600
G1 X64.506 Y21.746 Z0 F600
G1 X64.784 Y21.644 Z0 F600
G1 X65.396 Y21.558 Z0 F600
G1 X65.981 Z0 F600
G1 X66.365 Y21.584 Z0 F600
; --- FIX Y Backlash ---
G0 X66.365 Y22.084 F410
G1 X66.729 Y22.185 Z0 F600
G1 X66.894 Y22.269 Z0 F600
G1 X67.043 Y22.379 Z0 F600
G1 X67.175 Y22.518 Z0 F600
G1 X67.284 Y22.687 Z0 F600
G1 X69.064 Y25.012 Z0 F600
G0 Z3.5 F600
G0 X73.289 Y24.978 Z3.5
G1 Z0 F600
G1 X73.733 Y25.254 Z0 F600
G1 X74.078 Y25.434 Z0 F600
; --- FIX X Backlash ---
G0 X73.378 Y25.434 F410
G1 X73.239 Y25.718 Z0 F600
G1 X73.113 Y25.914 Z0 F600
G1 X72.966 Y26.359 Z0 F600
G1 X72.941 Y26.823 Z0 F600
; --- FIX Y Backlash ---
G0 X72.941 Y26.323 F410
G1 X72.892 Y26.25 Z0 F600
G1 X72.606 Y25.863 Z0 F600
G1 X72.21 Y25.291 Z0 F600
G1 X71.809 Y24.728 Z0 F600
G1 X71.785 Y24.691 Z0 F600
; --- FIX X Backlash ---
G0 X72.485 Y24.691 F410
G1 X72.643 Y24.601 Z0 F600
G1 X73.005 Y24.34 Z0 F600
G1 X73.045 Y24.3 Z0 F600
; --- FIX Y Backlash ---
G0 X73.045 Y24.8 F410
G1 X73.289 Y24.978 Z0 F600
G0 Z3.5 F600
G0 X74.629 Y25.765 Z3.5
G1 Z0 F600
; --- FIX X Backlash ---
G0 X73.929 Y25.765 F410
G1 X73.796 Y26.036 Z0 F600
G1 X73.695 Y26.192 Z0 F600
G1 X73.601 Y26.478 Z0 F600
G1 X73.585 Y26.773 Z0 F600
; --- FIX X Backlash ---
G0 X74.285 Y26.773 F410
G1 X74.345 Y27.063 Z0 F600
G1 X74.483 Y27.328 Z0 F600
G1 X74.69 Y27.549 Z0 F600
G1 X74.957 Y27.71 Z0 F600
G1 X75.163 Y27.766 Z0 F600
G1 X76.049 Y28.066 Z0 F600
G1 X76.469 Y28.198 Z0 F600
; --- FIX X Backlash ---
G0 X75.769 Y28.198 F410
; --- FIX Y Backlash ---
G0 X75.769 Y27.698 F410
G1 X74.325 Y27.595 Z0 F600
G1 X73.003 Y27.475 Z0 F600
G1 X72.875 Y27.346 Z0 F600
G1 X72.633 Y27.017 Z0 F600
G1 X72.368 Y26.618 Z0 F600
G1 X72.088 Y26.239 Z0 F600
G1 X71.686 Y25.658 Z0 F600
G1 X71.279 Y25.088 Z0 F600
G1 X70.917 Y24.531 Z0 F600
G1 X70.874 Y24.449 Z0 F600
; --- FIX X Backlash ---
G0 X71.574 Y24.449 F410
G1 X72.011 Y24.225 Z0 F600
G1 X72.296 Y24.062 Z0 F600
G1 X72.588 Y23.852 Z0 F600
G1 X72.866 Y23.571 Z0 F600
G1 X72.964 Y23.414 Z0 F600
; --- FIX Y Backlash ---
G0 X72.964 Y23.914 F410
G1 X73.263 Y24.167 Z0 F600
G1 X73.646 Y24.446 Z0 F600
G1 X74.05 Y24.698 Z0 F600
G1 X74.473 Y24.918 Z0 F600
G1 X74.914 Y25.106 Z0 F600
G1 X75.341 Y25.249 Z0 F600
; --- FIX X Backlash ---
G0 X74.641 Y25.249 F410
G1 X74.531 Y25.284 Z0 F600
G1 X74.209 Y25.471 Z0 F600
G1 X73.929 Y25.765 Z0 F600
G0 Z3.5 F600
; --- FIX Y Backlash ---
G0 X73.929 Y25.265 F410
G0 X69.432 Y22.316 Z3.5
G1 Z0 F600
G1 X69.405 Y22.279 Z0 F600
G1 X69.1 Y21.839 Z0 F600
G1 X68.885 Y21.487 Z0 F600
; --- FIX X Backlash ---
G0 X69.585 Y21.487 F410
G1 X69.675 Y21.429 Z0 F600
G1 X70.251 Y21.092 Z0 F600
G1 X70.856 Y20.743 Z0 F600
G1 X71.068 Y20.609 Z0 F600
G1 X71.072 Y20.622 Z0 F600
; --- FIX Y Backlash ---
G0 X71.072 Y21.122 F410
G1 X71.249 Y21.565 Z0 F600
G1 X71.456 Y21.993 Z0 F600
G1 X71.542 Y22.144 Z0 F600
G1 X71.501 Y22.157 Z0 F600
; --- FIX X Backlash ---
G0 X70.801 Y22.157 F410
G1 X70.282 Y22.371 Z0 F600
G1 X69.806 Y22.625 Z0 F600
G1 X69.432 Y22.816 Z0 F600
G0 Z3.5 F600
G0 X68.879 Y23.144 Z3.5
G1 Z0 F600
; --- FIX Y Backlash ---
G0 X68.879 Y22.644 F410
G1 X68.565 Y22.192 Z0 F600
G1 X68.283 Y21.729 Z0 F600
G1 X68.066 Y21.257 Z0 F600
; --- FIX X Backlash ---
G0 X68.766 Y21.257 F410
G1 X69.339 Y20.884 Z0 F600
G1 X69.931 Y20.538 Z0 F600
G1 X70.525 Y20.195 Z0 F600
G1 X71.105 Y19.829 Z0 F600
G1 X71.188 Y19.766 Z0 F600
G1 X71.264 Y19.727 Z0 F600
G1 X71.333 Y19.713 Z0 F600
G1 X71.395 Y19.723 Z0 F600
G1 X71.448 Y19.756 Z0 F600
; --- FIX Y Backlash ---
G0 X71.448 Y20.256 F410
G1 X71.491 Y20.313 Z0 F600
G1 X71.524 Y20.394 Z0 F600
G1 X71.545 Y20.497 Z0 F600
G1 X71.675 Y20.907 Z0 F600
G1 X71.834 Y21.307 Z0 F600
G1 X72.022 Y21.694 Z0 F600
G1 X72.236 Y22.068 Z0 F600
G1 X72.475 Y22.425 Z0 F600
G1 X72.738 Y22.766 Z0 F600
G1 X73.024 Y23.086 Z0 F600
G1 X73.332 Y23.386 Z0 F600
G1 X73.659 Y23.664 Z0 F600
G1 X74.004 Y23.916 Z0 F600
G1 X74.368 Y24.142 Z0 F600
G1 X74.747 Y24.339 Z0 F600
G1 X75.141 Y24.507 Z0 F600
G1 X75.548 Y24.643 Z0 F600
G1 X75.967 Y24.746 Z0 F600
G1 X76.397 Y24.813 Z0 F600
G1 X76.773 Y24.855 Z0 F600
G1 X77.155 Y24.869 Z0 F600
G1 X77.901 Z0 F600
; --- FIX X Backlash ---
G0 X77.201 Y24.869 F410
G1 X77.113 Y25.064 Z0 F600
G1 X76.996 Y25.238 Z0 F600
G1 X76.856 Y25.389 Z0 F600
G1 X76.695 Y25.515 Z0 F600
G1 X76.515 Y25.614 Z0 F600
G1 X76.321 Y25.685 Z0 F600
G1 X76.115 Y25.725 Z0 F600
G1 X75.455 Y25.75 Z0 F600
G1 X75.001 Y25.805 Z0 F600
G1 X74.793 Y25.872 Z0 F600
G1 X74.61 Y25.978 Z0 F600
G1 X74.46 Y26.135 Z0 F600
G1 X74.354 Y26.351 Z0 F600
G1 X74.277 Y26.471 Z0 F600
G1 X74.235 Y26.597 Z0 F600
G1 X74.228 Y26.724 Z0 F600
G1 X74.254 Y26.845 Z0 F600
; --- FIX X Backlash ---
G0 X74.954 Y26.845 F410
G1 X75.011 Y26.955 Z0 F600
G1 X75.097 Y27.047 Z0 F600
G1 X75.21 Y27.116 Z0 F600
G1 X75.35 Y27.154 Z0 F600
G1 X76.248 Y27.458 Z0 F600
G1 X77.154 Y27.742 Z0 F600
G1 X78.065 Y28.004 Z0 F600
G1 X78.977 Y28.242 Z0 F600
; --- FIX Y Backlash ---
G0 X78.977 Y27.742 F410
G1 X79.186 Y27.636 Z0 F600
G1 X79.375 Y27.476 Z0 F600
G1 X79.554 Y27.286 Z0 F600
G1 X79.731 Y27.088 Z0 F600
G1 X79.917 Y26.908 Z0 F600
G1 X80.121 Y26.769 Z0 F600
G1 X80.351 Y26.693 Z0 F600
G1 X80.618 Y26.707 Z0 F600
; --- FIX Y Backlash ---
G0 X80.618 Y27.207 F410
G1 X80.829 Y27.258 Z0 F600
G1 X81.066 Y27.311 Z0 F600
G1 X81.276 Y27.381 Z0 F600
G1 X81.408 Y27.484 Z0 F600
; --- FIX X Backlash ---
G0 X80.708 Y27.484 F410
G1 X80.305 Y27.919 Z0 F600
G1 X79.895 Y28.356 Z0 F600
G1 X79.462 Y28.764 Z0 F600
G1 X78.988 Y29.11 Z0 F600
G1 X78.964 Z0 F600
; --- FIX Y Backlash ---
G0 X78.964 Y28.61 F410
G1 X77.403 Y28.459 Z0 F600
G1 X75.838 Y28.344 Z0 F600
G1 X74.273 Y28.232 Z0 F600
G1 X72.713 Y28.091 Z0 F600
G1 X72.388 Y27.764 Z0 F600
G1 X72.109 Y27.383 Z0 F600
G1 X71.844 Y26.985 Z0 F600
G1 X71.564 Y26.607 Z0 F600
G1 X71.162 Y26.026 Z0 F600
G1 X70.749 Y25.446 Z0 F600
G1 X70.363 Y24.853 Z0 F600
G1 X70.041 Y24.231 Z0 F600
; --- FIX X Backlash ---
G0 X70.741 Y24.231 F410
G1 X71.2 Y23.921 Z0 F600
G1 X71.706 Y23.662 Z0 F600
G1 X71.949 Y23.523 Z0 F600
G1 X72.171 Y23.363 Z0 F600
G1 X72.361 Y23.171 Z0 F600
G1 X72.508 Y22.936 Z0 F600
G1 X72.534 Y22.764 Z0 F600
G1 X72.509 Y22.602 Z0 F600
; --- FIX X Backlash ---
G0 X71.809 Y22.602 F410
G1 X71.741 Y22.456 Z0 F600
G1 X71.638 Y22.335 Z0 F600
G1 X71.507 Y22.248 Z0 F600
G1 X71.356 Y22.2 Z0 F600
G1 X71.193 Z0 F600
; --- FIX Y Backlash ---
G0 X71.193 Y22.7 F410
G1 X71.025 Y22.757 Z0 F600
G1 X70.556 Y22.95 Z0 F600
G1 X70.097 Y23.195 Z0 F600
G1 X69.645 Y23.426 Z0 F600
G1 X69.195 Y23.581 Z0 F600
; --- FIX Y Backlash ---
G0 X69.195 Y23.081 F410
G1 X68.879 Y22.644 Z0 F600
G0 Z3.5 F600
; --- FIX X Backlash ---
G0 X69.579 Y22.644 F410
G0 X77.482 Y18.192 Z3.5
G1 Z0 F600
G1 X77.501 Y18.204 Z0 F600
; --- FIX Y Backlash ---
G0 X77.501 Y18.704 F410
G1 X77.497 Y18.851 Z0 F600
G1 X77.483 Y18.887 Z0 F600
; --- FIX X Backlash ---
G0 X76.783 Y18.887 F410
G1 X76.729 Z0 F600
G1 X76.707 Y18.882 Z0 F600
G1 X76.685 Y18.869 Z0 F600
G1 X76.663 Y18.848 Z0 F600
G1 X76.651 Y18.829 Z0 F600
G1 X76.647 Y18.814 Z0 F600
G1 Y18.803 Z0 F600
; --- FIX Y Backlash ---
G0 X76.647 Y18.303 F410
G1 X76.673 Y18.209 Z0 F600
G1 X76.682 Y18.181 Z0 F600
; --- FIX X Backlash ---
G0 X77.382 Y18.181 F410
G1 X77.433 Z0 F600
G1 X77.482 Y18.192 Z0 F600
G0 Z3.5 F600
; --- FIX Y Backlash ---
G0 X77.482 Y18.692 F410
G0 X78.133 Y18.974 Z3.5
G1 Z0 F600
; --- FIX X Backlash ---
G0 X77.433 Y18.974 F410
G1 X77.329 Y19.255 Z0 F600
G1 X77.242 Y19.372 Z0 F600
G1 X77.134 Y19.461 Z0 F600
G1 X77.005 Y19.516 Z0 F600
G1 X76.854 Y19.526 Z0 F600
G1 X76.651 Y19.529 Z0 F600
; --- FIX Y Backlash ---
G0 X76.651 Y19.029 F410
G1 X76.463 Y18.979 Z0 F600
G1 X76.297 Y18.885 Z0 F600
G1 X76.161 Y18.754 Z0 F600
G1 X76.063 Y18.594 Z0 F600
G1 X76.008 Y18.414 Z0 F600
G1 X76.005 Y18.221 Z0 F600
; --- FIX X Backlash ---
G0 X76.705 Y18.221 F410
G1 X76.76 Y18.024 Z0 F600
G1 X76.8 Y17.894 Z0 F600
G1 X76.861 Y17.784 Z0 F600
G1 X76.942 Y17.694 Z0 F600
G1 X77.039 Y17.625 Z0 F600
G1 X77.264 Y17.543 Z0 F600
G1 X77.509 Y17.537 Z0 F600
; --- FIX Y Backlash ---
G0 X77.509 Y18.037 F410
G1 X77.747 Y18.101 Z0 F600
G1 X77.951 Y18.233 Z0 F600
G1 X78.03 Y18.324 Z0 F600
G1 X78.091 Y18.43 Z0 F600
G1 X78.129 Y18.551 Z0 F600
G1 X78.142 Y18.687 Z0 F600
G1 X78.133 Y18.974 Z0 F600
G0 Z3.5 F600
G0 X78.22 Y21.982 Z3.5
G1 Z0 F600
; --- FIX Y Backlash ---
G0 X78.22 Y21.482 F410
G1 X78.532 Y21.389 Z0 F600
G1 X78.832 Y21.262 Z0 F600
G1 X79.117 Y21.104 Z0 F600
G1 X79.385 Y20.918 Z0 F600
G1 X79.634 Y20.707 Z0 F600
G1 X79.863 Y20.472 Z0 F600
G1 X80.069 Y20.217 Z0 F600
G1 X80.25 Y19.943 Z0 F600
G1 X80.405 Y19.653 Z0 F600
G1 X80.532 Y19.351 Z0 F600
G1 X80.628 Y19.038 Z0 F600
G1 X80.691 Y18.716 Z0 F600
G1 X80.721 Y18.389 Z0 F600
G1 X80.713 Y18.059 Z0 F600
; --- FIX X Backlash ---
G0 X80.013 Y18.059 F410
G1 X79.962 Y17.604 Z0 F600
G1 X79.833 Y17.171 Z0 F600
G1 X79.638 Y16.763 Z0 F600
G1 X79.384 Y16.383 Z0 F600
G1 X79.083 Y16.036 Z0 F600
G1 X78.744 Y15.726 Z0 F600
G1 X78.375 Y15.457 Z0 F600
G1 X77.988 Y15.231 Z0 F600
G1 X77.7 Y15.145 Z0 F600
G1 X77.407 Y15.083 Z0 F600
G1 X77.109 Y15.046 Z0 F600
G1 X76.809 Y15.035 Z0 F600
; --- FIX Y Backlash ---
G0 X76.809 Y15.535 F410
G1 X76.212 Y15.585 Z0 F600
G1 X75.633 Y15.732 Z0 F600
G1 X75.356 Y15.84 Z0 F600
G1 X75.089 Y15.972 Z0 F600
G1 X74.836 Y16.126 Z0 F600
G1 X74.598 Y16.303 Z0 F600
G1 X74.378 Y16.502 Z0 F600
G1 X74.177 Y16.723 Z0 F600
G1 X73.998 Y16.965 Z0 F600
G1 X73.843 Y17.229 Z0 F600
G1 X73.667 Y17.61 Z0 F600
G1 X73.551 Y18.011 Z0 F600
G1 X73.491 Y18.426 Z0 F600
G1 X73.485 Y18.848 Z0 F600
G1 X73.527 Y19.269 Z0 F600
; --- FIX X Backlash ---
G0 X74.227 Y19.269 F410
G1 X74.314 Y19.684 Z0 F600
G1 X74.444 Y20.084 Z0 F600
G1 X74.611 Y20.464 Z0 F600
G1 X74.86 Y20.828 Z0 F600
G1 X75.159 Y21.148 Z0 F600
G1 X75.499 Y21.423 Z0 F600
G1 X75.873 Y21.652 Z0 F600
G1 X76.274 Y21.832 Z0 F600
G1 X76.694 Y21.96 Z0 F600
G1 X77.127 Y22.037 Z0 F600
G1 X77.564 Y22.06 Z0 F600
G1 X77.896 Y22.04 Z0 F600
; --- FIX Y Backlash ---
G0 X77.896 Y21.54 F410
G1 X78.22 Y21.482 Z0 F600
G0 Z3.5 F600
G0 X80.071 Y21.175 Z3.5
G1 Z0 F600
G1 X80.342 Y20.897 Z0 F600
G1 X80.586 Y20.595 Z0 F600
G1 X80.801 Y20.271 Z0 F600
G1 X80.984 Y19.928 Z0 F600
G1 X81.134 Y19.569 Z0 F600
G1 X81.25 Y19.194 Z0 F600
G1 X81.326 Y18.807 Z0 F600
G1 X81.361 Y18.411 Z0 F600
G1 X81.353 Y18.016 Z0 F600
; --- FIX X Backlash ---
G0 X80.653 Y18.016 F410
G1 X80.591 Y17.477 Z0 F600
G1 X80.432 Y16.941 Z0 F600
G1 X80.196 Y16.445 Z0 F600
G1 X79.894 Y15.994 Z0 F600
G1 X79.542 Y15.589 Z0 F600
G1 X79.15 Y15.23 Z0 F600
G1 X78.726 Y14.92 Z0 F600
G1 X78.244 Y14.641 Z0 F600
G1 X77.859 Y14.524 Z0 F600
G1 X77.512 Y14.451 Z0 F600
G1 X77.16 Y14.408 Z0 F600
G1 X76.794 Y14.394 Z0 F600
; --- FIX Y Backlash ---
G0 X76.794 Y14.894 F410
G1 X76.106 Y14.952 Z0 F600
G1 X75.437 Y15.121 Z0 F600
G1 X75.097 Y15.254 Z0 F600
G1 X74.78 Y15.41 Z0 F600
G1 X74.478 Y15.595 Z0 F600
G1 X74.192 Y15.808 Z0 F600
G1 X73.925 Y16.048 Z0 F600
G1 X73.681 Y16.316 Z0 F600
G1 X73.463 Y16.612 Z0 F600
G1 X73.275 Y16.932 Z0 F600
G1 X73.066 Y17.385 Z0 F600
G1 X72.924 Y17.875 Z0 F600
G1 X72.852 Y18.375 Z0 F600
G1 X72.844 Y18.875 Z0 F600
G1 X72.894 Y19.368 Z0 F600
; --- FIX X Backlash ---
G0 X73.594 Y19.368 F410
G1 X73.695 Y19.848 Z0 F600
G1 X73.845 Y20.313 Z0 F600
G1 X74.05 Y20.777 Z0 F600
G1 X74.359 Y21.229 Z0 F600
G1 X74.721 Y21.618 Z0 F600
G1 X75.129 Y21.947 Z0 F600
G1 X75.574 Y22.219 Z0 F600
G1 X76.048 Y22.432 Z0 F600
G1 X76.544 Y22.584 Z0 F600
G1 X77.054 Y22.674 Z0 F600
G1 X77.567 Y22.701 Z0 F600
G1 X77.972 Y22.677 Z0 F600
; --- FIX Y Backlash ---
G0 X77.972 Y22.177 F410
G1 X78.368 Y22.106 Z0 F600
G1 X78.749 Y21.992 Z0 F600
G1 X79.112 Y21.838 Z0 F600
G1 X79.455 Y21.648 Z0 F600
G1 X79.775 Y21.427 Z0 F600
G1 X80.071 Y21.175 Z0 F600
G0 Z3.5 F600
G0 X81.024 Y20.47 Z3.5
G1 Z0 F600
; --- FIX X Backlash ---
G0 X80.324 Y20.47 F410
; --- FIX Y Backlash ---
G0 X80.324 Y20.97 F410
G1 X80.03 Y21.391 Z0 F600
G1 X79.686 Y21.773 Z0 F600
G1 X79.294 Y22.112 Z0 F600
G1 X78.863 Y22.401 Z0 F600
G1 X78.403 Y22.633 Z0 F600
G1 X77.902 Y22.808 Z0 F600
G1 X77.61 Y22.889 Z0 F600
G1 X77.328 Y22.942 Z0 F600
G1 X77.027 Y22.974 Z0 F600
G1 X76.74 Y22.979 Z0 F600
G1 X76.174 Y22.949 Z0 F600
; --- FIX Y Backlash ---
G0 X76.174 Y22.449 F410
G1 X75.642 Y22.343 Z0 F600
G1 X75.128 Y22.166 Z0 F600
G1 X74.637 Y21.919 Z0 F600
G1 X74.182 Y21.612 Z0 F600
G1 X73.767 Y21.247 Z0 F600
G1 X73.405 Y20.834 Z0 F600
G1 X73.092 Y20.365 Z0 F600
G1 X72.874 Y19.981 Z0 F600
G1 X72.725 Y19.608 Z0 F600
G1 X72.622 Y19.209 Z0 F600
G1 X72.564 Y18.794 Z0 F600
G1 X72.547 Y18.358 Z0 F600
G1 X72.57 Y17.921 Z0 F600
; --- FIX X Backlash ---
G0 X73.27 Y17.921 F410
G1 X73.326 Y17.477 Z0 F600
G1 X73.408 Y17.065 Z0 F600
G1 X73.552 Y16.666 Z0 F600
G1 X73.75 Y16.267 Z0 F600
G1 X73.99 Y15.892 Z0 F600
G1 X74.27 Y15.541 Z0 F600
G1 X74.588 Y15.214 Z0 F600
G1 X74.934 Y14.922 Z0 F600
G1 X75.304 Y14.667 Z0 F600
G1 X75.673 Y14.462 Z0 F600
G1 X76.179 Y14.295 Z0 F600
G1 X76.729 Y14.179 Z0 F600
G1 X77.288 Y14.124 Z0 F600
G1 X77.854 Y14.134 Z0 F600
; --- FIX Y Backlash ---
G0 X77.854 Y14.634 F410
G1 X78.4 Y14.71 Z0 F600
G1 X78.929 Y14.858 Z0 F600
G1 X79.423 Y15.076 Z0 F600
G1 X79.893 Y15.377 Z0 F600
G1 X80.152 Y15.58 Z0 F600
G1 X80.389 Y15.799 Z0 F600
G1 X80.61 Y16.04 Z0 F600
G1 X80.812 Y16.297 Z0 F600
G1 X80.995 Y16.572 Z0 F600
G1 X81.155 Y16.858 Z0 F600
G1 X81.292 Y17.151 Z0 F600
G1 X81.409 Y17.464 Z0 F600
G1 X81.502 Y17.781 Z0 F600
G1 X81.569 Y18.098 Z0 F600
G1 X81.613 Y18.42 Z0 F600
G1 X81.63 Y18.749 Z0 F600
G1 X81.622 Y19.069 Z0 F600
G1 X81.587 Y19.391 Z0 F600
; --- FIX X Backlash ---
G0 X80.887 Y19.391 F410
G1 X80.825 Y19.704 Z0 F600
G1 X80.732 Y20.03 Z0 F600
G1 X80.556 Y20.523 Z0 F600
G1 X80.324 Y20.97 Z0 F600
G0 Z3.5 F600
G0 X79.683 Y22.623 Z3.5
G1 Z0 F600
G1 X79.187 Y22.955 Z0 F600
G1 X78.654 Y23.223 Z0 F600
G1 X78.092 Y23.42 Z0 F600
G1 X77.757 Y23.512 Z0 F600
G1 X77.417 Y23.577 Z0 F600
G1 X77.072 Y23.613 Z0 F600
G1 X76.725 Y23.62 Z0 F600
G1 X76.092 Y23.586 Z0 F600
; --- FIX Y Backlash ---
G0 X76.092 Y23.086 F410
G1 X75.474 Y22.963 Z0 F600
G1 X74.879 Y22.757 Z0 F600
G1 X74.314 Y22.474 Z0 F600
G1 X73.79 Y22.12 Z0 F600
G1 X73.315 Y21.701 Z0 F600
G1 X72.896 Y21.224 Z0 F600
G1 X72.543 Y20.695 Z0 F600
G1 X72.297 Y20.262 Z0 F600
G1 X72.115 Y19.807 Z0 F600
G1 X71.993 Y19.334 Z0 F600
G1 X71.925 Y18.85 Z0 F600
G1 X71.906 Y18.358 Z0 F600
G1 X71.931 Y17.865 Z0 F600
; --- FIX X Backlash ---
G0 X72.631 Y17.865 F410
G1 X72.694 Y17.375 Z0 F600
G1 X72.79 Y16.894 Z0 F600
G1 X72.963 Y16.412 Z0 F600
G1 X73.191 Y15.952 Z0 F600
G1 X73.468 Y15.519 Z0 F600
G1 X73.79 Y15.116 Z0 F600
G1 X74.15 Y14.746 Z0 F600
G1 X74.545 Y14.413 Z0 F600
G1 X74.968 Y14.122 Z0 F600
G1 X75.414 Y13.874 Z0 F600
G1 X76.01 Y13.677 Z0 F600
G1 X76.631 Y13.546 Z0 F600
G1 X77.266 Y13.483 Z0 F600
G1 X77.903 Y13.495 Z0 F600
; --- FIX Y Backlash ---
G0 X77.903 Y13.995 F410
G1 X78.533 Y14.083 Z0 F600
G1 X79.144 Y14.253 Z0 F600
G1 X79.725 Y14.51 Z0 F600
G1 X80.267 Y14.857 Z0 F600
G1 X80.565 Y15.09 Z0 F600
G1 X80.843 Y15.347 Z0 F600
G1 X81.099 Y15.625 Z0 F600
G1 X81.332 Y15.922 Z0 F600
G1 X81.54 Y16.236 Z0 F600
G1 X81.725 Y16.565 Z0 F600
G1 X81.884 Y16.907 Z0 F600
G1 X82.017 Y17.26 Z0 F600
G1 X82.123 Y17.622 Z0 F600
G1 X82.201 Y17.99 Z0 F600
G1 X82.25 Y18.362 Z0 F600
G1 X82.271 Y18.738 Z0 F600
G1 X82.261 Y19.113 Z0 F600
G1 X82.22 Y19.487 Z0 F600
; --- FIX X Backlash ---
G0 X81.52 Y19.487 F410
G1 X81.447 Y19.857 Z0 F600
G1 X81.342 Y20.222 Z0 F600
G1 X81.145 Y20.778 Z0 F600
G1 X80.872 Y21.303 Z0 F600
G1 X80.533 Y21.79 Z0 F600
G1 X80.134 Y22.232 Z0 F600
G1 X79.683 Y22.623 Z0 F600
G0 Z3.5 F600
G0 X55.289 Y27.595 Z3.5
G1 Z0 F600
G1 X55.238 Z0 F600
G1 Y27.568 Z0 F600
; --- FIX Y Backlash ---
G0 X55.238 Y27.068 F410
G1 X55.217 Y26.272 Z0 F600
; --- FIX X Backlash ---
G0 X55.917 Y26.272 F410
G1 X56.328 Y26.25 Z0 F600
; --- FIX X Backlash ---
G0 X55.628 Y26.25 F410
; --- FIX Y Backlash ---
G0 X55.628 Y26.75 F410
G1 X55.289 Y27.595 Z0 F600
G0 Z3.5 F600
G0 X54.622 Y28.237 Z3.5
G1 Z0 F600
; --- FIX Y Backlash ---
G0 X54.622 Y27.737 F410
G1 X54.597 Y27.109 Z0 F600
G1 X54.571 Y26.062 Z0 F600
G1 Y25.666 Z0 F600
; --- FIX X Backlash ---
G0 X55.271 Y25.666 F410
G1 X56.816 Y25.583 Z0 F600
G1 X58.434 Y25.535 Z0 F600
; --- FIX Y Backlash ---
G0 X58.434 Y26.035 F410
G1 X58.43 Y26.263 Z0 F600
; --- FIX X Backlash ---
G0 X57.73 Y26.263 F410
G1 X56.273 Y26.862 Z0 F600
G1 X55.722 Y28.234 Z0 F600
G1 X54.622 Y28.237 Z0 F600
G0 Z3.5 F600
; --- FIX Y Backlash ---
G0 X54.622 Y27.737 F410
G0 X53.958 Y27.141 Z3.5
G1 Z0 F600
G1 X53.932 Y26.081 Z0 F600
G1 X53.926 Y25.063 Z0 F600
; --- FIX X Backlash ---
G0 X54.626 Y25.063 F410
G1 X54.753 Y25.052 Z0 F600
G1 X56.784 Y24.944 Z0 F600
G1 X58.877 Y24.881 Z0 F600
G1 X59.083 Z0 F600
; --- FIX Y Backlash ---
G0 X59.083 Y25.381 F410
G1 X59.069 Y26.328 Z0 F600
G1 X59.059 Y26.696 Z0 F600
; --- FIX X Backlash ---
G0 X58.359 Y26.696 F410
G1 X56.766 Y27.351 Z0 F600
G1 X56.156 Y28.873 Z0 F600
G1 X54.007 Y28.878 Z0 F600
; --- FIX Y Backlash ---
G0 X54.007 Y28.378 F410
G1 X53.958 Y27.141 Z0 F600
G0 Z3.5 F600
; --- FIX X Backlash ---
G0 X54.658 Y27.141 F410
G0 X54.709 Y24.414 Z3.5
G1 Z0 F600
G1 X56.772 Y24.304 Z0 F600
G1 X58.833 Y24.242 Z0 F600
G1 X59.732 Y24.236 Z0 F600
; --- FIX Y Backlash ---
G0 X59.732 Y24.736 F410
G1 Y24.79 Z0 F600
G1 X59.709 Y26.325 Z0 F600
G1 X59.685 Y27.181 Z0 F600
; --- FIX X Backlash ---
G0 X58.985 Y27.181 F410
G1 X58.72 Y27.24 Z0 F600
G1 X57.26 Y27.84 Z0 F600
G1 X56.691 Y29.258 Z0 F600
G1 X56.638 Y29.477 Z0 F600
G1 X56.452 Y29.495 Z0 F600
G1 X56.335 Y29.513 Z0 F600
G1 X53.713 Y29.519 Z0 F600
G1 X53.392 Z0 F600
; --- FIX Y Backlash ---
G0 X53.392 Y29.019 F410
G1 X53.317 Y27.12 Z0 F600
G1 X53.292 Y26.101 Z0 F600
G1 X53.286 Y25.066 Z0 F600
G1 X53.3 Y24.469 Z0 F600
; --- FIX X Backlash ---
G0 X54 Y24.469 F410
G1 X54.709 Y24.414 Z0 F600
G0 Z3.5 F600
G0 X58.83 Y23.602 Z3.5
G1 Z0 F600
G1 X60.374 Y23.591 Z0 F600
; --- FIX Y Backlash ---
G0 X60.374 Y24.091 F410
G1 Y24.768 Z0 F600
G1 X60.349 Y26.343 Z0 F600
G1 X60.31 Y27.717 Z0 F600
; --- FIX X Backlash ---
G0 X59.61 Y27.717 F410
G1 X59.46 Y27.731 Z0 F600
G1 X58.913 Y27.853 Z0 F600
G1 X57.753 Y28.329 Z0 F600
G1 X57.302 Y29.453 Z0 F600
G1 X57.184 Y29.943 Z0 F600
G1 X57.167 Y30.075 Z0 F600
G1 X56.911 Y30.093 Z0 F600
G1 X56.53 Y30.13 Z0 F600
G1 X56.381 Y30.153 Z0 F600
G1 X53.716 Y30.159 Z0 F600
G1 X52.776 Y30.164 Z0 F600
; --- FIX Y Backlash ---
G0 X52.776 Y29.664 F410
G1 X52.764 Y29.338 Z0 F600
G1 X52.678 Y27.165 Z0 F600
G1 X52.652 Y26.096 Z0 F600
G1 X52.646 Y25.055 Z0 F600
G1 X52.669 Y24.038 Z0 F600
G1 X52.678 Y23.876 Z0 F600
; --- FIX X Backlash ---
G0 X53.378 Y23.876 F410
G1 X54.646 Y23.777 Z0 F600
G1 X56.761 Y23.664 Z0 F600
G1 X58.83 Y23.602 Z0 F600
G0 Z3.5 F600
G0 X61.016 Y22.949 Z3.5
G1 Z0 F600
; --- FIX Y Backlash ---
G0 X61.016 Y23.449 F410
G1 X61.012 Y24.778 Z0 F600
G1 X60.989 Y26.362 Z0 F600
G1 X60.943 Y27.94 Z0 F600
G1 X60.925 Y28.322 Z0 F600
; --- FIX X Backlash ---
G0 X60.225 Y28.322 F410
G1 X59.97 Y28.325 Z0 F600
G1 X59.56 Y28.364 Z0 F600
G1 X59.106 Y28.465 Z0 F600
G1 X58.246 Y28.818 Z0 F600
G1 X57.913 Y29.648 Z0 F600
G1 X57.814 Y30.06 Z0 F600
G1 X57.766 Y30.435 Z0 F600
G1 X57.752 Y30.682 Z0 F600
G1 X57.342 Y30.705 Z0 F600
G1 X56.965 Y30.731 Z0 F600
G1 X56.609 Y30.766 Z0 F600
G1 X56.429 Y30.792 Z0 F600
G1 X53.718 Y30.799 Z0 F600
G1 X52.157 Y30.808 Z0 F600
; --- FIX Y Backlash ---
G0 X52.157 Y30.308 F410
G1 X52.125 Y29.362 Z0 F600
G1 X52.038 Y27.189 Z0 F600
G1 X52.011 Y26.097 Z0 F600
G1 X52.006 Y25.069 Z0 F600
G1 X52.029 Y24 Z0 F600
G1 X52.071 Y23.281 Z0 F600
; --- FIX X Backlash ---
G0 X52.771 Y23.281 F410
G1 X54.6 Y23.138 Z0 F600
G1 X56.729 Y23.024 Z0 F600
G1 X58.827 Y22.961 Z0 F600
G1 X60.915 Y22.947 Z0 F600
G1 X61.016 Z0 F600
G0 Z3.5 F600
G0 X61.656 Y22.715 Z3.5
G1 Z0 F600
; --- FIX Y Backlash ---
G0 X61.656 Y23.215 F410
G1 X61.652 Y24.787 Z0 F600
G1 X61.628 Y26.39 Z0 F600
G1 X61.583 Y27.97 Z0 F600
G1 X61.536 Y28.977 Z0 F600
; --- FIX X Backlash ---
G0 X60.836 Y28.977 F410
G1 X60.327 Y28.961 Z0 F600
G1 X60.004 Y28.965 Z0 F600
G1 X59.66 Y28.998 Z0 F600
G1 X59.298 Y29.078 Z0 F600
G1 X58.74 Y29.308 Z0 F600
G1 X58.525 Y29.844 Z0 F600
G1 X58.445 Y30.176 Z0 F600
G1 X58.404 Y30.494 Z0 F600
G1 X58.386 Y30.797 Z0 F600
G1 X58.379 Y31.289 Z0 F600
G1 X57.383 Y31.343 Z0 F600
G1 X57.018 Y31.369 Z0 F600
G1 X56.687 Y31.401 Z0 F600
G1 X56.481 Y31.432 Z0 F600
G1 X53.721 Y31.439 Z0 F600
G1 X51.538 Y31.451 Z0 F600
; --- FIX Y Backlash ---
G0 X51.538 Y30.951 F410
G1 X51.485 Y29.385 Z0 F600
G1 X51.399 Y27.196 Z0 F600
G1 X51.372 Y26.125 Z0 F600
G1 X51.366 Y25.037 Z0 F600
G1 X51.389 Y23.991 Z0 F600
; --- FIX X Backlash ---
G0 X52.089 Y23.991 F410
G1 X52.151 Y22.912 Z0 F600
G1 X52.159 Y22.806 Z0 F600
G1 X52.17 Y22.765 Z0 F600
G1 X52.188 Y22.732 Z0 F600
G1 X52.21 Y22.707 Z0 F600
G1 X52.236 Y22.687 Z0 F600
G1 X52.269 Y22.672 Z0 F600
G1 X52.301 Y22.665 Z0 F600
G1 X52.441 Z0 F600
G1 X54.576 Y22.499 Z0 F600
G1 X56.697 Y22.385 Z0 F600
G1 X58.805 Y22.322 Z0 F600
G1 X60.92 Y22.308 Z0 F600
G1 X61.114 Y22.311 Z0 F600
G1 X61.267 Y22.334 Z0 F600
G1 X61.413 Y22.379 Z0 F600
; --- FIX Y Backlash ---
G0 X61.413 Y22.879 F410
G1 X61.525 Y22.935 Z0 F600
G1 X61.6 Y22.993 Z0 F600
G1 X61.634 Y23.038 Z0 F600
G1 X61.649 Y23.077 Z0 F600
G1 X61.656 Y23.215 Z0 F600
G0 Z3.5 F600
G0 X62.269 Y26.399 Z3.5
G1 Z0 F600
G1 X62.222 Y28 Z0 F600
; --- FIX X Backlash ---
G0 X61.522 Y28 F410
G1 X61.447 Y29.592 Z0 F600
G1 X60.891 Y29.619 Z0 F600
G1 X60.321 Y29.602 Z0 F600
G1 X60.038 Z0 F600
G1 X59.76 Y29.631 Z0 F600
G1 X59.491 Y29.691 Z0 F600
G1 X59.233 Y29.797 Z0 F600
G1 X59.136 Y30.039 Z0 F600
G1 X59.075 Y30.292 Z0 F600
G1 X59.041 Y30.554 Z0 F600
G1 X59.026 Y30.82 Z0 F600
G1 X59.018 Y31.359 Z0 F600
G1 X58.983 Y31.885 Z0 F600
G1 X58.778 Y31.905 Z0 F600
G1 X58.495 Y31.923 Z0 F600
G1 X57.423 Y31.982 Z0 F600
G1 X57.072 Y32.007 Z0 F600
G1 X56.765 Y32.037 Z0 F600
G1 X56.528 Y32.072 Z0 F600
G1 X53.723 Y32.079 Z0 F600
G1 X50.92 Y32.094 Z0 F600
; --- FIX Y Backlash ---
G0 X50.92 Y31.594 F410
G1 X50.845 Y29.409 Z0 F600
G1 X50.759 Y27.221 Z0 F600
G1 X50.732 Y26.129 Z0 F600
G1 X50.726 Y25.04 Z0 F600
G1 X50.75 Y23.955 Z0 F600
; --- FIX X Backlash ---
G0 X51.45 Y23.955 F410
G1 X51.512 Y22.875 Z0 F600
G1 X51.525 Y22.69 Z0 F600
G1 X51.576 Y22.52 Z0 F600
G1 X51.658 Y22.368 Z0 F600
G1 X51.769 Y22.239 Z0 F600
G1 X51.904 Y22.136 Z0 F600
G1 X52.06 Y22.063 Z0 F600
G1 X52.232 Y22.024 Z0 F600
G1 X52.417 Z0 F600
G1 X54.532 Y21.86 Z0 F600
G1 X56.665 Y21.746 Z0 F600
G1 X58.801 Y21.682 Z0 F600
G1 X60.925 Y21.667 Z0 F600
G1 X61.165 Y21.671 Z0 F600
G1 X61.411 Y21.709 Z0 F600
; --- FIX Y Backlash ---
G0 X61.411 Y22.209 F410
G1 X61.65 Y22.282 Z0 F600
G1 X61.87 Y22.392 Z0 F600
G1 X62.057 Y22.538 Z0 F600
G1 X62.199 Y22.721 Z0 F600
G1 X62.283 Y22.943 Z0 F600
G1 X62.296 Y23.203 Z0 F600
G1 X62.292 Y24.796 Z0 F600
G1 X62.269 Y26.399 Z0 F600
G0 Z3.5 F600
; --- FIX X Backlash ---
G0 X61.569 Y26.399 F410
G0 X53.979 Y35.712 Z3.5
G1 Z0 F600
G1 X53.715 Z0 F600
G1 X53.647 Y35.705 Z0 F600
; --- FIX X Backlash ---
G0 X54.347 Y35.705 F410
G1 X54.681 Z0 F600
G1 Y35.712 Z0 F600
G0 Z3.5 F600
G0 X54.702 Y36.353 Z3.5
G1 Z0 F600
; --- FIX X Backlash ---
G0 X54.002 Y36.353 F410
G1 X53.677 Z0 F600
G1 X53.39 Y36.322 Z0 F600
G1 X52.681 Y36.276 Z0 F600
G1 X51.987 Y36.242 Z0 F600
G1 X51.309 Y36.195 Z0 F600
G1 X51.124 Y36.173 Z0 F600
; --- FIX Y Backlash ---
G0 X51.124 Y35.673 F410
G1 X51.096 Y35.462 Z0 F600
G1 X51.027 Y35.202 Z0 F600
G1 X50.89 Y34.919 Z0 F600
G1 X50.645 Y34.652 Z0 F600
G1 X50.297 Y34.47 Z0 F600
G1 X49.974 Y34.423 Z0 F600
G1 X49.686 Y34.458 Z0 F600
; --- FIX Y Backlash ---
G0 X49.686 Y34.958 F410
G1 X49.423 Y35.058 Z0 F600
G1 X49.272 Y35.162 Z0 F600
; --- FIX Y Backlash ---
G0 X49.272 Y34.662 F410
G1 X49.258 Y34.23 Z0 F600
; --- FIX X Backlash ---
G0 X49.958 Y34.23 F410
; --- FIX Y Backlash ---
G0 X49.958 Y34.73 F410
G1 X50.122 Y34.803 Z0 F600
G1 X50.442 Y34.881 Z0 F600
G1 X50.79 Y34.935 Z0 F600
G1 X51.176 Y34.976 Z0 F600
G1 X51.597 Y35.006 Z0 F600
G1 X52.043 Y35.03 Z0 F600
G1 X52.504 Y35.045 Z0 F600
G1 X53.414 Y35.063 Z0 F600
G1 X54.23 Z0 F600
G1 X55.107 Z0 F600
G1 X55.247 Y35.085 Z0 F600
G1 X55.283 Y35.104 Z0 F600
G1 X55.3 Y35.123 Z0 F600
G1 X55.327 Y35.179 Z0 F600
G1 X55.352 Y35.298 Z0 F600
G1 X55.357 Y35.473 Z0 F600
G1 X55.337 Y35.684 Z0 F600
G1 X55.29 Y35.92 Z0 F600
; --- FIX X Backlash ---
G0 X54.59 Y35.92 F410
G1 X54.526 Y36.146 Z0 F600
G1 X54.446 Y36.367 Z0 F600
G1 X54.425 Y36.415 Z0 F600
G1 X54.228 Y36.371 Z0 F600
G1 X54.002 Y36.353 Z0 F600
G0 Z3.5 F600
G0 X51.372 Y41.173 Z3.5
G1 Z0 F600
; --- FIX X Backlash ---
G0 X52.072 Y41.173 F410
G1 X52.42 Y41.183 Z0 F600
G1 X52.731 Z0 F600
G1 X52.793 Y41.193 Z0 F600
G1 X52.831 Y41.952 Z0 F600
G1 X52.847 Y43.157 Z0 F600
G1 X52.826 Y44.363 Z0 F600
G1 X52.785 Y45.276 Z0 F600
; --- FIX X Backlash ---
G0 X52.085 Y45.276 F410
G1 X52.015 Y45.279 Z0 F600
G1 X51.77 Z0 F600
G1 X51.392 Y45.25 Z0 F600
; --- FIX Y Backlash ---
G0 X51.392 Y44.75 F410
G1 X51.372 Y44.457 Z0 F600
G1 X51.375 Y43.86 Z0 F600
G1 Y43.214 Z0 F600
G1 X51.305 Y42.328 Z0 F600
G1 X51.006 Y42.051 Z0 F600
; --- FIX X Backlash ---
G0 X51.706 Y42.051 F410
G1 X51.893 Y41.833 Z0 F600
G1 X52.017 Y41.526 Z0 F600
G1 X52.064 Y41.244 Z0 F600
G1 X52.068 Y40.843 Z0 F600
G1 X52.072 Y40.673 Z0 F600
G0 Z3.5 F600
; --- FIX X Backlash ---
G0 X51.372 Y40.673 F410
G0 X48.554 Y24.956 Z3.5
G1 Z0 F600
G1 X48.232 Y24.793 Z0 F600
G1 X47.933 Y24.745 Z0 F600
G1 X47.548 Y24.769 Z0 F600
G1 X47.256 Y24.806 Z0 F600
; --- FIX Y Backlash ---
G0 X47.256 Y25.306 F410
G1 X46.364 Y25.414 Z0 F600
G1 X45.454 Y25.541 Z0 F600
G1 X44.894 Y25.616 Z0 F600
; --- FIX X Backlash ---
G0 X45.594 Y25.616 F410
; --- FIX Y Backlash ---
G0 X45.594 Y25.116 F410
G1 X45.768 Y24.876 Z0 F600
G1 X46.081 Y24.547 Z0 F600
G1 X46.431 Y24.266 Z0 F600
G1 X46.811 Y24.042 Z0 F600
G1 X47.214 Y23.881 Z0 F600
G1 X47.687 Y23.777 Z0 F600
G1 X48.818 Y23.544 Z0 F600
G1 X49.22 Y23.47 Z0 F600
; --- FIX Y Backlash ---
G0 X49.22 Y23.97 F410
G1 X49.254 Y25.456 Z0 F600
G0 Z3.5 F600
; --- FIX X Backlash ---
G0 X48.554 Y25.456 F410
G0 X48.262 Y26.215 Z3.5
G1 Z0 F600
; --- FIX Y Backlash ---
G0 X48.262 Y25.715 F410
G1 X48.222 Y25.563 Z0 F600
G1 X48.142 Y25.464 Z0 F600
G1 X48.032 Y25.409 Z0 F600
G1 X47.901 Y25.388 Z0 F600
G1 X47.609 Y25.406 Z0 F600
G1 X47.338 Y25.441 Z0 F600
; --- FIX Y Backlash ---
G0 X47.338 Y25.941 F410
G1 X46.446 Y26.048 Z0 F600
G1 X45.543 Y26.175 Z0 F600
G1 X44.652 Y26.293 Z0 F600
G1 X43.8 Y26.378 Z0 F600
; --- FIX X Backlash ---
G0 X44.5 Y26.378 F410
; --- FIX Y Backlash ---
G0 X44.5 Y25.878 F410
G1 X44.697 Y25.376 Z0 F600
G1 X44.958 Y24.902 Z0 F600
G1 X45.276 Y24.465 Z0 F600
G1 X45.647 Y24.074 Z0 F600
G1 X46.065 Y23.738 Z0 F600
G1 X46.527 Y23.466 Z0 F600
G1 X47.026 Y23.267 Z0 F600
G1 X47.558 Y23.15 Z0 F600
G1 X48.698 Y22.916 Z0 F600
G1 X49.842 Y22.704 Z0 F600
; --- FIX Y Backlash ---
G0 X49.842 Y23.204 F410
G1 X49.968 Y28.625 Z0 F600
G1 X50.117 Y34.045 Z0 F600
G1 X50.176 Y34.126 Z0 F600
G1 X50.33 Y34.195 Z0 F600
G1 X50.566 Y34.253 Z0 F600
G1 X50.872 Y34.3 Z0 F600
G1 X51.233 Y34.338 Z0 F600
G1 X51.637 Y34.368 Z0 F600
G1 X52.071 Y34.39 Z0 F600
G1 X52.521 Y34.406 Z0 F600
G1 X53.421 Y34.422 Z0 F600
G1 X54.23 Y34.425 Z0 F600
G1 X55.161 Y34.42 Z0 F600
G1 X55.455 Y34.472 Z0 F600
G1 X55.677 Y34.588 Z0 F600
G1 X55.836 Y34.759 Z0 F600
G1 X55.938 Y34.974 Z0 F600
G1 X55.989 Y35.223 Z0 F600
G1 X55.998 Y35.494 Z0 F600
G1 X55.971 Y35.779 Z0 F600
; --- FIX X Backlash ---
G0 X55.271 Y35.779 F410
G1 X55.214 Y36.066 Z0 F600
G1 X55.134 Y36.345 Z0 F600
G1 X55.04 Y36.606 Z0 F600
G1 X54.937 Y36.838 Z0 F600
G1 X54.832 Y37.031 Z0 F600
G1 X54.732 Y37.174 Z0 F600
G1 X54.645 Y37.257 Z0 F600
G1 X54.576 Y37.271 Z0 F600
; --- FIX Y Backlash ---
G0 X54.576 Y36.771 F410
G1 X54.534 Y36.702 Z0 F600
G1 X54.417 Y36.601 Z0 F600
G1 X54.281 Y36.539 Z0 F600
G1 X54.132 Y36.505 Z0 F600
G1 X53.974 Y36.492 Z0 F600
G1 X53.648 Z0 F600
G1 X53.339 Y36.46 Z0 F600
G1 X52.645 Y36.416 Z0 F600
G1 X51.944 Y36.38 Z0 F600
G1 X51.249 Y36.333 Z0 F600
G1 X50.573 Y36.253 Z0 F600
G1 X50.513 Y35.933 Z0 F600
G1 X50.467 Y35.587 Z0 F600
G1 X50.425 Y35.426 Z0 F600
G1 X50.355 Y35.283 Z0 F600
G1 X50.249 Y35.167 Z0 F600
G1 X50.097 Y35.088 Z0 F600
G1 X49.966 Y35.069 Z0 F600
G1 X49.84 Y35.084 Z0 F600
G1 X49.723 Y35.128 Z0 F600
; --- FIX Y Backlash ---
G0 X49.723 Y35.628 F410
G1 X49.622 Y35.699 Z0 F600
G1 X49.541 Y35.791 Z0 F600
G1 X49.487 Y35.901 Z0 F600
G1 X49.465 Y36.025 Z0 F600
G1 X49.48 Y36.16 Z0 F600
G1 X49.514 Y38.8 Z0 F600
; --- FIX X Backlash ---
G0 X50.214 Y38.8 F410
G1 X50.29 Y41.438 Z0 F600
G1 X50.404 Y41.701 Z0 F600
G1 X50.58 Y41.945 Z0 F600
G1 X50.688 Y42.045 Z0 F600
G1 X50.809 Y42.125 Z0 F600
G1 X50.942 Y42.176 Z0 F600
G1 X51.084 Y42.195 Z0 F600
; --- FIX Y Backlash ---
G0 X51.084 Y41.695 F410
G1 X51.238 Y41.614 Z0 F600
G1 X51.338 Y41.497 Z0 F600
G1 X51.397 Y41.352 Z0 F600
G1 X51.424 Y41.188 Z0 F600
G1 X51.428 Y40.835 Z0 F600
G1 X51.436 Y40.511 Z0 F600
G1 X51.517 Y40.299 Z0 F600
G1 X51.671 Y40.128 Z0 F600
G1 X51.768 Y40.067 Z0 F600
G1 X51.873 Y40.029 Z0 F600
G1 X51.984 Y40.016 Z0 F600
G1 X52.099 Y40.033 Z0 F600
G1 X52.431 Y40.042 Z0 F600
G1 X52.775 Y40.045 Z0 F600
G1 X53.108 Y40.09 Z0 F600
; --- FIX Y Backlash ---
G0 X53.108 Y40.59 F410
G1 X53.411 Y40.727 Z0 F600
G1 X53.471 Y41.943 Z0 F600
G1 X53.487 Y43.159 Z0 F600
G1 X53.466 Y44.374 Z0 F600
; --- FIX X Backlash ---
G0 X52.766 Y44.374 F410
G1 X52.712 Y45.585 Z0 F600
G1 X52.667 Y45.724 Z0 F600
G1 X52.581 Y45.819 Z0 F600
G1 X52.464 Y45.877 Z0 F600
G1 X52.325 Y45.908 Z0 F600
G1 X52.021 Y45.919 Z0 F600
G1 X51.749 Z0 F600
G1 X51.196 Y45.877 Z0 F600
G1 X51.059 Y45.847 Z0 F600
; --- FIX Y Backlash ---
G0 X51.059 Y45.347 F410
G1 X50.938 Y45.295 Z0 F600
G1 X50.841 Y45.213 Z0 F600
G1 X50.775 Y45.094 Z0 F600
G1 X50.732 Y44.478 Z0 F600
G1 X50.735 Y43.857 Z0 F600
G1 Y43.239 Z0 F600
G1 X50.687 Y42.628 Z0 F600
G1 X50.503 Y42.458 Z0 F600
G1 X50.273 Y42.317 Z0 F600
G1 X50.149 Y42.27 Z0 F600
G1 X50.021 Y42.246 Z0 F600
G1 X49.894 Y42.249 Z0 F600
G1 X49.771 Y42.283 Z0 F600
; --- FIX Y Backlash ---
G0 X49.771 Y42.783 F410
G1 X49.678 Y42.928 Z0 F600
G1 X49.628 Y43.086 Z0 F600
G1 X49.61 Y43.254 Z0 F600
G1 Y43.43 Z0 F600
G1 X49.644 Y43.79 Z0 F600
G1 Y44.138 Z0 F600
G1 X49.653 Y44.415 Z0 F600
G1 X49.66 Y44.688 Z0 F600
G1 X49.634 Y44.796 Z0 F600
G1 X49.573 Y44.869 Z0 F600
G1 X49.465 Y44.896 Z0 F600
G1 X49.298 Y44.865 Z0 F600
G1 X49.169 Y44.89 Z0 F600
G1 X49.08 Y44.874 Z0 F600
; --- FIX Y Backlash ---
G0 X49.08 Y44.374 F410
G1 X49.021 Y44.324 Z0 F600
G1 X48.988 Y44.249 Z0 F600
G1 X48.966 Y44.051 Z0 F600
G1 X48.779 Y39.313 Z0 F600
G1 X48.636 Y34.78 Z0 F600
G1 X48.48 Y30.246 Z0 F600
G1 X48.262 Y25.715 Z0 F600
G0 Z3.5 F600
G0 X37.448 Y23.449 Z3.5
G1 Z0 F600
G1 X37.489 Y23.462 Z0 F600
G1 X37.53 Y23.487 Z0 F600
G1 X37.559 Y23.517 Z0 F600
G1 X37.569 Y23.534 Z0 F600
G1 X37.546 Y23.575 Z0 F600
G1 X37.499 Y23.623 Z0 F600
G1 X37.425 Y23.616 Z0 F600
G1 X37.351 Y23.619 Z0 F600
G1 X37.347 Y23.613 Z0 F600
G1 X37.328 Y23.556 Z0 F600
G1 Y23.49 Z0 F600
G1 X37.331 Y23.47 Z0 F600
; --- FIX X Backlash ---
G0 X38.031 Y23.47 F410
G1 X38.116 Y23.448 Z0 F600
G1 X38.148 Z0 F600
G0 Z3.5 F600
; --- FIX Y Backlash ---
G0 X38.148 Y23.948 F410
G0 X38.918 Y24.014 Z3.5
G1 Z0 F600
G1 X38.89 Y24.229 Z0 F600
; --- FIX X Backlash ---
G0 X38.19 Y24.229 F410
G1 X38.065 Y24.46 Z0 F600
G1 X37.883 Y24.645 Z0 F600
G1 X37.776 Y24.71 Z0 F600
G1 X37.659 Y24.752 Z0 F600
G1 X37.535 Y24.77 Z0 F600
G1 X37.405 Y24.757 Z0 F600
G1 X37.262 Y24.762 Z0 F600
G1 X37.133 Y24.738 Z0 F600
; --- FIX Y Backlash ---
G0 X37.133 Y24.238 F410
G1 X37.02 Y24.187 Z0 F600
G1 X36.921 Y24.113 Z0 F600
G1 X36.772 Y23.914 Z0 F600
G1 X36.691 Y23.669 Z0 F600
G1 X36.683 Y23.412 Z0 F600
; --- FIX X Backlash ---
G0 X37.383 Y23.412 F410
G1 X37.451 Y23.17 Z0 F600
G1 X37.516 Y23.066 Z0 F600
G1 X37.601 Y22.977 Z0 F600
G1 X37.708 Y22.907 Z0 F600
G1 X37.836 Y22.86 Z0 F600
G1 X38.046 Y22.805 Z0 F600
G1 X38.257 Y22.813 Z0 F600
; --- FIX Y Backlash ---
G0 X38.257 Y23.313 F410
G1 X38.457 Y23.375 Z0 F600
G1 X38.635 Y23.485 Z0 F600
G1 X38.778 Y23.633 Z0 F600
G1 X38.877 Y23.813 Z0 F600
G1 X38.918 Y24.014 Z0 F600
G0 Z3.5 F600
G0 X39.235 Y25.936 Z3.5
G1 Z0 F600
; --- FIX Y Backlash ---
G0 X39.235 Y25.436 F410
G1 X39.447 Y25.271 Z0 F600
G1 X39.643 Y25.085 Z0 F600
G1 X39.819 Y24.881 Z0 F600
G1 X39.975 Y24.661 Z0 F600
G1 X40.108 Y24.428 Z0 F600
G1 X40.218 Y24.185 Z0 F600
G1 X40.303 Y23.934 Z0 F600
G1 X40.503 Y23.956 Z0 F600
G1 X40.701 Y23.936 Z0 F600
G1 X40.889 Y23.877 Z0 F600
G1 X41.056 Y23.782 Z0 F600
G1 X41.195 Y23.654 Z0 F600
G1 X41.296 Y23.496 Z0 F600
G1 X41.35 Y23.311 Z0 F600
G1 Y23.1 Z0 F600
G1 X41.305 Y22.806 Z0 F600
; --- FIX X Backlash ---
G0 X40.605 Y22.806 F410
G1 X40.532 Y22.52 Z0 F600
G1 X40.432 Y22.244 Z0 F600
G1 X40.306 Y21.979 Z0 F600
G1 X40.155 Y21.727 Z0 F600
G1 X39.984 Y21.489 Z0 F600
G1 X39.791 Y21.267 Z0 F600
G1 X39.579 Y21.063 Z0 F600
G1 X39.35 Y20.878 Z0 F600
G1 X39.107 Y20.713 Z0 F600
G1 X38.849 Y20.572 Z0 F600
G1 X38.58 Y20.454 Z0 F600
G1 X38.301 Y20.361 Z0 F600
G1 X38.014 Y20.296 Z0 F600
G1 X37.721 Y20.259 Z0 F600
G1 X37.423 Y20.253 Z0 F600
G1 X37.092 Y20.266 Z0 F600
G1 X36.768 Y20.314 Z0 F600
; --- FIX Y Backlash ---
G0 X36.768 Y20.814 F410
G1 X36.452 Y20.898 Z0 F600
G1 X36.147 Y21.014 Z0 F600
G1 X35.855 Y21.16 Z0 F600
G1 X35.579 Y21.333 Z0 F600
G1 X35.321 Y21.533 Z0 F600
G1 X35.082 Y21.756 Z0 F600
G1 X34.865 Y22 Z0 F600
G1 X34.673 Y22.264 Z0 F600
G1 X34.508 Y22.544 Z0 F600
G1 X34.372 Y22.84 Z0 F600
G1 X34.267 Y23.148 Z0 F600
G1 X34.195 Y23.467 Z0 F600
G1 X34.159 Y23.793 Z0 F600
G1 X34.162 Y24.126 Z0 F600
; --- FIX X Backlash ---
G0 X34.862 Y24.126 F410
G1 X34.914 Y24.523 Z0 F600
G1 X35.009 Y24.917 Z0 F600
G1 X35.145 Y25.302 Z0 F600
G1 X35.322 Y25.67 Z0 F600
G1 X35.538 Y26.015 Z0 F600
G1 X35.792 Y26.329 Z0 F600
G1 X36.083 Y26.606 Z0 F600
G1 X36.412 Y26.839 Z0 F600
G1 X36.817 Y27.014 Z0 F600
G1 X37.235 Y27.164 Z0 F600
G1 X37.664 Y27.273 Z0 F600
G1 X38.102 Y27.327 Z0 F600
G1 X38.314 Y27.281 Z0 F600
; --- FIX Y Backlash ---
G0 X38.314 Y26.781 F410
G1 X38.497 Y26.685 Z0 F600
G1 X38.652 Y26.548 Z0 F600
G1 X38.778 Y26.379 Z0 F600
G1 X38.877 Y26.188 Z0 F600
G1 X38.948 Y25.985 Z0 F600
G1 X38.991 Y25.778 Z0 F600
G1 X39.007 Y25.577 Z0 F600
G1 X39.235 Y25.436 Z0 F600
G0 Z3.5 F600
G0 X40.745 Y24.575 Z3.5
G1 Z0 F600
G1 X40.83 Y24.566 Z0 F600
G1 X41.145 Y24.467 Z0 F600
G1 X41.435 Y24.303 Z0 F600
G1 X41.69 Y24.068 Z0 F600
G1 X41.885 Y23.763 Z0 F600
G1 X41.991 Y23.398 Z0 F600
G1 X41.987 Y23.05 Z0 F600
; --- FIX X Backlash ---
G0 X41.287 Y23.05 F410
G1 X41.233 Y22.681 Z0 F600
G1 X41.144 Y22.332 Z0 F600
G1 X41.023 Y21.997 Z0 F600
G1 X40.871 Y21.676 Z0 F600
G1 X40.691 Y21.375 Z0 F600
G1 X40.486 Y21.09 Z0 F600
G1 X40.255 Y20.826 Z0 F600
G1 X40.003 Y20.583 Z0 F600
G1 X39.732 Y20.363 Z0 F600
G1 X39.441 Y20.167 Z0 F600
G1 X39.133 Y19.997 Z0 F600
G1 X38.81 Y19.855 Z0 F600
G1 X38.473 Y19.744 Z0 F600
G1 X38.125 Y19.665 Z0 F600
G1 X37.767 Y19.62 Z0 F600
G1 X37.418 Y19.613 Z0 F600
G1 X37.032 Y19.627 Z0 F600
; --- FIX Y Backlash ---
G0 X37.032 Y20.127 F410
G1 X36.638 Y20.187 Z0 F600
G1 X36.256 Y20.288 Z0 F600
G1 X35.89 Y20.427 Z0 F600
G1 X35.541 Y20.601 Z0 F600
G1 X35.212 Y20.808 Z0 F600
G1 X34.905 Y21.045 Z0 F600
G1 X34.623 Y21.309 Z0 F600
G1 X34.365 Y21.599 Z0 F600
G1 X34.137 Y21.913 Z0 F600
G1 X33.94 Y22.247 Z0 F600
G1 X33.777 Y22.602 Z0 F600
G1 X33.65 Y22.974 Z0 F600
G1 X33.563 Y23.361 Z0 F600
G1 X33.519 Y23.761 Z0 F600
G1 X33.523 Y24.171 Z0 F600
; --- FIX X Backlash ---
G0 X34.223 Y24.171 F410
G1 X34.284 Y24.64 Z0 F600
G1 X34.395 Y25.099 Z0 F600
G1 X34.553 Y25.548 Z0 F600
G1 X34.76 Y25.979 Z0 F600
G1 X35.016 Y26.387 Z0 F600
G1 X35.321 Y26.764 Z0 F600
G1 X35.676 Y27.102 Z0 F600
G1 X36.097 Y27.4 Z0 F600
G1 X36.582 Y27.609 Z0 F600
G1 X37.048 Y27.776 Z0 F600
G1 X37.545 Y27.903 Z0 F600
G1 X38.132 Y27.976 Z0 F600
; --- FIX Y Backlash ---
G0 X38.132 Y27.476 F410
G1 X38.535 Y27.388 Z0 F600
G1 X38.863 Y27.215 Z0 F600
G1 X39.125 Y26.984 Z0 F600
G1 X39.322 Y26.721 Z0 F600
G1 X39.466 Y26.442 Z0 F600
G1 X39.566 Y26.156 Z0 F600
G1 X39.607 Y25.957 Z0 F600
G1 X39.865 Y25.757 Z0 F600
G1 X40.106 Y25.528 Z0 F600
G1 X40.323 Y25.276 Z0 F600
G1 X40.515 Y25.006 Z0 F600
G1 X40.679 Y24.72 Z0 F600
G1 X40.745 Y24.575 Z0 F600
G0 Z3.5 F600
G0 X42.333 Y24.251 Z3.5
G1 Z0 F600
; --- FIX X Backlash ---
G0 X41.633 Y24.251 F410
; --- FIX Y Backlash ---
G0 X41.633 Y24.751 F410
G1 X41.548 Y25.062 Z0 F600
G1 X41.28 Y25.809 Z0 F600
G1 X40.953 Y26.523 Z0 F600
G1 X40.562 Y27.195 Z0 F600
G1 X40.351 Y27.497 Z0 F600
G1 X40.129 Y27.779 Z0 F600
G1 X39.889 Y28.049 Z0 F600
G1 X39.635 Y28.297 Z0 F600
G1 X39.367 Y28.525 Z0 F600
G1 X39.087 Y28.729 Z0 F600
G1 X38.792 Y28.911 Z0 F600
G1 X38.525 Y29.047 Z0 F600
G1 X38.157 Y29.167 Z0 F600
G1 X37.751 Y29.256 Z0 F600
G1 X37.327 Y29.308 Z0 F600
G1 X37.116 Y29.313 Z0 F600
; --- FIX X Backlash ---
G0 X37.816 Y29.313 F410
; --- FIX Y Backlash ---
G0 X37.816 Y28.813 F410
G1 X37.889 Y28.376 Z0 F600
; --- FIX X Backlash ---
G0 X37.189 Y28.376 F410
G1 X37.099 Y28.08 Z0 F600
; --- FIX X Backlash ---
G0 X37.799 Y28.08 F410
G1 X38.162 Y28.125 Z0 F600
G1 X38.756 Y27.994 Z0 F600
G1 X39.229 Y27.746 Z0 F600
G1 X39.597 Y27.421 Z0 F600
G1 X39.866 Y27.062 Z0 F600
G1 X40.056 Y26.695 Z0 F600
G1 X40.184 Y26.328 Z0 F600
G1 Y26.318 Z0 F600
G1 X40.283 Y26.243 Z0 F600
G1 X40.57 Y25.97 Z0 F600
G1 X40.828 Y25.671 Z0 F600
G1 X41.055 Y25.351 Z0 F600
G1 X41.184 Y25.126 Z0 F600
G1 X41.402 Y25.057 Z0 F600
G1 X41.814 Y24.824 Z0 F600
G1 X42.186 Y24.483 Z0 F600
G1 X42.333 Y24.251 Z0 F600
G0 Z3.5 F600
G0 X42.944 Y23.352 Z3.5
G1 Z0 F600
; --- FIX Y Backlash ---
G0 X42.944 Y23.852 F410
G1 X43.209 Y23.922 Z0 F600
; --- FIX X Backlash ---
G0 X42.509 Y23.922 F410
G1 X42.45 Y24.128 Z0 F600
G1 X42.382 Y24.434 Z0 F600
G1 X42.158 Y25.257 Z0 F600
G1 X41.873 Y26.052 Z0 F600
G1 X41.523 Y26.816 Z0 F600
G1 X41.101 Y27.542 Z0 F600
G1 X40.87 Y27.873 Z0 F600
G1 X40.619 Y28.191 Z0 F600
G1 X40.351 Y28.491 Z0 F600
G1 X40.066 Y28.771 Z0 F600
G1 X39.765 Y29.026 Z0 F600
G1 X39.442 Y29.262 Z0 F600
G1 X39.105 Y29.469 Z0 F600
G1 X38.768 Y29.641 Z0 F600
G1 X38.326 Y29.786 Z0 F600
G1 X37.859 Y29.888 Z0 F600
G1 X37.379 Y29.946 Z0 F600
G1 X36.886 Y29.96 Z0 F600
G1 X36.682 Y29.951 Z0 F600
G1 X36.481 Y29.917 Z0 F600
; --- FIX Y Backlash ---
