G90 ; Force absolute mode
;LightBurn 1.6.04
;Custom GCode device profile, absolute coords
;Bounds: X20.94 Y70.81 to X117.06 Y105.19
G00 G17 G40 G21 G54
M3
G1 Z10 F500
;Cut @ 1500 mm/min, 80% power

M8
G0 Z3.5 F500
G0 X20.94 Y80.413 Z3.5
G1 Z0 F500
;Layer C1
G1 X20.999 Y80.964 Z0 S800 F800
G1 X21.061 Y81.447 Z0 F800
G1 X21.127 Y81.838 Z0 F800
G1 X21.162 Y82.025 Z0 F800
G1 X21.209 Y82.295 Z0 F800
G1 X21.26 Y82.611 Z0 F800
G1 X21.433 Y83.734 Z0 F800
G1 X21.565 Y84.557 Z0 F800
G1 X21.685 Y85.36 Z0 F800
G1 X21.775 Y86.11 Z0 F800
G1 X21.811 Y86.397 Z0 F800
G1 X21.859 Y86.65 Z0 F800
G1 X21.911 Y86.842 Z0 F800
G1 X21.963 Y86.946 Z0 F800
G1 X22.009 Y87.045 Z0 F800
G1 X22.046 Y87.226 Z0 F800
G1 X22.071 Y87.463 Z0 F800
G1 X22.09 Y87.995 Z0 F800
G1 X22.115 Y88.231 Z0 F800
G1 X22.153 Y88.412 Z0 F800
G1 X22.199 Y88.512 Z0 F800
G1 X22.237 Y88.565 Z0 F800
G1 X22.272 Y88.649 Z0 F800
G1 X22.305 Y88.782 Z0 F800
G1 X22.339 Y88.983 Z0 F800
G1 X22.377 Y89.271 Z0 F800
G1 X22.422 Y89.663 Z0 F800
G1 X22.477 Y90.179 Z0 F800
G1 X22.543 Y90.836 Z0 F800
G1 X22.583 Y91.148 Z0 F800
G1 X22.633 Y91.421 Z0 F800
G1 X22.688 Y91.627 Z0 F800
G1 X22.74 Y91.736 Z0 F800
G1 X22.785 Y91.837 Z0 F800
G1 X22.823 Y92.022 Z0 F800
G1 X22.848 Y92.265 Z0 F800
G1 X22.868 Y92.808 Z0 F800
G1 X22.896 Y93.041 Z0 F800
G1 X22.937 Y93.212 Z0 F800
G1 X23.038 Y93.38 Z0 F800
G1 X23.08 Y93.55 Z0 F800
G1 X23.109 Y93.781 Z0 F800
G1 X23.121 Y94.049 Z0 F800
G1 Y94.441 Z0 F800
G1 X23.13 Y94.597 Z0 F800
G1 X23.159 Y94.729 Z0 F800
G1 X23.217 Y94.84 Z0 F800
G1 X23.313 Y94.931 Z0 F800
G1 X23.455 Y95.003 Z0 F800
G1 X23.654 Y95.06 Z0 F800
G1 X23.917 Y95.103 Z0 F800
G1 X24.254 Y95.133 Z0 F800
G1 X24.674 Y95.154 Z0 F800
G1 X25.187 Y95.166 Z0 F800
G1 X25.801 Y95.173 Z0 F800
G1 X26.525 Z0 F800
G1 X29.646 Z0 F800
G1 X30.712 Y95.166 Z0 F800
G1 X31.56 Y95.156 Z0 F800
G1 X31.908 Y95.149 Z0 F800
G1 X32.209 Y95.14 Z0 F800
G1 X32.465 Y95.13 Z0 F800
G1 X32.679 Y95.119 Z0 F800
G1 X32.853 Y95.106 Z0 F800
G1 X32.99 Y95.091 Z0 F800
G1 X33.093 Y95.074 Z0 F800
G1 X33.163 Y95.055 Z0 F800
G1 X33.203 Y95.035 Z0 F800
G1 X33.216 Y95.012 Z0 F800
; --- FIX Y Backlash ---
G0 X33.216 Y93.812 F1200
G1 X33.211 Y93.737 Z0 F800
G1 X33.199 Y93.628 Z0 F800
G1 X33.18 Y93.489 Z0 F800
G1 X33.155 Y93.325 Z0 F800
; --- FIX X Backlash ---
G0 X32.055 Y93.325 F1200
G1 X31.992 Y92.946 Z0 F800
G1 X31.917 Y92.533 Z0 F800
G1 X31.839 Y92.128 Z0 F800
G1 X31.765 Y91.773 Z0 F800
G1 X31.732 Y91.627 Z0 F800
G1 X31.703 Y91.51 Z0 F800
G1 X31.678 Y91.426 Z0 F800
G1 X31.66 Y91.381 Z0 F800
G1 X31.637 Y91.367 Z0 F800
G1 X31.585 Y91.353 Z0 F800
G1 X31.505 Y91.341 Z0 F800
G1 X31.399 Y91.329 Z0 F800
G1 X31.11 Y91.307 Z0 F800
G1 X30.725 Y91.289 Z0 F800
G1 X30.25 Y91.275 Z0 F800
G1 X29.695 Y91.264 Z0 F800
G1 X29.064 Y91.257 Z0 F800
G1 X27.524 Y91.253 Z0 F800
G1 X26.826 Y91.247 Z0 F800
G1 X26.264 Y91.236 Z0 F800
G1 X26.031 Y91.229 Z0 F800
G1 X25.826 Y91.22 Z0 F800
G1 X25.65 Y91.21 Z0 F800
G1 X25.501 Y91.198 Z0 F800
G1 X25.377 Y91.185 Z0 F800
G1 X25.278 Y91.17 Z0 F800
G1 X25.145 Y91.135 Z0 F800
G1 X25.092 Y91.093 Z0 F800
G1 X25.076 Y91.042 Z0 F800
G1 X25.056 Y90.959 Z0 F800
G1 X25.004 Y90.712 Z0 F800
G1 X24.942 Y90.389 Z0 F800
G1 X24.809 Y89.634 Z0 F800
G1 X24.737 Y89.239 Z0 F800
G1 X24.669 Y88.887 Z0 F800
G1 X24.584 Y88.472 Z0 F800
G1 X24.566 Y88.352 Z0 F800
G1 X24.562 Y88.26 Z0 F800
G1 X24.574 Y88.188 Z0 F800
; --- FIX X Backlash ---
G0 X25.674 Y88.188 F1200
G1 X25.756 Y88.088 Z0 F800
G1 X25.924 Y88.009 Z0 F800
G1 X26.018 Y87.985 Z0 F800
G1 X26.162 Y87.962 Z0 F800
G1 X26.351 Y87.942 Z0 F800
G1 X26.577 Y87.924 Z0 F800
G1 X27.109 Y87.898 Z0 F800
G1 X27.702 Y87.888 Z0 F800
G1 X28.363 Y87.882 Z0 F800
G1 X29.083 Y87.864 Z0 F800
G1 X29.438 Y87.851 Z0 F800
G1 X29.775 Y87.837 Z0 F800
G1 X30.083 Y87.821 Z0 F800
G1 X30.352 Y87.804 Z0 F800
G1 X31.542 Y87.719 Z0 F800
; --- FIX X Backlash ---
G0 X30.442 Y87.719 F1200
G1 X30.365 Y87.124 Z0 F800
G1 X30.267 Y86.523 Z0 F800
G1 X30.141 Y85.914 Z0 F800
G1 X29.995 Y85.299 Z0 F800
G1 X27.309 Z0 F800
G1 X26.763 Y85.296 Z0 F800
G1 X26.241 Y85.289 Z0 F800
G1 X25.755 Y85.278 Z0 F800
G1 X25.318 Y85.263 Z0 F800
G1 X24.943 Y85.245 Z0 F800
G1 X24.64 Y85.225 Z0 F800
G1 X24.423 Y85.202 Z0 F800
G1 X24.305 Y85.178 Z0 F800
G1 X24.146 Y85.093 Z0 F800
G1 X24.036 Y84.967 Z0 F800
G1 X23.963 Y84.776 Z0 F800
G1 X23.912 Y84.498 Z0 F800
G1 X23.824 Y83.875 Z0 F800
G1 X23.713 Y83.163 Z0 F800
G1 X23.442 Y81.479 Z0 F800
G1 X23.319 Y80.64 Z0 F800
G1 X23.227 Y79.893 Z0 F800
G1 X23.158 Y79.213 Z0 F800
G1 X19.84 Z0 F800
G0 Z3.5 F500
; --- FIX X Backlash ---
G0 X20.94 Y79.213 F1200
G0 X32.592 Y79.206 Z3.5 F1500
G1 Z0 F500
; --- FIX Y Backlash ---
G0 X32.592 Y80.406 F1200
G1 X32.649 Y80.96 Z0 F800
G1 X32.725 Y81.541 Z0 F800
G1 X32.827 Y82.161 Z0 F800
G1 X32.917 Y82.657 Z0 F800
G1 X33.005 Y83.174 Z0 F800
G1 X33.053 Y83.465 Z0 F800
G1 X33.351 Y85.353 Z0 F800
G1 X33.481 Y86.143 Z0 F800
G1 X33.598 Y86.924 Z0 F800
G1 X33.687 Y87.664 Z0 F800
G1 X33.723 Y87.95 Z0 F800
G1 X33.771 Y88.203 Z0 F800
G1 X33.823 Y88.395 Z0 F800
G1 X33.874 Y88.499 Z0 F800
G1 X33.92 Y88.599 Z0 F800
G1 X33.958 Y88.78 Z0 F800
G1 X33.983 Y89.017 Z0 F800
G1 X34.002 Y89.549 Z0 F800
G1 X34.027 Y89.785 Z0 F800
G1 X34.065 Y89.966 Z0 F800
G1 X34.111 Y90.066 Z0 F800
G1 X34.163 Y90.172 Z0 F800
G1 X34.216 Y90.372 Z0 F800
G1 X34.266 Y90.635 Z0 F800
G1 X34.305 Y90.933 Z0 F800
G1 X34.457 Y92.422 Z0 F800
G1 X34.496 Y92.721 Z0 F800
G1 X34.546 Y92.984 Z0 F800
G1 X34.599 Y93.183 Z0 F800
G1 X34.651 Y93.29 Z0 F800
G1 X34.698 Y93.389 Z0 F800
G1 X34.736 Y93.569 Z0 F800
G1 X34.763 Y93.803 Z0 F800
G1 X34.774 Y94.067 Z0 F800
G1 X34.783 Y94.418 Z0 F800
G1 X34.82 Y94.686 Z0 F800
G1 X34.903 Y94.882 Z0 F800
G1 X35.053 Y95.017 Z0 F800
G1 X35.158 Y95.065 Z0 F800
G1 X35.288 Y95.102 Z0 F800
G1 X35.444 Y95.13 Z0 F800
G1 X35.63 Y95.15 Z0 F800
G1 X35.846 Y95.162 Z0 F800
G1 X36.096 Y95.17 Z0 F800
G1 X36.382 Y95.173 Z0 F800
G1 X36.707 Z0 F800
G1 X37.182 Z0 F800
G1 X37.551 Y95.167 Z0 F800
G1 X37.826 Y95.157 Z0 F800
G1 X38.019 Y95.139 Z0 F800
G1 X38.142 Y95.112 Z0 F800
G1 X38.207 Y95.074 Z0 F800
G1 X38.226 Y95.025 Z0 F800
; --- FIX Y Backlash ---
G0 X38.226 Y93.825 F1200
G1 X38.211 Y93.761 Z0 F800
G1 X38.192 Y93.7 Z0 F800
G1 X38.169 Y93.61 Z0 F800
G1 X38.143 Y93.495 Z0 F800
G1 X38.115 Y93.359 Z0 F800
; --- FIX X Backlash ---
G0 X37.015 Y93.359 F1200
G1 X36.955 Y93.041 Z0 F800
G1 X36.897 Y92.692 Z0 F800
G1 X36.759 Y91.803 Z0 F800
G1 X36.558 Y90.54 Z0 F800
G1 X36.44 Y89.815 Z0 F800
G1 X36.013 Y87.25 Z0 F800
G1 X35.736 Y85.539 Z0 F800
G1 X35.605 Y84.749 Z0 F800
G1 X35.489 Y83.968 Z0 F800
G1 X35.399 Y83.227 Z0 F800
G1 X35.363 Y82.941 Z0 F800
G1 X35.316 Y82.688 Z0 F800
G1 X35.263 Y82.496 Z0 F800
G1 X35.212 Y82.392 Z0 F800
G1 X35.166 Y82.292 Z0 F800
G1 X35.128 Y82.111 Z0 F800
G1 X35.103 Y81.875 Z0 F800
G1 X35.084 Y81.343 Z0 F800
G1 X35.058 Y81.106 Z0 F800
G1 X35.019 Y80.925 Z0 F800
G1 X34.921 Y80.722 Z0 F800
G1 X34.874 Y80.529 Z0 F800
G1 X34.835 Y80.277 Z0 F800
G1 X34.81 Y79.99 Z0 F800
G1 X34.77 Y79.278 Z0 F800
G1 X31.492 Y79.206 Z0 F800
G0 Z3.5 F500
; --- FIX X Backlash ---
G0 X32.592 Y79.206 F1200
; --- FIX Y Backlash ---
G0 X32.592 Y80.406 F1200
G0 X38.715 Y81.809 Z3.5
G1 Z0 F500
; --- FIX Y Backlash ---
G0 X38.715 Y80.609 F1200
G1 X38.811 Y80.428 Z0 F800
G1 X38.928 Y80.257 Z0 F800
G1 X39.203 Y79.94 Z0 F800
G1 X39.494 Y79.644 Z0 F800
G1 X39.642 Y79.501 Z0 F800
G1 X39.81 Y79.389 Z0 F800
G1 X39.991 Y79.303 Z0 F800
G1 X40.178 Y79.235 Z0 F800
G1 X40.289 Y79.129 Z0 F800
G1 X40.42 Y79.064 Z0 F800
G1 X40.565 Y79.032 Z0 F800
G1 X40.721 Y79.022 Z0 F800
G1 X41.041 Y79.033 Z0 F800
G1 X41.341 Y79.023 Z0 F800
G1 X41.746 Y79.031 Z0 F800
G1 X42.157 Y79.017 Z0 F800
G1 X42.563 Y79.037 Z0 F800
; --- FIX Y Backlash ---
G0 X42.563 Y80.237 F1200
G1 X42.948 Y80.347 Z0 F800
G1 X43.044 Y80.425 Z0 F800
G1 X43.161 Y80.464 Z0 F800
G1 X43.29 Y80.481 Z0 F800
G1 X43.422 Y80.489 Z0 F800
G1 X43.546 Y80.505 Z0 F800
G1 X43.654 Y80.544 Z0 F800
G1 X43.736 Y80.619 Z0 F800
G1 X43.782 Y80.748 Z0 F800
G1 X43.919 Y80.818 Z0 F800
G1 X44.033 Y80.921 Z0 F800
G1 X44.155 Y81.003 Z0 F800
G1 X44.315 Y81.009 Z0 F800
G1 X44.437 Y81.055 Z0 F800
G1 X44.503 Y81.155 Z0 F800
G1 X44.566 Y81.254 Z0 F800
G1 X44.675 Y81.301 Z0 F800
G1 X44.763 Y81.412 Z0 F800
G1 X44.817 Y81.543 Z0 F800
G1 X44.877 Y81.673 Z0 F800
G1 X44.981 Y81.78 Z0 F800
G1 X45.02 Y81.883 Z0 F800
G1 X45.053 Y81.978 Z0 F800
G1 X45.108 Y82.054 Z0 F800
G1 X45.212 Y82.099 Z0 F800
G1 X45.271 Y82.182 Z0 F800
G1 X45.318 Y82.283 Z0 F800
G1 X45.377 Y82.346 Z0 F800
G1 X45.474 Y82.317 Z0 F800
; --- FIX Y Backlash ---
G0 X45.474 Y81.117 F1200
G1 X45.526 Y80.681 Z0 F800
G1 X45.517 Y80.243 Z0 F800
; --- FIX X Backlash ---
G0 X44.417 Y80.243 F1200
G1 X44.351 Y79.812 Z0 F800
G1 X44.228 Y79.392 Z0 F800
G1 X44.212 Y79.239 Z0 F800
G1 X44.25 Y79.133 Z0 F800
; --- FIX X Backlash ---
G0 X45.35 Y79.133 F1200
G1 X45.429 Y79.066 Z0 F800
G1 X45.54 Y79.029 Z0 F800
G1 X45.809 Y79.014 Z0 F800
G1 X46.066 Y79.022 Z0 F800
G1 X46.652 Y79.028 Z0 F800
G1 X47.24 Y79.016 Z0 F800
G1 X47.826 Y79.02 Z0 F800
; --- FIX Y Backlash ---
G0 X47.826 Y80.22 F1200
G1 X48.401 Y80.273 Z0 F800
G1 X48.57 Y80.441 Z0 F800
G1 X48.675 Y80.632 Z0 F800
G1 X48.732 Y80.842 Z0 F800
G1 X48.754 Y81.064 Z0 F800
G1 Y81.527 Z0 F800
G1 X48.784 Y81.974 Z0 F800
G1 X48.877 Y82.073 Z0 F800
G1 X48.953 Y82.194 Z0 F800
G1 X48.999 Y82.333 Z0 F800
G1 X49.012 Y82.825 Z0 F800
G1 X49.003 Y83.17 Z0 F800
G1 X49.012 Y83.338 Z0 F800
G1 X49.042 Y83.501 Z0 F800
G1 X49.1 Y83.655 Z0 F800
G1 X49.195 Y83.799 Z0 F800
G1 X49.262 Y84.15 Z0 F800
G1 X49.274 Y84.513 Z0 F800
G1 X49.289 Y84.872 Z0 F800
G1 X49.364 Y85.215 Z0 F800
G1 X49.455 Y85.4 Z0 F800
G1 X49.507 Y85.597 Z0 F800
G1 X49.531 Y85.803 Z0 F800
G1 X49.538 Y86.014 Z0 F800
G1 X49.548 Y86.437 Z0 F800
G1 X49.628 Y86.839 Z0 F800
G1 X49.722 Y87.041 Z0 F800
G1 X49.773 Y87.256 Z0 F800
G1 X49.797 Y87.48 Z0 F800
G1 X49.816 Y87.937 Z0 F800
G1 X49.841 Y88.16 Z0 F800
G1 X49.896 Y88.375 Z0 F800
G1 X49.995 Y88.575 Z0 F800
G1 X50.056 Y88.931 Z0 F800
G1 X50.077 Y89.298 Z0 F800
G1 X50.102 Y89.66 Z0 F800
G1 X50.173 Y90.001 Z0 F800
G1 X50.278 Y90.102 Z0 F800
G1 X50.34 Y90.224 Z0 F800
G1 X50.37 Y90.362 Z0 F800
G1 X50.376 Y90.51 Z0 F800
G1 X50.359 Y90.817 Z0 F800
G1 X50.368 Y91.103 Z0 F800
G1 X50.356 Y91.261 Z0 F800
; --- FIX X Backlash ---
G0 X49.256 Y91.261 F1200
G1 X49.188 Y91.36 Z0 F800
G1 X49.077 Y91.411 Z0 F800
G1 X48.936 Y91.428 Z0 F800
G1 X48.617 Y91.412 Z0 F800
G1 X48.333 Y91.416 Z0 F800
G1 X47.702 Y91.413 Z0 F800
G1 X47.07 Y91.419 Z0 F800
G1 X46.439 Z0 F800
G1 X45.813 Y91.39 Z0 F800
; --- FIX Y Backlash ---
G0 X45.813 Y90.19 F1200
G1 X45.714 Y89.949 Z0 F800
G1 X45.702 Y89.666 Z0 F800
G1 X45.72 Y89.369 Z0 F800
G1 X45.713 Y89.09 Z0 F800
G1 Y88.924 Z0 F800
G1 X45.702 Y88.76 Z0 F800
G1 X45.651 Y88.614 Z0 F800
G1 X45.533 Y88.499 Z0 F800
G1 X45.457 Y88.138 Z0 F800
G1 Y87.761 Z0 F800
G1 X45.46 Y87.389 Z0 F800
G1 X45.402 Y87.044 Z0 F800
G1 X45.296 Y86.955 Z0 F800
G1 X45.231 Y86.842 Z0 F800
G1 X45.2 Y86.712 Z0 F800
G1 X45.191 Y86.57 Z0 F800
G1 X45.205 Y86.275 Z0 F800
G1 X45.195 Y86.004 Z0 F800
G1 Y85.821 Z0 F800
G1 X45.192 Y85.633 Z0 F800
G1 X45.145 Y85.462 Z0 F800
G1 X45.017 Y85.329 Z0 F800
G1 X44.939 Y84.975 Z0 F800
G1 Y84.607 Z0 F800
G1 X44.942 Y84.241 Z0 F800
G1 X44.877 Y83.894 Z0 F800
G1 X44.786 Y83.822 Z0 F800
G1 X44.73 Y83.732 Z0 F800
G1 X44.7 Y83.628 Z0 F800
G1 X44.688 Y83.516 Z0 F800
G1 X44.68 Y83.29 Z0 F800
G1 X44.634 Y83.097 Z0 F800
G1 X44.48 Y82.958 Z0 F800
G1 X44.315 Y82.573 Z0 F800
G1 X44.161 Y82.431 Z0 F800
G1 X44.061 Y82.291 Z0 F800
G1 X43.921 Y82.183 Z0 F800
G1 X43.764 Y82.09 Z0 F800
G1 X43.614 Y81.993 Z0 F800
G1 X43.446 Y81.924 Z0 F800
G1 X43.294 Y81.822 Z0 F800
G1 X43.134 Y81.742 Z0 F800
G1 X42.945 Y81.739 Z0 F800
G1 X42.617 Z0 F800
G1 X42.28 Y81.729 Z0 F800
G1 X42.116 Y81.741 Z0 F800
G1 X41.958 Y81.775 Z0 F800
; --- FIX Y Backlash ---
G0 X41.958 Y82.975 F1200
G1 X41.809 Y83.039 Z0 F800
G1 X41.673 Y83.141 Z0 F800
G1 X41.542 Y83.185 Z0 F800
G1 X41.418 Y83.232 Z0 F800
G1 X41.33 Y83.312 Z0 F800
G1 X41.306 Y83.453 Z0 F800
G1 X41.236 Y83.592 Z0 F800
G1 X41.134 Y83.704 Z0 F800
G1 X41.055 Y83.822 Z0 F800
G1 X41.052 Y84.537 Z0 F800
G1 X41.04 Y85.093 Z0 F800
G1 X41.048 Y85.647 Z0 F800
; --- FIX X Backlash ---
G0 X42.148 Y85.647 F1200
G1 X42.205 Y86.196 Z0 F800
G1 X42.33 Y86.391 Z0 F800
G1 X42.392 Y86.605 Z0 F800
G1 X42.411 Y86.832 Z0 F800
G1 X42.402 Y87.303 Z0 F800
G1 X42.416 Y87.533 Z0 F800
G1 X42.469 Y87.752 Z0 F800
G1 X42.581 Y87.954 Z0 F800
G1 X42.656 Y88.319 Z0 F800
G1 X42.668 Y88.698 Z0 F800
G1 X42.684 Y89.073 Z0 F800
G1 X42.767 Y89.428 Z0 F800
G1 X42.867 Y89.616 Z0 F800
G1 X42.917 Y89.819 Z0 F800
G1 X42.933 Y90.033 Z0 F800
G1 X42.927 Y90.473 Z0 F800
G1 X42.94 Y90.691 Z0 F800
G1 X42.984 Y90.9 Z0 F800
G1 X43.076 Y91.097 Z0 F800
G1 X43.111 Y91.198 Z0 F800
G1 X43.103 Y91.277 Z0 F800
G1 X43.06 Y91.336 Z0 F800
; --- FIX X Backlash ---
G0 X41.96 Y91.336 F1200
G1 X41.891 Y91.377 Z0 F800
G1 X41.711 Y91.414 Z0 F800
G1 X41.532 Y91.406 Z0 F800
G1 X40.117 Y91.42 Z0 F800
G1 X39.41 Y91.417 Z0 F800
G1 X38.709 Y91.39 Z0 F800
G1 X38.652 Y91.365 Z0 F800
; --- FIX Y Backlash ---
G0 X38.652 Y90.165 F1200
G1 X38.556 Y89.71 Z0 F800
G1 X38.492 Y89.486 Z0 F800
G1 X38.393 Y89.274 Z0 F800
G1 X38.338 Y88.922 Z0 F800
G1 X38.328 Y88.561 Z0 F800
G1 X38.309 Y88.207 Z0 F800
G1 X38.229 Y87.872 Z0 F800
G1 X38.13 Y87.695 Z0 F800
G1 X38.082 Y87.502 Z0 F800
G1 X38.069 Y87.299 Z0 F800
G1 X38.075 Y86.882 Z0 F800
G1 X38.059 Y86.678 Z0 F800
G1 X38.007 Y86.484 Z0 F800
G1 X37.903 Y86.306 Z0 F800
G1 X37.823 Y85.87 Z0 F800
G1 X37.8 Y85.426 Z0 F800
G1 X37.785 Y85.206 Z0 F800
G1 X37.755 Y84.989 Z0 F800
G1 X37.7 Y84.778 Z0 F800
G1 X37.61 Y84.574 Z0 F800
G1 X37.555 Y84.175 Z0 F800
G1 X37.526 Y83.774 Z0 F800
G1 X37.472 Y83.381 Z0 F800
G1 X37.344 Y83.003 Z0 F800
G1 X37.297 Y82.5 Z0 F800
G1 X37.292 Y81.991 Z0 F800
; --- FIX X Backlash ---
G0 X38.392 Y81.991 F1200
G1 X38.455 Y81.491 Z0 F800
G1 X38.613 Y81.013 Z0 F800
G1 X38.647 Y80.804 Z0 F800
G1 X38.715 Y80.609 Z0 F800
G0 Z3.5 F500
G0 X50.589 Y79.552 Z3.5
G1 Z0 F500
G1 X50.561 Y79.348 Z0 F800
G1 X50.594 Y79.153 Z0 F800
G1 X50.64 Y79.077 Z0 F800
G1 X50.708 Y79.025 Z0 F800
G1 X50.801 Y79.005 Z0 F800
G1 X50.922 Y79.022 Z0 F800
G1 X51.678 Y79.025 Z0 F800
G1 X52.437 Y79.019 Z0 F800
G1 X53.194 Z0 F800
G1 X53.946 Y79.048 Z0 F800
; --- FIX Y Backlash ---
G0 X53.946 Y80.248 F1200
G1 X54.051 Y80.499 Z0 F800
G1 X54.072 Y80.79 Z0 F800
G1 X54.068 Y81.095 Z0 F800
G1 X54.099 Y81.387 Z0 F800
G1 X54.156 Y81.503 Z0 F800
G1 X54.234 Y81.609 Z0 F800
G1 X54.297 Y81.724 Z0 F800
G1 X54.306 Y81.863 Z0 F800
G1 X54.322 Y82.139 Z0 F800
G1 X54.312 Y82.421 Z0 F800
G1 X54.322 Y82.696 Z0 F800
G1 X54.398 Y82.953 Z0 F800
G1 X54.514 Y83.147 Z0 F800
G1 X54.57 Y83.36 Z0 F800
G1 X54.585 Y83.586 Z0 F800
G1 X54.574 Y84.052 Z0 F800
G1 X54.587 Y84.279 Z0 F800
G1 X54.641 Y84.495 Z0 F800
G1 X54.755 Y84.693 Z0 F800
G1 X54.829 Y85.101 Z0 F800
G1 Y85.524 Z0 F800
G1 X54.837 Y85.733 Z0 F800
G1 X54.864 Y85.936 Z0 F800
G1 X54.926 Y86.13 Z0 F800
G1 X55.035 Y86.313 Z0 F800
G1 X55.093 Y86.714 Z0 F800
G1 Y87.13 Z0 F800
G1 X55.105 Y87.335 Z0 F800
G1 X55.135 Y87.532 Z0 F800
G1 X55.197 Y87.718 Z0 F800
G1 X55.303 Y87.889 Z0 F800
G1 X55.35 Y88.309 Z0 F800
G1 X55.364 Y88.736 Z0 F800
G1 X55.379 Y88.947 Z0 F800
G1 X55.411 Y89.153 Z0 F800
G1 X55.468 Y89.353 Z0 F800
G1 X55.559 Y89.545 Z0 F800
G1 X55.613 Y89.894 Z0 F800
G1 X55.623 Y90.254 Z0 F800
G1 X55.653 Y90.607 Z0 F800
G1 X55.768 Y90.933 Z0 F800
G1 X55.834 Y91.011 Z0 F800
G1 X55.861 Y91.093 Z0 F800
G1 X55.855 Y91.175 Z0 F800
G1 X55.82 Y91.25 Z0 F800
; --- FIX X Backlash ---
G0 X54.72 Y91.25 F1200
G1 X54.588 Y91.362 Z0 F800
G1 X54.406 Y91.389 Z0 F800
G1 X52.89 Y91.422 Z0 F800
G1 X51.381 Y91.39 Z0 F800
G1 X51.324 Y91.365 Z0 F800
; --- FIX Y Backlash ---
G0 X51.324 Y90.165 F1200
G1 X51.288 Y89.906 Z0 F800
G1 X51.276 Y89.638 Z0 F800
G1 X51.231 Y89.38 Z0 F800
G1 X51.097 Y89.149 Z0 F800
G1 X51.026 Y88.747 Z0 F800
G1 Y88.33 Z0 F800
G1 X51.019 Y88.125 Z0 F800
G1 X50.992 Y87.925 Z0 F800
G1 X50.93 Y87.734 Z0 F800
G1 X50.822 Y87.555 Z0 F800
G1 X50.768 Y87.148 Z0 F800
G1 X50.761 Y86.733 Z0 F800
G1 X50.751 Y86.528 Z0 F800
G1 X50.723 Y86.327 Z0 F800
G1 X50.667 Y86.131 Z0 F800
G1 X50.574 Y85.944 Z0 F800
G1 X50.51 Y85.536 Z0 F800
G1 X50.494 Y85.118 Z0 F800
G1 X50.479 Y84.913 Z0 F800
G1 X50.446 Y84.712 Z0 F800
G1 X50.386 Y84.518 Z0 F800
G1 X50.288 Y84.335 Z0 F800
G1 X50.252 Y83.933 Z0 F800
G1 X50.237 Y83.527 Z0 F800
G1 X50.19 Y83.127 Z0 F800
G1 X50.058 Y82.744 Z0 F800
G1 X49.993 Y82.337 Z0 F800
G1 X49.966 Y81.926 Z0 F800
G1 X49.916 Y81.523 Z0 F800
G1 X49.78 Y81.141 Z0 F800
G1 X49.725 Y80.735 Z0 F800
G1 X49.696 Y80.327 Z0 F800
G1 X49.637 Y79.929 Z0 F800
G1 X49.489 Y79.552 Z0 F800
G0 Z3.5 F500
; --- FIX X Backlash ---
G0 X50.589 Y79.552 F1200
; --- FIX Y Backlash ---
G0 X50.589 Y80.752 F1200
G0 X60.394 Y83.264 Z3.5
G1 Z0 F500
; --- FIX X Backlash ---
G0 X59.294 Y83.264 F1200
G1 X59.205 Y83.425 Z0 F800
G1 X59.108 Y83.58 Z0 F800
G1 X59.04 Y83.745 Z0 F800
G1 Y83.935 Z0 F800
G1 X58.995 Y84.182 Z0 F800
G1 X58.888 Y84.409 Z0 F800
G1 X58.794 Y84.639 Z0 F800
G1 X58.777 Y85.091 Z0 F800
G1 X58.804 Y85.281 Z0 F800
; --- FIX X Backlash ---
G0 X59.904 Y85.281 F1200
G1 X59.971 Y85.457 Z0 F800
G1 X60.083 Y85.617 Z0 F800
G1 X60.142 Y85.912 Z0 F800
G1 X60.137 Y86.221 Z0 F800
G1 X60.144 Y86.524 Z0 F800
G1 X60.237 Y86.799 Z0 F800
G1 X60.333 Y86.918 Z0 F800
G1 X60.377 Y87.066 Z0 F800
G1 X60.402 Y87.216 Z0 F800
G1 X60.446 Y87.34 Z0 F800
G1 X60.579 Y87.427 Z0 F800
G1 X60.642 Y87.563 Z0 F800
G1 X60.671 Y87.719 Z0 F800
G1 X60.703 Y87.864 Z0 F800
G1 X60.861 Y87.959 Z0 F800
G1 X60.98 Y88.108 Z0 F800
G1 X61.094 Y88.269 Z0 F800
G1 X61.239 Y88.399 Z0 F800
G1 X61.378 Y88.539 Z0 F800
G1 X61.538 Y88.639 Z0 F800
G1 X61.713 Y88.708 Z0 F800
G1 X61.9 Y88.752 Z0 F800
G1 X62.049 Y88.918 Z0 F800
G1 X62.138 Y88.964 Z0 F800
G1 X62.272 Y88.955 Z0 F800
G1 X62.47 Y88.961 Z0 F800
G1 X62.668 Z0 F800
G1 X62.935 Y88.97 Z0 F800
G1 X63.188 Y88.922 Z0 F800
; --- FIX Y Backlash ---
G0 X63.188 Y87.722 F1200
G1 X63.426 Y87.624 Z0 F800
G1 X63.651 Y87.486 Z0 F800
G1 X63.753 Y87.413 Z0 F800
G1 X63.828 Y87.309 Z0 F800
G1 X63.908 Y87.213 Z0 F800
G1 X64.027 Y87.164 Z0 F800
G1 X64.15 Y86.96 Z0 F800
G1 X64.247 Y86.746 Z0 F800
G1 X64.3 Y86.52 Z0 F800
G1 X64.295 Y86.278 Z0 F800
G1 X64.316 Y86.028 Z0 F800
G1 X64.413 Y85.794 Z0 F800
G1 X64.459 Y85.679 Z0 F800
G1 X64.486 Y85.562 Z0 F800
G1 Y85.441 Z0 F800
G1 X64.438 Y85.316 Z0 F800
; --- FIX X Backlash ---
G0 X63.338 Y85.316 F1200
G1 X63.254 Y85.156 Z0 F800
G1 X63.208 Y84.985 Z0 F800
G1 X63.19 Y84.807 Z0 F800
G1 Y84.624 Z0 F800
G1 X63.199 Y84.256 Z0 F800
G1 X63.15 Y83.905 Z0 F800
G1 X63.051 Y83.83 Z0 F800
G1 X62.992 Y83.735 Z0 F800
G1 X62.959 Y83.626 Z0 F800
G1 X62.923 Y83.393 Z0 F800
G1 X62.895 Y83.28 Z0 F800
G1 X62.843 Y83.179 Z0 F800
G1 X62.755 Y83.094 Z0 F800
G1 X62.71 Y82.978 Z0 F800
G1 X62.66 Y82.871 Z0 F800
G1 X62.592 Y82.778 Z0 F800
G1 X62.488 Y82.704 Z0 F800
G1 X62.346 Y82.452 Z0 F800
G1 X62.157 Y82.23 Z0 F800
G1 X61.929 Y82.048 Z0 F800
G1 X61.672 Y81.919 Z0 F800
G1 X61.606 Y81.83 Z0 F800
G1 X61.54 Y81.757 Z0 F800
G1 X61.455 Y81.719 Z0 F800
G1 X61.332 Y81.735 Z0 F800
G1 X61.152 Z0 F800
G1 X60.986 Y81.691 Z0 F800
G1 X60.837 Y81.606 Z0 F800
G1 X60.71 Y81.487 Z0 F800
G1 X60.513 Y81.512 Z0 F800
; --- FIX Y Backlash ---
G0 X60.513 Y82.712 F1200
G1 X60.337 Y82.813 Z0 F800
G1 X60.157 Y82.913 Z0 F800
G1 X59.951 Y82.933 Z0 F800
G1 X59.751 Z0 F800
G1 X59.58 Y83.009 Z0 F800
G1 X59.431 Y83.133 Z0 F800
G1 X59.294 Y83.264 Z0 F800
G0 Z3.5 F500
; --- FIX X Backlash ---
G0 X60.394 Y83.264 F1200
; --- FIX Y Backlash ---
G0 X60.394 Y82.064 F1200
G0 X63.299 Y80.777 Z3.5
G1 Z0 F500
; --- FIX Y Backlash ---
G0 X63.299 Y81.977 F1200
G1 X63.43 Y82.04 Z0 F800
G1 X63.585 Y82.046 Z0 F800
G1 X63.737 Y82.009 Z0 F800
; --- FIX Y Backlash ---
G0 X63.737 Y80.809 F1200
G1 X63.727 Y80.615 Z0 F800
; --- FIX X Backlash ---
G0 X62.627 Y80.615 F1200
G1 X62.537 Y80.452 Z0 F800
G1 X62.443 Y80.287 Z0 F800
G1 X62.424 Y80.091 Z0 F800
G1 Y79.819 Z0 F800
G1 X62.403 Y79.534 Z0 F800
G1 Y79.395 Z0 F800
G1 X62.42 Y79.264 Z0 F800
G1 X62.459 Y79.145 Z0 F800
; --- FIX X Backlash ---
G0 X63.559 Y79.145 F1200
G1 X63.627 Y79.041 Z0 F800
G1 X65.134 Y79.017 Z0 F800
G1 X66.637 Y79.048 Z0 F800
; --- FIX Y Backlash ---
G0 X66.637 Y80.248 F1200
G1 X66.728 Y80.373 Z0 F800
G1 X66.839 Y80.685 Z0 F800
G1 X66.936 Y80.819 Z0 F800
G1 X67.003 Y81.241 Z0 F800
G1 X67.017 Y81.669 Z0 F800
G1 X67.03 Y81.881 Z0 F800
G1 X67.06 Y82.088 Z0 F800
G1 X67.118 Y82.29 Z0 F800
G1 X67.212 Y82.483 Z0 F800
G1 X67.261 Y82.827 Z0 F800
G1 X67.271 Y83.179 Z0 F800
G1 X67.29 Y83.526 Z0 F800
G1 X67.364 Y83.858 Z0 F800
G1 X67.455 Y84.043 Z0 F800
G1 X67.506 Y84.239 Z0 F800
G1 X67.528 Y84.444 Z0 F800
G1 X67.533 Y84.655 Z0 F800
G1 X67.54 Y85.076 Z0 F800
G1 X67.621 Y85.475 Z0 F800
G1 X67.717 Y85.676 Z0 F800
G1 X67.769 Y85.89 Z0 F800
G1 X67.791 Y86.112 Z0 F800
G1 X67.802 Y86.566 Z0 F800
G1 X67.823 Y86.79 Z0 F800
G1 X67.872 Y87.005 Z0 F800
G1 X67.966 Y87.208 Z0 F800
G1 X68.038 Y87.574 Z0 F800
G1 X68.061 Y87.953 Z0 F800
G1 X68.089 Y88.326 Z0 F800
G1 X68.181 Y88.676 Z0 F800
G1 X68.274 Y88.852 Z0 F800
G1 X68.326 Y89.041 Z0 F800
G1 X68.349 Y89.24 Z0 F800
G1 X68.355 Y89.444 Z0 F800
G1 X68.359 Y89.853 Z0 F800
G1 X68.434 Y90.24 Z0 F800
G1 X68.534 Y90.364 Z0 F800
G1 X68.594 Y90.506 Z0 F800
G1 X68.624 Y90.661 Z0 F800
G1 X68.631 Y90.824 Z0 F800
G1 X68.617 Y91.157 Z0 F800
G1 X68.626 Y91.471 Z0 F800
G1 X68.622 Y91.606 Z0 F800
G1 X68.641 Y91.726 Z0 F800
G1 X68.696 Y91.825 Z0 F800
G1 X68.8 Y91.902 Z0 F800
G1 X68.882 Y92.275 Z0 F800
G1 X68.887 Y92.663 Z0 F800
G1 X68.878 Y93.052 Z0 F800
G1 X68.92 Y93.423 Z0 F800
G1 X69.032 Y93.505 Z0 F800
G1 X69.101 Y93.614 Z0 F800
G1 X69.136 Y93.742 Z0 F800
G1 X69.147 Y93.882 Z0 F800
G1 X69.135 Y94.176 Z0 F800
G1 X69.143 Y94.442 Z0 F800
G1 X69.136 Y94.654 Z0 F800
G1 X69.166 Y94.874 Z0 F800
G1 X69.176 Y95.086 Z0 F800
; --- FIX X Backlash ---
G0 X68.076 Y95.086 F1200
G1 X68.009 Y95.275 Z0 F800
G1 X67.578 Y95.357 Z0 F800
G1 X67.133 Y95.37 Z0 F800
G1 X66.684 Y95.358 Z0 F800
G1 X66.24 Y95.365 Z0 F800
G1 X65.876 Y95.36 Z0 F800
G1 X65.508 Y95.371 Z0 F800
G1 X65.143 Y95.367 Z0 F800
; --- FIX Y Backlash ---
G0 X65.143 Y94.167 F1200
G1 X64.789 Y94.114 Z0 F800
G1 X64.761 Y93.965 Z0 F800
G1 X64.743 Y93.817 Z0 F800
G1 X64.7 Y93.68 Z0 F800
G1 X64.6 Y93.564 Z0 F800
G1 X64.523 Y93.178 Z0 F800
G1 X64.507 Y92.78 Z0 F800
G1 X64.487 Y92.385 Z0 F800
G1 X64.397 Y92.007 Z0 F800
G1 X64.303 Y91.845 Z0 F800
G1 X64.249 Y91.671 Z0 F800
G1 X64.225 Y91.488 Z0 F800
G1 X64.221 Y91.299 Z0 F800
G1 X64.235 Y90.916 Z0 F800
G1 X64.214 Y90.546 Z0 F800
G1 X64.149 Y90.379 Z0 F800
G1 X64.058 Y90.221 Z0 F800
G1 X63.985 Y90.055 Z0 F800
G1 X63.965 Y89.566 Z0 F800
G1 X63.975 Y89.263 Z0 F800
G1 X63.964 Y88.965 Z0 F800
G1 X63.889 Y88.682 Z0 F800
G1 X63.804 Y88.582 Z0 F800
G1 X63.741 Y88.449 Z0 F800
G1 X63.707 Y88.392 Z0 F800
G1 X63.665 Y88.356 Z0 F800
G1 X63.612 Y88.349 Z0 F800
G1 X63.544 Y88.379 Z0 F800
; --- FIX Y Backlash ---
G0 X63.544 Y89.579 F1200
G1 X63.521 Y89.749 Z0 F800
G1 X63.481 Y89.919 Z0 F800
G1 X63.401 Y90.062 Z0 F800
G1 X63.256 Y90.151 Z0 F800
G1 Y90.306 Z0 F800
G1 X63.206 Y90.446 Z0 F800
G1 X63.114 Y90.559 Z0 F800
G1 X62.992 Y90.636 Z0 F800
G1 X62.955 Y90.77 Z0 F800
G1 X62.856 Y90.851 Z0 F800
G1 X62.749 Y90.925 Z0 F800
G1 X62.684 Y91.037 Z0 F800
G1 X62.562 Y91.124 Z0 F800
G1 X62.415 Y91.153 Z0 F800
G1 X62.276 Y91.191 Z0 F800
G1 X62.18 Y91.308 Z0 F800
G1 X62.038 Y91.389 Z0 F800
G1 X61.792 Y91.417 Z0 F800
G1 X61.723 Y91.441 Z0 F800
G1 X61.668 Y91.488 Z0 F800
G1 X61.633 Y91.57 Z0 F800
G1 X61.313 Y91.667 Z0 F800
G1 X60.972 Y91.685 Z0 F800
G1 X60.624 Y91.668 Z0 F800
G1 X60.284 Y91.66 Z0 F800
G1 X60.16 Y91.649 Z0 F800
; --- FIX Y Backlash ---
G0 X60.16 Y90.449 F1200
G1 X60.06 Y90.393 Z0 F800
G1 X59.977 Y90.313 Z0 F800
G1 X59.905 Y90.235 Z0 F800
G1 X59.687 Y90.225 Z0 F800
G1 X59.467 Y90.2 Z0 F800
G1 X59.268 Y90.128 Z0 F800
G1 X59.111 Y89.976 Z0 F800
G1 X58.935 Y89.949 Z0 F800
G1 X58.777 Y89.88 Z0 F800
G1 X58.479 Y89.699 Z0 F800
G1 X58.356 Y89.69 Z0 F800
G1 X58.251 Y89.636 Z0 F800
G1 X58.172 Y89.55 Z0 F800
G1 X58.124 Y89.445 Z0 F800
G1 X57.157 Y88.769 Z0 F800
G1 X57.086 Y88.608 Z0 F800
G1 X56.881 Y88.319 Z0 F800
G1 X56.809 Y88.157 Z0 F800
G1 X56.68 Y88.01 Z0 F800
G1 X56.573 Y87.849 Z0 F800
G1 X56.473 Y87.684 Z0 F800
G1 X56.362 Y87.522 Z0 F800
G1 X56.337 Y87.408 Z0 F800
G1 X56.285 Y87.325 Z0 F800
G1 X56.212 Y87.257 Z0 F800
G1 X56.126 Y87.19 Z0 F800
G1 X56.082 Y87.022 Z0 F800
G1 X56.036 Y86.854 Z0 F800
G1 X55.975 Y86.692 Z0 F800
G1 X55.888 Y86.538 Z0 F800
G1 X55.822 Y86.322 Z0 F800
G1 X55.763 Y86.106 Z0 F800
G1 X55.693 Y85.895 Z0 F800
G1 X55.597 Y85.694 Z0 F800
G1 X55.543 Y85.432 Z0 F800
G1 X55.526 Y85.158 Z0 F800
G1 X55.499 Y84.891 Z0 F800
G1 X55.418 Y84.653 Z0 F800
G1 X55.322 Y84.551 Z0 F800
G1 X55.265 Y84.43 Z0 F800
G1 X55.238 Y84.295 Z0 F800
G1 X55.23 Y84.15 Z0 F800
G1 X55.243 Y83.854 Z0 F800
G1 X55.231 Y83.578 Z0 F800
G1 X55.238 Y83.154 Z0 F800
G1 X55.225 Y82.724 Z0 F800
G1 X55.243 Y82.299 Z0 F800
; --- FIX X Backlash ---
G0 X56.343 Y82.299 F1200
G1 X56.442 Y81.891 Z0 F800
G1 X56.576 Y81.662 Z0 F800
G1 X56.709 Y81.136 Z0 F800
G1 X56.848 Y80.905 Z0 F800
G1 X56.915 Y80.687 Z0 F800
G1 X57.024 Y80.492 Z0 F800
G1 X57.148 Y80.306 Z0 F800
G1 X57.261 Y80.117 Z0 F800
G1 X57.378 Y80.058 Z0 F800
G1 X57.539 Y79.851 Z0 F800
G1 X57.66 Y79.793 Z0 F800
G1 X57.732 Y79.665 Z0 F800
G1 X57.954 Y79.495 Z0 F800
G1 X58.019 Y79.37 Z0 F800
G1 X58.156 Y79.299 Z0 F800
G1 X58.312 Y79.286 Z0 F800
G1 X58.386 Y79.277 Z0 F800
G1 X58.45 Y79.253 Z0 F800
G1 X58.5 Y79.206 Z0 F800
G1 X58.531 Y79.126 Z0 F800
G1 X58.726 Y79.035 Z0 F800
G1 X59.061 Y79.019 Z0 F800
G1 X59.163 Y78.996 Z0 F800
G1 X59.252 Y78.945 Z0 F800
G1 X59.323 Y78.853 Z0 F800
G1 X59.563 Y78.768 Z0 F800
G1 X59.816 Z0 F800
; --- FIX Y Backlash ---
G0 X59.816 Y79.968 F1200
G1 X60.058 Y80.048 Z0 F800
G1 X60.261 Y80.197 Z0 F800
G1 X60.568 Y80.22 Z0 F800
G1 X60.883 Y80.227 Z0 F800
G1 X61.035 Y80.244 Z0 F800
G1 X61.181 Y80.282 Z0 F800
G1 X61.316 Y80.349 Z0 F800
G1 X61.437 Y80.453 Z0 F800
G1 X61.621 Y80.475 Z0 F800
G1 X61.809 Y80.506 Z0 F800
G1 X61.892 Y80.536 Z0 F800
G1 X61.961 Y80.584 Z0 F800
G1 X62.012 Y80.653 Z0 F800
G1 X62.039 Y80.748 Z0 F800
G1 X62.175 Y80.818 Z0 F800
G1 X62.289 Y80.921 Z0 F800
G1 X62.411 Y81.003 Z0 F800
G1 X62.571 Y81.009 Z0 F800
G1 X62.693 Y81.055 Z0 F800
G1 X62.76 Y81.154 Z0 F800
G1 X62.822 Y81.254 Z0 F800
G1 X62.931 Y81.3 Z0 F800
G1 X63.025 Y81.422 Z0 F800
G1 X63.066 Y81.573 Z0 F800
G1 X63.111 Y81.722 Z0 F800
G1 X63.219 Y81.842 Z0 F800
G1 X63.299 Y81.977 Z0 F800
G0 Z3.5 F500
; --- FIX X Backlash ---
G0 X62.199 Y81.977 F1200
G0 X53.729 Y92.92 Z3.5
G1 Z0 F500
; --- FIX X Backlash ---
G0 X54.829 Y92.92 F1200
G1 X54.958 Y92.976 Z0 F800
G1 X55.063 Y93.065 Z0 F800
G1 X55.144 Y93.167 Z0 F800
G1 X55.304 Z0 F800
G1 X55.452 Y93.211 Z0 F800
G1 X55.574 Y93.3 Z0 F800
G1 X55.66 Y93.429 Z0 F800
G1 X55.775 Y93.448 Z0 F800
G1 X55.859 Y93.518 Z0 F800
G1 X55.917 Y93.614 Z0 F800
G1 X55.953 Y93.714 Z0 F800
G1 X56.047 Y93.746 Z0 F800
G1 X56.109 Y93.803 Z0 F800
G1 X56.147 Y93.877 Z0 F800
G1 X56.221 Y94.131 Z0 F800
G1 X56.338 Y94.253 Z0 F800
G1 X56.435 Y94.493 Z0 F800
G1 X56.467 Y94.758 Z0 F800
G1 X56.445 Y95.027 Z0 F800
; --- FIX X Backlash ---
G0 X55.345 Y95.027 F1200
G1 X55.277 Y95.278 Z0 F800
G1 X55.201 Y95.336 Z0 F800
G1 X55.126 Y95.387 Z0 F800
G1 X55.07 Y95.451 Z0 F800
G1 X55.048 Y95.549 Z0 F800
G1 X54.831 Y95.808 Z0 F800
G1 X54.576 Y96.032 Z0 F800
G1 X54.434 Y96.116 Z0 F800
G1 X54.281 Y96.171 Z0 F800
G1 X54.117 Y96.192 Z0 F800
G1 X53.943 Y96.173 Z0 F800
G1 X53.689 Z0 F800
G1 X53.448 Z0 F800
G1 X53.202 Y96.157 Z0 F800
; --- FIX Y Backlash ---
G0 X53.202 Y94.957 F1200
G1 X52.976 Y94.893 Z0 F800
G1 X52.795 Y94.743 Z0 F800
G1 X52.63 Y94.653 Z0 F800
G1 X52.48 Y94.538 Z0 F800
G1 X52.328 Y94.43 Z0 F800
G1 X52.154 Y94.361 Z0 F800
G1 X52.085 Y94.244 Z0 F800
G1 X52.052 Y94.112 Z0 F800
G1 X52.004 Y93.989 Z0 F800
G1 X51.895 Y93.899 Z0 F800
G1 X51.81 Y93.592 Z0 F800
G1 X51.788 Y93.267 Z0 F800
G1 X51.809 Y92.939 Z0 F800
G1 X51.854 Y92.621 Z0 F800
; --- FIX X Backlash ---
G0 X52.954 Y92.621 F1200
G1 X53.095 Y92.419 Z0 F800
G1 X53.251 Y92.217 Z0 F800
G1 X53.436 Y92.052 Z0 F800
G1 X53.662 Y91.961 Z0 F800
G1 X53.736 Y91.838 Z0 F800
G1 X53.84 Y91.761 Z0 F800
G1 X53.965 Y91.72 Z0 F800
G1 X54.107 Y91.705 Z0 F800
G1 X54.406 Y91.716 Z0 F800
G1 X54.681 Z0 F800
G1 X54.829 Y91.72 Z0 F800
G0 Z3.5 F500
G0 X88.895 Y89.054 Z3.5
G1 Z0 F500
G1 X88.887 Y88.894 Z0 F800
G1 X88.901 Y88.564 Z0 F800
G1 X88.89 Y88.251 Z0 F800
G1 Y88.113 Z0 F800
G1 X88.872 Y87.984 Z0 F800
; --- FIX X Backlash ---
G0 X87.772 Y87.984 F1200
G1 X87.721 Y87.875 Z0 F800
G1 X87.616 Y87.796 Z0 F800
G1 X87.538 Y87.421 Z0 F800
G1 X87.531 Y87.033 Z0 F800
G1 X87.535 Y86.643 Z0 F800
G1 X87.49 Y86.264 Z0 F800
G1 X87.386 Y86.192 Z0 F800
G1 X87.321 Y86.095 Z0 F800
G1 X87.288 Y85.979 Z0 F800
G1 X87.276 Y85.851 Z0 F800
G1 X87.284 Y85.58 Z0 F800
G1 X87.275 Y85.334 Z0 F800
G1 X87.28 Y85.115 Z0 F800
G1 X87.262 Y84.898 Z0 F800
G1 X87.203 Y84.692 Z0 F800
G1 X87.084 Y84.508 Z0 F800
G1 X87.02 Y84.138 Z0 F800
G1 X87.011 Y83.758 Z0 F800
G1 X86.995 Y83.383 Z0 F800
G1 X86.914 Y83.028 Z0 F800
G1 X86.824 Y82.853 Z0 F800
G1 X86.773 Y82.666 Z0 F800
G1 X86.751 Y82.471 Z0 F800
G1 X86.745 Y82.27 Z0 F800
G1 X86.742 Y81.866 Z0 F800
G1 X86.676 Y81.48 Z0 F800
G1 X86.586 Y81.327 Z0 F800
G1 X86.529 Y81.162 Z0 F800
G1 X86.497 Y80.988 Z0 F800
G1 X86.483 Y80.808 Z0 F800
G1 X86.476 Y80.441 Z0 F800
G1 X86.445 Y80.086 Z0 F800
G1 X86.433 Y79.869 Z0 F800
G1 X86.381 Y79.637 Z0 F800
G1 X86.367 Y79.527 Z0 F800
G1 X86.377 Y79.428 Z0 F800
G1 X86.422 Y79.344 Z0 F800
; --- FIX X Backlash ---
G0 X87.522 Y79.344 F1200
G1 X87.613 Y79.281 Z0 F800
G1 X88.393 Y79.284 Z0 F800
G1 X89.175 Y79.278 Z0 F800
G1 X89.955 Z0 F800
G1 X90.73 Y79.307 Z0 F800
; --- FIX Y Backlash ---
G0 X90.73 Y80.507 F1200
G1 X90.805 Y80.635 Z0 F800
G1 X90.84 Y80.792 Z0 F800
G1 X90.885 Y80.95 Z0 F800
G1 X90.992 Y81.08 Z0 F800
G1 X91.059 Y81.277 Z0 F800
G1 X91.087 Y81.484 Z0 F800
G1 Y81.697 Z0 F800
G1 X91.083 Y81.912 Z0 F800
G1 Y82.123 Z0 F800
G1 X91.105 Y82.328 Z0 F800
G1 X91.164 Y82.522 Z0 F800
G1 X91.276 Y82.701 Z0 F800
G1 X91.343 Y83.068 Z0 F800
G1 X91.354 Y83.446 Z0 F800
G1 X91.368 Y83.821 Z0 F800
G1 X91.444 Y84.18 Z0 F800
G1 X91.536 Y84.356 Z0 F800
G1 X91.587 Y84.545 Z0 F800
G1 X91.609 Y84.742 Z0 F800
G1 X91.615 Y84.945 Z0 F800
G1 X91.623 Y85.352 Z0 F800
G1 X91.705 Y85.735 Z0 F800
G1 X91.796 Y85.919 Z0 F800
G1 X91.846 Y86.116 Z0 F800
G1 X91.869 Y86.321 Z0 F800
G1 X91.886 Y86.953 Z0 F800
G1 X91.972 Y87.351 Z0 F800
G1 X92.074 Y87.564 Z0 F800
G1 X92.121 Y87.798 Z0 F800
G1 X92.136 Y88.044 Z0 F800
G1 X92.14 Y88.293 Z0 F800
G1 X92.157 Y88.536 Z0 F800
G1 X92.206 Y88.764 Z0 F800
G1 X92.312 Y88.968 Z0 F800
G1 X92.496 Y89.138 Z0 F800
G1 X92.544 Z0 F800
G1 X92.571 Y89.113 Z0 F800
G1 X92.584 Y89.065 Z0 F800
; --- FIX Y Backlash ---
G0 X92.584 Y87.865 F1200
G1 X92.602 Y87.674 Z0 F800
G1 X92.664 Y87.586 Z0 F800
G1 X92.751 Y87.523 Z0 F800
G1 X92.824 Y87.46 Z0 F800
G1 X92.863 Y87.378 Z0 F800
G1 X92.847 Y87.257 Z0 F800
G1 X92.866 Y87.136 Z0 F800
G1 X92.935 Y87.048 Z0 F800
G1 X93.025 Y86.975 Z0 F800
G1 X93.104 Y86.898 Z0 F800
G1 X93.131 Y86.742 Z0 F800
G1 X93.186 Y86.595 Z0 F800
G1 X93.269 Y86.467 Z0 F800
G1 X93.383 Y86.369 Z0 F800
G1 X93.41 Y86.214 Z0 F800
G1 X93.465 Y86.068 Z0 F800
G1 X93.549 Y85.942 Z0 F800
G1 X93.665 Y85.85 Z0 F800
G1 X93.676 Y85.692 Z0 F800
G1 X93.72 Y85.541 Z0 F800
G1 X93.806 Y85.416 Z0 F800
G1 X93.941 Y85.34 Z0 F800
G1 X93.984 Y85.139 Z0 F800
G1 X94.087 Y84.965 Z0 F800
G1 X94.2 Y84.796 Z0 F800
G1 X94.274 Y84.608 Z0 F800
G1 X94.398 Y84.461 Z0 F800
G1 X94.538 Y84.09 Z0 F800
G1 X94.667 Y83.942 Z0 F800
G1 X94.737 Y83.731 Z0 F800
G1 X94.849 Y83.541 Z0 F800
G1 X94.957 Y83.352 Z0 F800
G1 X95.018 Y83.141 Z0 F800
G1 X95.101 Y83.031 Z0 F800
G1 X95.186 Y82.928 Z0 F800
G1 X95.248 Y82.815 Z0 F800
G1 X95.26 Y82.673 Z0 F800
G1 X95.329 Y82.545 Z0 F800
G1 X95.425 Y82.436 Z0 F800
G1 X95.5 Y82.319 Z0 F800
G1 X95.509 Y82.169 Z0 F800
G1 X95.564 Y82.035 Z0 F800
G1 X95.727 Y81.903 Z0 F800
G1 X95.765 Y81.852 Z0 F800
G1 X95.779 Y81.787 Z0 F800
G1 X95.761 Y81.701 Z0 F800
G1 X95.78 Y81.587 Z0 F800
G1 X95.845 Y81.499 Z0 F800
G1 X95.931 Y81.429 Z0 F800
G1 X96.014 Y81.364 Z0 F800
G1 X96.021 Y81.193 Z0 F800
G1 X96.076 Y81.035 Z0 F800
G1 X96.169 Y80.899 Z0 F800
G1 X96.289 Y80.792 Z0 F800
G1 X96.314 Y80.641 Z0 F800
G1 X96.371 Y80.502 Z0 F800
G1 X96.454 Y80.381 Z0 F800
G1 X96.555 Y80.28 Z0 F800
G1 X96.582 Y80.125 Z0 F800
G1 X96.638 Y79.98 Z0 F800
G1 X96.723 Y79.855 Z0 F800
G1 X96.838 Y79.762 Z0 F800
G1 X96.85 Y79.553 Z0 F800
G1 X96.913 Y79.375 Z0 F800
G1 X96.969 Y79.311 Z0 F800
G1 X97.047 Y79.27 Z0 F800
G1 X97.147 Y79.259 Z0 F800
G1 X97.274 Y79.281 Z0 F800
G1 X97.953 Y79.284 Z0 F800
G1 X98.634 Y79.278 Z0 F800
G1 X99.314 Z0 F800
G1 X99.988 Y79.307 Z0 F800
; --- FIX Y Backlash ---
G0 X99.988 Y80.507 F1200
G1 X100.06 Y80.622 Z0 F800
G1 X100.091 Y80.755 Z0 F800
G1 X100.096 Y80.9 Z0 F800
G1 X100.09 Y81.052 Z0 F800
G1 X100.087 Y81.203 Z0 F800
G1 X100.103 Y81.349 Z0 F800
G1 X100.152 Y81.482 Z0 F800
G1 X100.25 Y81.598 Z0 F800
G1 X100.317 Y81.795 Z0 F800
G1 X100.344 Y82.002 Z0 F800
G1 X100.347 Y82.214 Z0 F800
G1 X100.341 Y82.428 Z0 F800
G1 Y82.64 Z0 F800
G1 X100.362 Y82.845 Z0 F800
G1 X100.421 Y83.039 Z0 F800
G1 X100.532 Y83.218 Z0 F800
G1 X100.598 Y83.586 Z0 F800
G1 X100.611 Y83.964 Z0 F800
G1 X100.627 Y84.339 Z0 F800
G1 X100.703 Y84.699 Z0 F800
G1 X100.794 Y84.875 Z0 F800
G1 X100.844 Y85.064 Z0 F800
G1 X100.867 Y85.261 Z0 F800
G1 X100.873 Y85.463 Z0 F800
G1 X100.881 Y85.869 Z0 F800
G1 X100.961 Y86.253 Z0 F800
G1 X101.052 Y86.439 Z0 F800
G1 X101.103 Y86.637 Z0 F800
G1 X101.128 Y86.843 Z0 F800
G1 X101.149 Y87.475 Z0 F800
G1 X101.235 Y87.874 Z0 F800
G1 X101.325 Y88.077 Z0 F800
G1 X101.374 Y88.293 Z0 F800
G1 X101.396 Y88.516 Z0 F800
G1 X101.414 Y88.971 Z0 F800
G1 X101.439 Y89.193 Z0 F800
G1 X101.492 Y89.406 Z0 F800
G1 X101.589 Y89.606 Z0 F800
G1 X101.654 Y89.973 Z0 F800
G1 X101.673 Y90.352 Z0 F800
G1 X101.706 Y90.724 Z0 F800
G1 X101.815 Y91.073 Z0 F800
G1 X101.903 Y91.247 Z0 F800
G1 X101.951 Y91.432 Z0 F800
G1 X101.97 Y91.624 Z0 F800
G1 Y91.822 Z0 F800
G1 X101.958 Y92.219 Z0 F800
G1 X102.001 Y92.601 Z0 F800
G1 X102.115 Y92.706 Z0 F800
G1 X102.184 Y92.834 Z0 F800
G1 X102.219 Y92.979 Z0 F800
G1 X102.229 Y93.135 Z0 F800
G1 X102.217 Y93.456 Z0 F800
G1 X102.226 Y93.754 Z0 F800
G1 X102.221 Y93.938 Z0 F800
G1 X102.271 Y94.103 Z0 F800
G1 X102.353 Y94.257 Z0 F800
G1 X102.441 Y94.411 Z0 F800
G1 X102.475 Y94.653 Z0 F800
G1 X102.497 Y94.909 Z0 F800
G1 X102.473 Y95.15 Z0 F800
; --- FIX X Backlash ---
G0 X101.373 Y95.15 F1200
G1 X101.271 Y95.346 Z0 F800
G1 X99.598 Y95.371 Z0 F800
G1 X97.927 Y95.339 Z0 F800
; --- FIX Y Backlash ---
G0 X97.927 Y94.139 F1200
G1 X97.828 Y93.894 Z0 F800
G1 X97.817 Y93.608 Z0 F800
G1 X97.834 Y93.308 Z0 F800
G1 X97.818 Y93.021 Z0 F800
G1 X97.763 Y92.892 Z0 F800
G1 X97.67 Y92.78 Z0 F800
G1 X97.592 Y92.659 Z0 F800
G1 X97.58 Y92.506 Z0 F800
G1 X97.568 Y92.207 Z0 F800
G1 X97.571 Y91.905 Z0 F800
G1 X97.564 Y91.606 Z0 F800
G1 X97.525 Y91.313 Z0 F800
G1 X97.42 Y91.242 Z0 F800
G1 X97.356 Y91.144 Z0 F800
G1 X97.322 Y91.028 Z0 F800
G1 X97.31 Y90.899 Z0 F800
G1 X97.319 Y90.628 Z0 F800
G1 X97.31 Y90.381 Z0 F800
G1 X97.314 Y90.158 Z0 F800
G1 X97.296 Y89.936 Z0 F800
G1 X97.234 Y89.727 Z0 F800
G1 X97.11 Y89.54 Z0 F800
G1 X97.055 Y89.193 Z0 F800
G1 X97.05 Y88.839 Z0 F800
G1 Y88.486 Z0 F800
G1 X97.007 Y88.141 Z0 F800
G1 X96.902 Y88.069 Z0 F800
G1 X96.838 Y87.972 Z0 F800
G1 X96.804 Y87.856 Z0 F800
G1 X96.793 Y87.727 Z0 F800
G1 X96.801 Y87.456 Z0 F800
G1 X96.792 Y87.209 Z0 F800
G1 X96.795 Y86.991 Z0 F800
G1 X96.78 Y86.772 Z0 F800
G1 X96.722 Y86.566 Z0 F800
G1 X96.598 Y86.384 Z0 F800
G1 X96.542 Y86.16 Z0 F800
G1 X96.538 Y85.922 Z0 F800
G1 Y85.688 Z0 F800
G1 X96.486 Y85.471 Z0 F800
G1 X96.298 Y85.497 Z0 F800
; --- FIX Y Backlash ---
G0 X96.298 Y86.697 F1200
G1 X96.159 Y86.809 Z0 F800
G1 X96.068 Y86.972 Z0 F800
G1 X96.022 Y87.152 Z0 F800
G1 X95.892 Y87.327 Z0 F800
G1 X95.792 Y87.517 Z0 F800
G1 X95.696 Y87.71 Z0 F800
G1 X95.58 Y87.896 Z0 F800
G1 X95.519 Y88.102 Z0 F800
G1 X95.412 Y88.286 Z0 F800
G1 X95.309 Y88.472 Z0 F800
G1 X95.261 Y88.681 Z0 F800
G1 X95.174 Y88.772 Z0 F800
G1 X95.087 Y88.85 Z0 F800
G1 X95.03 Y88.944 Z0 F800
G1 X95.034 Y89.083 Z0 F800
G1 X94.989 Y89.217 Z0 F800
G1 X94.883 Y89.304 Z0 F800
G1 X94.787 Y89.39 Z0 F800
G1 X94.774 Y89.524 Z0 F800
G1 X94.732 Y89.674 Z0 F800
G1 X94.628 Y89.788 Z0 F800
G1 X94.532 Y89.902 Z0 F800
G1 X94.513 Y90.054 Z0 F800
G1 X94.452 Y90.214 Z0 F800
G1 X94.343 Y90.344 Z0 F800
G1 X94.241 Y90.478 Z0 F800
G1 X94.201 Y90.649 Z0 F800
G1 X94.125 Y90.789 Z0 F800
G1 X94.032 Y90.915 Z0 F800
G1 X93.951 Y91.047 Z0 F800
G1 X93.908 Y91.205 Z0 F800
G1 X93.726 Y91.506 Z0 F800
G1 X93.596 Y91.832 Z0 F800
G1 X93.476 Y91.996 Z0 F800
G1 X93.405 Y92.185 Z0 F800
G1 X93.326 Y92.369 Z0 F800
G1 X93.183 Y92.514 Z0 F800
G1 X93.161 Y92.671 Z0 F800
G1 X93.114 Y92.82 Z0 F800
G1 X93.035 Y92.951 Z0 F800
G1 X92.915 Y93.054 Z0 F800
G1 X92.906 Y93.217 Z0 F800
G1 X92.864 Y93.373 Z0 F800
G1 X92.78 Y93.503 Z0 F800
G1 X92.647 Y93.587 Z0 F800
G1 Y93.748 Z0 F800
G1 X92.604 Y93.899 Z0 F800
G1 X92.516 Y94.024 Z0 F800
G1 X92.388 Y94.105 Z0 F800
G1 Y94.266 Z0 F800
G1 X92.345 Y94.417 Z0 F800
G1 X92.257 Y94.541 Z0 F800
G1 X92.129 Y94.623 Z0 F800
G1 Y94.788 Z0 F800
G1 X92.083 Y94.939 Z0 F800
G1 X91.99 Y95.063 Z0 F800
G1 X91.862 Y95.146 Z0 F800
G1 X91.79 Y95.248 Z0 F800
G1 X91.693 Y95.311 Z0 F800
G1 X91.579 Y95.345 Z0 F800
G1 X91.453 Y95.357 Z0 F800
G1 X91.187 Y95.351 Z0 F800
G1 X90.944 Y95.362 Z0 F800
G1 X90.36 Z0 F800
G1 X89.772 Y95.372 Z0 F800
G1 X89.187 Y95.366 Z0 F800
; --- FIX Y Backlash ---
G0 X89.187 Y94.166 F1200
G1 X88.613 Y94.114 Z0 F800
G1 X88.563 Y93.747 Z0 F800
G1 X88.571 Y93.368 Z0 F800
G1 X88.575 Y92.991 Z0 F800
G1 X88.511 Y92.634 Z0 F800
G1 X88.406 Y92.514 Z0 F800
G1 X88.343 Y92.377 Z0 F800
G1 X88.313 Y92.226 Z0 F800
G1 X88.305 Y92.066 Z0 F800
G1 X88.318 Y91.736 Z0 F800
G1 X88.308 Y91.424 Z0 F800
G1 Y91.284 Z0 F800
G1 X88.289 Y91.155 Z0 F800
G1 X88.238 Y91.045 Z0 F800
G1 X88.132 Y90.965 Z0 F800
G1 X88.054 Y90.594 Z0 F800
G1 Y90.209 Z0 F800
G1 X88.057 Y89.826 Z0 F800
G1 X87.993 Y89.462 Z0 F800
G1 X87.888 Y89.342 Z0 F800
G1 X87.825 Y89.205 Z0 F800
G1 X87.795 Y89.054 Z0 F800
G0 Z3.5 F500
; --- FIX X Backlash ---
G0 X88.895 Y89.054 F1200
G0 X103.287 Y87.704 Z3.5
G1 Z0 F500
; --- FIX X Backlash ---
G0 X102.187 Y87.704 F1200
G1 X102.107 Y87.257 Z0 F800
G1 X102.086 Y86.798 Z0 F800
G1 X102.074 Y86.569 Z0 F800
G1 X102.046 Y86.344 Z0 F800
G1 X101.993 Y86.124 Z0 F800
G1 X101.905 Y85.912 Z0 F800
G1 X101.848 Y85.459 Z0 F800
G1 X101.822 Y84.999 Z0 F800
G1 X101.851 Y84.542 Z0 F800
; --- FIX X Backlash ---
G0 X102.951 Y84.542 F1200
G1 X103.06 Y84.102 Z0 F800
G1 X103.169 Y83.865 Z0 F800
G1 X103.195 Y83.594 Z0 F800
G1 X103.202 Y83.313 Z0 F800
G1 X103.254 Y83.047 Z0 F800
G1 X103.327 Y82.894 Z0 F800
G1 X103.403 Y82.745 Z0 F800
G1 X103.464 Y82.59 Z0 F800
G1 X103.492 Y82.421 Z0 F800
G1 X103.656 Y82.125 Z0 F800
G1 X103.724 Y81.973 Z0 F800
G1 X103.765 Y81.807 Z0 F800
G1 X103.842 Y81.71 Z0 F800
G1 X103.928 Y81.624 Z0 F800
G1 X103.989 Y81.526 Z0 F800
G1 Y81.393 Z0 F800
G1 X104.044 Y81.261 Z0 F800
G1 X104.151 Y81.175 Z0 F800
G1 X104.261 Y81.09 Z0 F800
G1 X104.328 Y80.96 Z0 F800
G1 X104.418 Y80.894 Z0 F800
G1 X104.48 Y80.818 Z0 F800
G1 X104.59 Y80.641 Z0 F800
G1 X104.68 Y80.605 Z0 F800
G1 X104.741 Y80.556 Z0 F800
G1 X104.786 Y80.49 Z0 F800
G1 X104.827 Y80.403 Z0 F800
G1 X104.906 Y80.354 Z0 F800
G1 X104.979 Y80.316 Z0 F800
G1 X105.035 Y80.265 Z0 F800
G1 X105.062 Y80.173 Z0 F800
G1 X105.19 Y80.086 Z0 F800
G1 X105.344 Y80.056 Z0 F800
G1 X105.492 Y80.017 Z0 F800
G1 X105.6 Y79.9 Z0 F800
G1 X105.747 Y79.831 Z0 F800
G1 X105.897 Y79.777 Z0 F800
G1 X106.043 Y79.712 Z0 F800
G1 X106.175 Y79.615 Z0 F800
G1 X106.32 Y79.565 Z0 F800
G1 X106.47 Y79.538 Z0 F800
G1 X106.606 Y79.489 Z0 F800
G1 X106.709 Y79.373 Z0 F800
G1 X106.972 Y79.29 Z0 F800
G1 X107.256 Y79.281 Z0 F800
G1 X107.396 Y79.275 Z0 F800
G1 X107.53 Y79.252 Z0 F800
G1 X107.654 Y79.201 Z0 F800
G1 X107.765 Y79.109 Z0 F800
G1 X108.352 Y79.035 Z0 F800
G1 X108.948 Y79.021 Z0 F800
G1 X109.545 Y79.033 Z0 F800
G1 X110.14 Z0 F800
G1 X110.331 Y79.036 Z0 F800
G1 X110.511 Y79.08 Z0 F800
; --- FIX Y Backlash ---
G0 X110.511 Y80.28 F1200
G1 X110.678 Y80.358 Z0 F800
G1 X110.834 Y80.459 Z0 F800
G1 X111.098 Y80.476 Z0 F800
G1 X111.369 Y80.489 Z0 F800
G1 X111.498 Y80.511 Z0 F800
G1 X111.618 Y80.553 Z0 F800
G1 X111.726 Y80.622 Z0 F800
G1 X111.817 Y80.725 Z0 F800
G1 X111.966 Y80.74 Z0 F800
G1 X112.104 Y80.789 Z0 F800
G1 X112.218 Y80.873 Z0 F800
G1 X112.293 Y80.995 Z0 F800
G1 X112.453 Z0 F800
G1 X112.606 Y81.036 Z0 F800
G1 X112.734 Y81.12 Z0 F800
G1 X112.817 Y81.251 Z0 F800
G1 X112.979 Z0 F800
G1 X113.13 Y81.297 Z0 F800
G1 X113.255 Y81.385 Z0 F800
G1 X113.34 Y81.517 Z0 F800
G1 X113.493 Y81.562 Z0 F800
G1 X113.592 Y81.676 Z0 F800
G1 X113.69 Y81.796 Z0 F800
G1 X113.836 Y81.861 Z0 F800
G1 X114.346 Y82.218 Z0 F800
G1 X114.409 Y82.332 Z0 F800
G1 X114.516 Y82.406 Z0 F800
G1 X114.616 Y82.487 Z0 F800
G1 X114.653 Y82.621 Z0 F800
G1 X114.831 Y82.832 Z0 F800
G1 X114.973 Y83.077 Z0 F800
G1 X115.088 Y83.141 Z0 F800
G1 X115.193 Y83.372 Z0 F800
G1 X115.306 Y83.437 Z0 F800
G1 X115.375 Y83.524 Z0 F800
G1 X115.432 Y83.609 Z0 F800
G1 X115.5 Y83.679 Z0 F800
G1 X115.601 Y83.724 Z0 F800
G1 X115.671 Y83.86 Z0 F800
G1 X115.685 Y84.015 Z0 F800
G1 X115.694 Y84.088 Z0 F800
G1 X115.717 Y84.152 Z0 F800
G1 X115.763 Y84.203 Z0 F800
G1 X115.842 Y84.235 Z0 F800
G1 X115.926 Y84.371 Z0 F800
G1 X115.964 Y84.608 Z0 F800
G1 X115.99 Y84.677 Z0 F800
G1 X116.037 Y84.733 Z0 F800
G1 X116.115 Y84.772 Z0 F800
G1 X116.192 Y84.966 Z0 F800
G1 X116.236 Y85.185 Z0 F800
G1 X116.225 Y85.396 Z0 F800
; --- FIX X Backlash ---
G0 X115.125 Y85.396 F1200
G1 X115.039 Y85.564 Z0 F800
G1 X114.228 Y85.591 Z0 F800
G1 X113.411 Z0 F800
G1 X112.593 Y85.587 Z0 F800
G1 X111.776 Z0 F800
G1 X111.683 Y85.551 Z0 F800
; --- FIX Y Backlash ---
G0 X111.683 Y84.351 F1200
G1 X111.636 Y84.284 Z0 F800
G1 X111.621 Y84.198 Z0 F800
G1 Y84.008 Z0 F800
G1 X111.607 Y83.923 Z0 F800
G1 X111.563 Y83.856 Z0 F800
G1 X111.474 Y83.817 Z0 F800
G1 X111.389 Y83.68 Z0 F800
G1 X111.34 Y83.523 Z0 F800
G1 X111.282 Y83.372 Z0 F800
G1 X111.168 Y83.247 Z0 F800
G1 X111.081 Y83.132 Z0 F800
G1 X110.97 Y83.046 Z0 F800
G1 X110.855 Y82.962 Z0 F800
G1 X110.757 Y82.853 Z0 F800
G1 X110.602 Y82.799 Z0 F800
G1 X110.448 Y82.737 Z0 F800
G1 X110.316 Y82.647 Z0 F800
G1 X110.228 Y82.512 Z0 F800
G1 X110.019 Y82.451 Z0 F800
G1 X109.828 Y82.341 Z0 F800
G1 X109.632 Y82.252 Z0 F800
G1 X109.408 Z0 F800
G1 X109.189 Y82.221 Z0 F800
G1 X109 Y82.113 Z0 F800
G1 X108.812 Y82.01 Z0 F800
G1 X108.593 Y81.997 Z0 F800
G1 X108.318 Y82.008 Z0 F800
G1 X108.033 Y82.003 Z0 F800
G1 X107.756 Y82.024 Z0 F800
; --- FIX Y Backlash ---
G0 X107.756 Y83.224 F1200
G1 X107.502 Y83.31 Z0 F800
G1 X107.203 Y83.436 Z0 F800
G1 X106.874 Y83.521 Z0 F800
G1 X106.716 Y83.573 Z0 F800
G1 X106.573 Y83.645 Z0 F800
G1 X106.451 Y83.746 Z0 F800
G1 X106.357 Y83.887 Z0 F800
G1 X106.25 Y83.96 Z0 F800
G1 X106.156 Y84.036 Z0 F800
G1 X106.077 Y84.126 Z0 F800
G1 X106.016 Y84.237 Z0 F800
G1 X105.928 Y84.276 Z0 F800
G1 X105.877 Y84.345 Z0 F800
G1 X105.85 Y84.435 Z0 F800
G1 X105.834 Y84.534 Z0 F800
G1 X105.817 Y84.633 Z0 F800
G1 X105.784 Y84.72 Z0 F800
G1 X105.724 Y84.787 Z0 F800
G1 X105.622 Y84.822 Z0 F800
G1 X105.598 Y85.084 Z0 F800
G1 X105.578 Y85.349 Z0 F800
G1 X105.524 Y85.603 Z0 F800
G1 X105.396 Y85.833 Z0 F800
G1 X105.371 Y86.148 Z0 F800
G1 X105.357 Y86.465 Z0 F800
G1 X105.368 Y86.779 Z0 F800
; --- FIX X Backlash ---
G0 X106.468 Y86.779 F1200
G1 X106.519 Y87.084 Z0 F800
G1 X106.628 Y87.255 Z0 F800
G1 X106.681 Y87.444 Z0 F800
G1 X106.696 Y87.647 Z0 F800
G1 X106.688 Y88.065 Z0 F800
G1 X106.702 Y88.27 Z0 F800
G1 X106.752 Y88.463 Z0 F800
G1 X106.859 Y88.639 Z0 F800
G1 X106.924 Y88.838 Z0 F800
G1 X106.951 Y89.048 Z0 F800
G1 X106.996 Y89.248 Z0 F800
G1 X107.118 Y89.42 Z0 F800
G1 X107.192 Y89.616 Z0 F800
G1 X107.25 Y89.814 Z0 F800
G1 X107.325 Y90.003 Z0 F800
G1 X107.447 Y90.17 Z0 F800
G1 X107.503 Y90.346 Z0 F800
G1 X107.607 Y90.496 Z0 F800
G1 X107.721 Y90.638 Z0 F800
G1 X107.811 Y90.786 Z0 F800
G1 X107.93 Y90.868 Z0 F800
G1 X108.013 Y90.984 Z0 F800
G1 X108.099 Y91.098 Z0 F800
G1 X108.224 Y91.176 Z0 F800
G1 X108.281 Y91.285 Z0 F800
G1 X108.362 Y91.359 Z0 F800
G1 X108.453 Y91.423 Z0 F800
G1 X108.539 Y91.507 Z0 F800
G1 X108.595 Y91.606 Z0 F800
G1 X108.693 Y91.667 Z0 F800
G1 X108.788 Y91.732 Z0 F800
G1 X108.834 Y91.844 Z0 F800
G1 X109.007 Y91.935 Z0 F800
G1 X109.168 Y92.041 Z0 F800
G1 X109.334 Y92.136 Z0 F800
G1 X109.521 Y92.192 Z0 F800
G1 X109.665 Y92.305 Z0 F800
G1 X109.826 Y92.366 Z0 F800
G1 X109.999 Y92.392 Z0 F800
G1 X110.361 Y92.405 Z0 F800
G1 X110.538 Y92.426 Z0 F800
G1 X110.706 Y92.479 Z0 F800
G1 X110.858 Y92.581 Z0 F800
G1 X111.039 Y92.64 Z0 F800
G1 X111.24 Y92.653 Z0 F800
G1 X111.437 Y92.622 Z0 F800
; --- FIX Y Backlash ---
G0 X111.437 Y91.422 F1200
G1 X111.607 Y91.345 Z0 F800
G1 X111.709 Y91.259 Z0 F800
G1 X111.829 Y91.216 Z0 F800
G1 X111.959 Y91.201 Z0 F800
G1 X112.094 Z0 F800
G1 X112.227 Y91.194 Z0 F800
G1 X112.352 Y91.173 Z0 F800
G1 X112.462 Y91.119 Z0 F800
G1 X112.55 Y91.017 Z0 F800
G1 X112.729 Y90.948 Z0 F800
G1 X112.905 Y90.876 Z0 F800
G1 X113.061 Y90.771 Z0 F800
G1 X113.18 Y90.605 Z0 F800
G1 X113.23 Y90.463 Z0 F800
G1 X113.272 Y90.313 Z0 F800
G1 X113.344 Y90.186 Z0 F800
G1 X113.481 Y90.112 Z0 F800
G1 X113.489 Y89.852 Z0 F800
G1 X113.507 Y89.591 Z0 F800
G1 X113.566 Y89.343 Z0 F800
G1 X113.699 Y89.121 Z0 F800
G1 X113.745 Y88.996 Z0 F800
G1 X113.826 Y88.913 Z0 F800
G1 X113.934 Y88.864 Z0 F800
G1 X114.061 Y88.84 Z0 F800
G1 X114.335 Y88.833 Z0 F800
G1 X114.582 Y88.824 Z0 F800
G1 X115.174 Y88.818 Z0 F800
G1 X115.768 Y88.805 Z0 F800
G1 X116.36 Y88.8 Z0 F800
G1 X116.948 Y88.821 Z0 F800
; --- FIX Y Backlash ---
G0 X116.948 Y90.021 F1200
G1 X117.048 Y90.253 Z0 F800
G1 X117.06 Y90.529 Z0 F800
G1 X117.041 Y90.819 Z0 F800
G1 X117.048 Y91.095 Z0 F800
G1 Y91.39 Z0 F800
G1 X117.039 Y91.689 Z0 F800
G1 X117.017 Y91.833 Z0 F800
G1 X116.977 Y91.971 Z0 F800
; --- FIX X Backlash ---
G0 X115.877 Y91.971 F1200
G1 X115.812 Y92.099 Z0 F800
G1 X115.717 Y92.216 Z0 F800
G1 X115.661 Y92.438 Z0 F800
G1 X115.62 Y92.666 Z0 F800
G1 X115.548 Y92.877 Z0 F800
G1 X115.398 Y93.05 Z0 F800
G1 X115.275 Y93.221 Z0 F800
G1 X115.182 Y93.41 Z0 F800
G1 X115.093 Y93.598 Z0 F800
G1 X114.979 Y93.768 Z0 F800
G1 X114.869 Y93.832 Z0 F800
G1 X114.794 Y93.936 Z0 F800
G1 X114.714 Y94.037 Z0 F800
G1 X114.588 Y94.09 Z0 F800
G1 X114.52 Y94.238 Z0 F800
G1 X114.385 Y94.315 Z0 F800
G1 X114.235 Y94.383 Z0 F800
G1 X114.124 Y94.503 Z0 F800
G1 X114.001 Y94.555 Z0 F800
G1 X113.889 Y94.614 Z0 F800
G1 X113.786 Y94.688 Z0 F800
G1 X113.694 Y94.787 Z0 F800
G1 X113.484 Y94.872 Z0 F800
G1 X113.288 Y94.991 Z0 F800
G1 X113.085 Y95.09 Z0 F800
G1 X112.856 Y95.115 Z0 F800
G1 X112.768 Y95.178 Z0 F800
G1 X112.69 Y95.266 Z0 F800
G1 X112.6 Y95.338 Z0 F800
G1 X112.474 Y95.354 Z0 F800
G1 X112.225 Y95.36 Z0 F800
G1 X111.976 Y95.369 Z0 F800
G1 X111.742 Y95.421 Z0 F800
G1 X111.535 Y95.556 Z0 F800
G1 X111.149 Y95.615 Z0 F800
G1 X110.756 Y95.627 Z0 F800
G1 X110.361 Y95.62 Z0 F800
G1 X109.969 Y95.623 Z0 F800
G1 X109.674 Z0 F800
G1 X109.376 Y95.608 Z0 F800
; --- FIX Y Backlash ---
G0 X109.376 Y94.408 F1200
G1 X109.093 Y94.342 Z0 F800
G1 X108.843 Y94.191 Z0 F800
G1 X108.533 Y94.16 Z0 F800
G1 X108.209 Y94.173 Z0 F800
G1 X108.05 Z0 F800
G1 X107.898 Y94.15 Z0 F800
G1 X107.757 Y94.1 Z0 F800
G1 X107.629 Y94.011 Z0 F800
G1 X107.549 Y93.913 Z0 F800
G1 X107.414 Y93.889 Z0 F800
G1 X107.263 Y93.874 Z0 F800
G1 X107.138 Y93.808 Z0 F800
G1 X106.941 Y93.698 Z0 F800
G1 X106.723 Y93.635 Z0 F800
G1 X106.515 Y93.555 Z0 F800
G1 X106.348 Y93.399 Z0 F800
G1 X106.175 Y93.331 Z0 F800
G1 X106.023 Y93.226 Z0 F800
G1 X105.866 Y93.131 Z0 F800
G1 X105.681 Y93.096 Z0 F800
G1 X105.592 Y93.02 Z0 F800
G1 X105.529 Y92.926 Z0 F800
G1 X105.458 Y92.842 Z0 F800
G1 X105.345 Y92.793 Z0 F800
G1 X104.932 Y92.404 Z0 F800
G1 X104.498 Y92.019 Z0 F800
G1 X104.368 Y91.939 Z0 F800
G1 X104.275 Y91.823 Z0 F800
G1 X104.201 Y91.693 Z0 F800
G1 X104.123 Y91.57 Z0 F800
G1 X104.023 Y91.531 Z0 F800
G1 X103.963 Y91.449 Z0 F800
G1 X103.926 Y91.351 Z0 F800
G1 X103.895 Y91.263 Z0 F800
G1 X103.743 Y91.165 Z0 F800
G1 X103.662 Y91.008 Z0 F800
G1 X103.593 Y90.836 Z0 F800
G1 X103.476 Y90.697 Z0 F800
G1 X103.438 Y90.596 Z0 F800
G1 X103.391 Y90.516 Z0 F800
G1 X103.325 Y90.452 Z0 F800
G1 X103.232 Y90.402 Z0 F800
G1 X103.162 Y90.27 Z0 F800
G1 X103.133 Y90.122 Z0 F800
G1 X103.088 Y89.985 Z0 F800
G1 X102.973 Y89.883 Z0 F800
G1 X102.903 Y89.745 Z0 F800
G1 X102.885 Y89.591 Z0 F800
G1 X102.849 Y89.454 Z0 F800
G1 X102.728 Y89.367 Z0 F800
G1 X102.635 Y89.154 Z0 F800
G1 X102.593 Y88.922 Z0 F800
G1 X102.54 Y88.696 Z0 F800
G1 X102.411 Y88.501 Z0 F800
G1 X102.371 Y88.293 Z0 F800
G1 X102.353 Y88.081 Z0 F800
G1 X102.307 Y87.88 Z0 F800
G1 X102.187 Y87.704 Z0 F800
;Offset @ 1500 mm/min, 80% power

M8
G0 Z3.5 F500
; --- FIX Y Backlash ---
G0 X102.187 Y88.904 F1200
G0 X83.262 Y93.378 Z3.5
G1 Z0 F500
;Layer C3
G1 X83.28 Y93.824 Z0 F800
G1 X83.275 Y93.961 Z0 F800
G1 X83.261 Y94.058 Z0 F800
G1 X83.247 Y94.112 Z0 F800
G1 X83.129 Y94.387 Z0 F800
G1 X83.062 Y94.74 Z0 F800
G1 X82.863 Y95.312 Z0 F800
G1 X82.838 Y95.443 Z0 F800
G1 X82.773 Y95.543 Z0 F800
G1 X82.635 Y95.928 Z0 F800
G1 X82.598 Y96.04 Z0 F800
G1 X82.523 Y96.176 Z0 F800
G1 X82.353 Y96.546 Z0 F800
G1 X82.328 Y96.661 Z0 F800
G1 X82.135 Y96.845 Z0 F800
G1 X82.028 Y97.348 Z0 F800
G1 X82.007 Y97.387 Z0 F800
G1 X81.805 Y97.718 Z0 F800
G1 X81.679 Y98.056 Z0 F800
G1 X81.146 Y99.171 Z0 F800
G1 X80.864 Y99.794 Z0 F800
G1 X80.65 Y100.322 Z0 F800
G1 X80.529 Y100.534 Z0 F800
G1 X80.515 Y100.586 Z0 F800
G1 X80.288 Y100.777 Z0 F800
G1 X80.213 Y101.271 Z0 F800
G1 X79.933 Y101.558 Z0 F800
G1 X79.911 Y102.048 Z0 F800
G1 X79.771 Y102.206 Z0 F800
; --- FIX Y Backlash ---
G0 X79.771 Y101.006 F1200
G1 X79.751 Y100.909 Z0 F800
G1 X79.714 Y100.683 Z0 F800
G1 Y100.406 Z0 F800
G1 X79.71 Y99.965 Z0 F800
G1 X79.725 Y99.59 Z0 F800
G1 X79.766 Y99.264 Z0 F800
; --- FIX X Backlash ---
G0 X80.866 Y99.264 F1200
G1 X80.975 Y98.82 Z0 F800
G1 X81.176 Y98.533 Z0 F800
G1 X81.246 Y98.221 Z0 F800
G1 X81.26 Y98.195 Z0 F800
G1 X81.445 Y97.876 Z0 F800
G1 X81.486 Y97.744 Z0 F800
G1 X81.575 Y97.632 Z0 F800
G1 X81.68 Y97.376 Z0 F800
G1 X81.985 Y97.094 Z0 F800
G1 X82.035 Y96.75 Z0 F800
G1 X82.122 Y96.672 Z0 F800
G1 X82.408 Y96.051 Z0 F800
G1 X82.604 Y95.721 Z0 F800
G1 X82.879 Y95.271 Z0 F800
G1 X83.09 Y94.863 Z0 F800
G1 X83.266 Y94.586 Z0 F800
G1 X83.298 Y94.466 Z0 F800
G1 X83.533 Y94.261 Z0 F800
G1 X83.599 Y93.791 Z0 F800
G1 X83.81 Y93.571 Z0 F800
G1 X83.897 Y93.107 Z0 F800
G1 X83.924 Y93.056 Z0 F800
G1 X84.147 Y92.616 Z0 F800
G1 X84.19 Y92.325 Z0 F800
G1 X84.337 Y92.005 Z0 F800
G1 X84.347 Y91.951 Z0 F800
; --- FIX Y Backlash ---
G0 X84.347 Y93.151 F1200
G1 X84.362 Y93.378 Z0 F800
G0 Z3.5 F500
G0 X84.641 Y95.493 Z3.5
G1 Z0 F500
G1 X84.601 Y95.708 Z0 F800
; --- FIX X Backlash ---
G0 X83.501 Y95.708 F1200
G1 X83.404 Y95.857 Z0 F800
G1 X83.296 Y96.157 Z0 F800
G1 X83.241 Y96.323 Z0 F800
G1 X83.149 Y96.491 Z0 F800
G1 X83.02 Y96.771 Z0 F800
G1 X82.965 Y97.019 Z0 F800
G1 X82.775 Y97.202 Z0 F800
G1 X82.692 Y97.594 Z0 F800
G1 X82.616 Y97.732 Z0 F800
G1 X82.438 Y98.025 Z0 F800
G1 X82.323 Y98.332 Z0 F800
G1 X81.78 Y99.466 Z0 F800
G1 X81.507 Y100.069 Z0 F800
G1 X81.282 Y100.625 Z0 F800
G1 X81.183 Y100.801 Z0 F800
G1 X81.135 Y100.981 Z0 F800
G1 X80.94 Y101.144 Z0 F800
G1 X80.879 Y101.544 Z0 F800
G1 X80.86 Y101.61 Z0 F800
G1 X80.62 Y101.856 Z0 F800
G1 X80.602 Y102.27 Z0 F800
G1 X80.588 Y102.332 Z0 F800
G1 X80.579 Y102.352 Z0 F800
G1 X80.344 Y102.614 Z0 F800
G1 X80.324 Y103.051 Z0 F800
G1 X80.308 Y103.161 Z0 F800
G1 X80.301 Y103.177 Z0 F800
G1 X80.081 Y103.427 Z0 F800
G1 X80.029 Y104.213 Z0 F800
G1 X80.001 Y104.353 Z0 F800
G1 X79.991 Y104.37 Z0 F800
G1 X79.955 Y104.345 Z0 F800
; --- FIX Y Backlash ---
G0 X79.955 Y103.145 F1200
G1 X79.846 Y102.956 Z0 F800
G1 X79.672 Y102.724 Z0 F800
G1 X79.593 Y102.536 Z0 F800
G1 X79.465 Y102.403 Z0 F800
G1 X79.454 Y102.252 Z0 F800
G1 X79.244 Y101.95 Z0 F800
G1 X79.198 Y101.889 Z0 F800
G1 Y101.835 Z0 F800
G1 X79.14 Y101.406 Z0 F800
G1 X79.061 Y101.029 Z0 F800
G1 X79.014 Y100.741 Z0 F800
G1 Y100.409 Z0 F800
G1 X79.009 Y99.954 Z0 F800
G1 X79.027 Y99.531 Z0 F800
G1 X79.076 Y99.142 Z0 F800
; --- FIX X Backlash ---
G0 X80.176 Y99.142 F1200
G1 X80.295 Y98.652 Z0 F800
G1 Y98.564 Z0 F800
G1 X80.34 Y98.507 Z0 F800
G1 X80.523 Y98.245 Z0 F800
G1 X80.583 Y97.972 Z0 F800
G1 X80.64 Y97.868 Z0 F800
G1 X80.8 Y97.593 Z0 F800
G1 X80.856 Y97.413 Z0 F800
G1 X80.965 Y97.275 Z0 F800
G1 X81.076 Y97.007 Z0 F800
G1 X81.096 Y96.963 Z0 F800
G1 X81.328 Y96.748 Z0 F800
G1 X81.378 Y96.407 Z0 F800
G1 X81.381 Y96.397 Z0 F800
G1 X81.546 Y96.249 Z0 F800
G1 X81.79 Y95.721 Z0 F800
G1 X82.007 Y95.355 Z0 F800
G1 X82.269 Y94.927 Z0 F800
G1 X82.484 Y94.511 Z0 F800
G1 X82.617 Y94.302 Z0 F800
G1 X82.676 Y94.078 Z0 F800
G1 X82.876 Y93.904 Z0 F800
G1 X82.931 Y93.515 Z0 F800
G1 X82.946 Y93.465 Z0 F800
G1 X82.954 Y93.451 Z0 F800
G1 X83.161 Y93.236 Z0 F800
G1 X83.229 Y92.875 Z0 F800
G1 X83.302 Y92.735 Z0 F800
G1 X83.472 Y92.401 Z0 F800
G1 X83.512 Y92.125 Z0 F800
G1 X83.664 Y91.794 Z0 F800
G1 X83.75 Y91.314 Z0 F800
G1 X83.785 Y90.935 Z0 F800
G1 X83.818 Y90.742 Z0 F800
G1 X83.903 Y90.613 Z0 F800
G1 X84.009 Y90.266 Z0 F800
G1 X84.04 Y89.968 Z0 F800
G1 Y89.837 Z0 F800
G1 X84.068 Y89.878 Z0 F800
G1 X84.128 Y89.904 Z0 F800
; --- FIX Y Backlash ---
G0 X84.128 Y91.104 F1200
G1 X84.242 Y91.397 Z0 F800
G1 X84.403 Y91.524 Z0 F800
G1 X84.455 Y91.641 Z0 F800
G1 X84.615 Y91.821 Z0 F800
G1 X84.611 Y91.956 Z0 F800
G1 X84.824 Y92.293 Z0 F800
G1 X84.876 Y92.454 Z0 F800
G1 X84.955 Y92.759 Z0 F800
G1 X85.035 Y92.96 Z0 F800
G1 X85.063 Y93.358 Z0 F800
G1 X85.082 Y93.825 Z0 F800
G1 X85.073 Y94.015 Z0 F800
G1 X85.049 Y94.193 Z0 F800
G1 X85.01 Y94.342 Z0 F800
; --- FIX X Backlash ---
G0 X83.91 Y94.342 F1200
G1 X83.802 Y94.593 Z0 F800
G1 X83.74 Y94.922 Z0 F800
G1 X83.541 Y95.493 Z0 F800
G0 Z3.5 F500
G0 X83.07 Y98.332 Z3.5
G1 Z0 F500
G1 X82.969 Y98.604 Z0 F800
G1 X82.415 Y99.762 Z0 F800
G1 X82.151 Y100.345 Z0 F800
G1 X81.914 Y100.932 Z0 F800
G1 X81.836 Y101.068 Z0 F800
G1 X81.791 Y101.237 Z0 F800
G1 X81.727 Y101.398 Z0 F800
G1 X81.592 Y101.511 Z0 F800
G1 X81.564 Y101.693 Z0 F800
G1 X81.515 Y101.868 Z0 F800
G1 X81.433 Y102.025 Z0 F800
G1 X81.308 Y102.154 Z0 F800
G1 X81.298 Y102.364 Z0 F800
G1 X81.253 Y102.564 Z0 F800
G1 X81.166 Y102.745 Z0 F800
G1 X81.032 Y102.895 Z0 F800
G1 X81.022 Y103.121 Z0 F800
G1 X80.988 Y103.344 Z0 F800
G1 X80.908 Y103.547 Z0 F800
G1 X80.764 Y103.711 Z0 F800
G1 X80.724 Y104.309 Z0 F800
G1 X80.666 Y104.594 Z0 F800
G1 X80.529 Y104.846 Z0 F800
G1 X80.501 Y104.947 Z0 F800
G1 X80.449 Y105.027 Z0 F800
G1 X80.378 Y105.089 Z0 F800
G1 X80.293 Y105.134 Z0 F800
G1 X80.098 Y105.182 Z0 F800
G1 X79.902 Y105.189 Z0 F800
G1 X79.741 Y105.154 Z0 F800
; --- FIX Y Backlash ---
G0 X79.741 Y103.954 F1200
G1 X79.642 Y103.845 Z0 F800
G1 X79.555 Y103.72 Z0 F800
G1 X79.428 Y103.635 Z0 F800
G1 X79.259 Y103.341 Z0 F800
G1 X79.061 Y103.075 Z0 F800
G1 X78.999 Y102.928 Z0 F800
G1 X78.882 Y102.806 Z0 F800
G1 X78.783 Y102.674 Z0 F800
G1 X78.77 Y102.494 Z0 F800
G1 X78.675 Y102.359 Z0 F800
G1 X78.575 Y102.223 Z0 F800
G1 X78.504 Y102.073 Z0 F800
G1 X78.498 Y101.892 Z0 F800
G1 X78.449 Y101.524 Z0 F800
G1 X78.373 Y101.16 Z0 F800
G1 X78.314 Y100.793 Z0 F800
G1 Y100.413 Z0 F800
G1 X78.309 Y99.943 Z0 F800
G1 X78.329 Y99.473 Z0 F800
; --- FIX X Backlash ---
G0 X79.429 Y99.473 F1200
G1 X79.487 Y99.012 Z0 F800
G1 X79.596 Y98.564 Z0 F800
G1 Y98.381 Z0 F800
G1 X79.671 Y98.23 Z0 F800
G1 X79.774 Y98.094 Z0 F800
G1 X79.87 Y97.958 Z0 F800
G1 X79.922 Y97.723 Z0 F800
G1 X80.035 Y97.516 Z0 F800
G1 X80.155 Y97.31 Z0 F800
G1 X80.226 Y97.081 Z0 F800
G1 X80.355 Y96.918 Z0 F800
G1 X80.434 Y96.727 Z0 F800
G1 X80.519 Y96.543 Z0 F800
G1 X80.671 Y96.403 Z0 F800
G1 X80.696 Y96.232 Z0 F800
G1 X80.755 Y96.074 Z0 F800
G1 X80.848 Y95.936 Z0 F800
G1 X80.97 Y95.825 Z0 F800
G1 X81.168 Y95.397 Z0 F800
G1 X81.41 Y94.988 Z0 F800
G1 X81.659 Y94.583 Z0 F800
G1 X81.876 Y94.162 Z0 F800
G1 X81.968 Y94.018 Z0 F800
G1 X82.015 Y93.84 Z0 F800
G1 X82.079 Y93.67 Z0 F800
G1 X82.219 Y93.548 Z0 F800
G1 X82.245 Y93.362 Z0 F800
G1 X82.299 Y93.188 Z0 F800
G1 X82.386 Y93.032 Z0 F800
G1 X82.512 Y92.901 Z0 F800
G1 X82.561 Y92.643 Z0 F800
G1 X82.68 Y92.415 Z0 F800
G1 X82.796 Y92.186 Z0 F800
G1 X82.834 Y91.925 Z0 F800
G1 X82.99 Y91.584 Z0 F800
G1 X83.056 Y91.22 Z0 F800
G1 X83.09 Y90.846 Z0 F800
G1 X83.153 Y90.478 Z0 F800
G1 X83.263 Y90.312 Z0 F800
G1 X83.319 Y90.127 Z0 F800
G1 X83.339 Y89.932 Z0 F800
G1 Y89.53 Z0 F800
G1 X83.355 Y89.336 Z0 F800
G1 X83.404 Y89.154 Z0 F800
G1 X83.503 Y88.99 Z0 F800
G1 X83.791 Y88.941 Z0 F800
G1 X84.088 Y88.984 Z0 F800
; --- FIX Y Backlash ---
G0 X84.088 Y90.184 F1200
G1 X84.226 Y90.237 Z0 F800
G1 X84.35 Y90.312 Z0 F800
G1 X84.453 Y90.404 Z0 F800
G1 X84.53 Y90.516 Z0 F800
G1 X84.625 Y90.557 Z0 F800
G1 X84.687 Y90.622 Z0 F800
G1 X84.728 Y90.702 Z0 F800
G1 X84.757 Y90.791 Z0 F800
G1 X84.825 Y90.964 Z0 F800
G1 X84.974 Y91.082 Z0 F800
G1 X85.051 Y91.258 Z0 F800
G1 X85.181 Y91.403 Z0 F800
G1 X85.243 Y91.477 Z0 F800
G1 X85.292 Y91.557 Z0 F800
G1 X85.32 Y91.65 Z0 F800
G1 X85.317 Y91.762 Z0 F800
G1 X85.463 Y91.993 Z0 F800
G1 X85.55 Y92.262 Z0 F800
G1 X85.622 Y92.542 Z0 F800
G1 X85.726 Y92.804 Z0 F800
G1 X85.761 Y93.31 Z0 F800
G1 X85.782 Y93.826 Z0 F800
G1 X85.771 Y94.081 Z0 F800
G1 X85.737 Y94.33 Z0 F800
; --- FIX X Backlash ---
G0 X84.637 Y94.33 F1200
G1 X84.574 Y94.57 Z0 F800
G1 X84.476 Y94.799 Z0 F800
G1 X84.418 Y95.104 Z0 F800
G1 X84.219 Y95.674 Z0 F800
G1 X84.163 Y95.975 Z0 F800
G1 X84.035 Y96.17 Z0 F800
G1 X83.958 Y96.385 Z0 F800
G1 X83.886 Y96.603 Z0 F800
G1 X83.774 Y96.806 Z0 F800
G1 X83.688 Y96.995 Z0 F800
G1 X83.64 Y97.208 Z0 F800
G1 X83.57 Y97.409 Z0 F800
G1 X83.415 Y97.558 Z0 F800
G1 X83.355 Y97.84 Z0 F800
G1 X83.219 Y98.088 Z0 F800
G1 X83.07 Y98.332 Z0 F800
G0 Z3.5 F500
; --- FIX Y Backlash ---
G0 X83.07 Y97.132 F1200
G0 X79.854 Y81.096 Z3.5
G1 Z0 F500
; --- FIX Y Backlash ---
G0 X79.854 Y82.296 F1200
G1 X79.767 Y82.618 Z0 F800
G1 X79.705 Y83.072 Z0 F800
G1 X79.687 Y83.172 Z0 F800
G1 X79.487 Y83.651 Z0 F800
G1 X79.482 Y83.827 Z0 F800
G1 X79.264 Y84.065 Z0 F800
G1 X79.236 Y84.468 Z0 F800
G1 X79.095 Y84.601 Z0 F800
G1 X78.98 Y85.218 Z0 F800
G1 X78.798 Y85.552 Z0 F800
G1 X78.763 Y85.676 Z0 F800
G1 X78.662 Y85.82 Z0 F800
G1 X78.397 Y86.286 Z0 F800
G1 X78.245 Y86.542 Z0 F800
G1 X77.949 Y86.932 Z0 F800
G1 X77.77 Y87.266 Z0 F800
G1 X77.632 Y87.439 Z0 F800
G1 X77.255 Y87.922 Z0 F800
G1 X77.162 Y88.105 Z0 F800
G1 X76.887 Y88.452 Z0 F800
G1 X76.798 Y88.621 Z0 F800
G1 X76.672 Y88.749 Z0 F800
G1 X76.581 Y88.938 Z0 F800
G1 X76.47 Y89.025 Z0 F800
G1 X75.983 Y89.9 Z0 F800
G1 X75.671 Y90.417 Z0 F800
G1 X75.301 Y91.091 Z0 F800
G1 X75.123 Y91.528 Z0 F800
G1 X75.028 Y91.659 Z0 F800
G1 X74.803 Y91.752 Z0 F800
; --- FIX Y Backlash ---
G0 X74.803 Y90.552 F1200
G1 X74.817 Y90.383 Z0 F800
G1 X74.86 Y90.243 Z0 F800
; --- FIX X Backlash ---
G0 X75.96 Y90.243 F1200
G1 X76.121 Y89.772 Z0 F800
G1 X76.166 Y89.529 Z0 F800
G1 X76.216 Y89.429 Z0 F800
G1 X76.34 Y89.031 Z0 F800
G1 X76.367 Y88.943 Z0 F800
G1 X76.38 Y88.915 Z0 F800
G1 X76.529 Y88.628 Z0 F800
G1 X76.67 Y88.192 Z0 F800
G1 X76.837 Y87.838 Z0 F800
G1 X77.148 Y87.482 Z0 F800
G1 X77.169 Y87.182 Z0 F800
G1 X77.335 Y86.926 Z0 F800
G1 X77.341 Y86.902 Z0 F800
G1 X77.481 Y86.751 Z0 F800
G1 X77.602 Y86.453 Z0 F800
G1 X77.686 Y86.338 Z0 F800
G1 X77.852 Y86.041 Z0 F800
G1 X77.871 Y86.012 Z0 F800
G1 X78.157 Y85.705 Z0 F800
G1 X78.341 Y85.3 Z0 F800
G1 X78.735 Y84.758 Z0 F800
G1 X78.976 Y84.281 Z0 F800
G1 X79.041 Y84.138 Z0 F800
G1 X79.15 Y84.043 Z0 F800
G1 X79.388 Y83.606 Z0 F800
G1 X79.669 Y83.287 Z0 F800
G1 X79.731 Y83.035 Z0 F800
G1 X79.991 Y82.707 Z0 F800
G1 X80.028 Y82.529 Z0 F800
G1 X80.21 Y82.286 Z0 F800
G1 X80.292 Y82.066 Z0 F800
G1 X80.569 Y81.622 Z0 F800
G1 X80.934 Y80.897 Z0 F800
G1 X80.989 Y80.765 Z0 F800
; --- FIX Y Backlash ---
G0 X80.989 Y81.965 F1200
G1 X80.954 Y82.296 Z0 F800
G0 Z3.5 F500
; --- FIX X Backlash ---
G0 X79.854 Y82.296 F1200
G0 X79.742 Y84.953 Z3.5
G1 Z0 F500
G1 X79.649 Y85.452 Z0 F800
G1 X79.633 Y85.482 Z0 F800
G1 X79.45 Y85.817 Z0 F800
G1 X79.405 Y85.98 Z0 F800
G1 X79.254 Y86.196 Z0 F800
G1 X79.01 Y86.622 Z0 F800
G1 X78.825 Y86.936 Z0 F800
G1 X78.54 Y87.311 Z0 F800
G1 X78.357 Y87.653 Z0 F800
G1 X78.183 Y87.873 Z0 F800
G1 X77.849 Y88.3 Z0 F800
G1 X77.754 Y88.488 Z0 F800
G1 X77.476 Y88.836 Z0 F800
G1 X77.37 Y89.038 Z0 F800
G1 X77.253 Y89.158 Z0 F800
G1 X77.14 Y89.389 Z0 F800
G1 X77.013 Y89.489 Z0 F800
G1 X76.594 Y90.24 Z0 F800
G1 X76.277 Y90.767 Z0 F800
G1 X75.934 Y91.393 Z0 F800
G1 X75.739 Y91.87 Z0 F800
G1 X75.534 Y92.153 Z0 F800
G1 X75.521 Y92.211 Z0 F800
G1 X75.281 Y92.311 Z0 F800
G1 X75.135 Y93.164 Z0 F800
G1 X75.089 Y93.262 Z0 F800
G1 X74.883 Y93.729 Z0 F800
G1 X74.855 Y93.982 Z0 F800
G1 X74.799 Y94.096 Z0 F800
G1 X74.659 Y94.523 Z0 F800
G1 X74.577 Y94.926 Z0 F800
G1 X74.565 Y95.024 Z0 F800
G1 X74.472 Y95.216 Z0 F800
G1 X74.335 Y95.751 Z0 F800
G1 X74.288 Y96.232 Z0 F800
G1 Y96.489 Z0 F800
G1 X74.263 Y96.625 Z0 F800
G1 X74.174 Y96.915 Z0 F800
G1 X74.099 Y97.22 Z0 F800
; --- FIX Y Backlash ---
G0 X74.099 Y96.02 F1200
G1 X73.902 Y95.579 Z0 F800
G1 X73.859 Y95.453 Z0 F800
G1 X73.85 Y95.404 Z0 F800
G1 Y95.3 Z0 F800
G1 X73.882 Y95.038 Z0 F800
G1 X73.839 Y94.608 Z0 F800
G1 X73.752 Y94.273 Z0 F800
G1 X73.605 Y93.869 Z0 F800
G1 X73.586 Y93.731 Z0 F800
G1 X73.567 Y93.419 Z0 F800
G1 X73.58 Y93.15 Z0 F800
G1 X73.622 Y92.895 Z0 F800
; --- FIX X Backlash ---
G0 X74.722 Y92.895 F1200
G1 X74.858 Y92.442 Z0 F800
G1 X74.917 Y91.843 Z0 F800
G1 X74.953 Y91.446 Z0 F800
G1 X75.001 Y91.18 Z0 F800
G1 X75.188 Y90.694 Z0 F800
G1 X75.227 Y90.247 Z0 F800
G1 X75.289 Y90.044 Z0 F800
G1 X75.442 Y89.594 Z0 F800
G1 X75.496 Y89.302 Z0 F800
G1 X75.564 Y89.166 Z0 F800
G1 X75.671 Y88.826 Z0 F800
G1 X75.711 Y88.692 Z0 F800
G1 X75.752 Y88.605 Z0 F800
G1 X75.88 Y88.357 Z0 F800
G1 X76.018 Y87.933 Z0 F800
G1 X76.164 Y87.625 Z0 F800
G1 X76.175 Y87.532 Z0 F800
G1 X76.466 Y87.198 Z0 F800
G1 X76.484 Y86.953 Z0 F800
G1 X76.685 Y86.643 Z0 F800
G1 X76.707 Y86.556 Z0 F800
G1 X76.881 Y86.368 Z0 F800
G1 X76.986 Y86.11 Z0 F800
G1 X77.095 Y85.96 Z0 F800
G1 X77.252 Y85.68 Z0 F800
G1 X77.311 Y85.586 Z0 F800
G1 X77.568 Y85.311 Z0 F800
G1 X77.752 Y84.905 Z0 F800
G1 X77.778 Y84.883 Z0 F800
G1 X78.136 Y84.393 Z0 F800
G1 X78.344 Y83.979 Z0 F800
G1 X78.461 Y83.721 Z0 F800
G1 X78.469 Y83.708 Z0 F800
G1 X78.596 Y83.598 Z0 F800
G1 X78.806 Y83.211 Z0 F800
G1 X78.811 Y83.202 Z0 F800
G1 X79.03 Y82.954 Z0 F800
G1 X79.087 Y82.72 Z0 F800
G1 X79.34 Y82.402 Z0 F800
G1 X79.375 Y82.235 Z0 F800
G1 X79.589 Y81.948 Z0 F800
G1 X79.66 Y81.756 Z0 F800
G1 X79.958 Y81.279 Z0 F800
G1 X80.298 Y80.602 Z0 F800
G1 X80.578 Y79.944 Z0 F800
G1 X80.793 Y79.382 Z0 F800
G1 X80.923 Y79.115 Z0 F800
G1 X80.989 Y78.821 Z0 F800
G1 X81.115 Y78.619 Z0 F800
G1 X81.234 Y78.034 Z0 F800
G1 X81.247 Y77.915 Z0 F800
G1 X81.463 Y77.704 Z0 F800
G1 X81.518 Y77.058 Z0 F800
; --- FIX Y Backlash ---
G0 X81.518 Y78.258 F1200
G1 X81.532 Y78.358 Z0 F800
G1 X81.635 Y78.891 Z0 F800
G1 X81.699 Y79.314 Z0 F800
G1 X81.708 Y79.773 Z0 F800
G1 Y80.494 Z0 F800
G1 X81.719 Y81.219 Z0 F800
G1 X81.704 Y81.863 Z0 F800
; --- FIX X Backlash ---
G0 X80.604 Y81.863 F1200
G1 X80.544 Y82.427 Z0 F800
G1 X80.454 Y82.758 Z0 F800
G1 X80.395 Y83.194 Z0 F800
G1 X80.363 Y83.369 Z0 F800
G1 X80.183 Y83.802 Z0 F800
G1 X80.173 Y84.107 Z0 F800
G1 X79.945 Y84.357 Z0 F800
G1 X79.915 Y84.788 Z0 F800
G1 X79.742 Y84.953 Z0 F800
G0 Z3.5 F500
G0 X73.814 Y90.103 Z3.5
G1 Z0 F500
; --- FIX X Backlash ---
G0 X74.914 Y90.103 F1200
; --- FIX Y Backlash ---
G0 X74.914 Y88.903 F1200
G1 X75.002 Y88.621 Z0 F800
G1 X75.056 Y88.44 Z0 F800
G1 X75.125 Y88.294 Z0 F800
G1 X75.232 Y88.087 Z0 F800
G1 X75.365 Y87.676 Z0 F800
G1 X75.483 Y87.427 Z0 F800
G1 X75.505 Y87.243 Z0 F800
G1 X75.54 Y87.195 Z0 F800
G1 X75.785 Y86.914 Z0 F800
G1 X75.801 Y86.696 Z0 F800
G1 X75.863 Y86.624 Z0 F800
G1 X76.035 Y86.359 Z0 F800
G1 X76.072 Y86.212 Z0 F800
G1 Y86.209 Z0 F800
G1 X76.281 Y85.986 Z0 F800
G1 X76.37 Y85.768 Z0 F800
G1 X76.504 Y85.582 Z0 F800
G1 X76.649 Y85.325 Z0 F800
G1 X76.753 Y85.157 Z0 F800
G1 X76.978 Y84.917 Z0 F800
G1 X77.112 Y84.622 Z0 F800
G1 X77.16 Y84.489 Z0 F800
G1 X77.263 Y84.403 Z0 F800
G1 X77.537 Y84.027 Z0 F800
G1 X77.713 Y83.676 Z0 F800
G1 X77.84 Y83.398 Z0 F800
G1 X77.917 Y83.26 Z0 F800
G1 X78.042 Y83.152 Z0 F800
G1 X78.186 Y82.887 Z0 F800
G1 X78.225 Y82.807 Z0 F800
G1 X78.391 Y82.62 Z0 F800
G1 X78.443 Y82.406 Z0 F800
G1 X78.689 Y82.095 Z0 F800
G1 X78.729 Y81.909 Z0 F800
G1 X78.802 Y81.832 Z0 F800
G1 X78.967 Y81.61 Z0 F800
G1 X79.029 Y81.444 Z0 F800
G1 X79.348 Y80.935 Z0 F800
G1 X79.663 Y80.308 Z0 F800
G1 X79.929 Y79.681 Z0 F800
G1 X80.15 Y79.104 Z0 F800
G1 X80.258 Y78.883 Z0 F800
G1 X80.319 Y78.608 Z0 F800
G1 X80.336 Y78.544 Z0 F800
G1 X80.455 Y78.355 Z0 F800
G1 X80.542 Y77.927 Z0 F800
G1 X80.571 Y77.639 Z0 F800
G1 X80.581 Y77.586 Z0 F800
G1 X80.787 Y77.384 Z0 F800
G1 X80.849 Y76.663 Z0 F800
G1 X80.84 Y76.209 Z0 F800
G1 X80.847 Y76.057 Z0 F800
G1 X80.863 Y75.958 Z0 F800
G1 X80.879 Y75.916 Z0 F800
G1 X81.064 Y75.654 Z0 F800
G1 X81.122 Y74.749 Z0 F800
G1 X81.115 Y74.035 Z0 F800
G1 Y73.834 Z0 F800
; --- FIX Y Backlash ---
G0 X81.115 Y75.034 F1200
G1 X81.178 Y75.103 Z0 F800
G1 X81.199 Y75.161 Z0 F800
G1 X81.287 Y75.433 Z0 F800
G1 X81.391 Y75.581 Z0 F800
G1 X81.401 Y75.623 Z0 F800
G1 X81.464 Y75.86 Z0 F800
G1 X81.654 Y76.192 Z0 F800
G1 X81.696 Y76.222 Z0 F800
G1 X81.726 Y76.395 Z0 F800
G1 X81.825 Y76.74 Z0 F800
G1 X81.928 Y76.9 Z0 F800
G1 X81.999 Y77.27 Z0 F800
G1 X82.074 Y77.568 Z0 F800
G1 X82.152 Y77.763 Z0 F800
G1 X82.222 Y78.241 Z0 F800
G1 X82.327 Y78.78 Z0 F800
G1 X82.398 Y79.256 Z0 F800
G1 X82.408 Y79.749 Z0 F800
G1 Y80.488 Z0 F800
G1 X82.42 Y81.213 Z0 F800
G1 X82.403 Y81.914 Z0 F800
; --- FIX X Backlash ---
G0 X81.303 Y81.914 F1200
G1 X81.234 Y82.556 Z0 F800
G1 X81.142 Y82.897 Z0 F800
G1 X81.088 Y83.292 Z0 F800
G1 X81.039 Y83.568 Z0 F800
G1 X80.879 Y83.952 Z0 F800
G1 X80.869 Y84.28 Z0 F800
G1 X80.854 Y84.396 Z0 F800
G1 Y84.403 Z0 F800
G1 X80.627 Y84.649 Z0 F800
G1 X80.598 Y85.057 Z0 F800
G1 X80.588 Y85.115 Z0 F800
G1 X80.388 Y85.304 Z0 F800
G1 X80.318 Y85.679 Z0 F800
G1 X80.253 Y85.808 Z0 F800
G1 X80.103 Y86.083 Z0 F800
G1 X80.046 Y86.285 Z0 F800
G1 X79.845 Y86.572 Z0 F800
G1 X79.613 Y86.978 Z0 F800
G1 X79.408 Y87.325 Z0 F800
G1 X79.131 Y87.69 Z0 F800
G1 X78.946 Y88.037 Z0 F800
G1 X78.733 Y88.305 Z0 F800
G1 X78.442 Y88.678 Z0 F800
G1 X78.303 Y88.951 Z0 F800
G1 X78.244 Y88.995 Z0 F800
G1 X78.065 Y89.22 Z0 F800
G1 X77.963 Y89.414 Z0 F800
G1 X77.947 Y89.448 Z0 F800
G1 X77.832 Y89.566 Z0 F800
G1 X77.706 Y89.827 Z0 F800
G1 X77.698 Y89.841 Z0 F800
G1 X77.556 Y89.953 Z0 F800
G1 X77.198 Y90.595 Z0 F800
G1 X76.884 Y91.116 Z0 F800
G1 X76.567 Y91.694 Z0 F800
G1 X76.355 Y92.213 Z0 F800
G1 X76.187 Y92.446 Z0 F800
G1 X76.127 Y92.717 Z0 F800
G1 X75.906 Y92.81 Z0 F800
G1 X75.809 Y93.375 Z0 F800
G1 X75.727 Y93.551 Z0 F800
G1 X75.567 Y93.913 Z0 F800
G1 X75.538 Y94.181 Z0 F800
G1 X75.448 Y94.361 Z0 F800
G1 X75.337 Y94.703 Z0 F800
G1 X75.269 Y95.037 Z0 F800
G1 X75.247 Y95.223 Z0 F800
G1 X75.133 Y95.458 Z0 F800
G1 X75.026 Y95.873 Z0 F800
G1 X74.988 Y96.267 Z0 F800
G1 Y96.552 Z0 F800
G1 X74.943 Y96.795 Z0 F800
G1 X74.849 Y97.102 Z0 F800
G1 X74.742 Y97.534 Z0 F800
G1 X74.737 Y97.968 Z0 F800
G1 X74.722 Y98.74 Z0 F800
G1 X74.733 Y99.512 Z0 F800
G1 X74.73 Y100.004 Z0 F800
; --- FIX Y Backlash ---
G0 X74.73 Y98.804 F1200
G1 X74.416 Y98.412 Z0 F800
G1 X74.139 Y97.99 Z0 F800
G1 X73.891 Y97.532 Z0 F800
G1 X73.686 Y97.072 Z0 F800
G1 X73.601 Y96.807 Z0 F800
G1 X73.463 Y96.55 Z0 F800
G1 X73.426 Y96.466 Z0 F800
G1 X73.411 Y96.198 Z0 F800
G1 X73.249 Y95.833 Z0 F800
G1 X73.18 Y95.632 Z0 F800
G1 X73.149 Y95.459 Z0 F800
G1 X73.152 Y95.257 Z0 F800
G1 X73.178 Y95.032 Z0 F800
G1 X73.148 Y94.732 Z0 F800
G1 X73.083 Y94.482 Z0 F800
G1 X72.921 Y94.04 Z0 F800
G1 X72.889 Y93.796 Z0 F800
G1 X72.866 Y93.425 Z0 F800
G1 X72.882 Y93.073 Z0 F800
; --- FIX X Backlash ---
G0 X73.982 Y93.073 F1200
G1 X74.038 Y92.738 Z0 F800
G1 X74.168 Y92.306 Z0 F800
G1 X74.22 Y91.777 Z0 F800
G1 X74.26 Y91.344 Z0 F800
G1 X74.324 Y90.992 Z0 F800
G1 X74.5 Y90.535 Z0 F800
G1 X74.535 Y90.115 Z0 F800
G1 X74.624 Y89.826 Z0 F800
G1 X74.763 Y89.416 Z0 F800
G1 X74.826 Y89.079 Z0 F800
G1 X74.914 Y88.903 Z0 F800
G0 Z3.5 F500
G0 X76.388 Y84.523 Z3.5
G1 Z0 F500
G1 X76.463 Y84.358 Z0 F800
G1 X76.523 Y84.192 Z0 F800
G1 X76.605 Y84.041 Z0 F800
G1 X76.747 Y83.922 Z0 F800
G1 X76.937 Y83.661 Z0 F800
G1 X77.082 Y83.374 Z0 F800
G1 X77.214 Y83.083 Z0 F800
G1 X77.367 Y82.811 Z0 F800
G1 X77.487 Y82.707 Z0 F800
G1 X77.565 Y82.563 Z0 F800
G1 X77.64 Y82.413 Z0 F800
G1 X77.751 Y82.287 Z0 F800
G1 X77.799 Y82.092 Z0 F800
G1 X78.038 Y81.79 Z0 F800
G1 X78.08 Y81.593 Z0 F800
G1 X78.171 Y81.48 Z0 F800
G1 X78.266 Y81.38 Z0 F800
G1 X78.346 Y81.272 Z0 F800
G1 X78.397 Y81.134 Z0 F800
G1 X78.737 Y80.592 Z0 F800
G1 X79.027 Y80.014 Z0 F800
G1 X79.28 Y79.419 Z0 F800
G1 X79.509 Y78.822 Z0 F800
G1 X79.592 Y78.651 Z0 F800
G1 X79.635 Y78.456 Z0 F800
G1 X79.687 Y78.261 Z0 F800
G1 X79.794 Y78.091 Z0 F800
G1 X79.849 Y77.821 Z0 F800
G1 X79.878 Y77.54 Z0 F800
G1 X79.903 Y77.404 Z0 F800
G1 X79.945 Y77.277 Z0 F800
G1 X80.012 Y77.163 Z0 F800
G1 X80.112 Y77.066 Z0 F800
G1 X80.148 Y76.64 Z0 F800
G1 X80.14 Y76.198 Z0 F800
G1 X80.149 Y75.982 Z0 F800
G1 X80.184 Y75.776 Z0 F800
G1 X80.256 Y75.584 Z0 F800
G1 X80.378 Y75.411 Z0 F800
G1 X80.422 Y74.73 Z0 F800
G1 X80.415 Y74.042 Z0 F800
G1 Y73.357 Z0 F800
G1 X80.477 Y72.684 Z0 F800
G1 X80.677 Y72.632 Z0 F800
G1 X80.87 Z0 F800
; --- FIX Y Backlash ---
G0 X80.87 Y73.832 F1200
G1 X81.052 Y73.882 Z0 F800
G1 X81.219 Y73.97 Z0 F800
G1 X81.367 Y74.092 Z0 F800
G1 X81.492 Y74.24 Z0 F800
G1 X81.59 Y74.409 Z0 F800
G1 X81.657 Y74.59 Z0 F800
G1 X81.789 Y74.735 Z0 F800
G1 X81.857 Y74.922 Z0 F800
G1 X81.92 Y75.117 Z0 F800
G1 X82.038 Y75.285 Z0 F800
G1 X82.079 Y75.448 Z0 F800
G1 X82.117 Y75.592 Z0 F800
G1 X82.186 Y75.711 Z0 F800
G1 X82.316 Y75.805 Z0 F800
G1 X82.372 Y76.02 Z0 F800
G1 X82.409 Y76.238 Z0 F800
G1 X82.469 Y76.448 Z0 F800
G1 X82.59 Y76.636 Z0 F800
G1 X82.682 Y77.119 Z0 F800
G1 X82.741 Y77.352 Z0 F800
G1 X82.833 Y77.58 Z0 F800
G1 X82.913 Y78.123 Z0 F800
G1 X83.016 Y78.658 Z0 F800
G1 X83.097 Y79.196 Z0 F800
G1 X83.107 Y79.746 Z0 F800
G1 X83.11 Y80.482 Z0 F800
G1 X83.12 Y81.221 Z0 F800
G1 X83.102 Y81.958 Z0 F800
; --- FIX X Backlash ---
G0 X82.002 Y81.958 F1200
G1 X81.924 Y82.687 Z0 F800
G1 X81.829 Y83.037 Z0 F800
G1 X81.779 Y83.404 Z0 F800
G1 X81.714 Y83.768 Z0 F800
G1 X81.574 Y84.102 Z0 F800
G1 X81.567 Y84.333 Z0 F800
G1 X81.538 Y84.565 Z0 F800
G1 X81.46 Y84.774 Z0 F800
G1 X81.308 Y84.941 Z0 F800
G1 X81.294 Y85.142 Z0 F800
G1 X81.258 Y85.341 Z0 F800
G1 X81.179 Y85.519 Z0 F800
G1 X81.035 Y85.656 Z0 F800
G1 X80.988 Y85.907 Z0 F800
G1 X80.876 Y86.128 Z0 F800
G1 X80.756 Y86.348 Z0 F800
G1 X80.689 Y86.589 Z0 F800
G1 X80.437 Y86.947 Z0 F800
G1 X80.216 Y87.333 Z0 F800
G1 X79.99 Y87.716 Z0 F800
G1 X79.722 Y88.069 Z0 F800
G1 X79.533 Y88.423 Z0 F800
G1 X79.283 Y88.738 Z0 F800
G1 X79.035 Y89.055 Z0 F800
G1 X78.853 Y89.414 Z0 F800
G1 X78.735 Y89.501 Z0 F800
G1 X78.654 Y89.604 Z0 F800
G1 X78.593 Y89.72 Z0 F800
G1 X78.535 Y89.85 Z0 F800
G1 X78.412 Y89.975 Z0 F800
G1 X78.332 Y90.141 Z0 F800
G1 X78.244 Y90.303 Z0 F800
G1 X78.099 Y90.417 Z0 F800
G1 X77.804 Y90.945 Z0 F800
G1 X77.491 Y91.465 Z0 F800
G1 X77.2 Y91.996 Z0 F800
G1 X76.972 Y92.555 Z0 F800
G1 X76.839 Y92.738 Z0 F800
G1 X76.764 Y93.082 Z0 F800
G1 X76.721 Y93.181 Z0 F800
G1 X76.647 Y93.259 Z0 F800
G1 X76.531 Y93.308 Z0 F800
G1 X76.483 Y93.586 Z0 F800
G1 X76.364 Y93.841 Z0 F800
G1 X76.251 Y94.097 Z0 F800
G1 X76.22 Y94.381 Z0 F800
G1 X76.098 Y94.627 Z0 F800
G1 X76.015 Y94.882 Z0 F800
G1 X75.961 Y95.148 Z0 F800
G1 X75.928 Y95.422 Z0 F800
G1 X75.794 Y95.7 Z0 F800
G1 X75.718 Y95.995 Z0 F800
G1 X75.688 Y96.302 Z0 F800
G1 Y96.616 Z0 F800
G1 X75.625 Y96.958 Z0 F800
G1 X75.524 Y97.289 Z0 F800
G1 X75.441 Y97.623 Z0 F800
G1 X75.437 Y97.976 Z0 F800
G1 X75.422 Y98.742 Z0 F800
G1 X75.433 Y99.516 Z0 F800
G1 X75.429 Y100.286 Z0 F800
G1 X75.369 Y101.043 Z0 F800
G1 X75.284 Y101.075 Z0 F800
G1 X75.195 Y101.082 Z0 F800
G1 X75.104 Y101.078 Z0 F800
G1 X75.014 Z0 F800
G1 X74.739 Y101.037 Z0 F800
; --- FIX Y Backlash ---
G0 X74.739 Y99.837 F1200
G1 X74.507 Y99.708 Z0 F800
G1 X74.326 Y99.511 Z0 F800
G1 X74.206 Y99.27 Z0 F800
G1 X73.85 Y98.824 Z0 F800
G1 X73.536 Y98.346 Z0 F800
G1 X73.263 Y97.843 Z0 F800
G1 X73.032 Y97.323 Z0 F800
G1 X72.955 Y97.083 Z0 F800
G1 X72.834 Y96.86 Z0 F800
G1 X72.733 Y96.628 Z0 F800
G1 X72.719 Y96.364 Z0 F800
G1 X72.598 Y96.092 Z0 F800
G1 X72.501 Y95.81 Z0 F800
G1 X72.447 Y95.516 Z0 F800
G1 X72.453 Y95.209 Z0 F800
G1 X72.474 Y95.027 Z0 F800
G1 X72.457 Y94.856 Z0 F800
G1 X72.414 Y94.691 Z0 F800
G1 X72.237 Y94.208 Z0 F800
G1 X72.192 Y93.863 Z0 F800
G1 X72.165 Y93.43 Z0 F800
G1 X72.185 Y93.001 Z0 F800
; --- FIX X Backlash ---
G0 X73.285 Y93.001 F1200
G1 X73.355 Y92.579 Z0 F800
G1 X73.478 Y92.17 Z0 F800
G1 X73.523 Y91.711 Z0 F800
G1 X73.565 Y91.252 Z0 F800
G1 X73.647 Y90.802 Z0 F800
G1 X73.811 Y90.377 Z0 F800
G1 X73.844 Y89.982 Z0 F800
G1 X73.958 Y89.609 Z0 F800
G1 X74.084 Y89.238 Z0 F800
G1 X74.156 Y88.853 Z0 F800
G1 X74.262 Y88.64 Z0 F800
G1 X74.333 Y88.415 Z0 F800
G1 X74.4 Y88.192 Z0 F800
G1 X74.498 Y87.983 Z0 F800
G1 X74.584 Y87.816 Z0 F800
G1 X74.713 Y87.416 Z0 F800
G1 X74.802 Y87.23 Z0 F800
G1 X74.824 Y87.05 Z0 F800
G1 X74.893 Y86.896 Z0 F800
G1 X74.992 Y86.758 Z0 F800
G1 X75.104 Y86.631 Z0 F800
G1 X75.116 Y86.46 Z0 F800
G1 X75.197 Y86.325 Z0 F800
G1 X75.301 Y86.203 Z0 F800
G1 X75.385 Y86.074 Z0 F800
G1 X75.433 Y85.884 Z0 F800
G1 X75.553 Y85.742 Z0 F800
G1 X75.681 Y85.604 Z0 F800
G1 X75.753 Y85.425 Z0 F800
G1 X75.914 Y85.204 Z0 F800
G1 X76.049 Y84.964 Z0 F800
G1 X76.195 Y84.729 Z0 F800
G1 X76.388 Y84.523 Z0 F800
G0 Z3.5 F500
; --- FIX X Backlash ---
G0 X75.288 Y84.523 F1200
G0 X75.138 Y72.984 Z3.5
G1 Z0 F500
; --- FIX Y Backlash ---
G0 X75.138 Y74.184 F1200
G1 X75.118 Y74.742 Z0 F800
G1 X75.085 Y75.067 Z0 F800
G1 X75.008 Y75.206 Z0 F800
G1 X74.88 Y75.64 Z0 F800
G1 X74.835 Y75.798 Z0 F800
G1 X74.644 Y76.171 Z0 F800
G1 X74.623 Y76.363 Z0 F800
G1 X74.456 Y76.531 Z0 F800
G1 X74.341 Y76.94 Z0 F800
G1 X74.096 Y77.35 Z0 F800
G1 X74.017 Y77.617 Z0 F800
G1 X73.956 Y77.729 Z0 F800
G1 X73.801 Y78.004 Z0 F800
G1 X73.63 Y78.338 Z0 F800
G1 X73.552 Y78.529 Z0 F800
G1 X73.438 Y78.7 Z0 F800
G1 X73.347 Y78.943 Z0 F800
G1 X73.267 Y79.032 Z0 F800
G1 X72.954 Y79.595 Z0 F800
G1 X72.556 Y80.215 Z0 F800
G1 X72.539 Y80.294 Z0 F800
G1 X72.336 Y80.587 Z0 F800
G1 X72.239 Y80.88 Z0 F800
G1 X71.971 Y81.218 Z0 F800
G1 X71.943 Y81.422 Z0 F800
G1 Y81.425 Z0 F800
G1 X71.788 Y81.761 Z0 F800
G1 X71.728 Y81.905 Z0 F800
G1 X71.482 Y82.344 Z0 F800
G1 X71.361 Y82.694 Z0 F800
G1 X71.318 Y82.815 Z0 F800
G1 X71.226 Y82.972 Z0 F800
; --- FIX Y Backlash ---
G0 X71.226 Y81.772 F1200
G1 X71.203 Y81.592 Z0 F800
G1 X71.177 Y80.977 Z0 F800
G1 X71.211 Y80.38 Z0 F800
; --- FIX X Backlash ---
G0 X72.311 Y80.38 F1200
G1 X72.391 Y79.901 Z0 F800
G1 X72.481 Y79.695 Z0 F800
G1 X72.516 Y79.512 Z0 F800
G1 X72.575 Y79.46 Z0 F800
G1 X72.827 Y78.82 Z0 F800
G1 X72.971 Y78.531 Z0 F800
G1 X73.158 Y78.188 Z0 F800
G1 X73.285 Y77.95 Z0 F800
G1 X73.442 Y77.758 Z0 F800
G1 X73.703 Y77.275 Z0 F800
G1 X74.009 Y76.895 Z0 F800
G1 X74.043 Y76.721 Z0 F800
G1 X74.192 Y76.585 Z0 F800
G1 X74.291 Y76.329 Z0 F800
G1 X74.5 Y76.08 Z0 F800
G1 X74.6 Y75.846 Z0 F800
G1 X74.983 Y75.29 Z0 F800
G1 X75.397 Y74.538 Z0 F800
G1 X75.743 Y73.813 Z0 F800
G1 X76.148 Y72.923 Z0 F800
G1 X76.191 Y72.57 Z0 F800
G1 X76.205 Y72.518 Z0 F800
G1 X76.221 Y72.48 Z0 F800
; --- FIX Y Backlash ---
G0 X76.221 Y73.68 F1200
G1 X76.238 Y74.184 Z0 F800
G0 Z3.5 F500
G0 X76.426 Y76.376 Z3.5
G1 Z0 F500
G1 X76.396 Y76.638 Z0 F800
G1 X76.382 Y76.689 Z0 F800
G1 X76.377 Y76.698 Z0 F800
; --- FIX X Backlash ---
G0 X75.277 Y76.698 F1200
G1 X75.08 Y76.896 Z0 F800
G1 X74.989 Y77.219 Z0 F800
G1 X74.742 Y77.634 Z0 F800
G1 X74.667 Y77.887 Z0 F800
G1 X74.567 Y78.072 Z0 F800
G1 X74.418 Y78.335 Z0 F800
G1 X74.267 Y78.63 Z0 F800
G1 X74.172 Y78.862 Z0 F800
G1 X74.065 Y79.022 Z0 F800
G1 X73.976 Y79.262 Z0 F800
G1 X73.951 Y79.318 Z0 F800
G1 X73.839 Y79.442 Z0 F800
G1 X73.549 Y79.963 Z0 F800
G1 X73.213 Y80.487 Z0 F800
G1 X73.184 Y80.621 Z0 F800
G1 X73.104 Y80.708 Z0 F800
G1 X72.969 Y80.903 Z0 F800
G1 X72.867 Y81.207 Z0 F800
G1 Y81.213 Z0 F800
G1 X72.639 Y81.502 Z0 F800
G1 X72.614 Y81.688 Z0 F800
G1 X72.55 Y81.776 Z0 F800
G1 X72.43 Y82.04 Z0 F800
G1 X72.359 Y82.209 Z0 F800
G1 X72.123 Y82.632 Z0 F800
G1 X72.021 Y82.928 Z0 F800
G1 X71.956 Y83.111 Z0 F800
G1 X71.819 Y83.344 Z0 F800
G1 X71.566 Y84.115 Z0 F800
G1 X71.338 Y84.927 Z0 F800
G1 Y84.944 Z0 F800
G1 X71.317 Y84.913 Z0 F800
; --- FIX Y Backlash ---
G0 X71.317 Y83.713 F1200
G1 X71.109 Y83.333 Z0 F800
G1 X70.819 Y82.88 Z0 F800
G1 X70.777 Y82.845 Z0 F800
G1 X70.757 Y82.664 Z0 F800
G1 X70.711 Y82.433 Z0 F800
G1 X70.58 Y82.142 Z0 F800
G1 X70.567 Y82.128 Z0 F800
G1 X70.504 Y81.645 Z0 F800
G1 X70.476 Y80.972 Z0 F800
G1 X70.514 Y80.302 Z0 F800
; --- FIX X Backlash ---
G0 X71.614 Y80.302 F1200
G1 X71.714 Y79.7 Z0 F800
G1 X71.809 Y79.487 Z0 F800
G1 X71.868 Y79.167 Z0 F800
G1 X71.873 Y79.146 Z0 F800
G1 X71.985 Y79.046 Z0 F800
G1 X72.187 Y78.537 Z0 F800
G1 X72.351 Y78.207 Z0 F800
G1 X72.542 Y77.856 Z0 F800
G1 X72.699 Y77.561 Z0 F800
G1 X72.858 Y77.366 Z0 F800
G1 X73.118 Y76.885 Z0 F800
G1 X73.355 Y76.591 Z0 F800
G1 X73.399 Y76.364 Z0 F800
G1 X73.407 Y76.353 Z0 F800
G1 X73.598 Y76.179 Z0 F800
G1 X73.68 Y75.968 Z0 F800
G1 X73.896 Y75.709 Z0 F800
G1 X73.983 Y75.508 Z0 F800
G1 X74.387 Y74.921 Z0 F800
G1 X74.774 Y74.218 Z0 F800
G1 X75.108 Y73.517 Z0 F800
G1 X75.466 Y72.731 Z0 F800
G1 X75.502 Y72.432 Z0 F800
G1 X75.541 Y72.293 Z0 F800
G1 X75.606 Y72.135 Z0 F800
G1 X75.767 Y71.828 Z0 F800
G1 X75.806 Y71.334 Z0 F800
G1 X75.813 Y71.004 Z0 F800
G1 X75.822 Y70.924 Z0 F800
G1 X75.828 Y70.901 Z0 F800
G1 X76.063 Y70.653 Z0 F800
G1 Y70.576 Z0 F800
; --- FIX Y Backlash ---
G0 X76.063 Y71.776 F1200
G1 X76.115 Y71.837 Z0 F800
G1 X76.289 Y72.163 Z0 F800
G1 X76.449 Y72.306 Z0 F800
G1 X76.482 Y72.361 Z0 F800
G1 X76.585 Y72.562 Z0 F800
G1 X76.636 Y72.632 Z0 F800
G1 X76.642 Y72.669 Z0 F800
G1 X76.718 Y72.921 Z0 F800
G1 X76.867 Y73.193 Z0 F800
G1 X76.873 Y73.198 Z0 F800
G1 X76.917 Y73.58 Z0 F800
G1 X76.938 Y74.185 Z0 F800
G1 X76.916 Y74.8 Z0 F800
G1 X76.868 Y75.28 Z0 F800
; --- FIX X Backlash ---
G0 X75.768 Y75.28 F1200
G1 X75.658 Y75.478 Z0 F800
G1 X75.552 Y75.835 Z0 F800
G1 X75.488 Y76.058 Z0 F800
G1 X75.326 Y76.376 Z0 F800
G0 Z3.5 F500
G0 X73.871 Y80.758 Z3.5
G1 Z0 F500
G1 X73.831 Y80.941 Z0 F800
G1 X73.713 Y81.08 Z0 F800
G1 X73.651 Y81.146 Z0 F800
G1 X73.601 Y81.219 Z0 F800
G1 X73.573 Y81.304 Z0 F800
G1 X73.578 Y81.407 Z0 F800
G1 X73.51 Y81.554 Z0 F800
G1 X73.401 Y81.667 Z0 F800
G1 X73.307 Y81.786 Z0 F800
G1 X73.284 Y81.952 Z0 F800
G1 X73.159 Y82.128 Z0 F800
G1 X73.072 Y82.319 Z0 F800
G1 X72.991 Y82.514 Z0 F800
G1 X72.765 Y82.919 Z0 F800
G1 X72.681 Y83.163 Z0 F800
G1 X72.593 Y83.409 Z0 F800
G1 X72.461 Y83.634 Z0 F800
G1 X72.235 Y84.319 Z0 F800
G1 X72.041 Y85.013 Z0 F800
G1 X72.046 Y85.174 Z0 F800
G1 X72.023 Y85.327 Z0 F800
G1 X71.974 Y85.467 Z0 F800
G1 X71.9 Y85.589 Z0 F800
G1 X71.8 Y85.687 Z0 F800
G1 X71.676 Y85.757 Z0 F800
G1 X71.529 Y85.793 Z0 F800
G1 X71.359 Y85.79 Z0 F800
; --- FIX Y Backlash ---
G0 X71.359 Y84.59 F1200
G1 X71.153 Y84.526 Z0 F800
G1 X70.983 Y84.411 Z0 F800
G1 X70.841 Y84.258 Z0 F800
G1 X70.719 Y84.078 Z0 F800
G1 X70.507 Y83.691 Z0 F800
G1 X70.285 Y83.345 Z0 F800
G1 X70.184 Y83.258 Z0 F800
G1 X70.125 Y83.151 Z0 F800
G1 X70.094 Y83.03 Z0 F800
G1 X70.065 Y82.772 Z0 F800
G1 X70.04 Y82.648 Z0 F800
G1 X69.99 Y82.536 Z0 F800
G1 X69.902 Y82.443 Z0 F800
G1 X69.806 Y81.71 Z0 F800
G1 X69.775 Y80.967 Z0 F800
G1 X69.817 Y80.225 Z0 F800
; --- FIX X Backlash ---
G0 X70.917 Y80.225 F1200
G1 X71.039 Y79.498 Z0 F800
G1 X71.135 Y79.279 Z0 F800
G1 X71.18 Y79.038 Z0 F800
G1 X71.205 Y78.921 Z0 F800
G1 X71.244 Y78.812 Z0 F800
G1 X71.304 Y78.714 Z0 F800
G1 X71.396 Y78.633 Z0 F800
G1 X71.546 Y78.253 Z0 F800
G1 X71.729 Y77.883 Z0 F800
G1 X71.926 Y77.524 Z0 F800
G1 X72.114 Y77.17 Z0 F800
G1 X72.274 Y76.974 Z0 F800
G1 X72.532 Y76.496 Z0 F800
G1 X72.701 Y76.287 Z0 F800
G1 X72.731 Y76.131 Z0 F800
G1 X72.799 Y75.994 Z0 F800
G1 X72.893 Y75.876 Z0 F800
G1 X73.004 Y75.774 Z0 F800
G1 X73.068 Y75.609 Z0 F800
G1 X73.294 Y75.339 Z0 F800
G1 X73.368 Y75.167 Z0 F800
G1 X73.791 Y74.553 Z0 F800
G1 X74.151 Y73.899 Z0 F800
G1 X74.474 Y73.221 Z0 F800
G1 X74.784 Y72.539 Z0 F800
G1 X74.814 Y72.295 Z0 F800
G1 X74.878 Y72.064 Z0 F800
G1 X74.97 Y71.843 Z0 F800
G1 X75.081 Y71.631 Z0 F800
G1 X75.106 Y71.3 Z0 F800
G1 X75.113 Y70.956 Z0 F800
G1 X75.132 Y70.791 Z0 F800
G1 X75.174 Y70.636 Z0 F800
G1 X75.248 Y70.495 Z0 F800
G1 X75.363 Y70.373 Z0 F800
G1 Y70.086 Z0 F800
G1 X75.443 Y69.81 Z0 F800
G1 X75.519 Y69.705 Z0 F800
G1 X75.621 Y69.634 Z0 F800
G1 X75.753 Y69.611 Z0 F800
G1 X75.918 Y69.644 Z0 F800
; --- FIX Y Backlash ---
G0 X75.918 Y70.844 F1200
G1 X76.219 Y70.984 Z0 F800
G1 X76.483 Y71.189 Z0 F800
G1 X76.697 Y71.441 Z0 F800
G1 X76.847 Y71.723 Z0 F800
G1 X76.993 Y71.853 Z0 F800
G1 X77.093 Y72.019 Z0 F800
G1 X77.184 Y72.195 Z0 F800
G1 X77.3 Y72.357 Z0 F800
G1 X77.326 Y72.511 Z0 F800
G1 X77.367 Y72.649 Z0 F800
G1 X77.435 Y72.773 Z0 F800
G1 X77.54 Y72.881 Z0 F800
G1 X77.616 Y73.529 Z0 F800
G1 X77.639 Y74.186 Z0 F800
G1 X77.615 Y74.843 Z0 F800
; --- FIX X Backlash ---
G0 X76.515 Y74.843 F1200
G1 X76.449 Y75.494 Z0 F800
G1 X76.307 Y75.75 Z0 F800
G1 X76.224 Y76.031 Z0 F800
G1 X76.143 Y76.315 Z0 F800
G1 X76.007 Y76.581 Z0 F800
G1 X75.986 Y76.774 Z0 F800
G1 X75.933 Y76.958 Z0 F800
G1 X75.841 Y77.124 Z0 F800
G1 X75.705 Y77.26 Z0 F800
G1 X75.639 Y77.498 Z0 F800
G1 X75.388 Y77.917 Z0 F800
G1 X75.317 Y78.157 Z0 F800
G1 X75.177 Y78.414 Z0 F800
G1 X75.035 Y78.667 Z0 F800
G1 X74.904 Y78.923 Z0 F800
G1 X74.794 Y79.192 Z0 F800
G1 X74.692 Y79.344 Z0 F800
G1 X74.625 Y79.524 Z0 F800
G1 X74.547 Y79.703 Z0 F800
G1 X74.413 Y79.852 Z0 F800
G1 X74.153 Y80.318 Z0 F800
G1 X73.871 Y80.758 Z0 F800
M9
M5
G1 Z10 F500
G1 Z10 F800

