G90 ; Force absolute mode
;LightBurn 1.6.04
;Custom GCode device profile, absolute coords
;Bounds: X25.23 Y17.1 to X60.77 Y54.9
G00 G17 G40 G21 G54
M3
G1 Z10 F222
;Cut @ 400 mm/min, 80% power

M8
G0 Z3.5 F222
G0 X34.878 Y18.391 Z3.5
G1 Z0 F222
;Layer C3
; --- FIX X Backlash ---
G0 X34.178 Y18.391 F410
G1 X34.113 Z0 F222
G1 X33.531 Y18.65 Z0 F222
; --- FIX X Backlash ---
G0 X34.231 Y18.65 F410
G1 X35.266 Y19.557 Z0 F222
; --- FIX Y Backlash ---
G0 X35.266 Y19.057 F410
G1 X35.434 Y18.647 Z0 F222
G1 X35.534 Y18.393 Z0 F222
G1 X35.636 Y18.121 Z0 F222
G1 X35.731 Y17.855 Z0 F222
G1 X35.805 Y17.619 Z0 F222
G1 X35.849 Y17.438 Z0 F222
G1 X35.829 Y17.299 Z0 F222
; --- FIX X Backlash ---
G0 X35.129 Y17.299 F410
G1 X35.035 Y17.173 Z0 F222
G1 X34.891 Y17.063 Z0 F222
G1 X34.72 Y16.969 Z0 F222
G1 X34.547 Y16.893 Z0 F222
G1 X34.393 Y16.837 Z0 F222
G1 X34.243 Y16.791 Z0 F222
G1 X34.19 Y16.803 Z0 F222
G1 X34.049 Y16.839 Z0 F222
; --- FIX Y Backlash ---
G0 X34.049 Y17.339 F410
G1 X33.847 Y17.4 Z0 F222
G1 X33.612 Y17.485 Z0 F222
G1 X33.37 Y17.594 Z0 F222
G1 X33.15 Y17.728 Z0 F222
G1 X32.979 Y17.885 Z0 F222
G1 X32.883 Y18.068 Z0 F222
G1 X32.813 Y18.286 Z0 F222
G1 X32.707 Y18.539 Z0 F222
G1 X32.581 Y18.807 Z0 F222
G1 X32.446 Y19.071 Z0 F222
G1 X32.318 Y19.31 Z0 F222
G1 X32.21 Y19.506 Z0 F222
G1 X32.106 Y19.686 Z0 F222
; --- FIX X Backlash ---
G0 X32.806 Y19.686 F410
G1 X33.065 Y19.767 Z0 F222
G1 X33.339 Y19.85 Z0 F222
G1 X33.664 Y19.945 Z0 F222
G1 X34.008 Y20.04 Z0 F222
G1 X34.336 Y20.123 Z0 F222
G1 X34.616 Y20.182 Z0 F222
G1 X34.813 Y20.204 Z0 F222
G1 X36.367 Z0 F222
G1 X36.495 Y20.238 Z0 F222
G1 X36.592 Y20.331 Z0 F222
G1 X36.661 Y20.47 Z0 F222
G1 X36.707 Y20.641 Z0 F222
G1 X36.749 Y21.023 Z0 F222
G1 X36.755 Y21.369 Z0 F222
G1 X36.789 Y21.561 Z0 F222
G1 X36.877 Y21.826 Z0 F222
G1 X37.001 Y22.134 Z0 F222
G1 X37.144 Y22.454 Z0 F222
G1 X37.287 Y22.755 Z0 F222
G1 X37.461 Y23.107 Z0 F222
G1 X37.532 Y23.247 Z0 F222
G1 X37.662 Y23.318 Z0 F222
G1 X37.805 Y23.393 Z0 F222
G1 X37.985 Y23.481 Z0 F222
G1 X38.406 Y23.656 Z0 F222
G1 X38.827 Y23.765 Z0 F222
G1 X39.031 Y23.814 Z0 F222
G1 X39.248 Y23.903 Z0 F222
G1 X39.464 Y24.018 Z0 F222
G1 X39.669 Y24.145 Z0 F222
G1 X39.849 Y24.268 Z0 F222
G1 X39.992 Y24.374 Z0 F222
G1 X40.122 Y24.477 Z0 F222
G1 X40.64 Y25.642 Z0 F222
G1 X41.158 Y26.419 Z0 F222
; --- FIX X Backlash ---
G0 X40.458 Y26.419 F410
G1 X40.263 Y31.468 Z0 F222
G0 Z3.5 F222
; --- FIX X Backlash ---
G0 X40.963 Y31.468 F410
; --- FIX Y Backlash ---
G0 X40.963 Y30.968 F410
G0 X46.531 Y30.548 Z3.5 F222
G1 Z0 F222
; --- FIX X Backlash ---
G0 X45.831 Y30.548 F410
G1 X45.766 Y26.534 Z0 F222
G0 Z3.5 F222
; --- FIX X Backlash ---
G0 X46.466 Y26.534 F410
G0 X49.023 Z3.5
G1 Z0 F222
; --- FIX X Backlash ---
G0 X48.323 Y26.534 F410
; --- FIX Y Backlash ---
G0 X48.323 Y27.034 F410
G1 X48.097 Y31.145 Z0 F222
G0 Z3.5 F222
; --- FIX X Backlash ---
G0 X48.797 Y31.145 F410
; --- FIX Y Backlash ---
G0 X48.797 Y30.645 F410
G0 X51.386 Y30.45 Z3.5
G1 Z0 F222
; --- FIX X Backlash ---
G0 X50.686 Y30.45 F410
G1 X50.622 Y26.178 Z0 F222
G0 Z3.5 F222
; --- FIX X Backlash ---
G0 X51.322 Y26.178 F410
G0 X52.726 Y19.52 Z3.5
G1 Z0 F222
G1 X53.686 Y19.371 Z0 F222
; --- FIX Y Backlash ---
G0 X53.686 Y19.871 F410
G1 X53.643 Y20.556 Z0 F222
; --- FIX X Backlash ---
G0 X52.943 Y20.556 F410
G1 X52.521 Y21.513 Z0 F222
; --- FIX Y Backlash ---
G0 X52.521 Y21.013 F410
G1 X52.021 Y20.545 Z0 F222
G1 X51.006 Y18.906 Z0 F222
; --- FIX X Backlash ---
G0 X51.706 Y18.906 F410
G1 X54.179 Y18.015 Z0 F222
; --- FIX Y Backlash ---
G0 X54.179 Y18.515 F410
G1 X54.594 Y20.021 Z0 F222
; --- FIX X Backlash ---
G0 X53.894 Y20.021 F410
G1 X53.415 Y21.494 Z0 F222
G1 X52.531 Y22.936 Z0 F222
; --- FIX Y Backlash ---
G0 X52.531 Y22.436 F410
G1 X51.157 Y20.934 Z0 F222
G1 X49.989 Y19.228 Z0 F222
G0 Z3.5 F222
G0 X45.378 Y18.021 Z3.5
G1 Z0 F222
G1 X45.29 Y17.996 Z0 F222
G1 X45.19 Y17.964 Z0 F222
G1 X45.062 Y17.92 Z0 F222
G1 X44.75 Y17.789 Z0 F222
G1 X44.407 Y17.6 Z0 F222
G1 X44.233 Y17.512 Z0 F222
G1 X44.057 Y17.462 Z0 F222
G1 X43.883 Y17.441 Z0 F222
G1 X43.719 Z0 F222
G1 X43.57 Y17.457 Z0 F222
G1 X43.442 Y17.477 Z0 F222
G1 X43.341 Y17.495 Z0 F222
G1 X43.274 Y17.503 Z0 F222
G1 X42.74 Y17.422 Z0 F222
G1 X42.303 Y17.341 Z0 F222
; --- FIX Y Backlash ---
G0 X42.303 Y17.841 F410
G1 X41.85 Y18.521 Z0 F222
; --- FIX X Backlash ---
G0 X42.55 Y18.521 F410
G1 X43.557 Y18.658 Z0 F222
G1 X43.939 Y18.714 Z0 F222
G1 X44.284 Y18.767 Z0 F222
G1 X44.548 Y18.812 Z0 F222
G1 X44.635 Y18.83 Z0 F222
G1 X44.686 Y18.844 Z0 F222
G1 X44.79 Y18.884 Z0 F222
G1 X44.968 Y18.948 Z0 F222
G1 X45.197 Y19.026 Z0 F222
G1 X45.459 Y19.111 Z0 F222
G1 X45.731 Y19.193 Z0 F222
G1 X45.992 Y19.263 Z0 F222
G1 X46.223 Y19.312 Z0 F222
G1 X46.401 Y19.33 Z0 F222
G1 X46.544 Y19.292 Z0 F222
; --- FIX Y Backlash ---
G0 X46.544 Y18.792 F410
G1 X46.677 Y18.69 Z0 F222
G1 X46.797 Y18.541 Z0 F222
G1 X46.903 Y18.365 Z0 F222
G1 X46.991 Y18.177 Z0 F222
G1 X47.057 Y17.997 Z0 F222
G1 X47.099 Y17.842 Z0 F222
G1 X47.114 Y17.729 Z0 F222
; --- FIX X Backlash ---
G0 X46.414 Y17.729 F410
G1 X46.358 Y17.512 Z0 F222
G1 X46.236 Y17.256 Z0 F222
G1 X46.17 Y17.139 Z0 F222
G1 X46.057 Y16.953 Z0 F222
G1 X45.107 Y16.774 Z0 F222
G1 X44.741 Y16.709 Z0 F222
G1 X44.405 Y16.652 Z0 F222
G1 X44.14 Y16.612 Z0 F222
G1 X44.046 Y16.6 Z0 F222
G1 X43.986 Y16.596 Z0 F222
G1 X43.759 Y16.63 Z0 F222
; --- FIX Y Backlash ---
G0 X43.759 Y17.13 F410
G1 X43.456 Y17.218 Z0 F222
G1 X43.135 Y17.342 Z0 F222
G1 X42.853 Y17.485 Z0 F222
G1 X42.691 Y17.563 Z0 F222
G1 X42.464 Y17.649 Z0 F222
G1 X42.194 Y17.738 Z0 F222
G1 X41.902 Y17.825 Z0 F222
G1 X41.612 Y17.906 Z0 F222
G1 X41.346 Y17.977 Z0 F222
G1 X41.127 Y18.032 Z0 F222
G1 X40.976 Y18.068 Z0 F222
G1 X40.738 Y18.173 Z0 F222
G1 X40.486 Y18.355 Z0 F222
G1 X40.252 Y18.555 Z0 F222
G1 X40.069 Y18.715 Z0 F222
G1 X40.02 Y18.788 Z0 F222
G1 X40.013 Y18.879 Z0 F222
G1 X40.035 Y18.981 Z0 F222
G1 X40.077 Y19.083 Z0 F222
; --- FIX X Backlash ---
G0 X40.777 Y19.083 F410
G1 X40.829 Y19.178 Z0 F222
G1 X40.878 Y19.257 Z0 F222
G1 X40.931 Y19.33 Z0 F222
; --- FIX Y Backlash ---
G0 X40.931 Y18.83 F410
G1 X41.574 Y18.725 Z0 F222
G1 X42.119 Y18.639 Z0 F222
G1 X42.582 Y18.571 Z0 F222
G1 X42.93 Y18.575 Z0 F222
; --- FIX Y Backlash ---
G0 X42.93 Y19.075 F410
G1 X43.233 Y19.152 Z0 F222
G1 X43.47 Y19.253 Z0 F222
G1 X43.618 Y19.33 Z0 F222
G1 X43.652 Y19.396 Z0 F222
G1 X43.662 Y19.529 Z0 F222
G1 X43.654 Y19.707 Z0 F222
G1 X43.634 Y19.904 Z0 F222
G1 X43.608 Y20.099 Z0 F222
G1 X43.581 Y20.268 Z0 F222
G1 X43.553 Y20.43 Z0 F222
G1 X43.535 Y20.629 Z0 F222
G1 X43.514 Y20.84 Z0 F222
G1 X43.484 Y21.094 Z0 F222
G1 X43.447 Y21.366 Z0 F222
G1 X43.403 Y21.632 Z0 F222
; --- FIX X Backlash ---
G0 X42.703 Y21.632 F410
G1 X42.652 Y21.868 Z0 F222
G1 X42.594 Y22.049 Z0 F222
G1 X42.521 Y22.39 Z0 F222
G1 X42.517 Y22.761 Z0 F222
G1 X42.529 Y22.926 Z0 F222
G1 X42.544 Y23.059 Z0 F222
G1 X42.562 Y23.182 Z0 F222
; --- FIX X Backlash ---
G0 X43.262 Y23.182 F410
G1 X44.168 Y23.538 Z0 F222
; --- FIX Y Backlash ---
G0 X44.168 Y23.038 F410
G1 X44.649 Y22.791 Z0 F222
G1 X45.056 Y22.587 Z0 F222
G1 X45.398 Y22.423 Z0 F222
G1 X45.546 Y22.39 Z0 F222
G1 X45.715 Y22.405 Z0 F222
G1 X45.892 Y22.454 Z0 F222
; --- FIX Y Backlash ---
G0 X45.892 Y22.954 F410
G1 X46.066 Y23.024 Z0 F222
G1 X46.222 Y23.101 Z0 F222
G1 X46.349 Y23.173 Z0 F222
G1 X46.466 Y23.247 Z0 F222
; --- FIX X Backlash ---
G0 X45.766 Y23.247 F410
G1 X45.292 Y23.325 Z0 F222
G1 X45.006 Y23.376 Z0 F222
G1 X44.707 Y23.433 Z0 F222
G1 X44.428 Y23.492 Z0 F222
G1 X44.199 Y23.55 Z0 F222
G1 X44.051 Y23.603 Z0 F222
G1 X43.935 Y23.627 Z0 F222
G1 X43.787 Y23.612 Z0 F222
G1 X43.612 Y23.567 Z0 F222
; --- FIX Y Backlash ---
G0 X43.612 Y23.067 F410
G1 X43.004 Y22.875 Z0 F222
G1 X42.594 Y22.811 Z0 F222
G1 X42.433 Y22.831 Z0 F222
; --- FIX Y Backlash ---
G0 X42.433 Y23.331 F410
G1 X42.33 Y23.388 Z0 F222
G1 X42.274 Y23.473 Z0 F222
G1 X42.254 Y23.582 Z0 F222
G1 X42.275 Y23.844 Z0 F222
G1 X42.303 Y24.121 Z0 F222
G1 X42.324 Y24.269 Z0 F222
; --- FIX X Backlash ---
G0 X43.024 Y24.269 F410
G1 X43.08 Y24.441 Z0 F222
G1 X43.161 Y24.627 Z0 F222
G1 X43.258 Y24.816 Z0 F222
G1 X43.358 Y25 Z0 F222
G1 X43.532 Y25.309 Z0 F222
G1 X43.585 Y25.415 Z0 F222
G1 X43.62 Y25.527 Z0 F222
G1 X43.652 Y25.681 Z0 F222
G1 X43.681 Y25.863 Z0 F222
G1 X43.707 Y26.059 Z0 F222
G1 X43.766 Y26.577 Z0 F222
G1 X43.78 Y26.678 Z0 F222
G1 X43.812 Y27.058 Z0 F222
G1 X43.844 Y27.39 Z0 F222
G1 X43.85 Y27.535 Z0 F222
G1 X43.82 Y27.754 Z0 F222
; --- FIX X Backlash ---
G0 X43.12 Y27.754 F410
G1 X43.053 Y28.009 Z0 F222
G1 X42.95 Y28.264 Z0 F222
G1 X42.897 Y28.406 Z0 F222
G1 X42.857 Y28.583 Z0 F222
G1 X42.829 Y28.783 Z0 F222
G1 X42.812 Y28.996 Z0 F222
G1 X42.804 Y29.415 Z0 F222
G1 X42.821 Y29.753 Z0 F222
; --- FIX X Backlash ---
G0 X43.521 Y29.753 F410
G1 X43.602 Y30.538 Z0 F222
G1 X43.682 Y31.274 Z0 F222
G1 X43.687 Y31.417 Z0 F222
G1 X43.68 Y31.619 Z0 F222
G1 X43.664 Y31.863 Z0 F222
G1 X43.642 Y32.136 Z0 F222
; --- FIX X Backlash ---
G0 X42.942 Y32.136 F410
G1 X42.891 Y32.708 Z0 F222
G1 X42.853 Y33.216 Z0 F222
G1 X42.784 Y33.629 Z0 F222
G1 X42.663 Y33.969 Z0 F222
G1 X42.601 Y34.1 Z0 F222
G1 X42.548 Y34.199 Z0 F222
G1 X42.497 Y34.284 Z0 F222
G1 X41.623 Z0 F222
; --- FIX Y Backlash ---
G0 X41.623 Y33.784 F410
G1 X41.04 Y33.704 Z0 F222
G1 X40.361 Y33.623 Z0 F222
; --- FIX Y Backlash ---
G0 X40.361 Y34.123 F410
G1 X40.225 Y34.188 Z0 F222
G1 X40.053 Y34.333 Z0 F222
G1 X39.972 Y34.41 Z0 F222
G1 X39.843 Y34.543 Z0 F222
; --- FIX X Backlash ---
G0 X40.543 Y34.543 F410
G1 X40.769 Y35.32 Z0 F222
G1 X40.996 Y36.356 Z0 F222
G0 Z3.5 F222
; --- FIX Y Backlash ---
G0 X40.996 Y35.856 F410
G0 X41.002 Y35.686 Z3.5
G1 Z0 F222
; --- FIX X Backlash ---
G0 X40.302 Y35.686 F410
; --- FIX Y Backlash ---
G0 X40.302 Y36.186 F410
G1 X40.165 Y41.313 Z0 F222
G0 Z3.5 F222
; --- FIX X Backlash ---
G0 X40.865 Y41.313 F410
; --- FIX Y Backlash ---
G0 X40.865 Y40.813 F410
G0 X40.956 Y40.676 Z3.5
G1 Z0 F222
G1 X40.911 Y37.929 Z0 F222
G1 X41.185 Y36.418 Z0 F222
; --- FIX X Backlash ---
G0 X40.485 Y36.418 F410
G1 X40.165 Y34.725 Z0 F222
G0 Z3.5 F222
; --- FIX X Backlash ---
G0 X40.865 Y34.725 F410
; --- FIX Y Backlash ---
G0 X40.865 Y35.225 F410
G0 X43.52 Y36.918 Z3.5
G1 Z0 F222
G1 X43.611 Y39.573 Z0 F222
; --- FIX X Backlash ---
G0 X42.911 Y39.573 F410
G1 X42.82 Y41.725 Z0 F222
G1 X42.815 Y41.956 Z0 F222
G1 X42.803 Y42.196 Z0 F222
G1 X42.78 Y42.475 Z0 F222
G1 X42.742 Y42.76 Z0 F222
G1 X42.685 Y43.019 Z0 F222
G1 X42.605 Y43.219 Z0 F222
G1 X42.499 Y43.327 Z0 F222
G1 X42.346 Y43.396 Z0 F222
G1 X42.143 Y43.492 Z0 F222
G1 X41.67 Y43.722 Z0 F222
G1 X41.08 Y44.014 Z0 F222
; --- FIX Y Backlash ---
G0 X41.08 Y43.514 F410
G1 X39.295 Y43.285 Z0 F222
; --- FIX Y Backlash ---
G0 X39.295 Y43.785 F410
G1 X37.83 Y44.197 Z0 F222
G1 X37.144 Y44.975 Z0 F222
G1 X37.098 Y46.12 Z0 F222
; --- FIX X Backlash ---
G0 X37.798 Y46.12 F410
G1 X39.585 Y46.707 Z0 F222
; --- FIX X Backlash ---
G0 X38.885 Y46.707 F410
G1 X37.098 Y46.989 Z0 F222
; --- FIX X Backlash ---
G0 X37.798 Y46.989 F410
G1 X38.329 Y48.27 Z0 F222
; --- FIX X Backlash ---
G0 X37.629 Y48.27 F410
; --- FIX Y Backlash ---
G0 X37.629 Y47.77 F410
G1 X36.32 Y46.169 Z0 F222
; --- FIX Y Backlash ---
G0 X36.32 Y46.669 F410
G1 X35.923 Y48.426 Z0 F222
; --- FIX Y Backlash ---
G0 X35.923 Y47.926 F410
G1 X35.725 Y46.032 Z0 F222
; --- FIX Y Backlash ---
G0 X35.725 Y46.532 F410
G1 X34.627 Y47.61 Z0 F222
; --- FIX X Backlash ---
G0 X35.327 Y47.61 F410
; --- FIX Y Backlash ---
G0 X35.327 Y47.11 F410
G1 X36.791 Y45.528 Z0 F222
; --- FIX X Backlash ---
G0 X36.091 Y45.528 F410
G1 X34.372 Y44.795 Z0 F222
; --- FIX X Backlash ---
G0 X35.072 Y44.795 F410
; --- FIX Y Backlash ---
G0 X35.072 Y45.295 F410
G1 X37.157 Y45.708 Z0 F222
; --- FIX X Backlash ---
G0 X36.457 Y45.708 F410
; --- FIX Y Backlash ---
G0 X36.457 Y45.208 F410
G1 X36.365 Y43.697 Z0 F222
; --- FIX X Backlash ---
G0 X37.065 Y43.697 F410
G1 X37.981 Y43.422 Z0 F222
G0 Z3.5 F222
; --- FIX X Backlash ---
G0 X37.281 Y43.422 F410
; --- FIX Y Backlash ---
G0 X37.281 Y43.922 F410
G0 X30.585 Y44.416 Z3.5
G1 Z0 F222
; --- FIX X Backlash ---
G0 X31.285 Y44.416 F410
G1 X31.373 Y44.591 Z0 F222
G1 X31.467 Y44.766 Z0 F222
G1 X31.58 Y44.961 Z0 F222
G1 X31.701 Y45.148 Z0 F222
G1 X31.82 Y45.296 Z0 F222
G1 X31.926 Y45.378 Z0 F222
G1 X32.008 Y45.365 Z0 F222
; --- FIX Y Backlash ---
G0 X32.008 Y44.865 F410
G1 X32.154 Y44.708 Z0 F222
G1 X32.292 Y44.553 Z0 F222
G1 X32.407 Y44.413 Z0 F222
G1 X32.483 Y44.304 Z0 F222
G1 X32.503 Y44.168 Z0 F222
G1 X32.477 Y43.951 Z0 F222
; --- FIX X Backlash ---
G0 X31.777 Y43.951 F410
G1 X31.717 Y43.683 Z0 F222
G1 X31.637 Y43.394 Z0 F222
G1 X31.551 Y43.116 Z0 F222
G1 X31.441 Y42.787 Z0 F222
G1 X31.394 Y42.654 Z0 F222
; --- FIX Y Backlash ---
G0 X31.394 Y43.154 F410
G1 X31.188 Y43.228 Z0 F222
G1 X30.971 Y43.311 Z0 F222
G1 X30.715 Y43.413 Z0 F222
G1 X30.446 Y43.527 Z0 F222
G1 X30.193 Y43.645 Z0 F222
G1 X29.982 Y43.761 Z0 F222
G1 X29.841 Y43.866 Z0 F222
G1 X29.772 Y43.991 Z0 F222
G1 X29.753 Y44.164 Z0 F222
G1 X29.773 Y44.37 Z0 F222
G1 X29.82 Y44.598 Z0 F222
; --- FIX X Backlash ---
G0 X30.52 Y44.598 F410
G1 X30.767 Y45.452 Z0 F222
G1 X30.814 Y45.584 Z0 F222
G1 X30.878 Y45.674 Z0 F222
G1 X30.952 Y45.734 Z0 F222
G1 X31.026 Y45.775 Z0 F222
G1 X31.095 Y45.811 Z0 F222
G1 X31.15 Y45.852 Z0 F222
G1 X31.183 Y45.912 Z0 F222
G1 X31.188 Y46.002 Z0 F222
G1 X31.163 Y46.148 Z0 F222
G1 X31.114 Y46.358 Z0 F222
; --- FIX X Backlash ---
G0 X30.414 Y46.358 F410
G1 X30.346 Y46.617 Z0 F222
G1 X30.261 Y46.908 Z0 F222
G1 X30.06 Y47.532 Z0 F222
G1 X29.841 Y48.106 Z0 F222
G1 X29.727 Y48.345 Z0 F222
G1 X29.609 Y48.552 Z0 F222
G1 X29.489 Y48.731 Z0 F222
G1 X29.371 Y48.883 Z0 F222
G1 X29.158 Y49.117 Z0 F222
G1 X28.999 Y49.271 Z0 F222
G1 X28.554 Y49.85 Z0 F222
G1 X28.06 Y50.501 Z0 F222
G1 X27.909 Y50.744 Z0 F222
G1 X27.797 Y51.056 Z0 F222
G1 X27.728 Y51.398 Z0 F222
G1 X27.704 Y51.731 Z0 F222
G1 X27.738 Y52.093 Z0 F222
; --- FIX X Backlash ---
G0 X28.438 Y52.093 F410
G1 X28.505 Y52.512 Z0 F222
G1 X28.554 Y52.938 Z0 F222
G1 X28.534 Y53.317 Z0 F222
G1 X28.488 Y53.756 Z0 F222
G1 X28.481 Y54.28 Z0 F222
G1 X28.486 Y54.521 Z0 F222
G1 X28.501 Y54.904 Z0 F222
G0 Z3.5 F222
; --- FIX X Backlash ---
G0 X27.801 Y54.904 F410
G0 X25.697 Y54.871 Z3.5
G1 Z0 F222
; --- FIX Y Backlash ---
G0 X25.697 Y54.371 F410
G1 X25.653 Y53.348 Z0 F222
G1 X25.639 Y52.95 Z0 F222
G1 X25.629 Y52.582 Z0 F222
G1 X25.626 Y52.286 Z0 F222
G1 Y52.179 Z0 F222
G1 X25.633 Y52.105 Z0 F222
; --- FIX X Backlash ---
G0 X26.333 Y52.105 F410
G1 X26.396 Y51.556 Z0 F222
G1 X26.422 Y51.312 Z0 F222
G1 X26.46 Y50.822 Z0 F222
G1 Y50.422 Z0 F222
G1 X26.443 Y50.223 Z0 F222
G1 X26.413 Y49.961 Z0 F222
; --- FIX X Backlash ---
G0 X25.713 Y49.961 F410
G1 X25.637 Y49.358 Z0 F222
G1 X25.535 Y48.609 Z0 F222
G1 X25.492 Y48.431 Z0 F222
G1 X25.45 Y48.248 Z0 F222
G1 X25.406 Y48.035 Z0 F222
G1 X25.368 Y47.819 Z0 F222
G1 X25.344 Y47.626 Z0 F222
G1 Y47.482 Z0 F222
G1 X25.374 Y47.412 Z0 F222
; --- FIX X Backlash ---
G0 X26.074 Y47.412 F410
G1 X26.235 Y47.378 Z0 F222
G1 X26.49 Y47.359 Z0 F222
G1 X26.788 Y47.334 Z0 F222
G1 X27.077 Y47.282 Z0 F222
G1 X27.399 Y47.162 Z0 F222
G1 X27.761 Y46.975 Z0 F222
G1 X27.923 Y46.87 Z0 F222
G1 X28.056 Y46.763 Z0 F222
G1 X28.145 Y46.662 Z0 F222
G1 X28.178 Y46.57 Z0 F222
G1 X28.188 Y46.463 Z0 F222
G1 X28.215 Y46.319 Z0 F222
G1 X28.249 Y46.15 Z0 F222
G1 X28.283 Y45.967 Z0 F222
G1 X28.307 Y45.783 Z0 F222
G1 X28.314 Y45.61 Z0 F222
G1 X28.295 Y45.458 Z0 F222
; --- FIX X Backlash ---
G0 X27.595 Y45.458 F410
G1 X27.542 Y45.34 Z0 F222
G1 X27.438 Y45.245 Z0 F222
G1 X27.281 Y45.156 Z0 F222
G1 X27.092 Y45.076 Z0 F222
G1 X26.887 Y45.008 Z0 F222
G1 X26.685 Y44.956 Z0 F222
G1 X26.505 Y44.921 Z0 F222
G1 X26.363 Y44.908 Z0 F222
G1 X26.28 Y44.919 Z0 F222
; --- FIX Y Backlash ---
G0 X26.28 Y45.419 F410
G1 X25.92 Y45.634 Z0 F222
G1 X25.535 Y45.873 Z0 F222
G1 X25.446 Y45.942 Z0 F222
G1 X25.31 Y46.065 Z0 F222
G1 X25.147 Y46.222 Z0 F222
G1 X24.973 Y46.395 Z0 F222
G1 X24.666 Y46.706 Z0 F222
G1 X24.532 Y46.844 Z0 F222
; --- FIX X Backlash ---
G0 X25.232 Y46.844 F410
G1 X25.371 Y46.889 Z0 F222
G1 X25.685 Y46.985 Z0 F222
G1 X25.861 Y47.035 Z0 F222
G1 X26.024 Y47.076 Z0 F222
G1 X26.155 Y47.101 Z0 F222
G1 X26.235 Z0 F222
G1 X26.305 Y47.071 Z0 F222
; --- FIX Y Backlash ---
G0 X26.305 Y46.571 F410
G1 X26.406 Y46.508 Z0 F222
G1 X26.528 Y46.424 Z0 F222
G1 X26.656 Y46.331 Z0 F222
G1 X26.882 Y46.161 Z0 F222
G1 X26.98 Y46.085 Z0 F222
G1 X27.271 Y45.793 Z0 F222
G0 Z3.5 F222
G0 X32.463 Y36.626 Z3.5
G1 Z0 F222
; --- FIX X Backlash ---
G0 X31.763 Y36.626 F410
G1 X31.362 Y33.561 Z0 F222
; --- FIX Y Backlash ---
G0 X31.362 Y34.061 F410
G1 X31.118 Y34.446 Z0 F222
G1 X31.127 Y37.989 Z0 F222
G1 X30.65 Y38.222 Z0 F222
; --- FIX Y Backlash ---
G0 X30.65 Y37.722 F410
G1 X30.575 Y36.082 Z0 F222
G1 X30.552 Y34.358 Z0 F222
G1 X30.14 Y33.077 Z0 F222
; --- FIX Y Backlash ---
G0 X30.14 Y33.577 F410
G1 X29.819 Y37.285 Z0 F222
; --- FIX X Backlash ---
G0 X30.519 Y37.285 F410
G1 X30.657 Y40.077 Z0 F222
G1 X31.435 Y40.123 Z0 F222
; --- FIX Y Backlash ---
G0 X31.435 Y39.623 F410
G1 X32.076 Y38.661 Z0 F222
G1 X33.266 Y37.197 Z0 F222
G1 X34.914 Y36.739 Z0 F222
; --- FIX Y Backlash ---
G0 X34.914 Y37.239 F410
G1 X36.928 Y37.376 Z0 F222
; --- FIX Y Backlash ---
G0 X36.928 Y36.876 F410
G1 X38.118 Y36.052 Z0 F222
; --- FIX Y Backlash ---
G0 X38.118 Y36.552 F410
G1 Y41.267 Z0 F222
; --- FIX Y Backlash ---
G0 X38.118 Y40.767 F410
G1 X38.805 Y40.538 Z0 F222
; --- FIX X Backlash ---
G0 X38.105 Y40.538 F410
G1 X37.739 Y36.968 Z0 F222
; --- FIX X Backlash ---
G0 X38.439 Y36.968 F410
G1 X38.713 Y35.411 Z0 F222
; --- FIX X Backlash ---
G0 X38.013 Y35.411 F410
G1 X37.693 Y34.313 Z0 F222
G1 X37.647 Y34.13 Z0 F222
; --- FIX X Backlash ---
G0 X38.347 Y34.13 F410
G1 X38.622 Y33.031 Z0 F222
; --- FIX X Backlash ---
G0 X37.922 Y33.031 F410
G1 X37.784 Y31.52 Z0 F222
G1 Y26.21 Z0 F222
G0 Z3.5 F222
; --- FIX X Backlash ---
G0 X38.484 Y26.21 F410
; --- FIX Y Backlash ---
G0 X38.484 Y26.71 F410
G0 X46.221 Y36.69 Z3.5
G1 Z0 F222
G1 X46.358 Y39.894 Z0 F222
; --- FIX X Backlash ---
G0 X45.658 Y39.894 F410
G1 X45.383 Y41.771 Z0 F222
; --- FIX X Backlash ---
G0 X46.083 Y41.771 F410
G1 X46.495 Y43.007 Z0 F222
G1 X46.707 Y43.63 Z0 F222
G1 X46.837 Y44.03 Z0 F222
G1 X47.024 Y44.667 Z0 F222
G1 X47.36 Y45.753 Z0 F222
G1 X47.471 Y46.128 Z0 F222
G1 X47.56 Y46.455 Z0 F222
G1 X47.592 Y46.59 Z0 F222
G1 X47.615 Y46.701 Z0 F222
G1 X47.625 Y46.784 Z0 F222
G1 X47.622 Y46.834 Z0 F222
; --- FIX X Backlash ---
G0 X46.922 Y46.834 F410
G1 X46.436 Y48.363 Z0 F222
G1 X44.971 Y48.5 Z0 F222
; --- FIX Y Backlash ---
G0 X44.971 Y48 F410
G1 X44.841 Y47.89 Z0 F222
G1 X44.525 Y47.615 Z0 F222
G1 X44.266 Y47.38 Z0 F222
G1 X44.008 Y47.132 Z0 F222
G1 X43.782 Y46.895 Z0 F222
G1 X43.692 Y46.789 Z0 F222
G1 X43.622 Y46.694 Z0 F222
G1 X43.577 Y46.615 Z0 F222
G1 X43.562 Y46.553 Z0 F222
G1 Y46.457 Z0 F222
G1 X43.565 Y46.293 Z0 F222
G1 X43.575 Y46.083 Z0 F222
G1 X43.598 Y45.852 Z0 F222
G1 X43.637 Y45.624 Z0 F222
; --- FIX X Backlash ---
G0 X44.337 Y45.624 F410
G1 X44.398 Y45.423 Z0 F222
G1 X44.484 Y45.272 Z0 F222
G1 X44.6 Y45.197 Z0 F222
G1 X45.219 Y45.067 Z0 F222
G1 X45.722 Y44.958 Z0 F222
G1 X45.934 Y44.908 Z0 F222
G1 X46.091 Y44.865 Z0 F222
G1 X46.17 Y44.834 Z0 F222
G1 X46.206 Y44.847 Z0 F222
; --- FIX Y Backlash ---
G0 X46.206 Y45.347 F410
G1 X46.235 Y45.435 Z0 F222
G1 X46.258 Y45.587 Z0 F222
G1 X46.276 Y45.791 Z0 F222
G1 X46.298 Y46.304 Z0 F222
G1 X46.307 Y46.876 Z0 F222
G1 X46.297 Y46.973 Z0 F222
G1 X46.268 Y47.049 Z0 F222
G1 X46.221 Y47.106 Z0 F222
; --- FIX X Backlash ---
G0 X45.521 Y47.106 F410
G1 X45.461 Y47.146 Z0 F222
G1 X45.31 Y47.182 Z0 F222
G1 X45.136 Y47.174 Z0 F222
G1 X44.962 Y47.139 Z0 F222
G1 X44.811 Y47.093 Z0 F222
G1 X44.703 Y47.054 Z0 F222
G1 X44.662 Y47.037 Z0 F222
G0 Z3.5 F222
; --- FIX X Backlash ---
G0 X45.362 Y47.037 F410
; --- FIX Y Backlash ---
G0 X45.362 Y46.537 F410
G0 X48.967 Y41.545 Z3.5
G1 Z0 F222
; --- FIX X Backlash ---
G0 X48.267 Y41.545 F410
G1 X48.084 Y40.905 Z0 F222
G1 X47.855 Y37.013 Z0 F222
G0 Z3.5 F222
; --- FIX X Backlash ---
G0 X48.555 Y37.013 F410
; --- FIX Y Backlash ---
G0 X48.555 Y37.513 F410
G0 X51.394 Y37.605 Z3.5
G1 Z0 F222
; --- FIX X Backlash ---
G0 X50.694 Y37.605 F410
G1 X50.465 Y40.26 Z0 F222
; --- FIX X Backlash ---
G0 X51.165 Y40.26 F410
G1 X51.302 Y41.862 Z0 F222
G0 Z3.5 F222
G0 X53.682 Y42.045 Z3.5
G1 Z0 F222
; --- FIX Y Backlash ---
G0 X53.682 Y41.545 F410
G1 X53.741 Y41.205 Z0 F222
G1 X53.877 Y40.435 Z0 F222
G1 X53.955 Y40.008 Z0 F222
G1 X54.03 Y39.614 Z0 F222
G1 X54.094 Y39.302 Z0 F222
G1 X54.12 Y39.192 Z0 F222
G1 X54.14 Y39.119 Z0 F222
G1 X54.156 Y39.05 Z0 F222
G1 X54.168 Y38.948 Z0 F222
G1 X54.178 Y38.819 Z0 F222
G1 X54.186 Y38.667 Z0 F222
G1 X54.195 Y38.318 Z0 F222
G1 Y37.94 Z0 F222
G1 Y37.576 Z0 F222
G1 X54.186 Y36.968 Z0 F222
G0 Z3.5 F222
; --- FIX Y Backlash ---
G0 X54.186 Y37.468 F410
G0 X56.63 Y48.009 Z3.5
G1 Z0 F222
; --- FIX Y Backlash ---
G0 X56.63 Y47.509 F410
G1 X56.902 Y47.172 Z0 F222
G1 X57.152 Y46.777 Z0 F222
G1 X57.255 Y46.596 Z0 F222
G1 X57.336 Y46.448 Z0 F222
G1 X57.407 Y46.311 Z0 F222
; --- FIX X Backlash ---
G0 X56.707 Y46.311 F410
G1 X56.577 Y45.243 Z0 F222
G1 X56.447 Y45.171 Z0 F222
G1 X56.321 Y45.095 Z0 F222
G1 X56.189 Y45.004 Z0 F222
G1 X56.075 Y44.91 Z0 F222
G1 X56.004 Y44.82 Z0 F222
G1 X56.001 Y44.744 Z0 F222
; --- FIX X Backlash ---
G0 X56.701 Y44.744 F410
G1 X56.792 Y44.693 Z0 F222
G1 X56.969 Y44.666 Z0 F222
G1 X57.194 Y44.657 Z0 F222
G1 X57.444 Y44.66 Z0 F222
G1 X57.698 Y44.673 Z0 F222
G1 X57.934 Y44.689 Z0 F222
G1 X58.13 Y44.707 Z0 F222
G1 X58.313 Y44.725 Z0 F222
; --- FIX Y Backlash ---
G0 X58.313 Y45.225 F410
G1 X58.532 Y45.451 Z0 F222
G1 X58.661 Y45.589 Z0 F222
G1 X58.794 Y45.737 Z0 F222
G1 X58.914 Y45.881 Z0 F222
G1 X59.007 Y46.006 Z0 F222
G1 X59.058 Y46.099 Z0 F222
G1 X59.113 Y46.26 Z0 F222
G1 X59.187 Y46.435 Z0 F222
G1 X59.285 Y46.604 Z0 F222
G1 X59.414 Y46.747 Z0 F222
G1 X59.521 Y46.786 Z0 F222
G1 X59.683 Y46.79 Z0 F222
G1 X59.878 Y46.766 Z0 F222
G1 X60.085 Y46.726 Z0 F222
G1 X60.284 Y46.679 Z0 F222
G1 X60.452 Y46.633 Z0 F222
G1 X60.611 Y46.585 Z0 F222
G1 X60.662 Y46.615 Z0 F222
G1 X60.745 Y46.702 Z0 F222
G1 X60.768 Y46.766 Z0 F222
G1 X60.762 Y46.844 Z0 F222
G1 X60.714 Y46.935 Z0 F222
; --- FIX X Backlash ---
G0 X60.014 Y46.935 F410
G1 X59.911 Y47.038 Z0 F222
G1 X59.625 Y47.291 Z0 F222
G1 X59.341 Y47.584 Z0 F222
G1 X59.22 Y47.731 Z0 F222
G1 X59.124 Y47.871 Z0 F222
G1 X59.06 Y47.998 Z0 F222
G1 X59.038 Y48.106 Z0 F222
G1 X59.011 Y48.342 Z0 F222
G1 X58.924 Y48.608 Z0 F222
G1 X58.854 Y48.728 Z0 F222
G1 X58.764 Y48.825 Z0 F222
G1 X58.653 Y48.891 Z0 F222
G1 X58.52 Y48.915 Z0 F222
G1 X58.153 Y48.875 Z0 F222
; --- FIX Y Backlash ---
G0 X58.153 Y48.375 F410
G1 X57.727 Y48.286 Z0 F222
G1 X57.532 Y48.238 Z0 F222
G1 X57.373 Y48.197 Z0 F222
G1 X57.225 Y48.156 Z0 F222
G1 X56.577 Y47.638 Z0 F222
; --- FIX X Backlash ---
G0 X57.277 Y47.638 F410
G1 X57.345 Y47.575 Z0 F222
G1 X57.504 Y47.42 Z0 F222
G1 X57.687 Y47.229 Z0 F222
G1 X57.828 Y47.056 Z0 F222
G1 X57.876 Y46.951 Z0 F222
G1 X57.923 Y46.797 Z0 F222
G1 X57.967 Y46.612 Z0 F222
G1 X58.006 Y46.416 Z0 F222
G1 X58.039 Y46.23 Z0 F222
G1 X58.064 Y46.073 Z0 F222
G1 X58.087 Y45.923 Z0 F222
; --- FIX Y Backlash ---
G0 X58.087 Y46.423 F410
G1 X58.637 Y47.167 Z0 F222
G1 X58.831 Y48.041 Z0 F222
; --- FIX X Backlash ---
G0 X58.131 Y48.041 F410
G1 X57.484 Y48.106 Z0 F222
; --- FIX Y Backlash ---
G0 X57.484 Y47.606 F410
G1 X57.419 Y47.509 Z0 F222
M9
M5
G1 Z10 F222
G1 Z10 F222

