;LightBurn 1.6.04
;Custom GCode device profile, absolute coords
;Bounds: X8 Y7.51 to X48 Y38.49
G00 G17 G40 G21 G54
G90
M3
G1 Z10 F500
;Offset @ 555 mm/min, 90% power

M8
G0 Z3.5 F500
G0 X16.21 Y11.282 Z3.5 
G1 Z0 F500
;Layer C1 Pass 1 of 2
G1 X16.193 Y11.691 Z0 S900 F800
G1 X15.869 Y11.667 Z0 F800
G1 X16.232 Y11.176 Z0 F800
G1 X16.21 Y11.282 Z0 F800
G0 Z3.5 F500
G0 X16.271 Y12.199 Z3.5 F555
G1 Z0 F500
G1 X15.438 Y12.135 Z0 F800
G1 X14.932 Y12.13 Z0 F800
G1 X14.42 Y12.155 Z0 F800
G1 X13.875 Y12.222 Z0 F800
G1 X13.291 Y12.348 Z0 F800
G1 X12.852 Y12.497 Z0 F800
G1 Y12.367 Z0 F800
G1 X13.269 Y12.298 Z0 F800
G1 X13.721 Y12.203 Z0 F800
G1 X14.279 Y12.069 Z0 F800
G1 X14.863 Y11.834 Z0 F800
G1 X15.48 Y11.352 Z0 F800
G1 X15.942 Y10.727 Z0 F800
G1 X16.164 Y10.137 Z0 F800
G1 X16.286 Z0 F800
G1 X17.052 Z0 F800
G1 X16.859 Y10.611 Z0 F800
G1 X16.708 Y11.343 Z0 F800
G1 X16.68 Y12.024 Z0 F800
G1 X16.699 Y12.256 Z0 F800
G1 X16.271 Y12.199 Z0 F800
G0 Z3.5 F500
G0 X13.611 Y11.715 Z3.5 
G1 Z0 F500
G1 X14.127 Y11.591 Z0 F800
G1 X14.611 Y11.397 Z0 F800
G1 X15.119 Y11 Z0 F800
G1 X15.499 Y10.486 Z0 F800
G1 X15.707 Y9.932 Z0 F800
G1 X15.748 Y9.639 Z0 F800
G1 X16.284 Z0 F800
G1 X17.918 Y9.633 Z0 F800
G1 X17.594 Y10.128 Z0 F800
G1 X17.339 Y10.757 Z0 F800
G1 X17.207 Y11.404 Z0 F800
G1 X17.181 Y12.014 Z0 F800
G1 X17.229 Y12.588 Z0 F800
G1 X17.272 Y12.833 Z0 F800
G1 X16.875 Y12.784 Z0 F800
G1 X16.219 Y12.696 Z0 F800
G1 X15.417 Y12.635 Z0 F800
G1 X14.941 Y12.63 Z0 F800
G1 X14.462 Y12.654 Z0 F800
G1 X13.958 Y12.715 Z0 F800
G1 X13.424 Y12.83 Z0 F800
G1 X12.853 Y13.025 Z0 F800
G1 X12.352 Y13.288 Z0 F800
G1 Y11.919 Z0 F800
G1 X12.694 Y11.886 Z0 F800
G1 X13.177 Y11.806 Z0 F800
G1 X13.611 Y11.715 Z0 F800
G0 Z3.5 F500
G0 X17.82 Y10.902 Z3.5 
G1 Z0 F500
G1 X17.704 Y11.466 Z0 F800
G1 X17.682 Y12.003 Z0 F800
G1 X17.725 Y12.523 Z0 F800
G1 X17.815 Y13.034 Z0 F800
G1 X17.883 Y13.306 Z0 F800
G1 Y13.389 Z0 F800
G1 X17.674 Y13.375 Z0 F800
G1 X17.273 Y13.337 Z0 F800
G1 X16.825 Y13.282 Z0 F800
G1 X16.167 Y13.194 Z0 F800
G1 X15.395 Y13.135 Z0 F800
G1 X14.951 Y13.13 Z0 F800
G1 X14.505 Y13.152 Z0 F800
G1 X14.041 Y13.208 Z0 F800
G1 X13.558 Y13.313 Z0 F800
G1 X13.05 Y13.486 Z0 F800
G1 X12.527 Y13.76 Z0 F800
G1 X12.021 Y14.167 Z0 F800
G1 X11.852 Y14.384 Z0 F800
G1 Y11.444 Z0 F800
G1 X12.133 Y11.439 Z0 F800
G1 X12.628 Y11.39 Z0 F800
G1 X13.085 Y11.314 Z0 F800
G1 X13.501 Y11.227 Z0 F800
G1 X13.975 Y11.114 Z0 F800
G1 X14.359 Y10.959 Z0 F800
G1 X14.757 Y10.648 Z0 F800
G1 X15.055 Y10.245 Z0 F800
G1 X15.219 Y9.808 Z0 F800
G1 X15.286 Y9.326 Z0 F800
G1 X15.282 Y9.14 Z0 F800
G1 X16.282 Y9.137 Z0 F800
G1 X19.29 Y9.13 Z0 F800
G1 X19.243 Y9.15 Z0 F800
G1 X18.782 Y9.454 Z0 F800
G1 X18.364 Y9.865 Z0 F800
G1 X18.039 Y10.361 Z0 F800
G1 X17.82 Y10.902 Z0 F800
G0 Z3.5 F500
G0 X16.75 Y13.776 Z3.5 
G1 Z0 F500
G1 X16.114 Y13.691 Z0 F800
G1 X15.374 Y13.635 Z0 F800
G1 X14.961 Y13.631 Z0 F800
G1 X14.547 Y13.651 Z0 F800
G1 X14.124 Y13.702 Z0 F800
G1 X13.692 Y13.795 Z0 F800
G1 X13.249 Y13.946 Z0 F800
G1 X12.802 Y14.18 Z0 F800
G1 X12.38 Y14.52 Z0 F800
G1 X12.025 Y14.977 Z0 F800
G1 X11.789 Y15.524 Z0 F800
G1 X11.692 Y16.111 Z0 F800
G1 X11.717 Y16.708 Z0 F800
G1 X11.795 Y17.072 Z0 F800
G1 Y18.693 Z0 F800
G1 X11.423 Y18.7 Z0 F800
G1 X10.952 Z0 F800
G1 X10.549 Y18.682 Z0 F800
G1 X10.273 Y18.654 Z0 F800
G1 X10.542 Y18.544 Z0 F800
G1 X10.93 Y18.235 Z0 F800
G1 X11.135 Y17.948 Z0 F800
G1 X11.26 Y17.674 Z0 F800
G1 X11.332 Y17.394 Z0 F800
G1 X11.352 Y17.152 Z0 F800
G1 Y10.924 Z0 F800
G1 X11.616 Y10.948 Z0 F800
G1 X12.104 Y10.939 Z0 F800
G1 X12.563 Y10.894 Z0 F800
G1 X12.993 Y10.823 Z0 F800
G1 X13.392 Y10.739 Z0 F800
G1 X13.823 Y10.636 Z0 F800
G1 X14.106 Y10.522 Z0 F800
G1 X14.395 Y10.296 Z0 F800
G1 X14.612 Y10.003 Z0 F800
G1 X14.731 Y9.684 Z0 F800
G1 X14.785 Y9.297 Z0 F800
G1 X14.777 Y8.938 Z0 F800
G1 X14.718 Y8.642 Z0 F800
G1 X16.28 Y8.637 Z0 F800
G1 X22.201 Y8.624 Z0 F800
G1 X22.25 Z0 F800
G1 X22.247 Y8.637 Z0 F800
G1 X22.187 Y8.951 Z0 F800
G1 X22.134 Y9.342 Z0 F800
G1 X21.451 Y9.257 Z0 F800
G1 X20.702 Y9.254 Z0 F800
G1 X20.284 Y9.312 Z0 F800
G1 X19.881 Y9.419 Z0 F800
G1 X19.481 Y9.592 Z0 F800
G1 X19.097 Y9.845 Z0 F800
G1 X18.753 Y10.184 Z0 F800
G1 X18.484 Y10.594 Z0 F800
G1 X18.3 Y11.047 Z0 F800
G1 X18.202 Y11.527 Z0 F800
G1 X18.182 Y11.993 Z0 F800
G1 X18.221 Y12.459 Z0 F800
G1 X18.305 Y12.929 Z0 F800
G1 X18.386 Y13.252 Z0 F800
G1 X18.379 Y13.46 Z0 F800
G1 X18.363 Y13.732 Z0 F800
G1 X18.345 Y13.897 Z0 F800
G1 X18.244 Y13.901 Z0 F800
G1 X17.967 Y13.896 Z0 F800
G1 X17.625 Y13.874 Z0 F800
G1 X17.242 Y13.836 Z0 F800
G1 X16.75 Y13.776 Z0 F800
G0 Z3.5 F500
G0 X15.352 Y14.134 Z3.5 
G1 Z0 F500
G1 X14.971 Y14.131 Z0 F800
G1 X14.589 Y14.149 Z0 F800
G1 X14.207 Y14.196 Z0 F800
G1 X13.826 Y14.278 Z0 F800
G1 X13.446 Y14.407 Z0 F800
G1 X13.078 Y14.601 Z0 F800
G1 X12.739 Y14.873 Z0 F800
G1 X12.459 Y15.233 Z0 F800
G1 X12.272 Y15.666 Z0 F800
G1 X12.194 Y16.142 Z0 F800
G1 X12.215 Y16.645 Z0 F800
G1 X12.295 Y17.019 Z0 F800
G1 Y19.177 Z0 F800
G1 X12.22 Y19.181 Z0 F800
G1 X11.923 Y19.191 Z0 F800
G1 X11.43 Y19.2 Z0 F800
G1 X10.945 Z0 F800
G1 X10.509 Y19.181 Z0 F800
G1 X10.127 Y19.142 Z0 F800
G1 X9.55 Y19.075 Z0 F800
G1 X9.017 Y19.003 Z0 F800
G1 X8.832 Y18.957 Z0 F800
G1 X8.701 Y18.906 Z0 F800
G1 X8.621 Y18.856 Z0 F800
G1 X8.574 Y18.809 Z0 F800
G1 X8.557 Y18.779 Z0 F800
G1 X8.532 Y18.71 Z0 F800
G1 X8.513 Y18.62 Z0 F800
G1 X8.506 Y18.524 Z0 F800
G1 X8.513 Y18.423 Z0 F800
G1 X8.531 Y18.336 Z0 F800
G1 X8.539 Y18.316 Z0 F800
G1 X8.786 Y18.302 Z0 F800
G1 X9.128 Y18.306 Z0 F800
G1 X9.531 Z0 F800
G1 X9.986 Y18.232 Z0 F800
G1 X10.287 Y18.108 Z0 F800
G1 X10.564 Y17.888 Z0 F800
G1 X10.7 Y17.697 Z0 F800
G1 X10.786 Y17.507 Z0 F800
G1 X10.837 Y17.31 Z0 F800
G1 X10.852 Y17.131 Z0 F800
G1 Y10.332 Z0 F800
G1 X11.181 Y10.407 Z0 F800
G1 X11.635 Y10.448 Z0 F800
G1 X12.075 Y10.44 Z0 F800
G1 X12.498 Y10.398 Z0 F800
G1 X12.901 Y10.332 Z0 F800
G1 X13.282 Y10.251 Z0 F800
G1 X13.67 Y10.158 Z0 F800
G1 X13.854 Y10.084 Z0 F800
G1 X14.034 Y9.944 Z0 F800
G1 X14.168 Y9.762 Z0 F800
G1 X14.244 Y9.561 Z0 F800
G1 X14.285 Y9.269 Z0 F800
G1 X14.278 Y8.994 Z0 F800
G1 X14.225 Y8.725 Z0 F800
G1 X14.124 Y8.472 Z0 F800
G1 X13.983 Y8.25 Z0 F800
G1 X13.89 Y8.145 Z0 F800
G1 X16.279 Y8.137 Z0 F800
G1 X22.201 Y8.124 Z0 F800
G1 X22.946 Z0 F800
G1 X22.93 Y8.156 Z0 F800
G1 X22.813 Y8.457 Z0 F800
G1 X22.734 Y8.75 Z0 F800
G1 X22.681 Y9.031 Z0 F800
G1 X22.615 Y9.521 Z0 F800
G1 X22.552 Y9.885 Z0 F800
G1 X22.532 Y9.952 Z0 F800
G1 X22.486 Y9.945 Z0 F800
G1 X22.203 Y9.86 Z0 F800
G1 X22.132 Y9.845 Z0 F800
G1 X21.419 Y9.757 Z0 F800
G1 X20.735 Z0 F800
G1 X20.382 Y9.803 Z0 F800
G1 X20.046 Y9.893 Z0 F800
G1 X19.72 Y10.034 Z0 F800
G1 X19.413 Y10.235 Z0 F800
G1 X19.142 Y10.502 Z0 F800
G1 X18.929 Y10.828 Z0 F800
G1 X18.781 Y11.192 Z0 F800
G1 X18.7 Y11.588 Z0 F800
G1 X18.683 Y11.983 Z0 F800
G1 X18.717 Y12.394 Z0 F800
G1 X18.794 Y12.825 Z0 F800
G1 X18.887 Y13.197 Z0 F800
G1 X18.878 Y13.488 Z0 F800
G1 X18.861 Y13.774 Z0 F800
G1 X18.836 Y14.008 Z0 F800
G1 X18.802 Y14.188 Z0 F800
G1 X18.771 Y14.292 Z0 F800
G1 X18.75 Y14.338 Z0 F800
G1 X18.727 Y14.35 Z0 F800
G1 X18.635 Y14.373 Z0 F800
G1 X18.474 Y14.393 Z0 F800
G1 X18.246 Y14.401 Z0 F800
G1 X17.948 Y14.395 Z0 F800
G1 X17.59 Y14.373 Z0 F800
G1 X17.168 Y14.332 Z0 F800
G1 X16.692 Y14.273 Z0 F800
G1 X16.062 Y14.188 Z0 F800
G1 X15.352 Y14.134 Z0 F800
G0 Z3.5 F500
G0 X14.29 Y14.689 Z3.5 
G1 Z0 F500
G1 X13.959 Y14.761 Z0 F800
G1 X13.644 Y14.868 Z0 F800
G1 X13.353 Y15.021 Z0 F800
G1 X13.098 Y15.226 Z0 F800
G1 X12.893 Y15.489 Z0 F800
G1 X12.756 Y15.808 Z0 F800
G1 X12.696 Y16.172 Z0 F800
G1 X12.713 Y16.581 Z0 F800
G1 X12.795 Y16.966 Z0 F800
G1 Y19.651 Z0 F800
G1 X12.474 Y19.67 Z0 F800
G1 X12.242 Y19.68 Z0 F800
G1 X11.932 Y19.69 Z0 F800
G1 X11.438 Y19.7 Z0 F800
G1 X10.938 Z0 F800
G1 X10.471 Y19.68 Z0 F800
G1 X10.077 Y19.64 Z0 F800
G1 X9.483 Y19.571 Z0 F800
G1 X8.924 Y19.495 Z0 F800
G1 X8.682 Y19.435 Z0 F800
G1 X8.475 Y19.354 Z0 F800
G1 X8.305 Y19.249 Z0 F800
G1 X8.172 Y19.112 Z0 F800
G1 X8.104 Y18.994 Z0 F800
G1 X8.05 Y18.851 Z0 F800
G1 X8.017 Y18.691 Z0 F800
G1 X8.004 Y18.522 Z0 F800
G1 X8.016 Y18.354 Z0 F800
G1 X8.05 Y18.195 Z0 F800
G1 X8.103 Y18.054 Z0 F800
G1 X8.172 Y17.937 Z0 F800
G1 X8.208 Y17.903 Z0 F800
G1 X8.267 Y17.87 Z0 F800
G1 X8.354 Y17.841 Z0 F800
G1 X8.471 Y17.819 Z0 F800
G1 X8.777 Y17.802 Z0 F800
G1 X9.129 Y17.806 Z0 F800
G1 X9.491 Z0 F800
G1 X9.85 Y17.747 Z0 F800
G1 X10.031 Y17.673 Z0 F800
G1 X10.198 Y17.54 Z0 F800
G1 X10.265 Y17.446 Z0 F800
G1 X10.313 Y17.34 Z0 F800
G1 X10.342 Y17.226 Z0 F800
G1 X10.352 Y17.11 Z0 F800
G1 Y9.493 Z0 F800
G1 X10.368 Y9.562 Z0 F800
G1 X10.421 Y9.623 Z0 F800
G1 X10.489 Y9.669 Z0 F800
G1 X10.868 Y9.823 Z0 F800
G1 X11.259 Y9.912 Z0 F800
G1 X11.653 Y9.947 Z0 F800
G1 X12.045 Y9.94 Z0 F800
G1 X12.432 Y9.902 Z0 F800
G1 X12.809 Y9.84 Z0 F800
G1 X13.172 Y9.764 Z0 F800
G1 X13.518 Y9.681 Z0 F800
G1 X13.602 Y9.647 Z0 F800
G1 X13.672 Y9.592 Z0 F800
G1 X13.725 Y9.521 Z0 F800
G1 X13.756 Y9.437 Z0 F800
G1 X13.784 Y9.24 Z0 F800
G1 X13.779 Y9.049 Z0 F800
G1 X13.743 Y8.868 Z0 F800
G1 X13.676 Y8.7 Z0 F800
G1 X13.583 Y8.551 Z0 F800
G1 X13.468 Y8.423 Z0 F800
G1 X13.337 Y8.314 Z0 F800
G1 X13.194 Y8.224 Z0 F800
G1 X12.882 Y8.089 Z0 F800
G1 X12.545 Y8.008 Z0 F800
G1 X12.195 Y7.973 Z0 F800
G1 X11.84 Y7.978 Z0 F800
G1 X11.492 Y8.017 Z0 F800
G1 X11.16 Y8.092 Z0 F800
G1 X10.853 Y8.208 Z0 F800
G1 X10.581 Y8.37 Z0 F800
G1 X10.453 Y8.518 Z0 F800
G1 X10.352 Y8.694 Z0 F800
G1 Y7.657 Z0 F800
G1 X16.277 Y7.637 Z0 F800
G1 X22.201 Y7.624 Z0 F800
G1 X28.124 Y7.638 Z0 F800
G1 X34.045 Y7.696 Z0 F800
G1 X34.214 Y7.863 Z0 F800
G1 X34.346 Y8.042 Z0 F800
G1 X34.442 Y8.236 Z0 F800
G1 X34.508 Y8.448 Z0 F800
G1 X34.513 Y8.544 Z0 F800
G1 Y8.644 Z0 F800
G1 X34.443 Y8.515 Z0 F800
G1 X34.356 Y8.396 Z0 F800
G1 X34.156 Y8.226 Z0 F800
G1 X33.917 Y8.094 Z0 F800
G1 X33.638 Y8 Z0 F800
G1 X33.325 Y7.946 Z0 F800
G1 X33.302 Z0 F800
G1 X32.141 Y7.975 Z0 F800
G1 X30.963 Y7.991 Z0 F800
G1 X29.758 Y7.996 Z0 F800
G1 X28.54 Z0 F800
G1 X26.111 Y7.984 Z0 F800
G1 X23.778 Y7.989 Z0 F800
G1 X23.699 Y8 Z0 F800
G1 X23.627 Y8.029 Z0 F800
G1 X23.563 Y8.075 Z0 F800
G1 X23.512 Y8.136 Z0 F800
G1 X23.384 Y8.368 Z0 F800
G1 X23.29 Y8.612 Z0 F800
G1 X23.222 Y8.862 Z0 F800
G1 X23.174 Y9.112 Z0 F800
G1 X23.11 Y9.59 Z0 F800
G1 X23.04 Y10.001 Z0 F800
G1 X22.99 Y10.161 Z0 F800
G1 X22.935 Y10.282 Z0 F800
G1 X22.874 Y10.367 Z0 F800
G1 X22.807 Y10.421 Z0 F800
G1 X22.717 Y10.453 Z0 F800
G1 X22.579 Y10.463 Z0 F800
G1 X22.379 Y10.435 Z0 F800
G1 X22.079 Y10.345 Z0 F800
G1 X22.049 Y10.339 Z0 F800
G1 X21.388 Y10.257 Z0 F800
G1 X20.769 Z0 F800
G1 X20.481 Y10.294 Z0 F800
G1 X20.21 Y10.366 Z0 F800
G1 X19.958 Y10.475 Z0 F800
G1 X19.729 Y10.626 Z0 F800
G1 X19.531 Y10.821 Z0 F800
G1 X19.374 Y11.061 Z0 F800
G1 X19.262 Y11.338 Z0 F800
G1 X19.198 Y11.649 Z0 F800
G1 X19.184 Y11.973 Z0 F800
G1 X19.214 Y12.33 Z0 F800
G1 X19.283 Y12.72 Z0 F800
G1 X19.389 Y13.144 Z0 F800
G1 X19.378 Y13.503 Z0 F800
G1 X19.359 Y13.817 Z0 F800
G1 X19.331 Y14.084 Z0 F800
G1 X19.29 Y14.304 Z0 F800
G1 X19.239 Y14.474 Z0 F800
G1 X19.179 Y14.601 Z0 F800
G1 X19.106 Y14.695 Z0 F800
G1 X19.016 Y14.767 Z0 F800
G1 X18.895 Y14.823 Z0 F800
G1 X18.729 Y14.865 Z0 F800
G1 X18.513 Y14.891 Z0 F800
G1 X18.248 Y14.902 Z0 F800
G1 X17.929 Y14.895 Z0 F800
G1 X17.554 Y14.871 Z0 F800
G1 X17.12 Y14.829 Z0 F800
G1 X16.625 Y14.769 Z0 F800
G1 X16.01 Y14.686 Z0 F800
G1 X15.331 Y14.634 Z0 F800
G1 X14.98 Y14.631 Z0 F800
G1 X14.632 Y14.648 Z0 F800
G1 X14.29 Y14.689 Z0 F800
;Layer C1 Pass 2 of 2
G0 Z3.5 F500
G0 X16.21 Y11.282 Z3.5 
G1 Z0 F500
G1 X16.193 Y11.691 Z0 F800
G1 X15.869 Y11.667 Z0 F800
G1 X16.232 Y11.176 Z0 F800
G1 X16.21 Y11.282 Z0 F800
G0 Z3.5 F500
G0 X16.271 Y12.199 Z3.5 
G1 Z0 F500
G1 X15.438 Y12.135 Z0 F800
G1 X14.932 Y12.13 Z0 F800
G1 X14.42 Y12.155 Z0 F800
G1 X13.875 Y12.222 Z0 F800
G1 X13.291 Y12.348 Z0 F800
G1 X12.852 Y12.497 Z0 F800
G1 Y12.367 Z0 F800
G1 X13.269 Y12.298 Z0 F800
G1 X13.721 Y12.203 Z0 F800
G1 X14.279 Y12.069 Z0 F800
G1 X14.863 Y11.834 Z0 F800
G1 X15.48 Y11.352 Z0 F800
G1 X15.942 Y10.727 Z0 F800
G1 X16.164 Y10.137 Z0 F800
G1 X16.286 Z0 F800
G1 X17.052 Z0 F800
G1 X16.859 Y10.611 Z0 F800
G1 X16.708 Y11.343 Z0 F800
G1 X16.68 Y12.024 Z0 F800
G1 X16.699 Y12.256 Z0 F800
G1 X16.271 Y12.199 Z0 F800
G0 Z3.5 F500
G0 X13.611 Y11.715 Z3.5 
G1 Z0 F500
G1 X14.127 Y11.591 Z0 F800
G1 X14.611 Y11.397 Z0 F800
G1 X15.119 Y11 Z0 F800
G1 X15.499 Y10.486 Z0 F800
G1 X15.707 Y9.932 Z0 F800
G1 X15.748 Y9.639 Z0 F800
G1 X16.284 Z0 F800
G1 X17.918 Y9.633 Z0 F800
G1 X17.594 Y10.128 Z0 F800
G1 X17.339 Y10.757 Z0 F800
G1 X17.207 Y11.404 Z0 F800
G1 X17.181 Y12.014 Z0 F800
G1 X17.229 Y12.588 Z0 F800
G1 X17.272 Y12.833 Z0 F800
G1 X16.875 Y12.784 Z0 F800
G1 X16.219 Y12.696 Z0 F800
G1 X15.417 Y12.635 Z0 F800
G1 X14.941 Y12.63 Z0 F800
G1 X14.462 Y12.654 Z0 F800
G1 X13.958 Y12.715 Z0 F800
G1 X13.424 Y12.83 Z0 F800
G1 X12.853 Y13.025 Z0 F800
G1 X12.352 Y13.288 Z0 F800
G1 Y11.919 Z0 F800
G1 X12.694 Y11.886 Z0 F800
G1 X13.177 Y11.806 Z0 F800
G1 X13.611 Y11.715 Z0 F800
G0 Z3.5 F500
G0 X17.82 Y10.902 Z3.5 
G1 Z0 F500
G1 X17.704 Y11.466 Z0 F800
G1 X17.682 Y12.003 Z0 F800
G1 X17.725 Y12.523 Z0 F800
G1 X17.815 Y13.034 Z0 F800
G1 X17.883 Y13.306 Z0 F800
G1 Y13.389 Z0 F800
G1 X17.674 Y13.375 Z0 F800
G1 X17.273 Y13.337 Z0 F800
G1 X16.825 Y13.282 Z0 F800
G1 X16.167 Y13.194 Z0 F800
G1 X15.395 Y13.135 Z0 F800
G1 X14.951 Y13.13 Z0 F800
G1 X14.505 Y13.152 Z0 F800
G1 X14.041 Y13.208 Z0 F800
G1 X13.558 Y13.313 Z0 F800
G1 X13.05 Y13.486 Z0 F800
G1 X12.527 Y13.76 Z0 F800
G1 X12.021 Y14.167 Z0 F800
G1 X11.852 Y14.384 Z0 F800
G1 Y11.444 Z0 F800
G1 X12.133 Y11.439 Z0 F800
G1 X12.628 Y11.39 Z0 F800
G1 X13.085 Y11.314 Z0 F800
G1 X13.501 Y11.227 Z0 F800
G1 X13.975 Y11.114 Z0 F800
G1 X14.359 Y10.959 Z0 F800
G1 X14.757 Y10.648 Z0 F800
G1 X15.055 Y10.245 Z0 F800
G1 X15.219 Y9.808 Z0 F800
G1 X15.286 Y9.326 Z0 F800
G1 X15.282 Y9.14 Z0 F800
G1 X16.282 Y9.137 Z0 F800
G1 X19.29 Y9.13 Z0 F800
G1 X19.243 Y9.15 Z0 F800
G1 X18.782 Y9.454 Z0 F800
G1 X18.364 Y9.865 Z0 F800
G1 X18.039 Y10.361 Z0 F800
G1 X17.82 Y10.902 Z0 F800
G0 Z3.5 F500
G0 X16.75 Y13.776 Z3.5 
G1 Z0 F500
G1 X16.114 Y13.691 Z0 F800
G1 X15.374 Y13.635 Z0 F800
G1 X14.961 Y13.631 Z0 F800
G1 X14.547 Y13.651 Z0 F800
G1 X14.124 Y13.702 Z0 F800
G1 X13.692 Y13.795 Z0 F800
G1 X13.249 Y13.946 Z0 F800
G1 X12.802 Y14.18 Z0 F800
G1 X12.38 Y14.52 Z0 F800
G1 X12.025 Y14.977 Z0 F800
G1 X11.789 Y15.524 Z0 F800
G1 X11.692 Y16.111 Z0 F800
G1 X11.717 Y16.708 Z0 F800
G1 X11.795 Y17.072 Z0 F800
G1 Y18.693 Z0 F800
G1 X11.423 Y18.7 Z0 F800
G1 X10.952 Z0 F800
G1 X10.549 Y18.682 Z0 F800
G1 X10.273 Y18.654 Z0 F800
G1 X10.542 Y18.544 Z0 F800
G1 X10.93 Y18.235 Z0 F800
G1 X11.135 Y17.948 Z0 F800
G1 X11.26 Y17.674 Z0 F800
G1 X11.332 Y17.394 Z0 F800
G1 X11.352 Y17.152 Z0 F800
G1 Y10.924 Z0 F800
G1 X11.616 Y10.948 Z0 F800
G1 X12.104 Y10.939 Z0 F800
G1 X12.563 Y10.894 Z0 F800
G1 X12.993 Y10.823 Z0 F800
G1 X13.392 Y10.739 Z0 F800
G1 X13.823 Y10.636 Z0 F800
G1 X14.106 Y10.522 Z0 F800
G1 X14.395 Y10.296 Z0 F800
G1 X14.612 Y10.003 Z0 F800
G1 X14.731 Y9.684 Z0 F800
G1 X14.785 Y9.297 Z0 F800
G1 X14.777 Y8.938 Z0 F800
G1 X14.718 Y8.642 Z0 F800
G1 X16.28 Y8.637 Z0 F800
G1 X22.201 Y8.624 Z0 F800
G1 X22.25 Z0 F800
G1 X22.247 Y8.637 Z0 F800
G1 X22.187 Y8.951 Z0 F800
G1 X22.134 Y9.342 Z0 F800
G1 X21.451 Y9.257 Z0 F800
G1 X20.702 Y9.254 Z0 F800
G1 X20.284 Y9.312 Z0 F800
G1 X19.881 Y9.419 Z0 F800
G1 X19.481 Y9.592 Z0 F800
G1 X19.097 Y9.845 Z0 F800
G1 X18.753 Y10.184 Z0 F800
G1 X18.484 Y10.594 Z0 F800
G1 X18.3 Y11.047 Z0 F800
G1 X18.202 Y11.527 Z0 F800
G1 X18.182 Y11.993 Z0 F800
G1 X18.221 Y12.459 Z0 F800
G1 X18.305 Y12.929 Z0 F800
G1 X18.386 Y13.252 Z0 F800
G1 X18.379 Y13.46 Z0 F800
G1 X18.363 Y13.732 Z0 F800
G1 X18.345 Y13.897 Z0 F800
G1 X18.244 Y13.901 Z0 F800
G1 X17.967 Y13.896 Z0 F800
G1 X17.625 Y13.874 Z0 F800
G1 X17.242 Y13.836 Z0 F800
G1 X16.75 Y13.776 Z0 F800
G0 Z3.5 F500
G0 X15.352 Y14.134 Z3.5 
G1 Z0 F500
G1 X14.971 Y14.131 Z0 F800
G1 X14.589 Y14.149 Z0 F800
G1 X14.207 Y14.196 Z0 F800
G1 X13.826 Y14.278 Z0 F800
G1 X13.446 Y14.407 Z0 F800
G1 X13.078 Y14.601 Z0 F800
G1 X12.739 Y14.873 Z0 F800
G1 X12.459 Y15.233 Z0 F800
G1 X12.272 Y15.666 Z0 F800
G1 X12.194 Y16.142 Z0 F800
G1 X12.215 Y16.645 Z0 F800
G1 X12.295 Y17.019 Z0 F800
G1 Y19.177 Z0 F800
G1 X12.22 Y19.181 Z0 F800
G1 X11.923 Y19.191 Z0 F800
G1 X11.43 Y19.2 Z0 F800
G1 X10.945 Z0 F800
G1 X10.509 Y19.181 Z0 F800
G1 X10.127 Y19.142 Z0 F800
G1 X9.55 Y19.075 Z0 F800
G1 X9.017 Y19.003 Z0 F800
G1 X8.832 Y18.957 Z0 F800
G1 X8.701 Y18.906 Z0 F800
G1 X8.621 Y18.856 Z0 F800
G1 X8.574 Y18.809 Z0 F800
G1 X8.557 Y18.779 Z0 F800
G1 X8.532 Y18.71 Z0 F800
G1 X8.513 Y18.62 Z0 F800
G1 X8.506 Y18.524 Z0 F800
G1 X8.513 Y18.423 Z0 F800
G1 X8.531 Y18.336 Z0 F800
G1 X8.539 Y18.316 Z0 F800
G1 X8.786 Y18.302 Z0 F800
G1 X9.128 Y18.306 Z0 F800
G1 X9.531 Z0 F800
G1 X9.986 Y18.232 Z0 F800
G1 X10.287 Y18.108 Z0 F800
G1 X10.564 Y17.888 Z0 F800
G1 X10.7 Y17.697 Z0 F800
G1 X10.786 Y17.507 Z0 F800
G1 X10.837 Y17.31 Z0 F800
G1 X10.852 Y17.131 Z0 F800
G1 Y10.332 Z0 F800
G1 X11.181 Y10.407 Z0 F800
G1 X11.635 Y10.448 Z0 F800
G1 X12.075 Y10.44 Z0 F800
G1 X12.498 Y10.398 Z0 F800
G1 X12.901 Y10.332 Z0 F800
G1 X13.282 Y10.251 Z0 F800
G1 X13.67 Y10.158 Z0 F800
G1 X13.854 Y10.084 Z0 F800
G1 X14.034 Y9.944 Z0 F800
G1 X14.168 Y9.762 Z0 F800
G1 X14.244 Y9.561 Z0 F800
G1 X14.285 Y9.269 Z0 F800
G1 X14.278 Y8.994 Z0 F800
G1 X14.225 Y8.725 Z0 F800
G1 X14.124 Y8.472 Z0 F800
G1 X13.983 Y8.25 Z0 F800
G1 X13.89 Y8.145 Z0 F800
G1 X16.279 Y8.137 Z0 F800
G1 X22.201 Y8.124 Z0 F800
G1 X22.946 Z0 F800
G1 X22.93 Y8.156 Z0 F800
G1 X22.813 Y8.457 Z0 F800
G1 X22.734 Y8.75 Z0 F800
G1 X22.681 Y9.031 Z0 F800
G1 X22.615 Y9.521 Z0 F800
G1 X22.552 Y9.885 Z0 F800
G1 X22.532 Y9.952 Z0 F800
G1 X22.486 Y9.945 Z0 F800
G1 X22.203 Y9.86 Z0 F800
G1 X22.132 Y9.845 Z0 F800
G1 X21.419 Y9.757 Z0 F800
G1 X20.735 Z0 F800
G1 X20.382 Y9.803 Z0 F800
G1 X20.046 Y9.893 Z0 F800
G1 X19.72 Y10.034 Z0 F800
G1 X19.413 Y10.235 Z0 F800
G1 X19.142 Y10.502 Z0 F800
G1 X18.929 Y10.828 Z0 F800
G1 X18.781 Y11.192 Z0 F800
G1 X18.7 Y11.588 Z0 F800
G1 X18.683 Y11.983 Z0 F800
G1 X18.717 Y12.394 Z0 F800
G1 X18.794 Y12.825 Z0 F800
G1 X18.887 Y13.197 Z0 F800
G1 X18.878 Y13.488 Z0 F800
G1 X18.861 Y13.774 Z0 F800
G1 X18.836 Y14.008 Z0 F800
G1 X18.802 Y14.188 Z0 F800
G1 X18.771 Y14.292 Z0 F800
G1 X18.75 Y14.338 Z0 F800
G1 X18.727 Y14.35 Z0 F800
G1 X18.635 Y14.373 Z0 F800
G1 X18.474 Y14.393 Z0 F800
G1 X18.246 Y14.401 Z0 F800
G1 X17.948 Y14.395 Z0 F800
G1 X17.59 Y14.373 Z0 F800
G1 X17.168 Y14.332 Z0 F800
G1 X16.692 Y14.273 Z0 F800
G1 X16.062 Y14.188 Z0 F800
G1 X15.352 Y14.134 Z0 F800
G0 Z3.5 F500
G0 X14.29 Y14.689 Z3.5 
G1 Z0 F500
G1 X13.959 Y14.761 Z0 F800
G1 X13.644 Y14.868 Z0 F800
G1 X13.353 Y15.021 Z0 F800
G1 X13.098 Y15.226 Z0 F800
G1 X12.893 Y15.489 Z0 F800
G1 X12.756 Y15.808 Z0 F800
G1 X12.696 Y16.172 Z0 F800
G1 X12.713 Y16.581 Z0 F800
G1 X12.795 Y16.966 Z0 F800
G1 Y19.651 Z0 F800
G1 X12.474 Y19.67 Z0 F800
G1 X12.242 Y19.68 Z0 F800
G1 X11.932 Y19.69 Z0 F800
G1 X11.438 Y19.7 Z0 F800
G1 X10.938 Z0 F800
G1 X10.471 Y19.68 Z0 F800
G1 X10.077 Y19.64 Z0 F800
G1 X9.483 Y19.571 Z0 F800
G1 X8.924 Y19.495 Z0 F800
G1 X8.682 Y19.435 Z0 F800
G1 X8.475 Y19.354 Z0 F800
G1 X8.305 Y19.249 Z0 F800
G1 X8.172 Y19.112 Z0 F800
G1 X8.104 Y18.994 Z0 F800
G1 X8.05 Y18.851 Z0 F800
G1 X8.017 Y18.691 Z0 F800
G1 X8.004 Y18.522 Z0 F800
G1 X8.016 Y18.354 Z0 F800
G1 X8.05 Y18.195 Z0 F800
G1 X8.103 Y18.054 Z0 F800
G1 X8.172 Y17.937 Z0 F800
G1 X8.208 Y17.903 Z0 F800
G1 X8.267 Y17.87 Z0 F800
G1 X8.354 Y17.841 Z0 F800
G1 X8.471 Y17.819 Z0 F800
G1 X8.777 Y17.802 Z0 F800
G1 X9.129 Y17.806 Z0 F800
G1 X9.491 Z0 F800
G1 X9.85 Y17.747 Z0 F800
G1 X10.031 Y17.673 Z0 F800
G1 X10.198 Y17.54 Z0 F800
G1 X10.265 Y17.446 Z0 F800
G1 X10.313 Y17.34 Z0 F800
G1 X10.342 Y17.226 Z0 F800
G1 X10.352 Y17.11 Z0 F800
G1 Y9.493 Z0 F800
G1 X10.368 Y9.562 Z0 F800
G1 X10.421 Y9.623 Z0 F800
G1 X10.489 Y9.669 Z0 F800
G1 X10.868 Y9.823 Z0 F800
G1 X11.259 Y9.912 Z0 F800
G1 X11.653 Y9.947 Z0 F800
G1 X12.045 Y9.94 Z0 F800
G1 X12.432 Y9.902 Z0 F800
G1 X12.809 Y9.84 Z0 F800
G1 X13.172 Y9.764 Z0 F800
G1 X13.518 Y9.681 Z0 F800
G1 X13.602 Y9.647 Z0 F800
G1 X13.672 Y9.592 Z0 F800
G1 X13.725 Y9.521 Z0 F800
G1 X13.756 Y9.437 Z0 F800
G1 X13.784 Y9.24 Z0 F800
G1 X13.779 Y9.049 Z0 F800
G1 X13.743 Y8.868 Z0 F800
G1 X13.676 Y8.7 Z0 F800
G1 X13.583 Y8.551 Z0 F800
G1 X13.468 Y8.423 Z0 F800
G1 X13.337 Y8.314 Z0 F800
G1 X13.194 Y8.224 Z0 F800
G1 X12.882 Y8.089 Z0 F800
G1 X12.545 Y8.008 Z0 F800
G1 X12.195 Y7.973 Z0 F800
G1 X11.84 Y7.978 Z0 F800
G1 X11.492 Y8.017 Z0 F800
G1 X11.16 Y8.092 Z0 F800
G1 X10.853 Y8.208 Z0 F800
G1 X10.581 Y8.37 Z0 F800
G1 X10.453 Y8.518 Z0 F800
G1 X10.352 Y8.694 Z0 F800
G1 Y7.657 Z0 F800
G1 X16.277 Y7.637 Z0 F800
G1 X22.201 Y7.624 Z0 F800
G1 X28.124 Y7.638 Z0 F800
G1 X34.045 Y7.696 Z0 F800
G1 X34.214 Y7.863 Z0 F800
G1 X34.346 Y8.042 Z0 F800
G1 X34.442 Y8.236 Z0 F800
G1 X34.508 Y8.448 Z0 F800
G1 X34.513 Y8.544 Z0 F800
G1 Y8.644 Z0 F800
G1 X34.443 Y8.515 Z0 F800
G1 X34.356 Y8.396 Z0 F800
G1 X34.156 Y8.226 Z0 F800
G1 X33.917 Y8.094 Z0 F800
G1 X33.638 Y8 Z0 F800
G1 X33.325 Y7.946 Z0 F800
G1 X33.302 Z0 F800
G1 X32.141 Y7.975 Z0 F800
G1 X30.963 Y7.991 Z0 F800
G1 X29.758 Y7.996 Z0 F800
G1 X28.54 Z0 F800
G1 X26.111 Y7.984 Z0 F800
G1 X23.778 Y7.989 Z0 F800
G1 X23.699 Y8 Z0 F800
G1 X23.627 Y8.029 Z0 F800
G1 X23.563 Y8.075 Z0 F800
G1 X23.512 Y8.136 Z0 F800
G1 X23.384 Y8.368 Z0 F800
G1 X23.29 Y8.612 Z0 F800
G1 X23.222 Y8.862 Z0 F800
G1 X23.174 Y9.112 Z0 F800
G1 X23.11 Y9.59 Z0 F800
G1 X23.04 Y10.001 Z0 F800
G1 X22.99 Y10.161 Z0 F800
G1 X22.935 Y10.282 Z0 F800
G1 X22.874 Y10.367 Z0 F800
G1 X22.807 Y10.421 Z0 F800
G1 X22.717 Y10.453 Z0 F800
G1 X22.579 Y10.463 Z0 F800
G1 X22.379 Y10.435 Z0 F800
G1 X22.079 Y10.345 Z0 F800
G1 X22.049 Y10.339 Z0 F800
G1 X21.388 Y10.257 Z0 F800
G1 X20.769 Z0 F800
G1 X20.481 Y10.294 Z0 F800
G1 X20.21 Y10.366 Z0 F800
G1 X19.958 Y10.475 Z0 F800
G1 X19.729 Y10.626 Z0 F800
G1 X19.531 Y10.821 Z0 F800
G1 X19.374 Y11.061 Z0 F800
G1 X19.262 Y11.338 Z0 F800
G1 X19.198 Y11.649 Z0 F800
G1 X19.184 Y11.973 Z0 F800
G1 X19.214 Y12.33 Z0 F800
G1 X19.283 Y12.72 Z0 F800
G1 X19.389 Y13.144 Z0 F800
G1 X19.378 Y13.503 Z0 F800
G1 X19.359 Y13.817 Z0 F800
G1 X19.331 Y14.084 Z0 F800
G1 X19.29 Y14.304 Z0 F800
G1 X19.239 Y14.474 Z0 F800
G1 X19.179 Y14.601 Z0 F800
G1 X19.106 Y14.695 Z0 F800
G1 X19.016 Y14.767 Z0 F800
G1 X18.895 Y14.823 Z0 F800
G1 X18.729 Y14.865 Z0 F800
G1 X18.513 Y14.891 Z0 F800
G1 X18.248 Y14.902 Z0 F800
G1 X17.929 Y14.895 Z0 F800
G1 X17.554 Y14.871 Z0 F800
G1 X17.12 Y14.829 Z0 F800
G1 X16.625 Y14.769 Z0 F800
G1 X16.01 Y14.686 Z0 F800
G1 X15.331 Y14.634 Z0 F800
G1 X14.98 Y14.631 Z0 F800
G1 X14.632 Y14.648 Z0 F800
G1 X14.29 Y14.689 Z0 F800
G0 Z3.5 F500
G0 X17.434 Y19.03 Z3.5 
G1 Z0 F500
;Layer C1 Pass 1 of 2
G1 Y20.415 Z0 F800
G1 X17.086 Y20.67 Z0 F800
G1 Y20.374 Z0 F800
G1 X17.064 Y19.961 Z0 F800
G1 X17.044 Y19.648 Z0 F800
G1 X17.039 Y19.473 Z0 F800
G1 X17.059 Y19.183 Z0 F800
G1 Y19.027 Z0 F800
G1 X17.434 Y19.03 Z0 F800
G0 Z3.5 F500
G0 X17.934 Y18.533 Z3.5 
G1 Z0 F500
G1 Y20.686 Z0 F800
G1 X17.882 Y20.707 Z0 F800
G1 X17.352 Y21.096 Z0 F800
G1 X16.919 Y21.669 Z0 F800
G1 X16.679 Y22.264 Z0 F800
G1 X16.579 Y22.8 Z0 F800
G1 X16.555 Y23.27 Z0 F800
G1 X16.589 Y23.983 Z0 F800
G1 X16.646 Y24.622 Z0 F800
G1 X16.663 Y24.845 Z0 F800
G1 Y24.886 Z0 F800
G1 X16.576 Z0 F800
G1 Y24.872 Z0 F800
G1 X16.563 Y24.051 Z0 F800
G1 X16.408 Y23.091 Z0 F800
G1 X16.226 Y22.658 Z0 F800
G1 X16.089 Y22.483 Z0 F800
G1 X16.301 Y22.143 Z0 F800
G1 X16.514 Y21.474 Z0 F800
G1 X16.586 Y20.879 Z0 F800
G1 Y20.387 Z0 F800
G1 X16.565 Y19.99 Z0 F800
G1 X16.545 Y19.679 Z0 F800
G1 X16.539 Y19.463 Z0 F800
G1 X16.559 Y19.166 Z0 F800
G1 Y18.524 Z0 F800
G1 X17.934 Y18.533 Z0 F800
G0 Z3.5 F500
G0 X18.434 Y18.499 Z3.5 
G1 Z0 F500
G1 Y21.026 Z0 F800
G1 X18.125 Y21.148 Z0 F800
G1 X17.707 Y21.456 Z0 F800
G1 X17.357 Y21.918 Z0 F800
G1 X17.161 Y22.404 Z0 F800
G1 X17.077 Y22.858 Z0 F800
G1 X17.056 Y23.271 Z0 F800
G1 X17.088 Y23.948 Z0 F800
G1 X17.145 Y24.577 Z0 F800
G1 X17.162 Y24.83 Z0 F800
G1 X17.167 Y25.031 Z0 F800
G1 X17.159 Y25.182 Z0 F800
G1 X17.126 Y25.363 Z0 F800
G1 X17.123 Y25.386 Z0 F800
G1 X16.058 Z0 F800
G1 X16.076 Y24.867 Z0 F800
G1 X16.063 Y24.095 Z0 F800
G1 X15.924 Y23.23 Z0 F800
G1 X15.792 Y22.914 Z0 F800
G1 X15.57 Y22.632 Z0 F800
G1 X15.45 Y22.543 Z0 F800
G1 X15.475 Y22.524 Z0 F800
G1 X15.843 Y21.932 Z0 F800
G1 X16.023 Y21.367 Z0 F800
G1 X16.086 Y20.849 Z0 F800
G1 Y20.4 Z0 F800
G1 X16.065 Y20.02 Z0 F800
G1 X16.045 Y19.696 Z0 F800
G1 X16.038 Y19.454 Z0 F800
G1 X16.059 Y19.148 Z0 F800
G1 Y18.021 Z0 F800
G1 X18.455 Y18.036 Z0 F800
G1 X18.464 Y18.055 Z0 F800
G1 X18.51 Y18.099 Z0 F800
G1 X18.496 Y18.142 Z0 F800
G1 X18.45 Y18.312 Z0 F800
G1 X18.434 Y18.499 Z0 F800
G0 Z3.5 F500
G0 X18.369 Y21.589 Z3.5 
G1 Z0 F500
G1 X18.062 Y21.815 Z0 F800
G1 X17.796 Y22.167 Z0 F800
G1 X17.644 Y22.545 Z0 F800
G1 X17.575 Y22.917 Z0 F800
G1 X17.557 Y23.271 Z0 F800
G1 X17.587 Y23.914 Z0 F800
G1 X17.643 Y24.532 Z0 F800
G1 X17.661 Y24.789 Z0 F800
G1 X17.667 Y25.046 Z0 F800
G1 X17.657 Y25.239 Z0 F800
G1 X17.619 Y25.447 Z0 F800
G1 X17.578 Y25.706 Z0 F800
G1 X17.566 Y25.915 Z0 F800
G1 X17.55 Y25.91 Z0 F800
G1 X17.463 Y25.892 Z0 F800
G1 X17.369 Y25.886 Z0 F800
G1 X15.555 Z0 F800
G1 X15.552 Y25.507 Z0 F800
G1 X15.576 Y24.861 Z0 F800
G1 X15.564 Y24.14 Z0 F800
G1 X15.439 Y23.368 Z0 F800
G1 X15.356 Y23.169 Z0 F800
G1 X15.219 Y22.994 Z0 F800
G1 X15.039 Y22.862 Z0 F800
G1 X14.851 Y22.791 Z0 F800
G1 X14.529 Y22.731 Z0 F800
G1 X14.203 Y22.69 Z0 F800
G1 X13.85 Y22.662 Z0 F800
G1 X13.474 Y22.643 Z0 F800
G1 X12.675 Y22.625 Z0 F800
G1 X11.83 Z0 F800
G1 X9.84 Y22.646 Z0 F800
G1 X9.525 Z0 F800
G1 X9.253 Y22.643 Z0 F800
G1 X9.001 Y22.636 Z0 F800
G1 X8.714 Y22.639 Z0 F800
G1 X8.613 Y22.642 Z0 F800
G1 X8.607 Y22.46 Z0 F800
G1 X14.526 Z0 F800
G1 X14.827 Y22.393 Z0 F800
G1 X15.098 Y22.183 Z0 F800
G1 X15.386 Y21.721 Z0 F800
G1 X15.532 Y21.26 Z0 F800
G1 X15.586 Y20.818 Z0 F800
G1 Y20.414 Z0 F800
G1 X15.566 Y20.049 Z0 F800
G1 X15.546 Y19.729 Z0 F800
G1 X15.538 Y19.445 Z0 F800
G1 X15.559 Y19.131 Z0 F800
G1 Y17.518 Z0 F800
G1 X18.766 Y17.538 Z0 F800
G1 X18.874 Y17.755 Z0 F800
G1 X19.061 Y17.936 Z0 F800
G1 X19.082 Y17.952 Z0 F800
G1 X19.061 Y18.03 Z0 F800
G1 X18.975 Y18.286 Z0 F800
G1 X18.945 Y18.398 Z0 F800
G1 X18.934 Y18.521 Z0 F800
G1 Y21.413 Z0 F800
G1 X18.713 Y21.454 Z0 F800
G1 X18.369 Y21.589 Z0 F800
G0 Z3.5 F500
G0 X14.452 Y23.226 Z3.5 
G1 Z0 F500
G1 X14.151 Y23.188 Z0 F800
G1 X13.817 Y23.161 Z0 F800
G1 X13.456 Y23.143 Z0 F800
G1 X12.669 Y23.125 Z0 F800
G1 X11.833 Z0 F800
G1 X9.845 Y23.146 Z0 F800
G1 X9.521 Z0 F800
G1 X9.238 Y23.143 Z0 F800
G1 X8.997 Y23.136 Z0 F800
G1 X8.726 Y23.139 Z0 F800
G1 X8.477 Y23.147 Z0 F800
G1 X8.266 Z0 F800
G1 X8.118 Y23.136 Z0 F800
G1 X8.063 Y23.12 Z0 F800
G1 Y23.105 Z0 F800
G1 X8.059 Y23.058 Z0 F800
G1 X8.069 Y22.975 Z0 F800
G1 X8.112 Y22.801 Z0 F800
G1 X8.116 Y22.749 Z0 F800
G1 X8.101 Y22.262 Z0 F800
G1 Y22.068 Z0 F800
G1 X8.116 Y21.938 Z0 F800
G1 X8.124 Y21.901 Z0 F800
G1 X8.141 Z0 F800
G1 X8.192 Z0 F800
G1 X8.277 Y21.912 Z0 F800
G1 X8.399 Y21.944 Z0 F800
G1 X8.448 Y21.956 Z0 F800
G1 X8.499 Y21.96 Z0 F800
G1 X14.471 Z0 F800
G1 X14.609 Y21.929 Z0 F800
G1 X14.721 Y21.843 Z0 F800
G1 X14.928 Y21.51 Z0 F800
G1 X15.042 Y21.153 Z0 F800
G1 X15.086 Y20.788 Z0 F800
G1 Y20.427 Z0 F800
G1 X15.067 Y20.078 Z0 F800
G1 X15.046 Y19.745 Z0 F800
G1 X15.037 Y19.436 Z0 F800
G1 X15.059 Y19.114 Z0 F800
G1 Y17.015 Z0 F800
G1 X19.122 Y17.04 Z0 F800
G1 X19.191 Y17.269 Z0 F800
G1 X19.284 Y17.456 Z0 F800
G1 X19.386 Y17.555 Z0 F800
G1 X19.48 Y17.626 Z0 F800
G1 X19.604 Y17.706 Z0 F800
G1 X19.628 Y17.713 Z0 F800
G1 X19.617 Y17.845 Z0 F800
G1 X19.591 Y17.984 Z0 F800
G1 X19.538 Y18.179 Z0 F800
G1 X19.454 Y18.431 Z0 F800
G1 X19.439 Y18.485 Z0 F800
G1 X19.434 Y18.542 Z0 F800
G1 Y21.868 Z0 F800
G1 X19.128 Y21.885 Z0 F800
G1 X18.852 Y21.937 Z0 F800
G1 X18.613 Y22.031 Z0 F800
G1 X18.417 Y22.175 Z0 F800
G1 X18.235 Y22.415 Z0 F800
G1 X18.126 Y22.686 Z0 F800
G1 X18.072 Y22.976 Z0 F800
G1 X18.057 Y23.272 Z0 F800
G1 X18.086 Y23.88 Z0 F800
G1 X18.141 Y24.487 Z0 F800
G1 X18.161 Y24.776 Z0 F800
G1 X18.168 Y25.049 Z0 F800
G1 X18.154 Y25.298 Z0 F800
G1 X18.112 Y25.53 Z0 F800
G1 X18.076 Y25.758 Z0 F800
G1 X18.065 Y25.961 Z0 F800
G1 X18.069 Y26.145 Z0 F800
G1 X18.083 Y26.308 Z0 F800
G1 X18.104 Y26.532 Z0 F800
G1 X18.003 Y26.521 Z0 F800
G1 X17.865 Y26.499 Z0 F800
G1 X17.679 Y26.459 Z0 F800
G1 X17.438 Y26.397 Z0 F800
G1 X17.396 Y26.389 Z0 F800
G1 X17.352 Y26.386 Z0 F800
G1 X14.989 Z0 F800
G1 X15.033 Y26.27 Z0 F800
G1 X15.059 Y26.14 Z0 F800
G1 Y26.118 Z0 F800
G1 X15.052 Y25.507 Z0 F800
G1 X15.076 Y24.856 Z0 F800
G1 X15.065 Y24.184 Z0 F800
G1 X14.956 Y23.507 Z0 F800
G1 X14.921 Y23.425 Z0 F800
G1 X14.868 Y23.357 Z0 F800
G1 X14.798 Y23.306 Z0 F800
G1 X14.715 Y23.274 Z0 F800
G1 X14.452 Y23.226 Z0 F800
;Layer C1 Pass 2 of 2
G0 Z3.5 F500
G0 X17.434 Y19.03 Z3.5 
G1 Z0 F500
G1 Y20.415 Z0 F800
G1 X17.086 Y20.67 Z0 F800
G1 Y20.374 Z0 F800
G1 X17.064 Y19.961 Z0 F800
G1 X17.044 Y19.648 Z0 F800
G1 X17.039 Y19.473 Z0 F800
G1 X17.059 Y19.183 Z0 F800
G1 Y19.027 Z0 F800
G1 X17.434 Y19.03 Z0 F800
G0 Z3.5 F500
G0 X17.934 Y18.533 Z3.5 
G1 Z0 F500
G1 Y20.686 Z0 F800
G1 X17.882 Y20.707 Z0 F800
G1 X17.352 Y21.096 Z0 F800
G1 X16.919 Y21.669 Z0 F800
G1 X16.679 Y22.264 Z0 F800
G1 X16.579 Y22.8 Z0 F800
G1 X16.555 Y23.27 Z0 F800
G1 X16.589 Y23.983 Z0 F800
G1 X16.646 Y24.622 Z0 F800
G1 X16.663 Y24.845 Z0 F800
G1 Y24.886 Z0 F800
G1 X16.576 Z0 F800
G1 Y24.872 Z0 F800
G1 X16.563 Y24.051 Z0 F800
G1 X16.408 Y23.091 Z0 F800
G1 X16.226 Y22.658 Z0 F800
G1 X16.089 Y22.483 Z0 F800
G1 X16.301 Y22.143 Z0 F800
G1 X16.514 Y21.474 Z0 F800
G1 X16.586 Y20.879 Z0 F800
G1 Y20.387 Z0 F800
G1 X16.565 Y19.99 Z0 F800
G1 X16.545 Y19.679 Z0 F800
G1 X16.539 Y19.463 Z0 F800
G1 X16.559 Y19.166 Z0 F800
G1 Y18.524 Z0 F800
G1 X17.934 Y18.533 Z0 F800
G0 Z3.5 F500
G0 X18.434 Y18.499 Z3.5 
G1 Z0 F500
G1 Y21.026 Z0 F800
G1 X18.125 Y21.148 Z0 F800
G1 X17.707 Y21.456 Z0 F800
G1 X17.357 Y21.918 Z0 F800
G1 X17.161 Y22.404 Z0 F800
G1 X17.077 Y22.858 Z0 F800
G1 X17.056 Y23.271 Z0 F800
G1 X17.088 Y23.948 Z0 F800
G1 X17.145 Y24.577 Z0 F800
G1 X17.162 Y24.83 Z0 F800
G1 X17.167 Y25.031 Z0 F800
G1 X17.159 Y25.182 Z0 F800
G1 X17.126 Y25.363 Z0 F800
G1 X17.123 Y25.386 Z0 F800
G1 X16.058 Z0 F800
G1 X16.076 Y24.867 Z0 F800
G1 X16.063 Y24.095 Z0 F800
G1 X15.924 Y23.23 Z0 F800
G1 X15.792 Y22.914 Z0 F800
G1 X15.57 Y22.632 Z0 F800
G1 X15.45 Y22.543 Z0 F800
G1 X15.475 Y22.524 Z0 F800
G1 X15.843 Y21.932 Z0 F800
G1 X16.023 Y21.367 Z0 F800
G1 X16.086 Y20.849 Z0 F800
G1 Y20.4 Z0 F800
G1 X16.065 Y20.02 Z0 F800
G1 X16.045 Y19.696 Z0 F800
G1 X16.038 Y19.454 Z0 F800
G1 X16.059 Y19.148 Z0 F800
G1 Y18.021 Z0 F800
G1 X18.455 Y18.036 Z0 F800
G1 X18.464 Y18.055 Z0 F800
G1 X18.51 Y18.099 Z0 F800
G1 X18.496 Y18.142 Z0 F800
G1 X18.45 Y18.312 Z0 F800
G1 X18.434 Y18.499 Z0 F800
G0 Z3.5 F500
G0 X18.369 Y21.589 Z3.5 
G1 Z0 F500
G1 X18.062 Y21.815 Z0 F800
G1 X17.796 Y22.167 Z0 F800
G1 X17.644 Y22.545 Z0 F800
G1 X17.575 Y22.917 Z0 F800
G1 X17.557 Y23.271 Z0 F800
G1 X17.587 Y23.914 Z0 F800
G1 X17.643 Y24.532 Z0 F800
G1 X17.661 Y24.789 Z0 F800
G1 X17.667 Y25.046 Z0 F800
G1 X17.657 Y25.239 Z0 F800
G1 X17.619 Y25.447 Z0 F800
G1 X17.578 Y25.706 Z0 F800
G1 X17.566 Y25.915 Z0 F800
G1 X17.55 Y25.91 Z0 F800
G1 X17.463 Y25.892 Z0 F800
G1 X17.369 Y25.886 Z0 F800
G1 X15.555 Z0 F800
G1 X15.552 Y25.507 Z0 F800
G1 X15.576 Y24.861 Z0 F800
G1 X15.564 Y24.14 Z0 F800
G1 X15.439 Y23.368 Z0 F800
G1 X15.356 Y23.169 Z0 F800
G1 X15.219 Y22.994 Z0 F800
G1 X15.039 Y22.862 Z0 F800
G1 X14.851 Y22.791 Z0 F800
G1 X14.529 Y22.731 Z0 F800
G1 X14.203 Y22.69 Z0 F800
G1 X13.85 Y22.662 Z0 F800
G1 X13.474 Y22.643 Z0 F800
G1 X12.675 Y22.625 Z0 F800
G1 X11.83 Z0 F800
G1 X9.84 Y22.646 Z0 F800
G1 X9.525 Z0 F800
G1 X9.253 Y22.643 Z0 F800
G1 X9.001 Y22.636 Z0 F800
G1 X8.714 Y22.639 Z0 F800
G1 X8.613 Y22.642 Z0 F800
G1 X8.607 Y22.46 Z0 F800
G1 X14.526 Z0 F800
G1 X14.827 Y22.393 Z0 F800
G1 X15.098 Y22.183 Z0 F800
G1 X15.386 Y21.721 Z0 F800
G1 X15.532 Y21.26 Z0 F800
G1 X15.586 Y20.818 Z0 F800
G1 Y20.414 Z0 F800
G1 X15.566 Y20.049 Z0 F800
G1 X15.546 Y19.729 Z0 F800
G1 X15.538 Y19.445 Z0 F800
G1 X15.559 Y19.131 Z0 F800
G1 Y17.518 Z0 F800
G1 X18.766 Y17.538 Z0 F800
G1 X18.874 Y17.755 Z0 F800
G1 X19.061 Y17.936 Z0 F800
G1 X19.082 Y17.952 Z0 F800
G1 X19.061 Y18.03 Z0 F800
G1 X18.975 Y18.286 Z0 F800
G1 X18.945 Y18.398 Z0 F800
G1 X18.934 Y18.521 Z0 F800
G1 Y21.413 Z0 F800
G1 X18.713 Y21.454 Z0 F800
G1 X18.369 Y21.589 Z0 F800
G0 Z3.5 F500
G0 X14.452 Y23.226 Z3.5 
G1 Z0 F500
G1 X14.151 Y23.188 Z0 F800
G1 X13.817 Y23.161 Z0 F800
G1 X13.456 Y23.143 Z0 F800
G1 X12.669 Y23.125 Z0 F800
G1 X11.833 Z0 F800
G1 X9.845 Y23.146 Z0 F800
G1 X9.521 Z0 F800
G1 X9.238 Y23.143 Z0 F800
G1 X8.997 Y23.136 Z0 F800
G1 X8.726 Y23.139 Z0 F800
G1 X8.477 Y23.147 Z0 F800
G1 X8.266 Z0 F800
G1 X8.118 Y23.136 Z0 F800
G1 X8.063 Y23.12 Z0 F800
G1 Y23.105 Z0 F800
G1 X8.059 Y23.058 Z0 F800
G1 X8.069 Y22.975 Z0 F800
G1 X8.112 Y22.801 Z0 F800
G1 X8.116 Y22.749 Z0 F800
G1 X8.101 Y22.262 Z0 F800
G1 Y22.068 Z0 F800
G1 X8.116 Y21.938 Z0 F800
G1 X8.124 Y21.901 Z0 F800
G1 X8.141 Z0 F800
G1 X8.192 Z0 F800
G1 X8.277 Y21.912 Z0 F800
G1 X8.399 Y21.944 Z0 F800
G1 X8.448 Y21.956 Z0 F800
G1 X8.499 Y21.96 Z0 F800
G1 X14.471 Z0 F800
G1 X14.609 Y21.929 Z0 F800
G1 X14.721 Y21.843 Z0 F800
G1 X14.928 Y21.51 Z0 F800
G1 X15.042 Y21.153 Z0 F800
G1 X15.086 Y20.788 Z0 F800
G1 Y20.427 Z0 F800
G1 X15.067 Y20.078 Z0 F800
G1 X15.046 Y19.745 Z0 F800
G1 X15.037 Y19.436 Z0 F800
G1 X15.059 Y19.114 Z0 F800
G1 Y17.015 Z0 F800
G1 X19.122 Y17.04 Z0 F800
G1 X19.191 Y17.269 Z0 F800
G1 X19.284 Y17.456 Z0 F800
G1 X19.386 Y17.555 Z0 F800
G1 X19.48 Y17.626 Z0 F800
G1 X19.604 Y17.706 Z0 F800
G1 X19.628 Y17.713 Z0 F800
G1 X19.617 Y17.845 Z0 F800
G1 X19.591 Y17.984 Z0 F800
G1 X19.538 Y18.179 Z0 F800
G1 X19.454 Y18.431 Z0 F800
G1 X19.439 Y18.485 Z0 F800
G1 X19.434 Y18.542 Z0 F800
G1 Y21.868 Z0 F800
G1 X19.128 Y21.885 Z0 F800
G1 X18.852 Y21.937 Z0 F800
G1 X18.613 Y22.031 Z0 F800
G1 X18.417 Y22.175 Z0 F800
G1 X18.235 Y22.415 Z0 F800
G1 X18.126 Y22.686 Z0 F800
G1 X18.072 Y22.976 Z0 F800
G1 X18.057 Y23.272 Z0 F800
G1 X18.086 Y23.88 Z0 F800
G1 X18.141 Y24.487 Z0 F800
G1 X18.161 Y24.776 Z0 F800
G1 X18.168 Y25.049 Z0 F800
G1 X18.154 Y25.298 Z0 F800
G1 X18.112 Y25.53 Z0 F800
G1 X18.076 Y25.758 Z0 F800
G1 X18.065 Y25.961 Z0 F800
G1 X18.069 Y26.145 Z0 F800
G1 X18.083 Y26.308 Z0 F800
G1 X18.104 Y26.532 Z0 F800
G1 X18.003 Y26.521 Z0 F800
G1 X17.865 Y26.499 Z0 F800
G1 X17.679 Y26.459 Z0 F800
G1 X17.438 Y26.397 Z0 F800
G1 X17.396 Y26.389 Z0 F800
G1 X17.352 Y26.386 Z0 F800
G1 X14.989 Z0 F800
G1 X15.033 Y26.27 Z0 F800
G1 X15.059 Y26.14 Z0 F800
G1 Y26.118 Z0 F800
G1 X15.052 Y25.507 Z0 F800
G1 X15.076 Y24.856 Z0 F800
G1 X15.065 Y24.184 Z0 F800
G1 X14.956 Y23.507 Z0 F800
G1 X14.921 Y23.425 Z0 F800
G1 X14.868 Y23.357 Z0 F800
G1 X14.798 Y23.306 Z0 F800
G1 X14.715 Y23.274 Z0 F800
G1 X14.452 Y23.226 Z0 F800
G0 Z3.5 F500
G0 X22.754 Y18.175 Z3.5 
G1 Z0 F500
;Layer C1 Pass 1 of 2
G1 X22.742 Y18.278 Z0 F800
G1 X22.709 Y18.94 Z0 F800
G1 X22.693 Y19.64 Z0 F800
G1 X22.727 Y20.376 Z0 F800
G1 X22.846 Y21.115 Z0 F800
G1 X22.877 Y21.219 Z0 F800
G1 X22.737 Y21.236 Z0 F800
G1 X22.541 Y21.275 Z0 F800
G1 X22.091 Y21.388 Z0 F800
G1 X22.063 Y21.262 Z0 F800
G1 X22.037 Y21.027 Z0 F800
G1 X22.033 Y20.776 Z0 F800
G1 X22.053 Y20.54 Z0 F800
G1 X22.189 Y19.871 Z0 F800
G1 X22.165 Y19.862 Z0 F800
G1 X22.172 Y19.723 Z0 F800
G1 X22.16 Y19.435 Z0 F800
G1 X22.132 Y19.162 Z0 F800
G1 X22.069 Y18.66 Z0 F800
G1 X22.023 Y18.216 Z0 F800
G1 Y18.176 Z0 F800
G1 X22.029 Z0 F800
G1 X22.395 Z0 F800
G1 X22.724 Y18.164 Z0 F800
G1 X22.758 Z0 F800
G1 X22.754 Y18.175 Z0 F800
G0 Z3.5 F500
G0 X28.428 Y15.217 Z3.5 
G1 Z0 F500
G1 Y15.077 Z0 F800
G1 X28.521 Y15.14 Z0 F800
G1 X28.428 Y15.217 Z0 F800
G0 Z3.5 F500
G0 X27.932 Y15.658 Z3.5 
G1 Z0 F500
G1 X27.915 Y13.81 Z0 F800
G1 X27.911 Y13.777 Z0 F800
G1 X27.862 Y13.544 Z0 F800
G1 X27.836 Y13.367 Z0 F800
G1 X27.826 Y13.211 Z0 F800
G1 Y13.077 Z0 F800
G1 X27.864 Y12.87 Z0 F800
G1 X27.93 Y12.743 Z0 F800
G1 X28.027 Y12.666 Z0 F800
G1 X28.194 Y12.616 Z0 F800
G1 X28.314 Y12.605 Z0 F800
G1 X28.46 Z0 F800
G1 X28.629 Y12.625 Z0 F800
G1 X28.854 Y12.665 Z0 F800
G1 X28.887 Z0 F800
G1 X31.801 Z0 F800
G1 X31.807 Y12.942 Z0 F800
G1 X31.793 Y13.124 Z0 F800
G1 X31.777 Y13.16 Z0 F800
G1 X31.749 Y13.171 Z0 F800
G1 X31.708 Y13.177 Z0 F800
G1 X31.64 Z0 F800
G1 X31.542 Y13.163 Z0 F800
G1 X31.369 Y13.122 Z0 F800
G1 X31.323 Y13.118 Z0 F800
G1 X29.014 Z0 F800
G1 X28.928 Y13.13 Z0 F800
G1 X28.85 Y13.163 Z0 F800
G1 X28.783 Y13.216 Z0 F800
G1 X28.731 Y13.286 Z0 F800
G1 X28.628 Y13.49 Z0 F800
G1 X28.551 Y13.684 Z0 F800
G1 X28.502 Y13.87 Z0 F800
G1 X28.481 Y14.052 Z0 F800
G1 X28.494 Y14.23 Z0 F800
G1 X28.543 Y14.4 Z0 F800
G1 X28.624 Y14.553 Z0 F800
G1 X28.733 Y14.681 Z0 F800
G1 X28.998 Y14.859 Z0 F800
G1 X29.299 Y14.96 Z0 F800
G1 X29.629 Y15.005 Z0 F800
G1 X29.979 Y15.019 Z0 F800
G1 X30.715 Y14.996 Z0 F800
G1 X31.444 Y14.946 Z0 F800
G1 X31.781 Y14.93 Z0 F800
G1 X32.082 Y14.927 Z0 F800
G1 X32.328 Y14.938 Z0 F800
G1 X32.499 Y14.966 Z0 F800
G1 X32.569 Y14.973 Z0 F800
G1 X32.639 Y14.966 Z0 F800
G1 X32.651 Y14.985 Z0 F800
G1 X32.695 Y15.125 Z0 F800
G1 X32.709 Y15.315 Z0 F800
G1 X32.675 Y15.476 Z0 F800
G1 X32.637 Y15.55 Z0 F800
G1 X32.634 Y15.559 Z0 F800
G1 X32.627 Y15.562 Z0 F800
G1 X32.597 Y15.55 Z0 F800
G1 X32.52 Y15.511 Z0 F800
G1 X32.447 Y15.483 Z0 F800
G1 X32.37 Y15.474 Z0 F800
G1 X29.014 Z0 F800
G1 X28.925 Y15.486 Z0 F800
G1 X28.844 Y15.521 Z0 F800
G1 X28.776 Y15.578 Z0 F800
G1 X28.725 Y15.651 Z0 F800
G1 X28.528 Y16.159 Z0 F800
G1 X28.424 Y16.687 Z0 F800
G1 X28.389 Y17.226 Z0 F800
G1 X28.397 Y17.767 Z0 F800
G1 X28.45 Y18.826 Z0 F800
G1 X28.457 Y19.329 Z0 F800
G1 X28.426 Y19.802 Z0 F800
G1 X28.422 Y19.841 Z0 F800
G1 X28.436 Y20.426 Z0 F800
G1 X28.453 Y21.064 Z0 F800
G1 X28.439 Y21.698 Z0 F800
G1 X28.362 Y22.269 Z0 F800
G1 X28.291 Y22.508 Z0 F800
G1 X28.199 Y22.707 Z0 F800
G1 X28.085 Y22.865 Z0 F800
G1 X27.95 Y22.981 Z0 F800
G1 X27.78 Y23.062 Z0 F800
G1 X27.557 Y23.104 Z0 F800
G1 X27.27 Y23.094 Z0 F800
G1 X26.874 Y23.014 Z0 F800
G1 X26.84 Y23.011 Z0 F800
G1 X26.406 Y23 Z0 F800
G1 X25.972 Z0 F800
G1 X25.551 Y22.994 Z0 F800
G1 X25.153 Y22.962 Z0 F800
G1 X24.792 Y22.891 Z0 F800
G1 X24.473 Y22.767 Z0 F800
G1 X24.329 Y22.679 Z0 F800
G1 X24.195 Y22.57 Z0 F800
G1 X24.072 Y22.438 Z0 F800
G1 X23.958 Y22.28 Z0 F800
G1 X23.977 Y22.317 Z0 F800
G1 X23.857 Y22.113 Z0 F800
G1 X23.709 Y21.948 Z0 F800
G1 X23.539 Y21.824 Z0 F800
G1 X23.354 Y21.747 Z0 F800
G1 X23.167 Y21.712 Z0 F800
G1 X22.987 Z0 F800
G1 X22.815 Y21.73 Z0 F800
G1 X22.651 Y21.763 Z0 F800
G1 X22.084 Y21.905 Z0 F800
G1 X21.887 Y21.926 Z0 F800
G1 X21.772 Y21.907 Z0 F800
G1 X21.778 Z0 F800
G1 X21.761 Y21.888 Z0 F800
G1 X21.73 Y21.847 Z0 F800
G1 X21.694 Y21.782 Z0 F800
G1 X21.625 Y21.591 Z0 F800
G1 X21.569 Y21.343 Z0 F800
G1 X21.537 Y21.06 Z0 F800
G1 X21.533 Y20.762 Z0 F800
G1 X21.557 Y20.469 Z0 F800
G1 X21.612 Y20.2 Z0 F800
G1 Y20.204 Z0 F800
G1 X21.659 Y19.965 Z0 F800
G1 X21.672 Y19.72 Z0 F800
G1 X21.661 Y19.471 Z0 F800
G1 X21.635 Y19.218 Z0 F800
G1 X21.572 Y18.711 Z0 F800
G1 X21.524 Y18.247 Z0 F800
G1 X21.521 Y18.05 Z0 F800
G1 X21.535 Y17.888 Z0 F800
G1 X21.559 Y17.769 Z0 F800
G1 X21.588 Y17.7 Z0 F800
G1 X21.615 Y17.67 Z0 F800
G1 X21.667 Y17.651 Z0 F800
G1 X21.783 Y17.642 Z0 F800
G1 X21.981 Y17.669 Z0 F800
G1 X22.013 Y17.674 Z0 F800
G1 X22.045 Y17.677 Z0 F800
G1 X22.385 Y17.674 Z0 F800
G1 X22.709 Y17.664 Z0 F800
G1 X22.989 Z0 F800
G1 X23.196 Y17.687 Z0 F800
G1 X23.295 Y17.721 Z0 F800
G1 X23.325 Y17.765 Z0 F800
G1 X23.334 Y17.814 Z0 F800
G1 Y17.907 Z0 F800
G1 X23.312 Y18.044 Z0 F800
G1 X23.246 Y18.273 Z0 F800
G1 X23.241 Y18.319 Z0 F800
G1 X23.209 Y18.958 Z0 F800
G1 X23.193 Y19.635 Z0 F800
G1 X23.225 Y20.325 Z0 F800
G1 X23.334 Y21.003 Z0 F800
G1 X23.432 Y21.33 Z0 F800
G1 X23.566 Y21.643 Z0 F800
G1 X23.739 Y21.938 Z0 F800
G1 X23.953 Y22.208 Z0 F800
G1 X24.21 Y22.447 Z0 F800
G1 X24.513 Y22.651 Z0 F800
G1 X24.864 Y22.813 Z0 F800
G1 X25.264 Y22.929 Z0 F800
G1 X25.298 Y22.934 Z0 F800
G1 X25.786 Y22.951 Z0 F800
G1 X26.301 Y22.973 Z0 F800
G1 X26.838 Y22.966 Z0 F800
G1 X27.362 Y22.894 Z0 F800
G1 X27.611 Y22.816 Z0 F800
G1 X27.845 Y22.698 Z0 F800
G1 X28.049 Y22.53 Z0 F800
G1 X28.206 Y22.308 Z0 F800
G1 X28.298 Y22.038 Z0 F800
G1 X28.322 Y21.735 Z0 F800
G1 X28.279 Y21.398 Z0 F800
G1 X28.186 Y21.074 Z0 F800
G1 X28.053 Y20.197 Z0 F800
G1 X27.973 Y19.306 Z0 F800
G1 X27.932 Y18.404 Z0 F800
G1 X27.919 Y17.495 Z0 F800
G1 X27.932 Y15.658 Z0 F800
;Layer C1 Pass 2 of 2
G0 Z3.5 F500
G0 X22.754 Y18.175 Z3.5 
G1 Z0 F500
G1 X22.742 Y18.278 Z0 F800
G1 X22.709 Y18.94 Z0 F800
G1 X22.693 Y19.64 Z0 F800
G1 X22.727 Y20.376 Z0 F800
G1 X22.846 Y21.115 Z0 F800
G1 X22.877 Y21.219 Z0 F800
G1 X22.737 Y21.236 Z0 F800
G1 X22.541 Y21.275 Z0 F800
G1 X22.091 Y21.388 Z0 F800
G1 X22.063 Y21.262 Z0 F800
G1 X22.037 Y21.027 Z0 F800
G1 X22.033 Y20.776 Z0 F800
G1 X22.053 Y20.54 Z0 F800
G1 X22.189 Y19.871 Z0 F800
G1 X22.165 Y19.862 Z0 F800
G1 X22.172 Y19.723 Z0 F800
G1 X22.16 Y19.435 Z0 F800
G1 X22.132 Y19.162 Z0 F800
G1 X22.069 Y18.66 Z0 F800
G1 X22.023 Y18.216 Z0 F800
G1 Y18.176 Z0 F800
G1 X22.029 Z0 F800
G1 X22.395 Z0 F800
G1 X22.724 Y18.164 Z0 F800
G1 X22.758 Z0 F800
G1 X22.754 Y18.175 Z0 F800
G0 Z3.5 F500
G0 X28.428 Y15.217 Z3.5 
G1 Z0 F500
G1 Y15.077 Z0 F800
G1 X28.521 Y15.14 Z0 F800
G1 X28.428 Y15.217 Z0 F800
G0 Z3.5 F500
G0 X27.932 Y15.658 Z3.5 
G1 Z0 F500
G1 X27.915 Y13.81 Z0 F800
G1 X27.911 Y13.777 Z0 F800
G1 X27.862 Y13.544 Z0 F800
G1 X27.836 Y13.367 Z0 F800
G1 X27.826 Y13.211 Z0 F800
G1 Y13.077 Z0 F800
G1 X27.864 Y12.87 Z0 F800
G1 X27.93 Y12.743 Z0 F800
G1 X28.027 Y12.666 Z0 F800
G1 X28.194 Y12.616 Z0 F800
G1 X28.314 Y12.605 Z0 F800
G1 X28.46 Z0 F800
G1 X28.629 Y12.625 Z0 F800
G1 X28.854 Y12.665 Z0 F800
G1 X28.887 Z0 F800
G1 X31.801 Z0 F800
G1 X31.807 Y12.942 Z0 F800
G1 X31.793 Y13.124 Z0 F800
G1 X31.777 Y13.16 Z0 F800
G1 X31.749 Y13.171 Z0 F800
G1 X31.708 Y13.177 Z0 F800
G1 X31.64 Z0 F800
G1 X31.542 Y13.163 Z0 F800
G1 X31.369 Y13.122 Z0 F800
G1 X31.323 Y13.118 Z0 F800
G1 X29.014 Z0 F800
G1 X28.928 Y13.13 Z0 F800
G1 X28.85 Y13.163 Z0 F800
G1 X28.783 Y13.216 Z0 F800
G1 X28.731 Y13.286 Z0 F800
G1 X28.628 Y13.49 Z0 F800
G1 X28.551 Y13.684 Z0 F800
G1 X28.502 Y13.87 Z0 F800
G1 X28.481 Y14.052 Z0 F800
G1 X28.494 Y14.23 Z0 F800
G1 X28.543 Y14.4 Z0 F800
G1 X28.624 Y14.553 Z0 F800
G1 X28.733 Y14.681 Z0 F800
G1 X28.998 Y14.859 Z0 F800
G1 X29.299 Y14.96 Z0 F800
G1 X29.629 Y15.005 Z0 F800
G1 X29.979 Y15.019 Z0 F800
G1 X30.715 Y14.996 Z0 F800
G1 X31.444 Y14.946 Z0 F800
G1 X31.781 Y14.93 Z0 F800
G1 X32.082 Y14.927 Z0 F800
G1 X32.328 Y14.938 Z0 F800
G1 X32.499 Y14.966 Z0 F800
G1 X32.569 Y14.973 Z0 F800
G1 X32.639 Y14.966 Z0 F800
G1 X32.651 Y14.985 Z0 F800
G1 X32.695 Y15.125 Z0 F800
G1 X32.709 Y15.315 Z0 F800
G1 X32.675 Y15.476 Z0 F800
G1 X32.637 Y15.55 Z0 F800
G1 X32.634 Y15.559 Z0 F800
G1 X32.627 Y15.562 Z0 F800
G1 X32.597 Y15.55 Z0 F800
G1 X32.52 Y15.511 Z0 F800
G1 X32.447 Y15.483 Z0 F800
G1 X32.37 Y15.474 Z0 F800
G1 X29.014 Z0 F800
G1 X28.925 Y15.486 Z0 F800
G1 X28.844 Y15.521 Z0 F800
G1 X28.776 Y15.578 Z0 F800
G1 X28.725 Y15.651 Z0 F800
G1 X28.528 Y16.159 Z0 F800
G1 X28.424 Y16.687 Z0 F800
G1 X28.389 Y17.226 Z0 F800
G1 X28.397 Y17.767 Z0 F800
G1 X28.45 Y18.826 Z0 F800
G1 X28.457 Y19.329 Z0 F800
G1 X28.426 Y19.802 Z0 F800
G1 X28.422 Y19.841 Z0 F800
G1 X28.436 Y20.426 Z0 F800
G1 X28.453 Y21.064 Z0 F800
G1 X28.439 Y21.698 Z0 F800
G1 X28.362 Y22.269 Z0 F800
G1 X28.291 Y22.508 Z0 F800
G1 X28.199 Y22.707 Z0 F800
G1 X28.085 Y22.865 Z0 F800
G1 X27.95 Y22.981 Z0 F800
G1 X27.78 Y23.062 Z0 F800
G1 X27.557 Y23.104 Z0 F800
G1 X27.27 Y23.094 Z0 F800
G1 X26.874 Y23.014 Z0 F800
G1 X26.84 Y23.011 Z0 F800
G1 X26.406 Y23 Z0 F800
G1 X25.972 Z0 F800
G1 X25.551 Y22.994 Z0 F800
G1 X25.153 Y22.962 Z0 F800
G1 X24.792 Y22.891 Z0 F800
G1 X24.473 Y22.767 Z0 F800
G1 X24.329 Y22.679 Z0 F800
G1 X24.195 Y22.57 Z0 F800
G1 X24.072 Y22.438 Z0 F800
G1 X23.958 Y22.28 Z0 F800
G1 X23.977 Y22.317 Z0 F800
G1 X23.857 Y22.113 Z0 F800
G1 X23.709 Y21.948 Z0 F800
G1 X23.539 Y21.824 Z0 F800
G1 X23.354 Y21.747 Z0 F800
G1 X23.167 Y21.712 Z0 F800
G1 X22.987 Z0 F800
G1 X22.815 Y21.73 Z0 F800
G1 X22.651 Y21.763 Z0 F800
G1 X22.084 Y21.905 Z0 F800
G1 X21.887 Y21.926 Z0 F800
G1 X21.772 Y21.907 Z0 F800
G1 X21.778 Z0 F800
G1 X21.761 Y21.888 Z0 F800
G1 X21.73 Y21.847 Z0 F800
G1 X21.694 Y21.782 Z0 F800
G1 X21.625 Y21.591 Z0 F800
G1 X21.569 Y21.343 Z0 F800
G1 X21.537 Y21.06 Z0 F800
G1 X21.533 Y20.762 Z0 F800
G1 X21.557 Y20.469 Z0 F800
G1 X21.612 Y20.2 Z0 F800
G1 Y20.204 Z0 F800
G1 X21.659 Y19.965 Z0 F800
G1 X21.672 Y19.72 Z0 F800
G1 X21.661 Y19.471 Z0 F800
G1 X21.635 Y19.218 Z0 F800
G1 X21.572 Y18.711 Z0 F800
G1 X21.524 Y18.247 Z0 F800
G1 X21.521 Y18.05 Z0 F800
G1 X21.535 Y17.888 Z0 F800
G1 X21.559 Y17.769 Z0 F800
G1 X21.588 Y17.7 Z0 F800
G1 X21.615 Y17.67 Z0 F800
G1 X21.667 Y17.651 Z0 F800
G1 X21.783 Y17.642 Z0 F800
G1 X21.981 Y17.669 Z0 F800
G1 X22.013 Y17.674 Z0 F800
G1 X22.045 Y17.677 Z0 F800
G1 X22.385 Y17.674 Z0 F800
G1 X22.709 Y17.664 Z0 F800
G1 X22.989 Z0 F800
G1 X23.196 Y17.687 Z0 F800
G1 X23.295 Y17.721 Z0 F800
G1 X23.325 Y17.765 Z0 F800
G1 X23.334 Y17.814 Z0 F800
G1 Y17.907 Z0 F800
G1 X23.312 Y18.044 Z0 F800
G1 X23.246 Y18.273 Z0 F800
G1 X23.241 Y18.319 Z0 F800
G1 X23.209 Y18.958 Z0 F800
G1 X23.193 Y19.635 Z0 F800
G1 X23.225 Y20.325 Z0 F800
G1 X23.334 Y21.003 Z0 F800
G1 X23.432 Y21.33 Z0 F800
G1 X23.566 Y21.643 Z0 F800
G1 X23.739 Y21.938 Z0 F800
G1 X23.953 Y22.208 Z0 F800
G1 X24.21 Y22.447 Z0 F800
G1 X24.513 Y22.651 Z0 F800
G1 X24.864 Y22.813 Z0 F800
G1 X25.264 Y22.929 Z0 F800
G1 X25.298 Y22.934 Z0 F800
G1 X25.786 Y22.951 Z0 F800
G1 X26.301 Y22.973 Z0 F800
G1 X26.838 Y22.966 Z0 F800
G1 X27.362 Y22.894 Z0 F800
G1 X27.611 Y22.816 Z0 F800
G1 X27.845 Y22.698 Z0 F800
G1 X28.049 Y22.53 Z0 F800
G1 X28.206 Y22.308 Z0 F800
G1 X28.298 Y22.038 Z0 F800
G1 X28.322 Y21.735 Z0 F800
G1 X28.279 Y21.398 Z0 F800
G1 X28.186 Y21.074 Z0 F800
G1 X28.053 Y20.197 Z0 F800
G1 X27.973 Y19.306 Z0 F800
G1 X27.932 Y18.404 Z0 F800
G1 X27.919 Y17.495 Z0 F800
G1 X27.932 Y15.658 Z0 F800
G0 Z3.5 F500
G0 X25.388 Y15.394 Z3.5 
G1 Z0 F500
;Layer C1 Pass 1 of 2
G1 X25.344 Y15.345 Z0 F800
G1 X25.247 Y15.277 Z0 F800
G1 X25.389 Y15.197 Z0 F800
G1 Y15.394 Z0 F800
G0 Z3.5 F500
G0 X25.406 Y12.939 Z3.5 
G1 Z0 F500
G1 X25.345 Y12.883 Z0 F800
G1 X25.407 Y12.841 Z0 F800
G1 Y12.939 Z0 F800
G0 Z3.5 F500
G0 X25.344 Y13.612 Z3.5 
G1 Z0 F500
G1 X25.205 Y13.431 Z0 F800
G1 X25.03 Y13.273 Z0 F800
G1 X24.826 Y13.144 Z0 F800
G1 X24.596 Y13.048 Z0 F800
G1 X24.346 Y12.992 Z0 F800
G1 X24.082 Y12.982 Z0 F800
G1 X23.808 Y13.023 Z0 F800
G1 X23.53 Y13.122 Z0 F800
G1 X23.116 Y13.074 Z0 F800
G1 X22.731 Y13.089 Z0 F800
G1 X22.391 Y13.133 Z0 F800
G1 X22.108 Y13.172 Z0 F800
G1 X21.988 Y13.18 Z0 F800
G1 X21.896 Y13.177 Z0 F800
G1 X21.83 Y13.165 Z0 F800
G1 X21.79 Y13.149 Z0 F800
G1 X21.763 Y13.122 Z0 F800
G1 X21.734 Y13.068 Z0 F800
G1 X21.706 Y12.985 Z0 F800
G1 X21.678 Y12.87 Z0 F800
G1 X21.702 Y12.728 Z0 F800
G1 X21.731 Y12.63 Z0 F800
G1 X21.766 Y12.569 Z0 F800
G1 X21.803 Y12.536 Z0 F800
G1 X21.864 Y12.516 Z0 F800
G1 X21.96 Y12.504 Z0 F800
G1 X22.089 Z0 F800
G1 X22.249 Y12.518 Z0 F800
G1 X22.61 Y12.576 Z0 F800
G1 X23.03 Y12.634 Z0 F800
G1 X23.488 Y12.649 Z0 F800
G1 X23.967 Y12.575 Z0 F800
G1 X24.186 Y12.624 Z0 F800
G1 X24.392 Y12.651 Z0 F800
G1 X24.583 Z0 F800
G1 X24.762 Y12.624 Z0 F800
G1 X24.938 Y12.554 Z0 F800
G1 X25.091 Y12.451 Z0 F800
G1 X25.216 Y12.322 Z0 F800
G1 X25.309 Y12.176 Z0 F800
G1 X25.416 Y11.867 Z0 F800
G1 X25.455 Y11.548 Z0 F800
G1 X25.45 Y11.227 Z0 F800
G1 X25.43 Y10.911 Z0 F800
G1 X25.418 Y10.61 Z0 F800
G1 Y10.342 Z0 F800
G1 X25.436 Y10.132 Z0 F800
G1 X25.467 Y10.002 Z0 F800
G1 X25.494 Y9.955 Z0 F800
G1 X25.551 Y9.938 Z0 F800
G1 X25.62 Y9.934 Z0 F800
G1 X25.725 Y9.945 Z0 F800
G1 X25.866 Y9.976 Z0 F800
G1 X26.043 Y10.032 Z0 F800
G1 X26.095 Y10.046 Z0 F800
G1 X26.147 Y10.051 Z0 F800
G1 X26.922 Y10.057 Z0 F800
G1 X27.784 Y10.042 Z0 F800
G1 X28.704 Y10.015 Z0 F800
G1 X29.654 Y9.98 Z0 F800
G1 X30.607 Y9.942 Z0 F800
G1 X31.534 Y9.908 Z0 F800
G1 X32.406 Y9.883 Z0 F800
G1 X33.196 Y9.872 Z0 F800
G1 X33.217 Y10.059 Z0 F800
G1 Y10.206 Z0 F800
G1 X33.135 Y10.346 Z0 F800
G1 X32.985 Y10.452 Z0 F800
G1 X32.739 Y10.535 Z0 F800
G1 X32.408 Y10.583 Z0 F800
G1 X32.009 Y10.597 Z0 F800
G1 X31.563 Y10.579 Z0 F800
G1 X30.598 Y10.473 Z0 F800
G1 X29.633 Y10.344 Z0 F800
G1 X29.226 Y10.299 Z0 F800
G1 X28.852 Y10.277 Z0 F800
G1 X28.506 Y10.29 Z0 F800
G1 X28.188 Y10.352 Z0 F800
G1 X27.886 Y10.292 Z0 F800
G1 X27.597 Y10.26 Z0 F800
G1 X27.322 Y10.257 Z0 F800
G1 X27.064 Y10.285 Z0 F800
G1 X26.825 Y10.343 Z0 F800
G1 X26.605 Y10.433 Z0 F800
G1 X26.409 Y10.554 Z0 F800
G1 X26.237 Y10.708 Z0 F800
G1 X26.088 Y10.896 Z0 F800
G1 X25.973 Y11.106 Z0 F800
G1 X25.889 Y11.338 Z0 F800
G1 X25.836 Y11.588 Z0 F800
G1 X25.814 Y11.854 Z0 F800
G1 X25.821 Y12.136 Z0 F800
G1 X25.856 Y12.43 Z0 F800
G1 X25.909 Y12.686 Z0 F800
G1 X25.88 Y16.336 Z0 F800
G1 X25.846 Y20.016 Z0 F800
G1 X25.695 Y20.028 Z0 F800
G1 X25.573 Y20.034 Z0 F800
G1 X25.492 Y20.024 Z0 F800
G1 X25.477 Y19.929 Z0 F800
G1 X25.473 Y19.711 Z0 F800
G1 X25.479 Y19.399 Z0 F800
G1 X25.476 Y19.352 Z0 F800
G1 X25.43 Y19.131 Z0 F800
G1 X25.413 Y18.933 Z0 F800
G1 X25.41 Y18.713 Z0 F800
G1 X25.418 Y18.478 Z0 F800
G1 X25.493 Y17.442 Z0 F800
G1 X25.503 Y17.177 Z0 F800
G1 X25.5 Y16.915 Z0 F800
G1 X25.475 Y16.655 Z0 F800
G1 X25.422 Y16.401 Z0 F800
G1 X25.332 Y16.155 Z0 F800
G1 X25.196 Y15.925 Z0 F800
G1 X25.012 Y15.723 Z0 F800
G1 X24.778 Y15.56 Z0 F800
G1 X24.719 Y15.535 Z0 F800
G1 X24.657 Y15.522 Z0 F800
G1 X24.125 Y15.492 Z0 F800
G1 X23.644 Y15.504 Z0 F800
G1 X22.821 Y15.562 Z0 F800
G1 X22.53 Z0 F800
G1 X22.266 Y15.525 Z0 F800
G1 X22.021 Y15.453 Z0 F800
G1 X21.782 Y15.339 Z0 F800
G1 X21.83 Y15.111 Z0 F800
G1 X21.891 Y14.972 Z0 F800
G1 X21.962 Y14.935 Z0 F800
G1 X22.066 Y14.91 Z0 F800
G1 X22.205 Y14.898 Z0 F800
G1 X22.377 Y14.903 Z0 F800
G1 X22.801 Y14.957 Z0 F800
G1 X23.297 Y15.023 Z0 F800
G1 X23.564 Y15.042 Z0 F800
G1 X23.84 Z0 F800
G1 X24.121 Y15.013 Z0 F800
G1 X24.412 Y14.949 Z0 F800
G1 X24.729 Y14.918 Z0 F800
G1 X24.999 Y14.843 Z0 F800
G1 X25.22 Y14.719 Z0 F800
G1 X25.385 Y14.542 Z0 F800
G1 X25.485 Y14.309 Z0 F800
G1 X25.501 Y14.066 Z0 F800
G1 X25.449 Y13.828 Z0 F800
G1 X25.344 Y13.612 Z0 F800
;Layer C1 Pass 2 of 2
G0 Z3.5 F500
G0 X25.388 Y15.394 Z3.5 
G1 Z0 F500
G1 X25.344 Y15.345 Z0 F800
G1 X25.247 Y15.277 Z0 F800
G1 X25.389 Y15.197 Z0 F800
G1 Y15.394 Z0 F800
G0 Z3.5 F500
G0 X25.406 Y12.939 Z3.5 
G1 Z0 F500
G1 X25.345 Y12.883 Z0 F800
G1 X25.407 Y12.841 Z0 F800
G1 Y12.939 Z0 F800
G0 Z3.5 F500
G0 X25.344 Y13.612 Z3.5 
G1 Z0 F500
G1 X25.205 Y13.431 Z0 F800
G1 X25.03 Y13.273 Z0 F800
G1 X24.826 Y13.144 Z0 F800
G1 X24.596 Y13.048 Z0 F800
G1 X24.346 Y12.992 Z0 F800
G1 X24.082 Y12.982 Z0 F800
G1 X23.808 Y13.023 Z0 F800
G1 X23.53 Y13.122 Z0 F800
G1 X23.116 Y13.074 Z0 F800
G1 X22.731 Y13.089 Z0 F800
G1 X22.391 Y13.133 Z0 F800
G1 X22.108 Y13.172 Z0 F800
G1 X21.988 Y13.18 Z0 F800
G1 X21.896 Y13.177 Z0 F800
G1 X21.83 Y13.165 Z0 F800
G1 X21.79 Y13.149 Z0 F800
G1 X21.763 Y13.122 Z0 F800
G1 X21.734 Y13.068 Z0 F800
G1 X21.706 Y12.985 Z0 F800
G1 X21.678 Y12.87 Z0 F800
G1 X21.702 Y12.728 Z0 F800
G1 X21.731 Y12.63 Z0 F800
G1 X21.766 Y12.569 Z0 F800
G1 X21.803 Y12.536 Z0 F800
G1 X21.864 Y12.516 Z0 F800
G1 X21.96 Y12.504 Z0 F800
G1 X22.089 Z0 F800
G1 X22.249 Y12.518 Z0 F800
G1 X22.61 Y12.576 Z0 F800
G1 X23.03 Y12.634 Z0 F800
G1 X23.488 Y12.649 Z0 F800
G1 X23.967 Y12.575 Z0 F800
G1 X24.186 Y12.624 Z0 F800
G1 X24.392 Y12.651 Z0 F800
G1 X24.583 Z0 F800
G1 X24.762 Y12.624 Z0 F800
G1 X24.938 Y12.554 Z0 F800
G1 X25.091 Y12.451 Z0 F800
G1 X25.216 Y12.322 Z0 F800
G1 X25.309 Y12.176 Z0 F800
G1 X25.416 Y11.867 Z0 F800
G1 X25.455 Y11.548 Z0 F800
G1 X25.45 Y11.227 Z0 F800
G1 X25.43 Y10.911 Z0 F800
G1 X25.418 Y10.61 Z0 F800
G1 Y10.342 Z0 F800
G1 X25.436 Y10.132 Z0 F800
G1 X25.467 Y10.002 Z0 F800
G1 X25.494 Y9.955 Z0 F800
G1 X25.551 Y9.938 Z0 F800
G1 X25.62 Y9.934 Z0 F800
G1 X25.725 Y9.945 Z0 F800
G1 X25.866 Y9.976 Z0 F800
G1 X26.043 Y10.032 Z0 F800
G1 X26.095 Y10.046 Z0 F800
G1 X26.147 Y10.051 Z0 F800
G1 X26.922 Y10.057 Z0 F800
G1 X27.784 Y10.042 Z0 F800
G1 X28.704 Y10.015 Z0 F800
G1 X29.654 Y9.98 Z0 F800
G1 X30.607 Y9.942 Z0 F800
G1 X31.534 Y9.908 Z0 F800
G1 X32.406 Y9.883 Z0 F800
G1 X33.196 Y9.872 Z0 F800
G1 X33.217 Y10.059 Z0 F800
G1 Y10.206 Z0 F800
G1 X33.135 Y10.346 Z0 F800
G1 X32.985 Y10.452 Z0 F800
G1 X32.739 Y10.535 Z0 F800
G1 X32.408 Y10.583 Z0 F800
G1 X32.009 Y10.597 Z0 F800
G1 X31.563 Y10.579 Z0 F800
G1 X30.598 Y10.473 Z0 F800
G1 X29.633 Y10.344 Z0 F800
G1 X29.226 Y10.299 Z0 F800
G1 X28.852 Y10.277 Z0 F800
G1 X28.506 Y10.29 Z0 F800
G1 X28.188 Y10.352 Z0 F800
G1 X27.886 Y10.292 Z0 F800
G1 X27.597 Y10.26 Z0 F800
G1 X27.322 Y10.257 Z0 F800
G1 X27.064 Y10.285 Z0 F800
G1 X26.825 Y10.343 Z0 F800
G1 X26.605 Y10.433 Z0 F800
G1 X26.409 Y10.554 Z0 F800
G1 X26.237 Y10.708 Z0 F800
G1 X26.088 Y10.896 Z0 F800
G1 X25.973 Y11.106 Z0 F800
G1 X25.889 Y11.338 Z0 F800
G1 X25.836 Y11.588 Z0 F800
G1 X25.814 Y11.854 Z0 F800
G1 X25.821 Y12.136 Z0 F800
G1 X25.856 Y12.43 Z0 F800
G1 X25.909 Y12.686 Z0 F800
G1 X25.88 Y16.336 Z0 F800
G1 X25.846 Y20.016 Z0 F800
G1 X25.695 Y20.028 Z0 F800
G1 X25.573 Y20.034 Z0 F800
G1 X25.492 Y20.024 Z0 F800
G1 X25.477 Y19.929 Z0 F800
G1 X25.473 Y19.711 Z0 F800
G1 X25.479 Y19.399 Z0 F800
G1 X25.476 Y19.352 Z0 F800
G1 X25.43 Y19.131 Z0 F800
G1 X25.413 Y18.933 Z0 F800
G1 X25.41 Y18.713 Z0 F800
G1 X25.418 Y18.478 Z0 F800
G1 X25.493 Y17.442 Z0 F800
G1 X25.503 Y17.177 Z0 F800
G1 X25.5 Y16.915 Z0 F800
G1 X25.475 Y16.655 Z0 F800
G1 X25.422 Y16.401 Z0 F800
G1 X25.332 Y16.155 Z0 F800
G1 X25.196 Y15.925 Z0 F800
G1 X25.012 Y15.723 Z0 F800
G1 X24.778 Y15.56 Z0 F800
G1 X24.719 Y15.535 Z0 F800
G1 X24.657 Y15.522 Z0 F800
G1 X24.125 Y15.492 Z0 F800
G1 X23.644 Y15.504 Z0 F800
G1 X22.821 Y15.562 Z0 F800
G1 X22.53 Z0 F800
G1 X22.266 Y15.525 Z0 F800
G1 X22.021 Y15.453 Z0 F800
G1 X21.782 Y15.339 Z0 F800
G1 X21.83 Y15.111 Z0 F800
G1 X21.891 Y14.972 Z0 F800
G1 X21.962 Y14.935 Z0 F800
G1 X22.066 Y14.91 Z0 F800
G1 X22.205 Y14.898 Z0 F800
G1 X22.377 Y14.903 Z0 F800
G1 X22.801 Y14.957 Z0 F800
G1 X23.297 Y15.023 Z0 F800
G1 X23.564 Y15.042 Z0 F800
G1 X23.84 Z0 F800
G1 X24.121 Y15.013 Z0 F800
G1 X24.412 Y14.949 Z0 F800
G1 X24.729 Y14.918 Z0 F800
G1 X24.999 Y14.843 Z0 F800
G1 X25.22 Y14.719 Z0 F800
G1 X25.385 Y14.542 Z0 F800
G1 X25.485 Y14.309 Z0 F800
G1 X25.501 Y14.066 Z0 F800
G1 X25.449 Y13.828 Z0 F800
G1 X25.344 Y13.612 Z0 F800
G0 Z3.5 F500
G0 X30.682 Y17.442 Z3.5 
G1 Z0 F500
;Layer C1 Pass 1 of 2
G1 X30.856 Y17.464 Z0 F800
G1 X30.901 Y18.108 Z0 F800
G1 X30.874 Y18.771 Z0 F800
G1 X30.795 Y19.448 Z0 F800
G1 X30.692 Y20.136 Z0 F800
G1 X30.646 Y20.544 Z0 F800
G1 X30.612 Y20.954 Z0 F800
G1 X30.538 Y20.449 Z0 F800
G1 X30.468 Y19.947 Z0 F800
G1 X30.416 Y19.458 Z0 F800
G1 X30.393 Y18.991 Z0 F800
G1 X30.389 Y18.612 Z0 F800
G1 X30.381 Y18.243 Z0 F800
G1 X30.388 Y17.914 Z0 F800
G1 X30.424 Y17.655 Z0 F800
G1 X30.484 Y17.505 Z0 F800
G1 X30.561 Y17.44 Z0 F800
G1 X30.682 Z0 F800
;Layer C1 Pass 2 of 2
G1 X30.856 Y17.464 Z0 F800
G1 X30.901 Y18.108 Z0 F800
G1 X30.874 Y18.771 Z0 F800
G1 X30.795 Y19.448 Z0 F800
G1 X30.692 Y20.136 Z0 F800
G1 X30.646 Y20.544 Z0 F800
G1 X30.612 Y20.954 Z0 F800
G1 X30.538 Y20.449 Z0 F800
G1 X30.468 Y19.947 Z0 F800
G1 X30.416 Y19.458 Z0 F800
G1 X30.393 Y18.991 Z0 F800
G1 X30.389 Y18.612 Z0 F800
G1 X30.381 Y18.243 Z0 F800
G1 X30.388 Y17.914 Z0 F800
G1 X30.424 Y17.655 Z0 F800
G1 X30.484 Y17.505 Z0 F800
G1 X30.561 Y17.44 Z0 F800
G1 X30.682 Z0 F800
G0 Z3.5 F500
G0 X37.7 Y15.103 Z3.5 
G1 Z0 F500
;Layer C1 Pass 1 of 2
G1 X37.721 Y22.929 Z0 F800
G1 X37.664 Y22.936 Z0 F800
G1 X37.677 Y22.55 Z0 F800
G1 X37.674 Y22.022 Z0 F800
G1 X37.637 Y21.446 Z0 F800
G1 X37.542 Y20.823 Z0 F800
G1 X37.364 Y20.156 Z0 F800
G1 X37.068 Y19.46 Z0 F800
G1 X36.653 Y18.813 Z0 F800
G1 X36.952 Y18.514 Z0 F800
G1 X37.445 Y17.642 Z0 F800
G1 X37.674 Y16.729 Z0 F800
G1 X37.695 Y16.268 Z0 F800
G1 X37.639 Y15.646 Z0 F800
G1 X37.631 Y15.235 Z0 F800
G1 Y15.103 Z0 F800
G1 X37.7 Z0 F800
G0 Z3.5 F500
G0 X38.199 Y14.604 Z3.5 
G1 Z0 F500
G1 X38.222 Y23.38 Z0 F800
G1 X37.998 Y23.403 Z0 F800
G1 X37.134 Y23.495 Z0 F800
G1 X37.161 Y23.009 Z0 F800
G1 X37.177 Y22.542 Z0 F800
G1 X37.174 Y22.04 Z0 F800
G1 X37.139 Y21.5 Z0 F800
G1 X37.052 Y20.925 Z0 F800
G1 X36.891 Y20.319 Z0 F800
G1 X36.625 Y19.695 Z0 F800
G1 X36.233 Y19.083 Z0 F800
G1 X35.961 Y18.798 Z0 F800
G1 X36.55 Y18.208 Z0 F800
G1 X36.977 Y17.455 Z0 F800
G1 X37.177 Y16.656 Z0 F800
G1 X37.194 Y16.279 Z0 F800
G1 X37.139 Y15.672 Z0 F800
G1 X37.131 Y15.242 Z0 F800
G1 X37.125 Y14.666 Z0 F800
G1 Y14.622 Z0 F800
G1 X37.521 Y14.603 Z0 F800
G1 X38.199 Z0 F800
G0 Z3.5 F500
G0 X38.698 Y14.105 Z3.5 
G1 Z0 F500
G1 X38.724 Y23.832 Z0 F800
G1 X38.049 Y23.9 Z0 F800
G1 X36.604 Y24.054 Z0 F800
G1 X36.62 Y23.731 Z0 F800
G1 X36.661 Y22.986 Z0 F800
G1 X36.677 Y22.535 Z0 F800
G1 Y22.057 Z0 F800
G1 X36.642 Y21.553 Z0 F800
G1 X36.562 Y21.027 Z0 F800
G1 X36.417 Y20.482 Z0 F800
G1 X36.181 Y19.93 Z0 F800
G1 X35.837 Y19.394 Z0 F800
G1 X35.314 Y18.844 Z0 F800
G1 X35.089 Y18.722 Z0 F800
G1 X35.648 Y18.403 Z0 F800
G1 X36.149 Y17.903 Z0 F800
G1 X36.508 Y17.268 Z0 F800
G1 X36.679 Y16.583 Z0 F800
G1 X36.693 Y16.29 Z0 F800
G1 X36.64 Y15.693 Z0 F800
G1 X36.631 Y15.247 Z0 F800
G1 X36.625 Y14.682 Z0 F800
G1 X36.595 Y14.146 Z0 F800
G1 X36.657 Z0 F800
G1 X37.508 Y14.103 Z0 F800
G1 X38.224 Z0 F800
G1 X38.238 Z0 F800
G1 X38.698 Z0 F800
G0 Z3.5 F500
G0 X39.196 Y13.606 Z3.5 
G1 Z0 F500
G1 X39.225 Y24.284 Z0 F800
G1 X38.101 Y24.397 Z0 F800
G1 X36.577 Y24.561 Z0 F800
G1 X36.087 Y24.589 Z0 F800
G1 Y24.39 Z0 F800
G1 X36.121 Y23.704 Z0 F800
G1 X36.162 Y22.964 Z0 F800
G1 X36.177 Y22.528 Z0 F800
G1 Y22.075 Z0 F800
G1 X36.144 Y21.607 Z0 F800
G1 X36.072 Y21.13 Z0 F800
G1 X35.942 Y20.646 Z0 F800
G1 X35.738 Y20.164 Z0 F800
G1 X35.442 Y19.704 Z0 F800
G1 X35.006 Y19.246 Z0 F800
G1 X34.671 Y19.064 Z0 F800
G1 X34.328 Y18.985 Z0 F800
G1 X34.134 Y18.992 Z0 F800
G1 X33.904 Y18.944 Z0 F800
G1 X33.871 Z0 F800
G1 X33.88 Y18.701 Z0 F800
G1 X33.894 Y18.467 Z0 F800
G1 X34.075 Y18.456 Z0 F800
G1 X34.448 Y18.397 Z0 F800
G1 X34.881 Y18.265 Z0 F800
G1 X35.342 Y18.002 Z0 F800
G1 X35.747 Y17.597 Z0 F800
G1 X36.04 Y17.081 Z0 F800
G1 X36.182 Y16.51 Z0 F800
G1 X36.192 Y16.3 Z0 F800
G1 X36.141 Y15.727 Z0 F800
G1 X36.131 Y15.241 Z0 F800
G1 X36.125 Y14.698 Z0 F800
G1 X36.091 Y14.084 Z0 F800
G1 X36.01 Y13.639 Z0 F800
G1 X36.146 Y13.647 Z0 F800
G1 X36.644 Z0 F800
G1 X37.494 Y13.603 Z0 F800
G1 X38.244 Z0 F800
G1 X38.258 Z0 F800
G1 X39.196 Y13.606 Z0 F800
G0 Z3.5 F500
G0 X39.695 Y13.106 Z3.5 
G1 Z0 F500
G1 X39.725 Y24.522 Z0 F800
G1 X39.76 Y24.733 Z0 F800
G1 X39.731 Z0 F800
G1 X38.153 Y24.895 Z0 F800
G1 X36.619 Y25.059 Z0 F800
G1 X35.594 Y25.12 Z0 F800
G1 X35.585 Y25.016 Z0 F800
G1 X35.588 Y24.375 Z0 F800
G1 X35.622 Y23.673 Z0 F800
G1 X35.662 Y22.941 Z0 F800
G1 X35.677 Y22.52 Z0 F800
G1 Y22.092 Z0 F800
G1 X35.646 Y21.661 Z0 F800
G1 X35.582 Y21.232 Z0 F800
G1 X35.469 Y20.809 Z0 F800
G1 X35.294 Y20.399 Z0 F800
G1 X35.047 Y20.014 Z0 F800
G1 X34.699 Y19.648 Z0 F800
G1 X34.493 Y19.536 Z0 F800
G1 X34.28 Y19.487 Z0 F800
G1 X34.08 Y19.494 Z0 F800
G1 X34.063 Y19.488 Z0 F800
G1 X33.849 Y19.443 Z0 F800
G1 X33.633 Y19.44 Z0 F800
G1 X33.361 Y19.513 Z0 F800
G1 Y19.357 Z0 F800
G1 X33.368 Y18.994 Z0 F800
G1 X33.381 Y18.671 Z0 F800
G1 X33.398 Y18.377 Z0 F800
G1 X33.42 Y18.101 Z0 F800
G1 Y17.987 Z0 F800
G1 X33.5 Y17.983 Z0 F800
G1 X33.738 Y17.976 Z0 F800
G1 X34.02 Y17.958 Z0 F800
G1 X34.336 Y17.908 Z0 F800
G1 X34.682 Y17.803 Z0 F800
G1 X35.037 Y17.601 Z0 F800
G1 X35.346 Y17.292 Z0 F800
G1 X35.571 Y16.893 Z0 F800
G1 X35.685 Y16.437 Z0 F800
G1 X35.691 Y16.312 Z0 F800
G1 X35.641 Y15.753 Z0 F800
G1 X35.631 Y15.251 Z0 F800
G1 X35.626 Y14.714 Z0 F800
G1 X35.594 Y14.143 Z0 F800
G1 X35.493 Y13.589 Z0 F800
G1 X35.285 Y13.051 Z0 F800
G1 X35.675 Y13.117 Z0 F800
G1 X36.161 Y13.147 Z0 F800
G1 X36.63 Z0 F800
G1 X37.489 Y13.103 Z0 F800
G1 X38.264 Z0 F800
G1 X38.277 Z0 F800
G1 X39.695 Y13.106 Z0 F800
G0 Z3.5 F500
G0 X40.194 Y12.606 Z3.5 
G1 Z0 F500
G1 X40.225 Y24.481 Z0 F800
G1 X40.242 Y24.583 Z0 F800
G1 X40.289 Y24.673 Z0 F800
G1 X40.361 Y24.744 Z0 F800
G1 X40.454 Y24.79 Z0 F800
G1 X41.068 Y24.947 Z0 F800
G1 X41.719 Y25.059 Z0 F800
G1 X42.392 Y25.125 Z0 F800
G1 X43.059 Y25.148 Z0 F800
G1 X41.342 Y25.165 Z0 F800
G1 X39.767 Y25.234 Z0 F800
G1 X38.205 Y25.392 Z0 F800
G1 X36.66 Y25.557 Z0 F800
G1 X35.137 Y25.647 Z0 F800
G1 X35.085 Y25.033 Z0 F800
G1 X35.088 Y24.36 Z0 F800
G1 X35.123 Y23.649 Z0 F800
G1 X35.163 Y22.919 Z0 F800
G1 X35.177 Y22.513 Z0 F800
G1 Y22.11 Z0 F800
G1 X35.149 Y21.715 Z0 F800
G1 X35.091 Y21.334 Z0 F800
G1 X34.995 Y20.972 Z0 F800
G1 X34.851 Y20.633 Z0 F800
G1 X34.652 Y20.324 Z0 F800
G1 X34.391 Y20.05 Z0 F800
G1 X34.314 Y20.008 Z0 F800
G1 X34.231 Y19.989 Z0 F800
G1 X34.146 Y19.992 Z0 F800
G1 X34.063 Y20.019 Z0 F800
G1 X34.008 Y20.001 Z0 F800
G1 X33.924 Y19.97 Z0 F800
G1 X33.793 Y19.942 Z0 F800
G1 X33.695 Z0 F800
G1 X33.573 Y19.974 Z0 F800
G1 X33.452 Y20.061 Z0 F800
G1 X33.372 Y20.179 Z0 F800
G1 X33.26 Y20.425 Z0 F800
G1 X33.157 Y20.63 Z0 F800
G1 X33.065 Y20.795 Z0 F800
G1 X32.985 Y20.921 Z0 F800
G1 X32.954 Y20.824 Z0 F800
G1 X32.926 Y20.7 Z0 F800
G1 X32.892 Y20.408 Z0 F800
G1 X32.871 Y20.075 Z0 F800
G1 X32.861 Y19.716 Z0 F800
G1 Y19.347 Z0 F800
G1 X32.868 Y18.984 Z0 F800
G1 X32.882 Y18.642 Z0 F800
G1 X32.9 Y18.336 Z0 F800
G1 X32.92 Y18.083 Z0 F800
G1 Y18.02 Z0 F800
G1 X32.907 Y17.958 Z0 F800
G1 X32.875 Y17.833 Z0 F800
G1 X32.858 Y17.735 Z0 F800
G1 X32.854 Y17.662 Z0 F800
G1 X32.858 Y17.614 Z0 F800
G1 X32.867 Y17.577 Z0 F800
G1 X32.887 Y17.563 Z0 F800
G1 X32.957 Y17.539 Z0 F800
G1 X33.087 Y17.515 Z0 F800
G1 X33.266 Y17.495 Z0 F800
G1 X33.479 Y17.483 Z0 F800
G1 X33.715 Y17.477 Z0 F800
G1 X33.965 Y17.46 Z0 F800
G1 X34.224 Y17.42 Z0 F800
G1 X34.483 Y17.341 Z0 F800
G1 X34.73 Y17.2 Z0 F800
G1 X34.944 Y16.986 Z0 F800
G1 X35.103 Y16.706 Z0 F800
G1 X35.188 Y16.364 Z0 F800
G1 Y16.322 Z0 F800
G1 X35.141 Y15.78 Z0 F800
G1 X35.131 Y15.261 Z0 F800
G1 X35.126 Y14.731 Z0 F800
G1 X35.096 Y14.202 Z0 F800
G1 X35.009 Y13.726 Z0 F800
G1 X34.833 Y13.27 Z0 F800
G1 X34.706 Y13.056 Z0 F800
G1 X34.55 Y12.855 Z0 F800
G1 X34.363 Y12.67 Z0 F800
G1 X34.143 Y12.503 Z0 F800
G1 X34.149 Y12.462 Z0 F800
G1 X34.167 Y12.399 Z0 F800
G1 X34.203 Y12.309 Z0 F800
G1 X34.266 Y12.185 Z0 F800
G1 X34.281 Y12.12 Z0 F800
G1 X34.295 Y11.988 Z0 F800
G1 X34.31 Y11.796 Z0 F800
G1 X34.324 Y11.557 Z0 F800
G1 X34.352 Y10.969 Z0 F800
G1 X34.406 Y9.631 Z0 F800
G1 X34.434 Y9.036 Z0 F800
G1 X34.447 Y8.79 Z0 F800
G1 X34.461 Y8.592 Z0 F800
G1 X34.475 Y8.452 Z0 F800
G1 X34.489 Y8.378 Z0 F800
G1 X34.496 Y8.454 Z0 F800
G1 X34.503 Y8.596 Z0 F800
G1 X34.519 Y9.042 Z0 F800
G1 X34.558 Y10.315 Z0 F800
G1 X34.581 Y10.989 Z0 F800
G1 X34.607 Y11.586 Z0 F800
G1 X34.621 Y11.832 Z0 F800
G1 X34.636 Y12.03 Z0 F800
G1 X34.652 Y12.171 Z0 F800
G1 X34.668 Y12.245 Z0 F800
G1 X34.742 Y12.347 Z0 F800
G1 X34.848 Y12.413 Z0 F800
G1 X35.289 Y12.545 Z0 F800
G1 X35.732 Y12.619 Z0 F800
G1 X36.176 Y12.647 Z0 F800
G1 X36.616 Z0 F800
G1 X37.475 Y12.603 Z0 F800
G1 X38.284 Z0 F800
G1 X38.296 Z0 F800
G1 X40.194 Y12.606 Z0 F800
G0 Z3.5 F500
G0 X46.979 Y20.667 Z3.5 
G1 Z0 F500
G1 Y25.609 Z0 F800
G1 X46.873 Y25.508 Z0 F800
G1 X46.719 Y25.318 Z0 F800
G1 X46.66 Y25.227 Z0 F800
G1 X46.721 Y25.14 Z0 F800
G1 X46.825 Y24.833 Z0 F800
G1 X46.917 Y24.194 Z0 F800
G1 X46.963 Y23.621 Z0 F800
G1 X46.979 Y23.065 Z0 F800
G1 X46.976 Y22.528 Z0 F800
G1 X46.951 Y21.53 Z0 F800
G1 X46.957 Y20.667 Z0 F800
G1 X46.979 Z0 F800
G0 Z3.5 F500
G0 X47.479 Y20.167 Z3.5 
G1 Z0 F500
G1 Y26.279 Z0 F800
G1 X47.282 Y26.304 Z0 F800
G1 X47.11 Y26.275 Z0 F800
G1 X46.921 Y26.192 Z0 F800
G1 X46.713 Y26.047 Z0 F800
G1 X46.505 Y25.848 Z0 F800
G1 X46.314 Y25.611 Z0 F800
G1 X46.152 Y25.362 Z0 F800
G1 X46.055 Y25.17 Z0 F800
G1 X46.139 Y25.102 Z0 F800
G1 X46.27 Y24.913 Z0 F800
G1 X46.336 Y24.715 Z0 F800
G1 X46.42 Y24.139 Z0 F800
G1 X46.463 Y23.594 Z0 F800
G1 X46.479 Y23.06 Z0 F800
G1 X46.476 Y22.535 Z0 F800
G1 X46.451 Y21.521 Z0 F800
G1 X46.458 Y20.542 Z0 F800
G1 X46.454 Y20.262 Z0 F800
G1 X46.451 Y20.167 Z0 F800
G1 X47.479 Z0 F800
G0 Z3.5 F500
G0 X47.979 Y19.667 Z3.5 
G1 Z0 F500
G1 Y26.757 Z0 F800
G1 X47.678 Z0 F800
G1 X47.636 Y26.76 Z0 F800
G1 X47.594 Y26.769 Z0 F800
G1 X47.272 Y26.809 Z0 F800
G1 X46.966 Y26.758 Z0 F800
G1 X46.674 Y26.63 Z0 F800
G1 X46.395 Y26.435 Z0 F800
G1 X46.136 Y26.186 Z0 F800
G1 X45.908 Y25.905 Z0 F800
G1 X45.721 Y25.616 Z0 F800
G1 X45.581 Y25.341 Z0 F800
G1 X45.532 Y25.262 Z0 F800
G1 X45.464 Y25.202 Z0 F800
G1 X45.383 Y25.163 Z0 F800
G1 X45.292 Y25.147 Z0 F800
G1 X43.309 Z0 F800
G1 X43.116 Z0 F800
G1 X43.751 Y25.132 Z0 F800
G1 X44.409 Y25.076 Z0 F800
G1 X45.035 Y24.982 Z0 F800
G1 X45.614 Y24.853 Z0 F800
G1 X45.698 Y24.816 Z0 F800
G1 X45.768 Y24.759 Z0 F800
G1 X45.819 Y24.686 Z0 F800
G1 X45.848 Y24.599 Z0 F800
G1 X45.923 Y24.083 Z0 F800
G1 X45.964 Y23.567 Z0 F800
G1 X45.979 Y23.054 Z0 F800
G1 X45.976 Y22.542 Z0 F800
G1 X45.951 Y21.533 Z0 F800
G1 X45.958 Y20.543 Z0 F800
G1 X45.954 Y20.274 Z0 F800
G1 X45.946 Y20.026 Z0 F800
G1 X45.943 Y19.816 Z0 F800
G1 X45.958 Y19.669 Z0 F800
G1 X45.975 Y19.614 Z0 F800
G1 X45.99 Y19.611 Z0 F800
G1 X46.037 Z0 F800
G1 X46.12 Y19.62 Z0 F800
G1 X46.291 Y19.663 Z0 F800
G1 X46.34 Y19.667 Z0 F800
G1 X47.979 Z0 F800
;Layer C1 Pass 2 of 2
G0 Z3.5 F500
G0 X37.7 Y15.103 Z3.5 
G1 Z0 F500
G1 X37.721 Y22.929 Z0 F800
G1 X37.664 Y22.936 Z0 F800
G1 X37.677 Y22.55 Z0 F800
G1 X37.674 Y22.022 Z0 F800
G1 X37.637 Y21.446 Z0 F800
G1 X37.542 Y20.823 Z0 F800
G1 X37.364 Y20.156 Z0 F800
G1 X37.068 Y19.46 Z0 F800
G1 X36.653 Y18.813 Z0 F800
G1 X36.952 Y18.514 Z0 F800
G1 X37.445 Y17.642 Z0 F800
G1 X37.674 Y16.729 Z0 F800
G1 X37.695 Y16.268 Z0 F800
G1 X37.639 Y15.646 Z0 F800
G1 X37.631 Y15.235 Z0 F800
G1 Y15.103 Z0 F800
G1 X37.7 Z0 F800
G0 Z3.5 F500
G0 X38.199 Y14.604 Z3.5 
G1 Z0 F500
G1 X38.222 Y23.38 Z0 F800
G1 X37.998 Y23.403 Z0 F800
G1 X37.134 Y23.495 Z0 F800
G1 X37.161 Y23.009 Z0 F800
G1 X37.177 Y22.542 Z0 F800
G1 X37.174 Y22.04 Z0 F800
G1 X37.139 Y21.5 Z0 F800
G1 X37.052 Y20.925 Z0 F800
G1 X36.891 Y20.319 Z0 F800
G1 X36.625 Y19.695 Z0 F800
G1 X36.233 Y19.083 Z0 F800
G1 X35.961 Y18.798 Z0 F800
G1 X36.55 Y18.208 Z0 F800
G1 X36.977 Y17.455 Z0 F800
G1 X37.177 Y16.656 Z0 F800
G1 X37.194 Y16.279 Z0 F800
G1 X37.139 Y15.672 Z0 F800
G1 X37.131 Y15.242 Z0 F800
G1 X37.125 Y14.666 Z0 F800
G1 Y14.622 Z0 F800
G1 X37.521 Y14.603 Z0 F800
G1 X38.199 Z0 F800
G0 Z3.5 F500
G0 X38.698 Y14.105 Z3.5 
G1 Z0 F500
G1 X38.724 Y23.832 Z0 F800
G1 X38.049 Y23.9 Z0 F800
G1 X36.604 Y24.054 Z0 F800
G1 X36.62 Y23.731 Z0 F800
G1 X36.661 Y22.986 Z0 F800
G1 X36.677 Y22.535 Z0 F800
G1 Y22.057 Z0 F800
G1 X36.642 Y21.553 Z0 F800
G1 X36.562 Y21.027 Z0 F800
G1 X36.417 Y20.482 Z0 F800
G1 X36.181 Y19.93 Z0 F800
G1 X35.837 Y19.394 Z0 F800
G1 X35.314 Y18.844 Z0 F800
G1 X35.089 Y18.722 Z0 F800
G1 X35.648 Y18.403 Z0 F800
G1 X36.149 Y17.903 Z0 F800
G1 X36.508 Y17.268 Z0 F800
G1 X36.679 Y16.583 Z0 F800
G1 X36.693 Y16.29 Z0 F800
G1 X36.64 Y15.693 Z0 F800
G1 X36.631 Y15.247 Z0 F800
G1 X36.625 Y14.682 Z0 F800
G1 X36.595 Y14.146 Z0 F800
G1 X36.657 Z0 F800
G1 X37.508 Y14.103 Z0 F800
G1 X38.224 Z0 F800
G1 X38.238 Z0 F800
G1 X38.698 Z0 F800
G0 Z3.5 F500
G0 X39.196 Y13.606 Z3.5 
G1 Z0 F500
G1 X39.225 Y24.284 Z0 F800
G1 X38.101 Y24.397 Z0 F800
G1 X36.577 Y24.561 Z0 F800
G1 X36.087 Y24.589 Z0 F800
G1 Y24.39 Z0 F800
G1 X36.121 Y23.704 Z0 F800
G1 X36.162 Y22.964 Z0 F800
G1 X36.177 Y22.528 Z0 F800
G1 Y22.075 Z0 F800
G1 X36.144 Y21.607 Z0 F800
G1 X36.072 Y21.13 Z0 F800
G1 X35.942 Y20.646 Z0 F800
G1 X35.738 Y20.164 Z0 F800
G1 X35.442 Y19.704 Z0 F800
G1 X35.006 Y19.246 Z0 F800
G1 X34.671 Y19.064 Z0 F800
G1 X34.328 Y18.985 Z0 F800
G1 X34.134 Y18.992 Z0 F800
G1 X33.904 Y18.944 Z0 F800
G1 X33.871 Z0 F800
G1 X33.88 Y18.701 Z0 F800
G1 X33.894 Y18.467 Z0 F800
G1 X34.075 Y18.456 Z0 F800
G1 X34.448 Y18.397 Z0 F800
G1 X34.881 Y18.265 Z0 F800
G1 X35.342 Y18.002 Z0 F800
G1 X35.747 Y17.597 Z0 F800
G1 X36.04 Y17.081 Z0 F800
G1 X36.182 Y16.51 Z0 F800
G1 X36.192 Y16.3 Z0 F800
G1 X36.141 Y15.727 Z0 F800
G1 X36.131 Y15.241 Z0 F800
G1 X36.125 Y14.698 Z0 F800
G1 X36.091 Y14.084 Z0 F800
G1 X36.01 Y13.639 Z0 F800
G1 X36.146 Y13.647 Z0 F800
G1 X36.644 Z0 F800
G1 X37.494 Y13.603 Z0 F800
G1 X38.244 Z0 F800
G1 X38.258 Z0 F800
G1 X39.196 Y13.606 Z0 F800
G0 Z3.5 F500
G0 X39.695 Y13.106 Z3.5 
G1 Z0 F500
G1 X39.725 Y24.522 Z0 F800
G1 X39.76 Y24.733 Z0 F800
G1 X39.731 Z0 F800
G1 X38.153 Y24.895 Z0 F800
G1 X36.619 Y25.059 Z0 F800
G1 X35.594 Y25.12 Z0 F800
G1 X35.585 Y25.016 Z0 F800
G1 X35.588 Y24.375 Z0 F800
G1 X35.622 Y23.673 Z0 F800
G1 X35.662 Y22.941 Z0 F800
G1 X35.677 Y22.52 Z0 F800
G1 Y22.092 Z0 F800
G1 X35.646 Y21.661 Z0 F800
G1 X35.582 Y21.232 Z0 F800
G1 X35.469 Y20.809 Z0 F800
G1 X35.294 Y20.399 Z0 F800
G1 X35.047 Y20.014 Z0 F800
G1 X34.699 Y19.648 Z0 F800
G1 X34.493 Y19.536 Z0 F800
G1 X34.28 Y19.487 Z0 F800
G1 X34.08 Y19.494 Z0 F800
G1 X34.063 Y19.488 Z0 F800
G1 X33.849 Y19.443 Z0 F800
G1 X33.633 Y19.44 Z0 F800
G1 X33.361 Y19.513 Z0 F800
G1 Y19.357 Z0 F800
G1 X33.368 Y18.994 Z0 F800
G1 X33.381 Y18.671 Z0 F800
G1 X33.398 Y18.377 Z0 F800
G1 X33.42 Y18.101 Z0 F800
G1 Y17.987 Z0 F800
G1 X33.5 Y17.983 Z0 F800
G1 X33.738 Y17.976 Z0 F800
G1 X34.02 Y17.958 Z0 F800
G1 X34.336 Y17.908 Z0 F800
G1 X34.682 Y17.803 Z0 F800
G1 X35.037 Y17.601 Z0 F800
G1 X35.346 Y17.292 Z0 F800
G1 X35.571 Y16.893 Z0 F800
G1 X35.685 Y16.437 Z0 F800
G1 X35.691 Y16.312 Z0 F800
G1 X35.641 Y15.753 Z0 F800
G1 X35.631 Y15.251 Z0 F800
G1 X35.626 Y14.714 Z0 F800
G1 X35.594 Y14.143 Z0 F800
G1 X35.493 Y13.589 Z0 F800
G1 X35.285 Y13.051 Z0 F800
G1 X35.675 Y13.117 Z0 F800
G1 X36.161 Y13.147 Z0 F800
G1 X36.63 Z0 F800
G1 X37.489 Y13.103 Z0 F800
G1 X38.264 Z0 F800
G1 X38.277 Z0 F800
G1 X39.695 Y13.106 Z0 F800
G0 Z3.5 F500
G0 X40.194 Y12.606 Z3.5 
G1 Z0 F500
G1 X40.225 Y24.481 Z0 F800
G1 X40.242 Y24.583 Z0 F800
G1 X40.289 Y24.673 Z0 F800
G1 X40.361 Y24.744 Z0 F800
G1 X40.454 Y24.79 Z0 F800
G1 X41.068 Y24.947 Z0 F800
G1 X41.719 Y25.059 Z0 F800
G1 X42.392 Y25.125 Z0 F800
G1 X43.059 Y25.148 Z0 F800
G1 X41.342 Y25.165 Z0 F800
G1 X39.767 Y25.234 Z0 F800
G1 X38.205 Y25.392 Z0 F800
G1 X36.66 Y25.557 Z0 F800
G1 X35.137 Y25.647 Z0 F800
G1 X35.085 Y25.033 Z0 F800
G1 X35.088 Y24.36 Z0 F800
G1 X35.123 Y23.649 Z0 F800
G1 X35.163 Y22.919 Z0 F800
G1 X35.177 Y22.513 Z0 F800
G1 Y22.11 Z0 F800
G1 X35.149 Y21.715 Z0 F800
G1 X35.091 Y21.334 Z0 F800
G1 X34.995 Y20.972 Z0 F800
G1 X34.851 Y20.633 Z0 F800
G1 X34.652 Y20.324 Z0 F800
G1 X34.391 Y20.05 Z0 F800
G1 X34.314 Y20.008 Z0 F800
G1 X34.231 Y19.989 Z0 F800
G1 X34.146 Y19.992 Z0 F800
G1 X34.063 Y20.019 Z0 F800
G1 X34.008 Y20.001 Z0 F800
G1 X33.924 Y19.97 Z0 F800
G1 X33.793 Y19.942 Z0 F800
G1 X33.695 Z0 F800
G1 X33.573 Y19.974 Z0 F800
G1 X33.452 Y20.061 Z0 F800
G1 X33.372 Y20.179 Z0 F800
G1 X33.26 Y20.425 Z0 F800
G1 X33.157 Y20.63 Z0 F800
G1 X33.065 Y20.795 Z0 F800
G1 X32.985 Y20.921 Z0 F800
G1 X32.954 Y20.824 Z0 F800
G1 X32.926 Y20.7 Z0 F800
G1 X32.892 Y20.408 Z0 F800
G1 X32.871 Y20.075 Z0 F800
G1 X32.861 Y19.716 Z0 F800
G1 Y19.347 Z0 F800
G1 X32.868 Y18.984 Z0 F800
G1 X32.882 Y18.642 Z0 F800
G1 X32.9 Y18.336 Z0 F800
G1 X32.92 Y18.083 Z0 F800
G1 Y18.02 Z0 F800
G1 X32.907 Y17.958 Z0 F800
G1 X32.875 Y17.833 Z0 F800
G1 X32.858 Y17.735 Z0 F800
G1 X32.854 Y17.662 Z0 F800
G1 X32.858 Y17.614 Z0 F800
G1 X32.867 Y17.577 Z0 F800
G1 X32.887 Y17.563 Z0 F800
G1 X32.957 Y17.539 Z0 F800
G1 X33.087 Y17.515 Z0 F800
G1 X33.266 Y17.495 Z0 F800
G1 X33.479 Y17.483 Z0 F800
G1 X33.715 Y17.477 Z0 F800
G1 X33.965 Y17.46 Z0 F800
G1 X34.224 Y17.42 Z0 F800
G1 X34.483 Y17.341 Z0 F800
G1 X34.73 Y17.2 Z0 F800
G1 X34.944 Y16.986 Z0 F800
G1 X35.103 Y16.706 Z0 F800
G1 X35.188 Y16.364 Z0 F800
G1 Y16.322 Z0 F800
G1 X35.141 Y15.78 Z0 F800
G1 X35.131 Y15.261 Z0 F800
G1 X35.126 Y14.731 Z0 F800
G1 X35.096 Y14.202 Z0 F800
G1 X35.009 Y13.726 Z0 F800
G1 X34.833 Y13.27 Z0 F800
G1 X34.706 Y13.056 Z0 F800
G1 X34.55 Y12.855 Z0 F800
G1 X34.363 Y12.67 Z0 F800
G1 X34.143 Y12.503 Z0 F800
G1 X34.149 Y12.462 Z0 F800
G1 X34.167 Y12.399 Z0 F800
G1 X34.203 Y12.309 Z0 F800
G1 X34.266 Y12.185 Z0 F800
G1 X34.281 Y12.12 Z0 F800
G1 X34.295 Y11.988 Z0 F800
G1 X34.31 Y11.796 Z0 F800
G1 X34.324 Y11.557 Z0 F800
G1 X34.352 Y10.969 Z0 F800
G1 X34.406 Y9.631 Z0 F800
G1 X34.434 Y9.036 Z0 F800
G1 X34.447 Y8.79 Z0 F800
G1 X34.461 Y8.592 Z0 F800
G1 X34.475 Y8.452 Z0 F800
G1 X34.489 Y8.378 Z0 F800
G1 X34.496 Y8.454 Z0 F800
G1 X34.503 Y8.596 Z0 F800
G1 X34.519 Y9.042 Z0 F800
G1 X34.558 Y10.315 Z0 F800
G1 X34.581 Y10.989 Z0 F800
G1 X34.607 Y11.586 Z0 F800
G1 X34.621 Y11.832 Z0 F800
G1 X34.636 Y12.03 Z0 F800
G1 X34.652 Y12.171 Z0 F800
G1 X34.668 Y12.245 Z0 F800
G1 X34.742 Y12.347 Z0 F800
G1 X34.848 Y12.413 Z0 F800
G1 X35.289 Y12.545 Z0 F800
G1 X35.732 Y12.619 Z0 F800
G1 X36.176 Y12.647 Z0 F800
G1 X36.616 Z0 F800
G1 X37.475 Y12.603 Z0 F800
G1 X38.284 Z0 F800
G1 X38.296 Z0 F800
G1 X40.194 Y12.606 Z0 F800
G0 Z3.5 F500
G0 X46.979 Y20.667 Z3.5 
G1 Z0 F500
G1 Y25.609 Z0 F800
G1 X46.873 Y25.508 Z0 F800
G1 X46.719 Y25.318 Z0 F800
G1 X46.66 Y25.227 Z0 F800
G1 X46.721 Y25.14 Z0 F800
G1 X46.825 Y24.833 Z0 F800
G1 X46.917 Y24.194 Z0 F800
G1 X46.963 Y23.621 Z0 F800
G1 X46.979 Y23.065 Z0 F800
G1 X46.976 Y22.528 Z0 F800
G1 X46.951 Y21.53 Z0 F800
G1 X46.957 Y20.667 Z0 F800
G1 X46.979 Z0 F800
G0 Z3.5 F500
G0 X47.479 Y20.167 Z3.5 
G1 Z0 F500
G1 Y26.279 Z0 F800
G1 X47.282 Y26.304 Z0 F800
G1 X47.11 Y26.275 Z0 F800
G1 X46.921 Y26.192 Z0 F800
G1 X46.713 Y26.047 Z0 F800
G1 X46.505 Y25.848 Z0 F800
G1 X46.314 Y25.611 Z0 F800
G1 X46.152 Y25.362 Z0 F800
G1 X46.055 Y25.17 Z0 F800
G1 X46.139 Y25.102 Z0 F800
G1 X46.27 Y24.913 Z0 F800
G1 X46.336 Y24.715 Z0 F800
G1 X46.42 Y24.139 Z0 F800
G1 X46.463 Y23.594 Z0 F800
G1 X46.479 Y23.06 Z0 F800
G1 X46.476 Y22.535 Z0 F800
G1 X46.451 Y21.521 Z0 F800
G1 X46.458 Y20.542 Z0 F800
G1 X46.454 Y20.262 Z0 F800
G1 X46.451 Y20.167 Z0 F800
G1 X47.479 Z0 F800
G0 Z3.5 F500
G0 X47.979 Y19.667 Z3.5 
G1 Z0 F500
G1 Y26.757 Z0 F800
G1 X47.678 Z0 F800
G1 X47.636 Y26.76 Z0 F800
G1 X47.594 Y26.769 Z0 F800
G1 X47.272 Y26.809 Z0 F800
G1 X46.966 Y26.758 Z0 F800
G1 X46.674 Y26.63 Z0 F800
G1 X46.395 Y26.435 Z0 F800
G1 X46.136 Y26.186 Z0 F800
G1 X45.908 Y25.905 Z0 F800
G1 X45.721 Y25.616 Z0 F800
G1 X45.581 Y25.341 Z0 F800
G1 X45.532 Y25.262 Z0 F800
G1 X45.464 Y25.202 Z0 F800
G1 X45.383 Y25.163 Z0 F800
G1 X45.292 Y25.147 Z0 F800
G1 X43.309 Z0 F800
G1 X43.116 Z0 F800
G1 X43.751 Y25.132 Z0 F800
G1 X44.409 Y25.076 Z0 F800
G1 X45.035 Y24.982 Z0 F800
G1 X45.614 Y24.853 Z0 F800
G1 X45.698 Y24.816 Z0 F800
G1 X45.768 Y24.759 Z0 F800
G1 X45.819 Y24.686 Z0 F800
G1 X45.848 Y24.599 Z0 F800
G1 X45.923 Y24.083 Z0 F800
G1 X45.964 Y23.567 Z0 F800
G1 X45.979 Y23.054 Z0 F800
G1 X45.976 Y22.542 Z0 F800
G1 X45.951 Y21.533 Z0 F800
G1 X45.958 Y20.543 Z0 F800
G1 X45.954 Y20.274 Z0 F800
G1 X45.946 Y20.026 Z0 F800
G1 X45.943 Y19.816 Z0 F800
G1 X45.958 Y19.669 Z0 F800
G1 X45.975 Y19.614 Z0 F800
G1 X45.99 Y19.611 Z0 F800
G1 X46.037 Z0 F800
G1 X46.12 Y19.62 Z0 F800
G1 X46.291 Y19.663 Z0 F800
G1 X46.34 Y19.667 Z0 F800
G1 X47.979 Z0 F800
G0 Z3.5 F500
G0 X43.082 Y19.117 Z3.5 
G1 Z0 F500
;Layer C1 Pass 1 of 2
G1 X43.109 Y21.064 Z0 F800
G1 X43.149 Y22.819 Z0 F800
G1 X43.09 Z0 F800
G1 X43.016 Y20.707 Z0 F800
G1 X42.943 Y20.157 Z0 F800
G1 X42.938 Y19.707 Z0 F800
G1 X42.953 Y19.53 Z0 F800
G1 X42.98 Y19.364 Z0 F800
G1 X43.014 Y19.241 Z0 F800
G1 X43.051 Y19.151 Z0 F800
G1 X43.073 Y19.116 Z0 F800
G1 X43.082 Z0 F800
G0 Z3.5 F500
G0 X43.577 Y18.735 Z3.5 
G1 Z0 F500
G1 X43.609 Y21.055 Z0 F800
G1 X43.66 Y23.313 Z0 F800
G1 X43.313 Z0 F800
G1 X42.992 Y23.323 Z0 F800
G1 X42.779 Y23.326 Z0 F800
G1 X42.633 Y23.309 Z0 F800
G1 X42.607 Y23.301 Z0 F800
G1 X42.517 Y20.749 Z0 F800
G1 X42.444 Y20.19 Z0 F800
G1 X42.438 Y19.691 Z0 F800
G1 X42.457 Y19.464 Z0 F800
G1 X42.491 Y19.258 Z0 F800
G1 X42.54 Y19.077 Z0 F800
G1 X42.604 Y18.925 Z0 F800
G1 X42.677 Y18.806 Z0 F800
G1 X42.759 Y18.717 Z0 F800
G1 X42.854 Y18.655 Z0 F800
G1 X42.965 Y18.616 Z0 F800
G1 X43.079 Y18.61 Z0 F800
G1 X43.226 Y18.633 Z0 F800
G1 X43.395 Y18.677 Z0 F800
G1 X43.577 Y18.735 Z0 F800
;Layer C1 Pass 2 of 2
G0 Z3.5 F500
G0 X43.082 Y19.117 Z3.5 
G1 Z0 F500
G1 X43.109 Y21.064 Z0 F800
G1 X43.149 Y22.819 Z0 F800
G1 X43.09 Z0 F800
G1 X43.016 Y20.707 Z0 F800
G1 X42.943 Y20.157 Z0 F800
G1 X42.938 Y19.707 Z0 F800
G1 X42.953 Y19.53 Z0 F800
G1 X42.98 Y19.364 Z0 F800
G1 X43.014 Y19.241 Z0 F800
G1 X43.051 Y19.151 Z0 F800
G1 X43.073 Y19.116 Z0 F800
G1 X43.082 Z0 F800
G0 Z3.5 F500
G0 X43.577 Y18.735 Z3.5 
G1 Z0 F500
G1 X43.609 Y21.055 Z0 F800
G1 X43.66 Y23.313 Z0 F800
G1 X43.313 Z0 F800
G1 X42.992 Y23.323 Z0 F800
G1 X42.779 Y23.326 Z0 F800
G1 X42.633 Y23.309 Z0 F800
G1 X42.607 Y23.301 Z0 F800
G1 X42.517 Y20.749 Z0 F800
G1 X42.444 Y20.19 Z0 F800
G1 X42.438 Y19.691 Z0 F800
G1 X42.457 Y19.464 Z0 F800
G1 X42.491 Y19.258 Z0 F800
G1 X42.54 Y19.077 Z0 F800
G1 X42.604 Y18.925 Z0 F800
G1 X42.677 Y18.806 Z0 F800
G1 X42.759 Y18.717 Z0 F800
G1 X42.854 Y18.655 Z0 F800
G1 X42.965 Y18.616 Z0 F800
G1 X43.079 Y18.61 Z0 F800
G1 X43.226 Y18.633 Z0 F800
G1 X43.395 Y18.677 Z0 F800
G1 X43.577 Y18.735 Z0 F800
G0 Z3.5 F500
G0 X42.926 Y13.484 Z3.5 
G1 Z0 F500
;Layer C1 Pass 1 of 2
G1 Y13.76 Z0 F800
G1 X42.95 Y14.051 Z0 F800
G1 X43.003 Y14.358 Z0 F800
G1 X43.102 Y14.688 Z0 F800
G1 X43.189 Y14.856 Z0 F800
G1 X43.324 Y15.007 Z0 F800
G1 X43.49 Y15.122 Z0 F800
G1 X43.665 Y15.187 Z0 F800
G1 X44.182 Y15.28 Z0 F800
G1 X44.672 Y15.331 Z0 F800
G1 X45.155 Y15.353 Z0 F800
G1 X45.628 Z0 F800
G1 X46.532 Y15.335 Z0 F800
G1 X47.374 Y15.341 Z0 F800
G1 X47.359 Y15.6 Z0 F800
G1 Y15.897 Z0 F800
G1 X47.364 Y15.999 Z0 F800
G1 X42.897 Z0 F800
G1 Y13.087 Z0 F800
G1 X42.944 Z0 F800
G1 X42.926 Y13.484 Z0 F800
G0 Z3.5 F500
G0 X42.397 Y16.499 Z3.5 
G1 Z0 F500
G1 Y12.591 Z0 F800
G1 X42.746 Z0 F800
G1 X43.283 Y12.579 Z0 F800
G1 X43.43 Y12.595 Z0 F800
G1 X43.454 Y12.601 Z0 F800
G1 X43.448 Y13.025 Z0 F800
G1 X43.426 Y13.494 Z0 F800
G1 Y13.739 Z0 F800
G1 X43.447 Y13.99 Z0 F800
G1 X43.491 Y14.244 Z0 F800
G1 X43.567 Y14.499 Z0 F800
G1 X43.604 Y14.57 Z0 F800
G1 X43.657 Y14.629 Z0 F800
G1 X43.722 Y14.674 Z0 F800
G1 X43.797 Y14.702 Z0 F800
G1 X44.252 Y14.785 Z0 F800
G1 X44.709 Y14.832 Z0 F800
G1 X45.167 Y14.853 Z0 F800
G1 X45.624 Z0 F800
G1 X46.525 Y14.835 Z0 F800
G1 X47.395 Y14.841 Z0 F800
G1 X47.45 Y14.837 Z0 F800
G1 X47.63 Y14.793 Z0 F800
G1 X47.724 Y14.781 Z0 F800
G1 X47.787 Z0 F800
G1 X47.819 Y14.786 Z0 F800
G1 X47.836 Y14.792 Z0 F800
G1 X47.85 Y14.829 Z0 F800
G1 X47.871 Y14.944 Z0 F800
G1 X47.878 Y15.125 Z0 F800
G1 X47.874 Y15.351 Z0 F800
G1 X47.859 Y15.612 Z0 F800
G1 Y15.887 Z0 F800
G1 X47.869 Y16.136 Z0 F800
G1 X47.872 Y16.346 Z0 F800
G1 X47.858 Y16.495 Z0 F800
G1 X47.84 Y16.552 Z0 F800
G1 X47.785 Z0 F800
G1 Y16.549 Z0 F800
G1 X47.683 Y16.531 Z0 F800
G1 X47.475 Y16.499 Z0 F800
G1 X42.397 Z0 F800
;Layer C1 Pass 2 of 2
G0 Z3.5 F500
G0 X42.926 Y13.484 Z3.5 
G1 Z0 F500
G1 Y13.76 Z0 F800
G1 X42.95 Y14.051 Z0 F800
G1 X43.003 Y14.358 Z0 F800
G1 X43.102 Y14.688 Z0 F800
G1 X43.189 Y14.856 Z0 F800
G1 X43.324 Y15.007 Z0 F800
G1 X43.49 Y15.122 Z0 F800
G1 X43.665 Y15.187 Z0 F800
G1 X44.182 Y15.28 Z0 F800
G1 X44.672 Y15.331 Z0 F800
G1 X45.155 Y15.353 Z0 F800
G1 X45.628 Z0 F800
G1 X46.532 Y15.335 Z0 F800
G1 X47.374 Y15.341 Z0 F800
G1 X47.359 Y15.6 Z0 F800
G1 Y15.897 Z0 F800
G1 X47.364 Y15.999 Z0 F800
G1 X42.897 Z0 F800
G1 Y13.087 Z0 F800
G1 X42.944 Z0 F800
G1 X42.926 Y13.484 Z0 F800
G0 Z3.5 F500
G0 X42.397 Y16.499 Z3.5 
G1 Z0 F500
G1 Y12.591 Z0 F800
G1 X42.746 Z0 F800
G1 X43.283 Y12.579 Z0 F800
G1 X43.43 Y12.595 Z0 F800
G1 X43.454 Y12.601 Z0 F800
G1 X43.448 Y13.025 Z0 F800
G1 X43.426 Y13.494 Z0 F800
G1 Y13.739 Z0 F800
G1 X43.447 Y13.99 Z0 F800
G1 X43.491 Y14.244 Z0 F800
G1 X43.567 Y14.499 Z0 F800
G1 X43.604 Y14.57 Z0 F800
G1 X43.657 Y14.629 Z0 F800
G1 X43.722 Y14.674 Z0 F800
G1 X43.797 Y14.702 Z0 F800
G1 X44.252 Y14.785 Z0 F800
G1 X44.709 Y14.832 Z0 F800
G1 X45.167 Y14.853 Z0 F800
G1 X45.624 Z0 F800
G1 X46.525 Y14.835 Z0 F800
G1 X47.395 Y14.841 Z0 F800
G1 X47.45 Y14.837 Z0 F800
G1 X47.63 Y14.793 Z0 F800
G1 X47.724 Y14.781 Z0 F800
G1 X47.787 Z0 F800
G1 X47.819 Y14.786 Z0 F800
G1 X47.836 Y14.792 Z0 F800
G1 X47.85 Y14.829 Z0 F800
G1 X47.871 Y14.944 Z0 F800
G1 X47.878 Y15.125 Z0 F800
G1 X47.874 Y15.351 Z0 F800
G1 X47.859 Y15.612 Z0 F800
G1 Y15.887 Z0 F800
G1 X47.869 Y16.136 Z0 F800
G1 X47.872 Y16.346 Z0 F800
G1 X47.858 Y16.495 Z0 F800
G1 X47.84 Y16.552 Z0 F800
G1 X47.785 Z0 F800
G1 Y16.549 Z0 F800
G1 X47.683 Y16.531 Z0 F800
G1 X47.475 Y16.499 Z0 F800
G1 X42.397 Z0 F800
G0 Z3.5 F500
G0 X40.28 Y9.309 Z3.5 
G1 Z0 F500
;Layer C1 Pass 1 of 2
G1 X37.113 Y9.228 Z0 F800
G1 X37.16 Y9.019 Z0 F800
G1 X37.27 Y8.599 Z0 F800
G1 X40.28 Z0 F800
G1 Y9.309 Z0 F800
G0 Z3.5 F500
G0 X40.78 Y9.822 Z3.5 
G1 Z0 F500
G1 X37.064 Y9.727 Z0 F800
G1 X36.954 Y9.734 Z0 F800
G1 X36.852 Y9.756 Z0 F800
G1 X36.581 Y9.834 Z0 F800
G1 Y9.32 Z0 F800
G1 X36.677 Y8.886 Z0 F800
G1 X36.812 Y8.375 Z0 F800
G1 X36.893 Y8.143 Z0 F800
G1 X36.913 Y8.099 Z0 F800
G1 X40.78 Z0 F800
G1 Y9.822 Z0 F800
G0 Z3.5 F500
G0 X41.28 Y10.335 Z3.5 
G1 Z0 F500
G1 X37.073 Y10.228 Z0 F800
G1 X37.023 Z0 F800
G1 X36.975 Y10.241 Z0 F800
G1 X36.081 Y10.499 Z0 F800
G1 Y9.265 Z0 F800
G1 X36.189 Y8.777 Z0 F800
G1 X36.334 Y8.224 Z0 F800
G1 X36.428 Y7.957 Z0 F800
G1 X36.528 Y7.743 Z0 F800
G1 X36.602 Y7.637 Z0 F800
G1 X36.643 Y7.599 Z0 F800
G1 X41.28 Z0 F800
G1 Y10.335 Z0 F800
;Layer C1 Pass 2 of 2
G0 Z3.5 F500
G0 X40.28 Y9.309 Z3.5 
G1 Z0 F500
G1 X37.113 Y9.228 Z0 F800
G1 X37.16 Y9.019 Z0 F800
G1 X37.27 Y8.599 Z0 F800
G1 X40.28 Z0 F800
G1 Y9.309 Z0 F800
G0 Z3.5 F500
G0 X40.78 Y9.822 Z3.5 
G1 Z0 F500
G1 X37.064 Y9.727 Z0 F800
G1 X36.954 Y9.734 Z0 F800
G1 X36.852 Y9.756 Z0 F800
G1 X36.581 Y9.834 Z0 F800
G1 Y9.32 Z0 F800
G1 X36.677 Y8.886 Z0 F800
G1 X36.812 Y8.375 Z0 F800
G1 X36.893 Y8.143 Z0 F800
G1 X36.913 Y8.099 Z0 F800
G1 X40.78 Z0 F800
G1 Y9.822 Z0 F800
G0 Z3.5 F500
G0 X41.28 Y10.335 Z3.5 
G1 Z0 F500
G1 X37.073 Y10.228 Z0 F800
G1 X37.023 Z0 F800
G1 X36.975 Y10.241 Z0 F800
G1 X36.081 Y10.499 Z0 F800
G1 Y9.265 Z0 F800
G1 X36.189 Y8.777 Z0 F800
G1 X36.334 Y8.224 Z0 F800
G1 X36.428 Y7.957 Z0 F800
G1 X36.528 Y7.743 Z0 F800
G1 X36.602 Y7.637 Z0 F800
G1 X36.643 Y7.599 Z0 F800
G1 X41.28 Z0 F800
G1 Y10.335 Z0 F800
G0 Z3.5 F500
G0 X46.479 Y9.368 Z3.5 
G1 Z0 F500
;Layer C1 Pass 1 of 2
G1 X46.418 Y9.305 Z0 F800
G1 X46.139 Y9.134 Z0 F800
G1 X46.479 Y9.093 Z0 F800
G1 Y9.368 Z0 F800
G0 Z3.5 F500
G0 X46.657 Y10.39 Z3.5 
G1 Z0 F500
G1 X46.296 Y9.897 Z0 F800
G1 X46.103 Y9.698 Z0 F800
G1 X45.815 Y9.522 Z0 F800
G1 X45.493 Y9.424 Z0 F800
G1 X45.238 Y9.414 Z0 F800
G1 X44.727 Y9.44 Z0 F800
G1 X44.473 Y9.431 Z0 F800
G1 X44.516 Y9.237 Z0 F800
G1 X44.548 Y9.027 Z0 F800
G1 X44.533 Y8.819 Z0 F800
G1 X44.502 Y8.567 Z0 F800
G1 X44.564 Y8.581 Z0 F800
G1 X44.806 Y8.646 Z0 F800
G1 X44.901 Y8.655 Z0 F800
G1 X45.447 Y8.775 Z0 F800
G1 X45.473 Y8.682 Z0 F800
G1 X45.615 Y8.679 Z0 F800
G1 X45.97 Y8.65 Z0 F800
G1 X46.606 Y8.575 Z0 F800
G1 X46.979 Y8.533 Z0 F800
G1 Y10.365 Z0 F800
G1 X46.966 Z0 F800
G1 X46.85 Y10.384 Z0 F800
G1 X46.686 Y10.417 Z0 F800
G1 X46.681 Z0 F800
G1 X46.657 Y10.39 Z0 F800
G0 Z3.5 F500
G0 X44.895 Y8.152 Z3.5 
G1 Z0 F500
G1 X44.974 Y8.16 Z0 F800
G1 X45.095 Y8.186 Z0 F800
G1 X45.099 Y8.171 Z0 F800
G1 X45.25 Y8.186 Z0 F800
G1 X45.59 Y8.18 Z0 F800
G1 X45.919 Y8.153 Z0 F800
G1 X46.543 Y8.079 Z0 F800
G1 X47.113 Y8.015 Z0 F800
G1 X47.333 Y8.006 Z0 F800
G1 X47.482 Y8.013 Z0 F800
G1 X47.479 Y8.065 Z0 F800
G1 Y10.866 Z0 F800
G1 X47.1 Y10.86 Z0 F800
G1 X47.017 Y10.863 Z0 F800
G1 X46.94 Y10.876 Z0 F800
G1 X46.773 Y10.91 Z0 F800
G1 X46.659 Y10.925 Z0 F800
G1 X46.575 Y10.929 Z0 F800
G1 X46.541 Z0 F800
G1 X46.476 Y10.91 Z0 F800
G1 X46.438 Y10.889 Z0 F800
G1 X46.374 Y10.83 Z0 F800
G1 X46.257 Y10.689 Z0 F800
G1 X45.913 Y10.221 Z0 F800
G1 X45.788 Y10.091 Z0 F800
G1 X45.609 Y9.982 Z0 F800
G1 X45.409 Y9.921 Z0 F800
G1 X45.24 Y9.915 Z0 F800
G1 X44.724 Y9.94 Z0 F800
G1 X44.332 Y9.927 Z0 F800
G1 X44.19 Y9.91 Z0 F800
G1 X44.071 Y9.885 Z0 F800
G1 X43.994 Y9.86 Z0 F800
G1 X43.96 Y9.844 Z0 F800
G1 X43.953 Y9.817 Z0 F800
G1 X43.942 Y9.732 Z0 F800
G1 Y9.601 Z0 F800
G1 X43.965 Y9.415 Z0 F800
G1 X44.023 Y9.146 Z0 F800
G1 X44.045 Y9.006 Z0 F800
G1 X44.036 Y8.867 Z0 F800
G1 X43.986 Y8.465 Z0 F800
G1 X43.99 Y8.198 Z0 F800
G1 X44.021 Y8.046 Z0 F800
G1 X44.032 Y8.025 Z0 F800
G1 X44.056 Y8.02 Z0 F800
G1 X44.138 Y8.012 Z0 F800
G1 X44.258 Y8.016 Z0 F800
G1 X44.419 Y8.038 Z0 F800
G1 X44.687 Y8.096 Z0 F800
G1 X44.895 Y8.152 Z0 F800
G0 Z3.5 F500
G0 X47.979 Y8.081 Z3.5 
G1 Z0 F500
G1 Y11.374 Z0 F800
G1 X47.106 Y11.36 Z0 F800
G1 X47.068 Z0 F800
G1 X47.03 Y11.368 Z0 F800
G1 X46.853 Y11.403 Z0 F800
G1 X46.703 Y11.423 Z0 F800
G1 X46.574 Y11.429 Z0 F800
G1 X46.463 Y11.423 Z0 F800
G1 X46.286 Y11.377 Z0 F800
G1 X46.143 Y11.296 Z0 F800
G1 X46.009 Y11.173 Z0 F800
G1 X45.867 Y11.003 Z0 F800
G1 X45.53 Y10.544 Z0 F800
G1 X45.472 Y10.484 Z0 F800
G1 X45.403 Y10.442 Z0 F800
G1 X45.325 Y10.418 Z0 F800
G1 X45.243 Y10.415 Z0 F800
G1 X44.732 Y10.441 Z0 F800
G1 X44.293 Y10.426 Z0 F800
G1 X44.106 Y10.403 Z0 F800
G1 X43.943 Y10.369 Z0 F800
G1 X43.805 Y10.325 Z0 F800
G1 X43.696 Y10.271 Z0 F800
G1 X43.611 Y10.207 Z0 F800
G1 X43.546 Y10.133 Z0 F800
G1 X43.497 Y10.04 Z0 F800
G1 X43.461 Y9.919 Z0 F800
G1 X43.441 Y9.763 Z0 F800
G1 Y9.567 Z0 F800
G1 X43.472 Y9.332 Z0 F800
G1 X43.532 Y9.056 Z0 F800
G1 X43.542 Y8.985 Z0 F800
G1 X43.538 Y8.915 Z0 F800
G1 X43.485 Y8.49 Z0 F800
G1 X43.491 Y8.143 Z0 F800
G1 X43.544 Y7.878 Z0 F800
G1 X43.637 Y7.7 Z0 F800
G1 X43.697 Y7.639 Z0 F800
G1 X43.769 Y7.589 Z0 F800
G1 X43.86 Y7.551 Z0 F800
G1 X43.977 Y7.524 Z0 F800
G1 X44.124 Y7.512 Z0 F800
G1 X44.3 Y7.518 Z0 F800
G1 X44.507 Y7.545 Z0 F800
G1 X44.743 Y7.597 Z0 F800
G1 X44.709 Y7.585 Z0 F800
G1 X44.983 Y7.658 Z0 F800
G1 X45.27 Y7.686 Z0 F800
G1 X45.565 Y7.68 Z0 F800
G1 X45.87 Y7.655 Z0 F800
G1 X46.488 Y7.582 Z0 F800
G1 X47.073 Y7.517 Z0 F800
G1 X47.333 Y7.506 Z0 F800
G1 X47.56 Y7.516 Z0 F800
G1 X47.74 Y7.542 Z0 F800
G1 X47.864 Y7.585 Z0 F800
G1 X47.932 Y7.632 Z0 F800
G1 X47.971 Y7.698 Z0 F800
G1 X47.996 Y7.822 Z0 F800
G1 X47.979 Y8.081 Z0 F800
;Layer C1 Pass 2 of 2
G0 Z3.5 F500
G0 X46.479 Y9.368 Z3.5 
G1 Z0 F500
G1 X46.418 Y9.305 Z0 F800
G1 X46.139 Y9.134 Z0 F800
G1 X46.479 Y9.093 Z0 F800
G1 Y9.368 Z0 F800
G0 Z3.5 F500
G0 X46.657 Y10.39 Z3.5 
G1 Z0 F500
G1 X46.296 Y9.897 Z0 F800
G1 X46.103 Y9.698 Z0 F800
G1 X45.815 Y9.522 Z0 F800
G1 X45.493 Y9.424 Z0 F800
G1 X45.238 Y9.414 Z0 F800
G1 X44.727 Y9.44 Z0 F800
G1 X44.473 Y9.431 Z0 F800
G1 X44.516 Y9.237 Z0 F800
G1 X44.548 Y9.027 Z0 F800
G1 X44.533 Y8.819 Z0 F800
G1 X44.502 Y8.567 Z0 F800
G1 X44.564 Y8.581 Z0 F800
G1 X44.806 Y8.646 Z0 F800
G1 X44.901 Y8.655 Z0 F800
G1 X45.447 Y8.775 Z0 F800
G1 X45.473 Y8.682 Z0 F800
G1 X45.615 Y8.679 Z0 F800
G1 X45.97 Y8.65 Z0 F800
G1 X46.606 Y8.575 Z0 F800
G1 X46.979 Y8.533 Z0 F800
G1 Y10.365 Z0 F800
G1 X46.966 Z0 F800
G1 X46.85 Y10.384 Z0 F800
G1 X46.686 Y10.417 Z0 F800
G1 X46.681 Z0 F800
G1 X46.657 Y10.39 Z0 F800
G0 Z3.5 F500
G0 X44.895 Y8.152 Z3.5 
G1 Z0 F500
G1 X44.974 Y8.16 Z0 F800
G1 X45.095 Y8.186 Z0 F800
G1 X45.099 Y8.171 Z0 F800
G1 X45.25 Y8.186 Z0 F800
G1 X45.59 Y8.18 Z0 F800
G1 X45.919 Y8.153 Z0 F800
G1 X46.543 Y8.079 Z0 F800
G1 X47.113 Y8.015 Z0 F800
G1 X47.333 Y8.006 Z0 F800
G1 X47.482 Y8.013 Z0 F800
G1 X47.479 Y8.065 Z0 F800
G1 Y10.866 Z0 F800
G1 X47.1 Y10.86 Z0 F800
G1 X47.017 Y10.863 Z0 F800
G1 X46.94 Y10.876 Z0 F800
G1 X46.773 Y10.91 Z0 F800
G1 X46.659 Y10.925 Z0 F800
G1 X46.575 Y10.929 Z0 F800
G1 X46.541 Z0 F800
G1 X46.476 Y10.91 Z0 F800
G1 X46.438 Y10.889 Z0 F800
G1 X46.374 Y10.83 Z0 F800
G1 X46.257 Y10.689 Z0 F800
G1 X45.913 Y10.221 Z0 F800
G1 X45.788 Y10.091 Z0 F800
G1 X45.609 Y9.982 Z0 F800
G1 X45.409 Y9.921 Z0 F800
G1 X45.24 Y9.915 Z0 F800
G1 X44.724 Y9.94 Z0 F800
G1 X44.332 Y9.927 Z0 F800
G1 X44.19 Y9.91 Z0 F800
G1 X44.071 Y9.885 Z0 F800
G1 X43.994 Y9.86 Z0 F800
G1 X43.96 Y9.844 Z0 F800
G1 X43.953 Y9.817 Z0 F800
G1 X43.942 Y9.732 Z0 F800
G1 Y9.601 Z0 F800
G1 X43.965 Y9.415 Z0 F800
G1 X44.023 Y9.146 Z0 F800
G1 X44.045 Y9.006 Z0 F800
G1 X44.036 Y8.867 Z0 F800
G1 X43.986 Y8.465 Z0 F800
G1 X43.99 Y8.198 Z0 F800
G1 X44.021 Y8.046 Z0 F800
G1 X44.032 Y8.025 Z0 F800
G1 X44.056 Y8.02 Z0 F800
G1 X44.138 Y8.012 Z0 F800
G1 X44.258 Y8.016 Z0 F800
G1 X44.419 Y8.038 Z0 F800
G1 X44.687 Y8.096 Z0 F800
G1 X44.895 Y8.152 Z0 F800
G0 Z3.5 F500
G0 X47.979 Y8.081 Z3.5 
G1 Z0 F500
G1 Y11.374 Z0 F800
G1 X47.106 Y11.36 Z0 F800
G1 X47.068 Z0 F800
G1 X47.03 Y11.368 Z0 F800
G1 X46.853 Y11.403 Z0 F800
G1 X46.703 Y11.423 Z0 F800
G1 X46.574 Y11.429 Z0 F800
G1 X46.463 Y11.423 Z0 F800
G1 X46.286 Y11.377 Z0 F800
G1 X46.143 Y11.296 Z0 F800
G1 X46.009 Y11.173 Z0 F800
G1 X45.867 Y11.003 Z0 F800
G1 X45.53 Y10.544 Z0 F800
G1 X45.472 Y10.484 Z0 F800
G1 X45.403 Y10.442 Z0 F800
G1 X45.325 Y10.418 Z0 F800
G1 X45.243 Y10.415 Z0 F800
G1 X44.732 Y10.441 Z0 F800
G1 X44.293 Y10.426 Z0 F800
G1 X44.106 Y10.403 Z0 F800
G1 X43.943 Y10.369 Z0 F800
G1 X43.805 Y10.325 Z0 F800
G1 X43.696 Y10.271 Z0 F800
G1 X43.611 Y10.207 Z0 F800
G1 X43.546 Y10.133 Z0 F800
G1 X43.497 Y10.04 Z0 F800
G1 X43.461 Y9.919 Z0 F800
G1 X43.441 Y9.763 Z0 F800
G1 Y9.567 Z0 F800
G1 X43.472 Y9.332 Z0 F800
G1 X43.532 Y9.056 Z0 F800
G1 X43.542 Y8.985 Z0 F800
G1 X43.538 Y8.915 Z0 F800
G1 X43.485 Y8.49 Z0 F800
G1 X43.491 Y8.143 Z0 F800
G1 X43.544 Y7.878 Z0 F800
G1 X43.637 Y7.7 Z0 F800
G1 X43.697 Y7.639 Z0 F800
G1 X43.769 Y7.589 Z0 F800
G1 X43.86 Y7.551 Z0 F800
G1 X43.977 Y7.524 Z0 F800
G1 X44.124 Y7.512 Z0 F800
G1 X44.3 Y7.518 Z0 F800
G1 X44.507 Y7.545 Z0 F800
G1 X44.743 Y7.597 Z0 F800
G1 X44.709 Y7.585 Z0 F800
G1 X44.983 Y7.658 Z0 F800
G1 X45.27 Y7.686 Z0 F800
G1 X45.565 Y7.68 Z0 F800
G1 X45.87 Y7.655 Z0 F800
G1 X46.488 Y7.582 Z0 F800
G1 X47.073 Y7.517 Z0 F800
G1 X47.333 Y7.506 Z0 F800
G1 X47.56 Y7.516 Z0 F800
G1 X47.74 Y7.542 Z0 F800
G1 X47.864 Y7.585 Z0 F800
G1 X47.932 Y7.632 Z0 F800
G1 X47.971 Y7.698 Z0 F800
G1 X47.996 Y7.822 Z0 F800
G1 X47.979 Y8.081 Z0 F800
G0 Z3.5 F500
G0 X43.144 Y27.576 Z3.5 
G1 Z0 F500
;Layer C1 Pass 1 of 2
G1 X43.137 Y27.661 Z0 F800
G1 X43.08 Y35.491 Z0 F800
G1 X42.654 Z0 F800
G1 X42.776 Y35.175 Z0 F800
G1 X42.894 Y34.573 Z0 F800
G1 X42.933 Y33.984 Z0 F800
G1 X42.926 Y33.416 Z0 F800
G1 X42.876 Y32.359 Z0 F800
G1 X42.87 Y31.884 Z0 F800
G1 X42.898 Y31.435 Z0 F800
G1 X42.935 Y30.886 Z0 F800
G1 Y30.262 Z0 F800
G1 X42.923 Y29.615 Z0 F800
G1 X42.913 Y28.977 Z0 F800
G1 X42.926 Y28.421 Z0 F800
G1 X42.967 Y27.943 Z0 F800
G1 X42.996 Y27.747 Z0 F800
G1 X43.027 Y27.586 Z0 F800
G1 X43.046 Y27.583 Z0 F800
G1 X43.146 Y27.567 Z0 F800
G1 Y27.576 Z0 F800
G0 Z3.5 F500
G0 X30.921 Y33.39 Z3.5 
G1 Z0 F500
G1 X30.829 Y33.455 Z0 F800
G1 Y33.332 Z0 F800
G1 X30.921 Y33.39 Z0 F800
G0 Z3.5 F500
G0 X31.477 Y33.712 Z3.5 
G1 Z0 F500
G1 X31.19 Y33.812 Z0 F800
G1 X30.926 Y33.997 Z0 F800
G1 X30.878 Y34.054 Z0 F800
G1 X30.844 Y34.12 Z0 F800
G1 X30.75 Y34.439 Z0 F800
G1 X30.715 Y34.732 Z0 F800
G1 X30.742 Y34.999 Z0 F800
G1 X30.836 Y35.235 Z0 F800
G1 X30.99 Y35.425 Z0 F800
G1 X31.182 Y35.559 Z0 F800
G1 X31.397 Y35.647 Z0 F800
G1 X31.62 Y35.7 Z0 F800
G1 X32.077 Y35.742 Z0 F800
G1 X32.535 Y35.736 Z0 F800
G1 X32.956 Y35.718 Z0 F800
G1 X33.299 Z0 F800
G1 X33.311 Z0 F800
G1 X41.809 Z0 F800
G1 X41.898 Y35.707 Z0 F800
G1 X41.979 Y35.671 Z0 F800
G1 X42.047 Y35.616 Z0 F800
G1 X42.098 Y35.542 Z0 F800
G1 X42.294 Y35.036 Z0 F800
G1 X42.397 Y34.508 Z0 F800
G1 X42.433 Y33.97 Z0 F800
G1 X42.426 Y33.431 Z0 F800
G1 X42.376 Y32.375 Z0 F800
G1 X42.37 Y31.873 Z0 F800
G1 X42.399 Y31.401 Z0 F800
G1 X42.435 Y30.868 Z0 F800
G1 Y30.266 Z0 F800
G1 X42.423 Y29.625 Z0 F800
G1 X42.413 Y28.974 Z0 F800
G1 X42.426 Y28.399 Z0 F800
G1 X42.47 Y27.884 Z0 F800
G1 X42.503 Y27.658 Z0 F800
G1 X42.543 Y27.458 Z0 F800
G1 X42.589 Y27.286 Z0 F800
G1 X42.641 Y27.147 Z0 F800
G1 X42.965 Y27.089 Z0 F800
G1 X43.254 Y27.045 Z0 F800
G1 X43.481 Y27.024 Z0 F800
G1 X43.62 Y27.032 Z0 F800
G1 X43.673 Y27.048 Z0 F800
G1 X43.69 Y27.097 Z0 F800
G1 X43.701 Y27.164 Z0 F800
G1 Y27.272 Z0 F800
G1 X43.685 Y27.42 Z0 F800
G1 X43.64 Y27.645 Z0 F800
G1 X43.637 Y27.683 Z0 F800
G1 X43.577 Y35.991 Z0 F800
G1 X30.329 Z0 F800
G1 Y28.845 Z0 F800
G1 X30.604 Y28.839 Z0 F800
G1 X30.786 Y28.853 Z0 F800
G1 X30.822 Y28.869 Z0 F800
G1 X30.833 Y28.897 Z0 F800
G1 X30.838 Y28.938 Z0 F800
G1 Y29.006 Z0 F800
G1 X30.825 Y29.104 Z0 F800
G1 X30.783 Y29.277 Z0 F800
G1 X30.78 Y29.323 Z0 F800
G1 Y32.536 Z0 F800
G1 X30.811 Y32.674 Z0 F800
G1 X30.897 Y32.786 Z0 F800
G1 X31.229 Y32.993 Z0 F800
G1 X31.586 Y33.106 Z0 F800
G1 X31.952 Y33.15 Z0 F800
G1 X32.313 Z0 F800
G1 X32.662 Y33.133 Z0 F800
G1 X32.996 Y33.112 Z0 F800
G1 X33.306 Y33.104 Z0 F800
G1 X33.641 Y33.125 Z0 F800
G1 X33.7 Y33.118 Z0 F800
G1 X33.924 Y33.081 Z0 F800
G1 X34.082 Z0 F800
G1 X34.179 Y33.098 Z0 F800
G1 X34.225 Y33.122 Z0 F800
G1 X34.25 Y33.166 Z0 F800
G1 X34.269 Y33.259 Z0 F800
G1 Y33.412 Z0 F800
G1 X34.222 Y33.679 Z0 F800
G1 Y33.724 Z0 F800
G1 X34.146 Y33.733 Z0 F800
G1 X33.999 Z0 F800
G1 X33.493 Y33.677 Z0 F800
G1 X33.355 Y33.666 Z0 F800
G1 X33.214 Z0 F800
G1 X33.07 Y33.678 Z0 F800
G1 X32.972 Y33.704 Z0 F800
G1 X32.786 Y33.719 Z0 F800
G1 X32.564 Y33.712 Z0 F800
G1 X32.051 Y33.677 Z0 F800
G1 X31.769 Z0 F800
G1 X31.477 Y33.712 Z0 F800
;Layer C1 Pass 2 of 2
G0 Z3.5 F500
G0 X43.144 Y27.576 Z3.5 
G1 Z0 F500
G1 X43.137 Y27.661 Z0 F800
G1 X43.08 Y35.491 Z0 F800
G1 X42.654 Z0 F800
G1 X42.776 Y35.175 Z0 F800
G1 X42.894 Y34.573 Z0 F800
G1 X42.933 Y33.984 Z0 F800
G1 X42.926 Y33.416 Z0 F800
G1 X42.876 Y32.359 Z0 F800
G1 X42.87 Y31.884 Z0 F800
G1 X42.898 Y31.435 Z0 F800
G1 X42.935 Y30.886 Z0 F800
G1 Y30.262 Z0 F800
G1 X42.923 Y29.615 Z0 F800
G1 X42.913 Y28.977 Z0 F800
G1 X42.926 Y28.421 Z0 F800
G1 X42.967 Y27.943 Z0 F800
G1 X42.996 Y27.747 Z0 F800
G1 X43.027 Y27.586 Z0 F800
G1 X43.046 Y27.583 Z0 F800
G1 X43.146 Y27.567 Z0 F800
G1 Y27.576 Z0 F800
G0 Z3.5 F500
G0 X30.921 Y33.39 Z3.5 
G1 Z0 F500
G1 X30.829 Y33.455 Z0 F800
G1 Y33.332 Z0 F800
G1 X30.921 Y33.39 Z0 F800
G0 Z3.5 F500
G0 X31.477 Y33.712 Z3.5 
G1 Z0 F500
G1 X31.19 Y33.812 Z0 F800
G1 X30.926 Y33.997 Z0 F800
G1 X30.878 Y34.054 Z0 F800
G1 X30.844 Y34.12 Z0 F800
G1 X30.75 Y34.439 Z0 F800
G1 X30.715 Y34.732 Z0 F800
G1 X30.742 Y34.999 Z0 F800
G1 X30.836 Y35.235 Z0 F800
G1 X30.99 Y35.425 Z0 F800
G1 X31.182 Y35.559 Z0 F800
G1 X31.397 Y35.647 Z0 F800
G1 X31.62 Y35.7 Z0 F800
G1 X32.077 Y35.742 Z0 F800
G1 X32.535 Y35.736 Z0 F800
G1 X32.956 Y35.718 Z0 F800
G1 X33.299 Z0 F800
G1 X33.311 Z0 F800
G1 X41.809 Z0 F800
G1 X41.898 Y35.707 Z0 F800
G1 X41.979 Y35.671 Z0 F800
G1 X42.047 Y35.616 Z0 F800
G1 X42.098 Y35.542 Z0 F800
G1 X42.294 Y35.036 Z0 F800
G1 X42.397 Y34.508 Z0 F800
G1 X42.433 Y33.97 Z0 F800
G1 X42.426 Y33.431 Z0 F800
G1 X42.376 Y32.375 Z0 F800
G1 X42.37 Y31.873 Z0 F800
G1 X42.399 Y31.401 Z0 F800
G1 X42.435 Y30.868 Z0 F800
G1 Y30.266 Z0 F800
G1 X42.423 Y29.625 Z0 F800
G1 X42.413 Y28.974 Z0 F800
G1 X42.426 Y28.399 Z0 F800
G1 X42.47 Y27.884 Z0 F800
G1 X42.503 Y27.658 Z0 F800
G1 X42.543 Y27.458 Z0 F800
G1 X42.589 Y27.286 Z0 F800
G1 X42.641 Y27.147 Z0 F800
G1 X42.965 Y27.089 Z0 F800
G1 X43.254 Y27.045 Z0 F800
G1 X43.481 Y27.024 Z0 F800
G1 X43.62 Y27.032 Z0 F800
G1 X43.673 Y27.048 Z0 F800
G1 X43.69 Y27.097 Z0 F800
G1 X43.701 Y27.164 Z0 F800
G1 Y27.272 Z0 F800
G1 X43.685 Y27.42 Z0 F800
G1 X43.64 Y27.645 Z0 F800
G1 X43.637 Y27.683 Z0 F800
G1 X43.577 Y35.991 Z0 F800
G1 X30.329 Z0 F800
G1 Y28.845 Z0 F800
G1 X30.604 Y28.839 Z0 F800
G1 X30.786 Y28.853 Z0 F800
G1 X30.822 Y28.869 Z0 F800
G1 X30.833 Y28.897 Z0 F800
G1 X30.838 Y28.938 Z0 F800
G1 Y29.006 Z0 F800
G1 X30.825 Y29.104 Z0 F800
G1 X30.783 Y29.277 Z0 F800
G1 X30.78 Y29.323 Z0 F800
G1 Y32.536 Z0 F800
G1 X30.811 Y32.674 Z0 F800
G1 X30.897 Y32.786 Z0 F800
G1 X31.229 Y32.993 Z0 F800
G1 X31.586 Y33.106 Z0 F800
G1 X31.952 Y33.15 Z0 F800
G1 X32.313 Z0 F800
G1 X32.662 Y33.133 Z0 F800
G1 X32.996 Y33.112 Z0 F800
G1 X33.306 Y33.104 Z0 F800
G1 X33.641 Y33.125 Z0 F800
G1 X33.7 Y33.118 Z0 F800
G1 X33.924 Y33.081 Z0 F800
G1 X34.082 Z0 F800
G1 X34.179 Y33.098 Z0 F800
G1 X34.225 Y33.122 Z0 F800
G1 X34.25 Y33.166 Z0 F800
G1 X34.269 Y33.259 Z0 F800
G1 Y33.412 Z0 F800
G1 X34.222 Y33.679 Z0 F800
G1 Y33.724 Z0 F800
G1 X34.146 Y33.733 Z0 F800
G1 X33.999 Z0 F800
G1 X33.493 Y33.677 Z0 F800
G1 X33.355 Y33.666 Z0 F800
G1 X33.214 Z0 F800
G1 X33.07 Y33.678 Z0 F800
G1 X32.972 Y33.704 Z0 F800
G1 X32.786 Y33.719 Z0 F800
G1 X32.564 Y33.712 Z0 F800
G1 X32.051 Y33.677 Z0 F800
G1 X31.769 Z0 F800
G1 X31.477 Y33.712 Z0 F800
G0 Z3.5 F500
G0 X37.773 Y29.935 Z3.5 
G1 Z0 F500
;Layer C1 Pass 1 of 2
G1 X38.194 Z0 F800
G1 Y30.754 Z0 F800
G1 X38.04 Y30.529 Z0 F800
G1 X37.61 Y30.101 Z0 F800
G1 X37.331 Y29.931 Z0 F800
G1 X37.773 Y29.935 Z0 F800
G0 Z3.5 F500
G0 X38.694 Y29.434 Z3.5 
G1 Z0 F500
G1 Y32.257 Z0 F800
G1 X38.23 Z0 F800
G1 X38.212 Y32.072 Z0 F800
G1 X38.165 Y31.888 Z0 F800
G1 Y31.774 Z0 F800
G1 X38.134 Z0 F800
G1 X38.1 Y31.64 Z0 F800
G1 X37.913 Y31.228 Z0 F800
G1 X37.654 Y30.851 Z0 F800
G1 X37.299 Y30.498 Z0 F800
G1 X36.685 Y30.124 Z0 F800
G1 X36.043 Y29.932 Z0 F800
G1 X35.732 Y29.896 Z0 F800
G1 X36.067 Y29.605 Z0 F800
G1 X36.209 Y29.422 Z0 F800
G1 X37.775 Y29.435 Z0 F800
G1 X38.694 Z0 F800
G0 Z3.5 F500
G0 X39.194 Y28.934 Z3.5 
G1 Z0 F500
G1 Y32.757 Z0 F800
G1 X37.745 Z0 F800
G1 X37.752 Y32.507 Z0 F800
G1 X37.719 Y32.16 Z0 F800
G1 X37.627 Y31.808 Z0 F800
G1 X37.476 Y31.475 Z0 F800
G1 X37.268 Y31.172 Z0 F800
G1 X36.989 Y30.894 Z0 F800
G1 X36.479 Y30.584 Z0 F800
G1 X35.942 Y30.424 Z0 F800
G1 X35.451 Y30.367 Z0 F800
G1 X35.005 Y30.362 Z0 F800
G1 X33.862 Y30.418 Z0 F800
G1 Y29.875 Z0 F800
G1 X33.923 Y29.891 Z0 F800
G1 X34.314 Y29.916 Z0 F800
G1 X34.69 Y29.862 Z0 F800
G1 X35.036 Y29.743 Z0 F800
G1 X35.353 Y29.563 Z0 F800
G1 X35.702 Y29.26 Z0 F800
G1 X35.964 Y28.922 Z0 F800
G1 X37.777 Y28.935 Z0 F800
G1 X39.194 Z0 F800
G0 Z3.5 F500
G0 X39.694 Y28.433 Z3.5 
G1 Z0 F500
G1 Y33.257 Z0 F800
G1 X37.165 Z0 F800
G1 X37.203 Y33.088 Z0 F800
G1 X37.243 Y32.803 Z0 F800
G1 X37.252 Y32.524 Z0 F800
G1 X37.225 Y32.248 Z0 F800
G1 X37.154 Y31.976 Z0 F800
G1 X37.039 Y31.721 Z0 F800
G1 X36.882 Y31.493 Z0 F800
G1 X36.678 Y31.29 Z0 F800
G1 X36.275 Y31.045 Z0 F800
G1 X35.841 Y30.916 Z0 F800
G1 X35.419 Y30.867 Z0 F800
G1 X35.015 Y30.862 Z0 F800
G1 X33.598 Y30.932 Z0 F800
G1 X33.396 Y30.923 Z0 F800
G1 X33.362 Y30.917 Z0 F800
G1 Y29.131 Z0 F800
G1 X33.47 Y29.202 Z0 F800
G1 X33.728 Y29.32 Z0 F800
G1 X34.005 Y29.396 Z0 F800
G1 X34.294 Y29.414 Z0 F800
G1 X34.573 Y29.374 Z0 F800
G1 X34.829 Y29.286 Z0 F800
G1 X35.063 Y29.153 Z0 F800
G1 X35.337 Y28.915 Z0 F800
G1 X35.546 Y28.644 Z0 F800
G1 X35.675 Y28.417 Z0 F800
G1 X37.778 Y28.435 Z0 F800
G1 X39.694 Z0 F800
G0 Z3.5 F500
G0 X21.476 Y25.341 Z3.5 
G1 Z0 F500
G1 X21.43 Y25.392 Z0 F800
G1 Y25.286 Z0 F800
G1 X21.476 Y25.341 Z0 F800
G0 Z3.5 F500
G0 X21.799 Y25.729 Z3.5 
G1 Z0 F500
G1 X21.639 Y25.906 Z0 F800
G1 X21.543 Y26.108 Z0 F800
G1 X21.427 Y26.613 Z0 F800
G1 X21.373 Y27.058 Z0 F800
G1 X21.339 Y27.415 Z0 F800
G1 X21.322 Y27.519 Z0 F800
G1 X21.178 Y27.486 Z0 F800
G1 X21.004 Y27.46 Z0 F800
G1 X20.912 Y27.472 Z0 F800
G1 X20.927 Y27.35 Z0 F800
G1 X20.93 Y27.291 Z0 F800
G1 Y24.786 Z0 F800
G1 X21.676 Z0 F800
G1 X21.701 Y24.824 Z0 F800
G1 X21.91 Y25.082 Z0 F800
G1 X22.093 Y25.235 Z0 F800
G1 X22.279 Y25.353 Z0 F800
G1 X22.474 Y25.442 Z0 F800
G1 X22.674 Y25.504 Z0 F800
G1 X22.73 Y25.514 Z0 F800
G1 X22.21 Y25.55 Z0 F800
G1 X22.002 Y25.605 Z0 F800
G1 X21.799 Y25.729 Z0 F800
G0 Z3.5 F500
G0 X31.453 Y24.976 Z3.5 
G1 Z0 F500
G1 X31.55 Y24.695 Z0 F800
G1 X31.623 Y24.329 Z0 F800
G1 X32.001 Y24.34 Z0 F800
G1 X32.243 Y24.362 Z0 F800
G1 Y24.391 Z0 F800
G1 Y25.124 Z0 F800
G1 X31.931 Y25.049 Z0 F800
G1 X31.529 Y24.982 Z0 F800
G1 X31.453 Y24.976 Z0 F800
G0 Z3.5 F500
G0 X30.853 Y25.18 Z3.5 
G1 Z0 F500
G1 X31.066 Y24.564 Z0 F800
G1 X31.185 Y23.963 Z0 F800
G1 X31.196 Y23.825 Z0 F800
G1 X31.586 Y23.828 Z0 F800
G1 X32.036 Y23.841 Z0 F800
G1 X32.417 Y23.875 Z0 F800
G1 X32.708 Y23.938 Z0 F800
G1 X32.784 Y23.967 Z0 F800
G1 X32.809 Y23.982 Z0 F800
G1 X32.805 Y24.058 Z0 F800
G1 X32.75 Y24.315 Z0 F800
G1 X32.741 Y24.413 Z0 F800
G1 Y25.824 Z0 F800
G1 X32.545 Y25.741 Z0 F800
G1 X32.189 Y25.625 Z0 F800
G1 X31.832 Y25.54 Z0 F800
G1 X31.467 Y25.479 Z0 F800
G1 X30.764 Y25.42 Z0 F800
G1 X30.678 Z0 F800
G1 X30.736 Y25.369 Z0 F800
G1 X30.853 Y25.18 Z0 F800
G0 Z3.5 F500
G0 X32.063 Y23.341 Z3.5 
G1 Z0 F500
G1 X32.493 Y23.38 Z0 F800
G1 X32.854 Y23.458 Z0 F800
G1 X32.996 Y23.513 Z0 F800
G1 X33.107 Y23.576 Z0 F800
G1 X33.191 Y23.647 Z0 F800
G1 X33.25 Y23.728 Z0 F800
G1 X33.291 Y23.826 Z0 F800
G1 X33.311 Y23.956 Z0 F800
G1 X33.302 Y24.127 Z0 F800
G1 X33.245 Y24.39 Z0 F800
G1 X33.241 Y24.435 Z0 F800
G1 Y28.251 Z0 F800
G1 X33.268 Y28.381 Z0 F800
G1 X33.344 Y28.489 Z0 F800
G1 X33.528 Y28.643 Z0 F800
G1 X33.712 Y28.763 Z0 F800
G1 X33.898 Y28.849 Z0 F800
G1 X34.086 Y28.899 Z0 F800
G1 X34.274 Y28.911 Z0 F800
G1 X34.455 Y28.885 Z0 F800
G1 X34.623 Y28.828 Z0 F800
G1 X34.772 Y28.743 Z0 F800
G1 X34.972 Y28.569 Z0 F800
G1 X35.129 Y28.366 Z0 F800
