
G0 Z10 F500;      ; Move to clearance level - Z motion limited to 500
; G0 X-10 Y-10 F1200; Homing
; G0 X-5 Y-5 F1200; go in
; G10 P0 L20 X0 Y0; set to zero
G1 F1200;           ; Set feed rate to 1000
;LightBurn 1.6.04
;Custom GCode device profile, absolute coords
;Bounds: X16.69 Y13.48 to X117.31 Y102.52
G00 G17 G40 G21 G54
G90
M3
G1 Z10 F500
;Cut @ 15 mm/sec, 90% power

M8

; Washing sequence (no color)
G1 Z10 F1000;        ; Raise brush to safe height
G0 X5 Y5 F1200;     ; Rapid move to brush cleaning position
G1 Z-1 F800;         ; Lower brush for cleaning - controlled movement
G1 X10 Y12 Z8 F1200;     ; Rapid move to brush cleaning position
G1 Z-1 F800;         ; Lower brush for cleaning - controlled movement
G1 X25 Y14 Z6 F800;     ; Move across cleaning area - controlled movement
G1 Z8 F800;         ; Maintain brush height - controlled movement
G0 X5 Y5 F1200;     ; Rapid move to brush cleaning position
G1 Z-1 F800;         ; Lower brush for cleaning - controlled movement
G1 X15 Y12 Z8 F1200;     ; Rapid move to brush cleaning position
G1 Z-1 F800;         ; Lower brush for cleaning - controlled movement
G1 X25 Y14 Z6 F800;     ; Move across cleaning area - controlled movement
G1 Z10 F800;         ; Maintain brush height - controlled movement
G1 F1200;           ; Set feed rate to 1000

; Color picking sequence
G1 Z10 F1000;         ; Raise brush to safe height
G0 X41 Y5 F1200;    ; Rapid move to color 1 position
G1 Z10 F1000;         ; Raise brush to safe height
G0 X41 Y5 F1200;    ; Rapid move to color 1 position
G1 Z0 F1000;         ; Lower into color - controlled movement
G1 X40.102 Y7.295 Z0 S800 F1200
G1 X40.026 Y7.642 Z0 F1200
G1 X40 Y8 Z0 F1200
G1 X40.026 Y8.358 Z0 F1200
G1 X40.102 Y8.705 Z0 F1200
G1 X40.225 Y9.041 Z0 F1200
G1 X40.393 Y9.362 Z0 F1200
G1 X40.603 Y9.668 Z0 F1200
G1 X40.854 Y9.957 Z0 F1200
G1 X41.142 Y10.226 Z0 F1200
G1 X41.464 Y10.475 Z0 F1200
G1 X41.82 Y10.701 Z0 F1200
G1 X42.204 Y10.902 Z0 F1200
G1 X42.617 Y11.078 Z0 F1200
G1 X43.054 Y11.225 Z0 F1200
G1 X43.513 Y11.343 Z0 F1200
G1 X43.992 Y11.429 Z0 F1200
G1 X44.489 Y11.482 Z0 F1200
G1 X45 Y11.5 Z0 F1200
G1 X45.511 Y11.482 Z0 F1200
G1 X46.008 Y11.429 Z0 F1200
G1 X46.487 Y11.343 Z0 F1200
G1 X46.946 Y11.225 Z0 F1200
G1 X47.383 Y11.078 Z0 F1200
G1 X47.796 Y10.902 Z0 F1200
G1 X48.18 Y10.701 Z0 F1200
G1 X48.536 Y10.475 Z0 F1200
G1 X48.858 Y10.226 Z0 F1200
G1 X49.146 Y9.957 Z0 F1200
G1 X49.397 Y9.668 Z0 F1200
G1 X49.607 Y9.362 Z0 F1200
G1 X49.775 Y9.041 Z0 F1200
G1 X49.898 Y8.705 Z0 F1200
G1 X49.974 Y8.358 Z0 F1200
G1 X50 Y8 Z0 F1200
G1 X49.974 Y7.642 Z0 F1200
G1 X49.898 Y7.295 Z0 F1200
G1 X49.775 Y6.959 Z0 F1200
G1 X49.607 Y6.638 Z0 F1200
G1 X49.397 Y6.332 Z0 F1200
G1 X49.146 Y6.043 Z0 F1200
G1 X48.858 Y5.774 Z0 F1200
G1 X48.536 Y5.525 Z0 F1200
G1 X48.18 Y5.299 Z0 F1200
G1 X47.796 Y5.098 Z0 F1200
G1 X47.383 Y4.922 Z0 F1200
G1 X46.946 Y4.775 Z0 F1200
G1 X46.487 Y4.657 Z0 F1200
G1 X46.008 Y4.571 Z0 F1200
G1 X45.511 Y4.518 Z0 F1200
G1 X45 Y4.5 Z0 F1200
G1 X44.489 Y4.518 Z0 F1200
G1 X43.992 Y4.571 Z0 F1200
G1 X43.513 Y4.657 Z0 F1200
G1 X43.054 Y4.775 Z0 F1200
G1 X42.617 Y4.922 Z0 F1200
G1 X42.204 Y5.098 Z0 F1200
G1 X41.82 Y5.299 Z0 F1200
G1 X41.464 Y5.525 Z0 F1200
G1 X41.142 Y5.774 Z0 F1200
G1 X40.854 Y6.043 Z0 F1200
G1 X40.603 Y6.332 Z0 F1200
G1 X40.393 Y6.638 Z0 F1200
G1 X40.225 Y6.959 Z0 F1200
G1 Z7 F800;         ; Raise from color - controlled movement
G1 X34 Y8 Z1 F1200;     ; Movement in paint - controlled movement
G1 X24 Y18 Z8 F500;     ; Move in paint - controlled movement
G1 F1200;           ; Set feed rate to 1000
G0 Z2.8F500
G0 X55.435Y25.26Z2.8F1000
G1 Z0F500
;Layer C00
G1 X53.795Y26.288Z0S900F800
G1 X52.231Y27.445Z0F800
G1 X50.772Y28.721Z0F800
G1 X49.451Y30.105Z0F800
G1 X48.792Y30.931Z0F800
G1 X48.026Y31.987Z0F800
G1 X47.285Y33.082Z0F800
G1 X46.702Y34.029Z0F800
G1 X44.53Y38.819Z0F800
G1 X43.267Y43.936Z0F800
G1 X42.914Y49.372Z0F800
G1 X43.473Y55.117Z0F800
G1 X43.88Y56.934Z0F800
G1 X44.483Y58.918Z0F800
G1 X45.211Y60.861Z0F800
G1 X45.994Y62.557Z0F800
G1 X48.419Y66.134Z0F800
G1 X51.5Y68.862Z0F800
G1 X55.236Y70.74Z0F800
G1 X59.626Y71.766Z0F800
G1 X60.411Y71.858Z0F800
G1 X61.182Y71.92Z0F800
G1 X61.955Y71.961Z0F800
G1 X62.747Y71.982Z0F800
G1 X63.576Y71.975Z0F800
G1 X64.458Y71.944Z0F800
G1 X65.411Y71.893Z0F800
G1 X66.452Y71.821Z0F800
G1 X68.72Y71.51Z0F800
G1 X71.69Y70.968Z0F800
G1 X74.262Y70.412Z0F800
G1 X75.335Y70.062Z0F800
G1 X75.216Y69.881Z0F800
G1 X74.917Y69.487Z0F800
G1 X74.484Y68.938Z0F800
G1 X73.961Y68.292Z0F800
G1 X72.623Y66.652Z0F800
G1 X70.633Y67.063Z0F800
G1 X66.656Y67.669Z0F800
G1 X62.907Y67.853Z0F800
G1 X59.564Y67.617Z0F800
G1 X56.805Y66.959Z0F800
G1 X56.533Y66.841Z0F800
G1 X56.181Y66.661Z0F800
G1 X55.797Y66.444Z0F800
G1 X55.425Y66.216Z0F800
G1 X54.987Y65.918Z0F800
G1 X54.682Y65.668Z0F800
G1 X54.46Y65.418Z0F800
G1 X54.273Y65.121Z0F800
G1 X53.942Y64.145Z0F800
G1 X54.024Y63.141Z0F800
G1 X54.526Y62.091Z0F800
G1 X55.451Y60.975Z0F800
G1 X56.289Y60.212Z0F800
G1 X57.291Y59.463Z0F800
G1 X58.494Y58.704Z0F800
G1 X59.936Y57.908Z0F800
G1 X60.642Y57.576Z0F800
G1 X61.637Y57.143Z0F800
G1 X62.575Y56.755Z0F800
G1 X63.109Y56.561Z0F800
G1 X63.024Y56.043Z0F800
G1 X62.733Y54.64Z0F800
G1 X62.281Y52.566Z0F800
G1 X61.149Y47.52Z0F800
G1 X60.705Y45.479Z0F800
G1 X60.425Y44.123Z0F800
G1 X60.355Y43.661Z0F800
G1 X60.664Y44.165Z0F800
G1 X61.419Y45.438Z0F800
G1 X62.506Y47.288Z0F800
G1 X63.812Y49.521Z0F800
G1 X67.15Y55.247Z0F800
G1 X67.827Y55.083Z0F800
G1 X66.816Y50.557Z0F800
G1 X66.646Y49.711Z0F800
G1 X66.633Y49.42Z0F800
G1 X66.745Y49.471Z0F800
G1 X67.294Y50.015Z0F800
G1 X68.343Y51.084Z0F800
G1 X69.578Y52.354Z0F800
G1 X70.682Y53.503Z0F800
G1 X71.499Y54.363Z0F800
G1 X72.657Y54.24Z0F800
G1 X77.873Y54.026Z0F800
G1 X82.01Y54.559Z0F800
G1 X84.801Y55.77Z0F800
G1 X85.978Y57.594Z0F800
G1 X85.965Y58.337Z0F800
G1 X85.732Y59.112Z0F800
G1 X85.287Y59.908Z0F800
G1 X84.636Y60.714Z0F800
G1 X84.444Y60.927Z0F800
G1 X84.289Y61.112Z0F800
G1 X84.189Y61.249Z0F800
G1 X84.155Y61.321Z0F800
G1 X84.539Y61.83Z0F800
G1 X85.378Y62.89Z0F800
G1 X86.232Y63.951Z0F800
G1 X86.661Y64.461Z0F800
G1 X86.881Y64.312Z0F800
G1 X87.348Y63.885Z0F800
G1 X87.913Y63.322Z0F800
G1 X88.428Y62.767Z0F800
G1 X90.424Y59.899Z0F800
G1 X91.73Y56.67Z0F800
G1 X92.342Y53.094Z0F800
G1 X92.257Y49.184Z0F800
G1 X92.005Y47.516Z0F800
G1 X91.6Y45.554Z0F800
G1 X91.114Y43.614Z0F800
G1 X90.619Y42.011Z0F800
G1 X88.422Y37.131Z0F800
G1 X85.566Y32.811Z0F800
G1 X82.129Y29.126Z0F800
G1 X78.296Y25.727Z0F800
G0 Z2.8F500
G0 X75.236Y58.855Z2.8F1000
G1 Z0F500
G1 X74.43Y58.834Z0F800
G1 X73.086Y59.119Z0F800
G1 X72.248Y59.742Z0F800
G1 X71.818Y60.365Z0F800
G1 X71.697Y60.648Z0F800
G1 X95.684Y84.118Z0F800
G1 Y84.104Z0F800
G1 X98.34Y81.968Z0F800
G1 X76.673Y58.978Z0F800
G1 X75.956Y58.906Z0F800
G1 X75.236Y58.855Z0F800
G0 Z2.8F500
G0 X78.476Y25.629Z2.8F1000
G1 Z0F500
G1 X79.821Y22.181Z0F800
G1 X81.452Y18.213Z0F800
G1 X81.575Y18.036Z0F800
G1 X81.75Y17.93Z0F800
G1 X81.955Y17.899Z0F800
G1 X82.165Y17.961Z0F800
G1 X86.48Y20.237Z0F800
G1 X86.703Y20.319Z0F800
G1 X86.956Y20.34Z0F800
G1 X87.206Y20.298Z0F800
G1 X87.421Y20.195Z0F800
G1 X97.218Y13.582Z0F800
G1 X97.431Y13.49Z0F800
G1 X97.665Y13.479Z0F800
G1 X97.892Y13.541Z0F800
G1 X98.081Y13.666Z0F800
G1 X107.072Y22.509Z0F800
G1 X107.201Y22.694Z0F800
G1 X107.26Y22.915Z0F800
G1 X107.246Y23.143Z0F800
G1 X107.155Y23.35Z0F800
G1 X100.308Y33.158Z0F800
G1 X100.204Y33.369Z0F800
G1 X100.156Y33.616Z0F800
G1 X100.166Y33.868Z0F800
G1 X100.236Y34.095Z0F800
G1 X103.992Y43.343Z0F800
G1 X104.101Y43.554Z0F800
G1 X104.271Y43.741Z0F800
G1 X104.479Y43.884Z0F800
G1 X104.706Y43.966Z0F800
G1 X116.756Y46.165Z0F800
G1 X116.968Y46.247Z0F800
G1 X117.14Y46.398Z0F800
G1 X117.256Y46.596Z0F800
G1 X117.298Y46.818Z0F800
G1 X117.306Y59.316Z0F800
G1 X117.264Y59.537Z0F800
G1 X117.146Y59.735Z0F800
G1 X116.971Y59.886Z0F800
G1 X116.758Y59.968Z0F800
G1 X104.403Y62.227Z0F800
G1 X104.173Y62.31Z0F800
G1 X103.956Y62.45Z0F800
G1 X103.778Y62.636Z0F800
G1 X103.664Y62.845Z0F800
G1 X99.886Y71.534Z0F800
G1 X99.811Y71.759Z0F800
G1 X99.795Y72.012Z0F800
G1 X99.837Y72.261Z0F800
G1 X99.939Y72.475Z0F800
G1 X107.147Y82.789Z0F800
G1 X107.239Y82.994Z0F800
G1 X107.252Y83.222Z0F800
G1 X107.193Y83.444Z0F800
G1 X107.064Y83.629Z0F800
G1 X98.073Y92.467Z0F800
G1 X97.883Y92.591Z0F800
G1 X97.66Y92.643Z0F800
G1 X97.432Y92.622Z0F800
G1 X97.225Y92.53Z0F800
G1 X86.549Y85.332Z0F800
G1 X86.333Y85.229Z0F800
G1 X86.078Y85.177Z0F800
G1 X85.819Y85.187Z0F800
G1 X85.588Y85.259Z0F800
G1 X77.021Y88.707Z0F800
G1 X76.807Y88.814Z0F800
G1 X76.617Y88.984Z0F800
G1 X76.471Y89.193Z0F800
G1 X76.39Y89.416Z0F800
G1 X74.013Y101.979Z0F800
G1 X73.93Y102.19Z0F800
G1 X73.778Y102.363Z0F800
G1 X73.578Y102.481Z0F800
G1 X73.352Y102.522Z0F800
G1 X60.633Z0F800
G1 X60.644Y102.512Z0F800
G1 X60.422Y102.47Z0F800
G1 X60.227Y102.353Z0F800
G1 X60.079Y102.179Z0F800
G1 X59.998Y101.968Z0F800
G1 X57.606Y89.406Z0F800
G1 X57.525Y89.183Z0F800
G1 X57.38Y88.975Z0F800
G1 X57.192Y88.805Z0F800
G1 X56.98Y88.698Z0F800
G1 X48.423Y85.25Z0F800
G1 X48.193Y85.178Z0F800
G1 X47.935Y85.168Z0F800
G1 X47.681Y85.22Z0F800
G1 X47.462Y85.323Z0F800
G1 X36.786Y92.52Z0F800
G1 X36.576Y92.613Z0F800
G1 X36.344Y92.633Z0F800
G1 X36.119Y92.582Z0F800
G1 X35.928Y92.456Z0F800
G1 X26.937Y83.619Z0F800
G1 X26.809Y83.434Z0F800
G1 X26.753Y83.212Z0F800
G1 X26.77Y82.982Z0F800
G1 X26.863Y82.778Z0F800
G1 X34.062Y72.464Z0F800
G1 X34.161Y72.25Z0F800
G1 X34.206Y72.001Z0F800
G1 X34.192Y71.748Z0F800
G1 X34.118Y71.523Z0F800
G1 X30.33Y62.834Z0F800
G1 X30.217Y62.624Z0F800
G1 X30.04Y62.439Z0F800
G1 X29.826Y62.297Z0F800
G1 X29.597Y62.215Z0F800
G1 X17.236Y59.956Z0F800
G1 X17.024Y59.874Z0F800
G1 X16.852Y59.722Z0F800
G1 X16.736Y59.525Z0F800
G1 X16.694Y59.303Z0F800
G1 Y46.805Z0F800
G1 X16.738Y46.582Z0F800
G1 X16.858Y46.384Z0F800
G1 X17.034Y46.233Z0F800
G1 X17.247Y46.15Z0F800
G1 X29.297Y43.952Z0F800
G1 X29.524Y43.87Z0F800
G1 X29.733Y43.727Z0F800
G1 X29.903Y43.541Z0F800
G1 X30.01Y43.331Z0F800
G1 X33.772Y34.082Z0F800
G1 X33.841Y33.856Z0F800
G1 X33.848Y33.605Z0F800
G1 X33.797Y33.358Z0F800
G1 X33.692Y33.145Z0F800
G1 X26.851Y23.337Z0F800
G1 X26.758Y23.13Z0F800
G1 X26.742Y22.902Z0F800
G1 X26.799Y22.68Z0F800
G1 X26.927Y22.495Z0F800
G1 X35.923Y13.653Z0F800
G1 X36.114Y13.53Z0F800
G1 X36.339Y13.478Z0F800
G1 X36.57Y13.499Z0F800
G1 X36.781Y13.591Z0F800
G1 X46.578Y20.204Z0F800
G1 X46.793Y20.307Z0F800
G1 X47.043Y20.349Z0F800
G1 X47.295Y20.328Z0F800
G1 X47.518Y20.246Z0F800
G1 X51.833Y17.97Z0F800
G1 X52.044Y17.908Z0F800
G1 X52.248Y17.939Z0F800
G1 X52.423Y18.046Z0F800
G1 X52.547Y18.221Z0F800
G1 X53.991Y21.741Z0F800
G1 X55.397Y25.473Z0F800
M5
G1 Z10 F500
M9
G90
G1 Z10 F500


; Return to 2,0 wash and park
G1 Z10 F1000;        ; Raise brush to safe height
G0 X5 Y5 F1200;     ; Rapid move to brush cleaning position
G1 Z-1 F800;         ; Lower brush for cleaning - controlled movement
G1 X10 Y12 Z8 F1200;     ; Rapid move to brush cleaning position
G1 Z-1 F800;         ; Lower brush for cleaning - controlled movement
G1 X25 Y14 Z6 F800;     ; Move across cleaning area - controlled movement
G0 X5 Y5 F1200;     ; Rapid move to brush cleaning position
G1 Z-1 F800;         ; Lower brush for cleaning - controlled movement
G1 X15 Y12 Z8 F1200;     ; Rapid move to brush cleaning position
G1 Z-1 F800;         ; Lower brush for cleaning - controlled movement
G1 X25 Y14 Z6 F800;     ; Move across cleaning area - controlled movement
G1 Z10 F800;         ; Maintain brush height - controlled movement
G0 X20 Y130 Z10 F500;; Move to parking position with Z at safe height
M2;                 ; End program
