G90 ; Force absolute mode
;LightBurn 1.6.04
;Custom GCode device profile, absolute coords
;Bounds: X26.3 Y27.83 to X123.72 Y62.17
G00 G17 G40 G21 G54
M3
G1 Z10 F1000
;Scan @ 1555 mm/min, 80% power

M8
G0 Z4.8 F800
G0 X26.303 Y37.389 Z4.8 F1500
G1 Z0 F1500
;Layer C1
G1 Z2.5 F800 ; Lift S=0
G1 X26.951 S0 F1500
G1 Z0 F800 ; Drop S>0
G1 X27.126 S800 F1500
G1 Z2.5 F800 ; Lift S=0
G1 X28.532 S0 F1500
G1 Z0 F800 ; Drop S>0
G1 X29.821 S800 F1500
G1 Z2.5 F800 ; Lift S=0
G1 X39.216 S0 F1500
G1 Z0 F800 ; Drop S>0
G1 X39.941 S800 F1500
G1 Z2.5 F800 ; Lift S=0
G1 X46.219 S0 F1500
G1 Z0 F800 ; Drop S>0
G1 X49.08 S800 F1500
G1 Z2.5 F800 ; Lift S=0
G1 X51.599 S0 F1500
G1 Z0 F800 ; Drop S>0
G1 X53.82 S800 F1500
G1 Z2.5 F800 ; Lift S=0
G1 X56.592 S0 F1500
G1 Z0 F800 ; Drop S>0
G1 X59.516 S800 F1500
G1 Z2.5 F800 ; Lift S=0
G1 X64.401 S0 F1500
G1 Z0 F800 ; Drop S>0
G1 X67.587 S800 F1500
G1 Z2.5 F800 ; Lift S=0
G1 X69.833 S0 F1500
G1 Z0 F800 ; Drop S>0
G1 X72.37 S800 F1500
G1 Z2.5 F800 ; Lift S=0
G1 X94.232 S0 F1500
G1 Z0 F800 ; Drop S>0
G1 X95.616 S800 F1500
G1 Z2.5 F800 ; Lift S=0
G1 X103.252 S0 F1500
G1 Z0 F800 ; Drop S>0
G1 X105.247 S800 F1500
G1 Z2.5 F800 ; Lift S=0
G1 X113.692 S0 F1500
G1 Z0 F800 ; Drop S>0
G1 X116.905 S800 F1500
G1 Z2.5 F800 ; Lift S=0
G1 X117.553 S0 F1500
G1 X119.664 Y38.289 Z2.5 F1500
; --- FIX X Backlash ---
G0 X118.764 Y38.289 F1200
G1 X118.116 Z2.5 F1500
G1 Z0 F800 ; Drop S>0
G1 X110.36 S800 F1500
G1 Z2.5 F800 ; Lift S=0
G1 X105.181 S0 F1500
G1 Z0 F800 ; Drop S>0
G1 X101.702 S800 F1500
G1 Z2.5 F800 ; Lift S=0
G1 X95.943 S0 F1500
G1 Z0 F800 ; Drop S>0
G1 X92.638 S800 F1500
G1 Z2.5 F800 ; Lift S=0
G1 X72.288 S0 F1500
G1 Z0 F800 ; Drop S>0
G1 X68.615 S800 F1500
G1 Z2.5 F800 ; Lift S=0
G1 X67.842 S0 F1500
G1 Z0 F800 ; Drop S>0
G1 X62.433 S800 F1500
G1 Z2.5 F800 ; Lift S=0
G1 X59.194 S0 F1500
G1 Z0 F800 ; Drop S>0
G1 X55.839 S800 F1500
G1 Z2.5 F800 ; Lift S=0
G1 X53.798 S0 F1500
G1 Z0 F800 ; Drop S>0
G1 X50.511 S800 F1500
G1 Z2.5 F800 ; Lift S=0
G1 X49.685 S0 F1500
G1 Z0 F800 ; Drop S>0
G1 X44.122 S800 F1500
G1 Z2.5 F800 ; Lift S=0
G1 X41.078 S0 F1500
G1 Z0 F800 ; Drop S>0
G1 X37.793 S800 F1500
G1 Z2.5 F800 ; Lift S=0
G1 X29.44 S0 F1500
G1 Z0 F800 ; Drop S>0
G1 X26.142 S800 F1500
G1 Z2.5 F800 ; Lift S=0
G1 X25.494 S0 F1500
; --- FIX X Backlash ---
G0 X26.394 Y38.289 F1200
G1 X26.536 Y39.189 Z2.5 F1500
G1 X27.184 Z2.5 F1500
G1 Z0 F800 ; Drop S>0
G1 X30.435 S800 F1500
G1 Z2.5 F800 ; Lift S=0
G1 X38.834 S0 F1500
G1 Z0 F800 ; Drop S>0
G1 X42.108 S800 F1500
G1 Z2.5 F800 ; Lift S=0
G1 X44.625 S0 F1500
G1 Z0 F800 ; Drop S>0
G1 X55.015 S800 F1500
G1 Z2.5 F800 ; Lift S=0
G1 X56.886 S0 F1500
G1 Z0 F800 ; Drop S>0
G1 X60.375 S800 F1500
G1 Z2.5 F800 ; Lift S=0
G1 X62.751 S0 F1500
G1 Z0 F800 ; Drop S>0
G1 X73.273 S800 F1500
G1 Z2.5 F800 ; Lift S=0
G1 X93.542 S0 F1500
G1 Z0 F800 ; Drop S>0
G1 X97.239 S800 F1500
G1 Z2.5 F800 ; Lift S=0
G1 X102.133 S0 F1500
G1 Z0 F800 ; Drop S>0
G1 X106.356 S800 F1500
G1 Z2.5 F800 ; Lift S=0
G1 X110.313 S0 F1500
G1 Z0 F800 ; Drop S>0
G1 X120.204 S800 F1500
G1 Z2.5 F800 ; Lift S=0
G1 X120.852 S0 F1500
G1 X121.712 Y40.089 Z2.5 F1500
; --- FIX X Backlash ---
G0 X120.812 Y40.089 F1200
G1 X120.164 Z2.5 F1500
G1 Z0 F800 ; Drop S>0
G1 X108.813 S800 F1500
G1 Z2.5 F800 ; Lift S=0
G1 X105.598 S0 F1500
G1 Z0 F800 ; Drop S>0
G1 X100.767 S800 F1500
G1 Z2.5 F800 ; Lift S=0
G1 X96.538 S0 F1500
G1 Z0 F800 ; Drop S>0
G1 X92.806 S800 F1500
G1 Z2.5 F800 ; Lift S=0
G1 X72.385 S0 F1500
G1 Z0 F800 ; Drop S>0
G1 X68.013 S800 F1500
G1 Z2.5 F800 ; Lift S=0
G1 X65.911 S0 F1500
G1 Z0 F800 ; Drop S>0
G1 X61.514 S800 F1500
G1 Z2.5 F800 ; Lift S=0
G1 X59.645 S0 F1500
G1 Z0 F800 ; Drop S>0
G1 X56.133 S800 F1500
G1 Z2.5 F800 ; Lift S=0
G1 X54.264 S0 F1500
G1 Z0 F800 ; Drop S>0
G1 X49.542 S800 F1500
G1 Z2.5 F800 ; Lift S=0
G1 X48.061 S0 F1500
G1 Z0 F800 ; Drop S>0
G1 X43.607 S800 F1500
G1 Z2.5 F800 ; Lift S=0
G1 X41.338 S0 F1500
G1 Z0 F800 ; Drop S>0
G1 X38.075 S800 F1500
G1 Z2.5 F800 ; Lift S=0
G1 X29.627 S0 F1500
G1 Z0 F800 ; Drop S>0
G1 X26.426 S800 F1500
G1 Z2.5 F800 ; Lift S=0
G1 X25.778 S0 F1500
; --- FIX X Backlash ---
G0 X26.678 Y40.089 F1200
G1 X26.82 Y40.989 Z2.5 F1500
G1 X27.468 Z2.5 F1500
G1 Z0 F800 ; Drop S>0
G1 X30.664 S800 F1500
G1 Z2.5 F800 ; Lift S=0
G1 X39.116 S0 F1500
G1 Z0 F800 ; Drop S>0
G1 X42.378 S800 F1500
G1 Z2.5 F800 ; Lift S=0
G1 X44.488 S0 F1500
G1 Z0 F800 ; Drop S>0
G1 X48.068 S800 F1500
G1 Z2.5 F800 ; Lift S=0
G1 X51.583 S0 F1500
G1 Z0 F800 ; Drop S>0
G1 X55.24 S800 F1500
G1 Z2.5 F800 ; Lift S=0
G1 X57.181 S0 F1500
G1 Z0 F800 ; Drop S>0
G1 X60.67 S800 F1500
G1 Z2.5 F800 ; Lift S=0
G1 X62.314 S0 F1500
G1 Z0 F800 ; Drop S>0
G1 X66.002 S800 F1500
G1 Z2.5 F800 ; Lift S=0
G1 X69.645 S0 F1500
G1 Z0 F800 ; Drop S>0
G1 X73.407 S800 F1500
G1 Z2.5 F800 ; Lift S=0
G1 X93.909 S0 F1500
G1 Z0 F800 ; Drop S>0
G1 X97.55 S800 F1500
G1 Z2.5 F800 ; Lift S=0
G1 X101.209 S0 F1500
G1 Z0 F800 ; Drop S>0
G1 X106.64 S800 F1500
G1 Z2.5 F800 ; Lift S=0
G1 X109.326 S0 F1500
G1 Z0 F800 ; Drop S>0
G1 X113.359 S800 F1500
G1 Z2.5 F800 ; Lift S=0
G1 X117.487 S0 F1500
G1 Z0 F800 ; Drop S>0
G1 X121.691 S800 F1500
G1 Z2.5 F800 ; Lift S=0
G1 X122.339 S0 F1500
G1 X122.688 Y41.889 Z2.5 F1500
; --- FIX X Backlash ---
G0 X121.788 Y41.889 F1200
G1 X121.14 Z2.5 F1500
G1 Z0 F800 ; Drop S>0
G1 X117.697 S800 F1500
G1 Z2.5 F800 ; Lift S=0
G1 X111.86 S0 F1500
G1 Z0 F800 ; Drop S>0
G1 X108.203 S800 F1500
G1 Z2.5 F800 ; Lift S=0
G1 X105.865 S0 F1500
G1 Z0 F800 ; Drop S>0
G1 X99.871 S800 F1500
G1 Z2.5 F800 ; Lift S=0
G1 X96.722 S0 F1500
G1 Z0 F800 ; Drop S>0
G1 X93.233 S800 F1500
G1 Z2.5 F800 ; Lift S=0
G1 X72.634 S0 F1500
G1 Z0 F800 ; Drop S>0
G1 X69.202 S800 F1500
G1 Z2.5 F800 ; Lift S=0
G1 X64.964 S0 F1500
G1 Z0 F800 ; Drop S>0
G1 X61.444 S800 F1500
G1 Z2.5 F800 ; Lift S=0
G1 X59.892 S0 F1500
G1 Z0 F800 ; Drop S>0
G1 X56.428 S800 F1500
G1 Z2.5 F800 ; Lift S=0
G1 X54.406 S0 F1500
G1 Z0 F800 ; Drop S>0
G1 X50.949 S800 F1500
G1 Z2.5 F800 ; Lift S=0
G1 X47.18 S0 F1500
G1 Z0 F800 ; Drop S>0
G1 X43.655 S800 F1500
G1 Z2.5 F800 ; Lift S=0
G1 X41.624 S0 F1500
G1 Z0 F800 ; Drop S>0
G1 X38.361 S800 F1500
G1 Z2.5 F800 ; Lift S=0
G1 X29.989 S0 F1500
G1 Z0 F800 ; Drop S>0
G1 X26.71 S800 F1500
G1 Z2.5 F800 ; Lift S=0
G1 X26.062 S0 F1500
; --- FIX X Backlash ---
G0 X26.962 Y41.889 F1200
G1 X27.104 Y42.789 Z2.5 F1500
G1 X27.752 Z2.5 F1500
G1 Z0 F800 ; Drop S>0
G1 X31.314 S800 F1500
G1 Z2.5 F800 ; Lift S=0
G1 X39.41 S0 F1500
G1 Z0 F800 ; Drop S>0
G1 X42.669 S800 F1500
G1 Z2.5 F800 ; Lift S=0
G1 X44.669 S0 F1500
G1 Z0 F800 ; Drop S>0
G1 X48.13 S800 F1500
G1 Z2.5 F800 ; Lift S=0
G1 X52.096 S0 F1500
G1 Z0 F800 ; Drop S>0
G1 X55.375 S800 F1500
G1 Z2.5 F800 ; Lift S=0
G1 X57.475 S0 F1500
G1 Z0 F800 ; Drop S>0
G1 X60.776 S800 F1500
G1 Z2.5 F800 ; Lift S=0
G1 X62.448 S0 F1500
G1 Z0 F800 ; Drop S>0
G1 X66.084 S800 F1500
G1 Z2.5 F800 ; Lift S=0
G1 X70.345 S0 F1500
G1 Z0 F800 ; Drop S>0
G1 X73.695 S800 F1500
G1 Z2.5 F800 ; Lift S=0
G1 X94.315 S0 F1500
G1 Z0 F800 ; Drop S>0
G1 X97.691 S800 F1500
G1 Z2.5 F800 ; Lift S=0
G1 X100.187 S0 F1500
G1 Z0 F800 ; Drop S>0
G1 X106.889 S800 F1500
G1 Z2.5 F800 ; Lift S=0
G1 X109.013 S0 F1500
G1 Z0 F800 ; Drop S>0
G1 X112.468 S800 F1500
G1 Z2.5 F800 ; Lift S=0
G1 X120.152 S0 F1500
G1 Z0 F800 ; Drop S>0
G1 X121.302 S800 F1500
G1 Z2.5 F800 ; Lift S=0
G1 X121.95 S0 F1500
; --- FIX X Backlash ---
G0 X121.05 Y42.789 F1200
G1 X112.155 Y43.689 Z2.5 F1500
G1 X111.508 Z2.5 F1500
G1 Z0 F800 ; Drop S>0
G1 X108.098 S800 F1500
G1 Z2.5 F800 ; Lift S=0
G1 X106.132 S0 F1500
G1 Z0 F800 ; Drop S>0
G1 X98.869 S800 F1500
G1 Z2.5 F800 ; Lift S=0
G1 X96.876 S0 F1500
G1 Z0 F800 ; Drop S>0
G1 X93.489 S800 F1500
G1 Z2.5 F800 ; Lift S=0
G1 X72.956 S0 F1500
G1 Z0 F800 ; Drop S>0
G1 X69.523 S800 F1500
G1 Z2.5 F800 ; Lift S=0
G1 X65.321 S0 F1500
G1 Z0 F800 ; Drop S>0
G1 X61.738 S800 F1500
G1 Z2.5 F800 ; Lift S=0
G1 X60.027 S0 F1500
G1 Z0 F800 ; Drop S>0
G1 X56.727 S800 F1500
G1 Z2.5 F800 ; Lift S=0
G1 X54.599 S0 F1500
G1 Z0 F800 ; Drop S>0
G1 X51.323 S800 F1500
G1 Z2.5 F800 ; Lift S=0
G1 X47.367 S0 F1500
G1 Z0 F800 ; Drop S>0
G1 X43.925 S800 F1500
G1 Z2.5 F800 ; Lift S=0
G1 X41.917 S0 F1500
G1 Z0 F800 ; Drop S>0
G1 X38.659 S800 F1500
G1 Z2.5 F800 ; Lift S=0
G1 X36.156 S0 F1500
G1 Z0 F800 ; Drop S>0
G1 X32.577 S800 F1500
G1 Z2.5 F800 ; Lift S=0
G1 X31.839 S0 F1500
G1 Z0 F800 ; Drop S>0
G1 X26.994 S800 F1500
G1 Z2.5 F800 ; Lift S=0
G1 X26.346 S0 F1500
; --- FIX X Backlash ---
G0 X27.246 Y43.689 F1200
G1 X27.388 Y44.589 Z2.5 F1500
G1 X28.036 Z2.5 F1500
G1 Z0 F800 ; Drop S>0
G1 X37.51 S800 F1500
G1 Z2.5 F800 ; Lift S=0
G1 X39.708 S0 F1500
G1 Z0 F800 ; Drop S>0
G1 X42.968 S800 F1500
G1 Z2.5 F800 ; Lift S=0
G1 X45.016 S0 F1500
G1 Z0 F800 ; Drop S>0
G1 X48.48 S800 F1500
G1 Z2.5 F800 ; Lift S=0
G1 X52.308 S0 F1500
G1 Z0 F800 ; Drop S>0
G1 X55.758 S800 F1500
G1 Z2.5 F800 ; Lift S=0
G1 X57.779 S0 F1500
G1 Z0 F800 ; Drop S>0
G1 X61.174 S800 F1500
G1 Z2.5 F800 ; Lift S=0
G1 X62.927 S0 F1500
G1 Z0 F800 ; Drop S>0
G1 X66.604 S800 F1500
G1 Z2.5 F800 ; Lift S=0
G1 X70.297 S0 F1500
G1 Z0 F800 ; Drop S>0
G1 X74.018 S800 F1500
G1 Z2.5 F800 ; Lift S=0
G1 X94.474 S0 F1500
G1 Z0 F800 ; Drop S>0
G1 X97.932 S800 F1500
G1 Z2.5 F800 ; Lift S=0
G1 X99.375 S0 F1500
G1 Z0 F800 ; Drop S>0
G1 X102.767 S800 F1500
G1 Z2.5 F800 ; Lift S=0
G1 X103.717 S0 F1500
G1 Z0 F800 ; Drop S>0
G1 X107.192 S800 F1500
G1 Z2.5 F800 ; Lift S=0
G1 X109.064 S0 F1500
G1 Z0 F800 ; Drop S>0
G1 X112.589 S800 F1500
G1 Z2.5 F800 ; Lift S=0
G1 X113.237 S0 F1500
G1 X113.431 Y45.489 Z2.5 F1500
; --- FIX X Backlash ---
G0 X112.531 Y45.489 F1200
G1 X111.883 Z2.5 F1500
G1 Z0 F800 ; Drop S>0
G1 X108.311 S800 F1500
G1 Z2.5 F800 ; Lift S=0
G1 X106.453 S0 F1500
G1 Z0 F800 ; Drop S>0
G1 X103.036 S800 F1500
G1 Z2.5 F800 ; Lift S=0
G1 X101.51 S0 F1500
G1 Z0 F800 ; Drop S>0
G1 X98 S800 F1500
G1 Z2.5 F800 ; Lift S=0
G1 X97.318 S0 F1500
G1 Z0 F800 ; Drop S>0
G1 X93.751 S800 F1500
G1 Z2.5 F800 ; Lift S=0
G1 X73.28 S0 F1500
G1 Z0 F800 ; Drop S>0
G1 X68.853 S800 F1500
G1 Z2.5 F800 ; Lift S=0
G1 X66.459 S0 F1500
G1 Z0 F800 ; Drop S>0
G1 X62.433 S800 F1500
G1 Z2.5 F800 ; Lift S=0
G1 X60.534 S0 F1500
G1 Z0 F800 ; Drop S>0
G1 X57.03 S800 F1500
G1 Z2.5 F800 ; Lift S=0
G1 X55.145 S0 F1500
G1 Z0 F800 ; Drop S>0
G1 X51.484 S800 F1500
G1 Z2.5 F800 ; Lift S=0
G1 X47.806 S0 F1500
G1 Z0 F800 ; Drop S>0
G1 X44.315 S800 F1500
G1 Z2.5 F800 ; Lift S=0
G1 X42.219 S0 F1500
G1 Z0 F800 ; Drop S>0
G1 X38.955 S800 F1500
G1 Z2.5 F800 ; Lift S=0
G1 X36.515 S0 F1500
G1 Z0 F800 ; Drop S>0
G1 X27.282 S800 F1500
G1 Z2.5 F800 ; Lift S=0
G1 X26.634 S0 F1500
; --- FIX X Backlash ---
G0 X27.534 Y45.489 F1200
G1 X27.683 Y46.389 Z2.5 F1500
G1 X28.331 Z2.5 F1500
G1 Z0 F800 ; Drop S>0
G1 X31.947 S800 F1500
G1 Z2.5 F800 ; Lift S=0
G1 X40.001 S0 F1500
G1 Z0 F800 ; Drop S>0
G1 X43.269 S800 F1500
G1 Z2.5 F800 ; Lift S=0
G1 X45.408 S0 F1500
G1 Z0 F800 ; Drop S>0
G1 X48.893 S800 F1500
G1 Z2.5 F800 ; Lift S=0
G1 X52.501 S0 F1500
G1 Z0 F800 ; Drop S>0
G1 X56.243 S800 F1500
G1 Z2.5 F800 ; Lift S=0
G1 X58.082 S0 F1500
G1 Z0 F800 ; Drop S>0
G1 X61.666 S800 F1500
G1 Z2.5 F800 ; Lift S=0
G1 X63.902 S0 F1500
G1 Z0 F800 ; Drop S>0
G1 X74.333 S800 F1500
G1 Z2.5 F800 ; Lift S=0
G1 X94.819 S0 F1500
G1 Z0 F800 ; Drop S>0
G1 X101.943 S800 F1500
G1 Z2.5 F800 ; Lift S=0
G1 X104.076 S0 F1500
G1 Z0 F800 ; Drop S>0
G1 X107.514 S800 F1500
G1 Z2.5 F800 ; Lift S=0
G1 X109.439 S0 F1500
G1 Z0 F800 ; Drop S>0
G1 X113.059 S800 F1500
G1 Z2.5 F800 ; Lift S=0
G1 X113.707 S0 F1500
G1 X123.393 Y47.289 Z2.5 F1500
; --- FIX X Backlash ---
G0 X122.493 Y47.289 F1200
G1 X121.845 Z2.5 F1500
G1 Z0 F800 ; Drop S>0
G1 X119.129 S800 F1500
G1 Z2.5 F800 ; Lift S=0
G1 X112.613 S0 F1500
G1 Z0 F800 ; Drop S>0
G1 X108.859 S800 F1500
G1 Z2.5 F800 ; Lift S=0
G1 X106.775 S0 F1500
G1 Z0 F800 ; Drop S>0
G1 X103.289 S800 F1500
G1 Z2.5 F800 ; Lift S=0
G1 X100.539 S0 F1500
G1 Z0 F800 ; Drop S>0
G1 X94.073 S800 F1500
G1 Z2.5 F800 ; Lift S=0
G1 X73.564 S0 F1500
G1 Z0 F800 ; Drop S>0
G1 X70.092 S800 F1500
G1 Z2.5 F800 ; Lift S=0
G1 X69.464 S0 F1500
G1 Z0 F800 ; Drop S>0
G1 X63.834 S800 F1500
G1 Z2.5 F800 ; Lift S=0
G1 X60.863 S0 F1500
G1 Z0 F800 ; Drop S>0
G1 X57.334 S800 F1500
G1 Z2.5 F800 ; Lift S=0
G1 X55.382 S0 F1500
G1 Z0 F800 ; Drop S>0
G1 X51.832 S800 F1500
G1 Z2.5 F800 ; Lift S=0
G1 X48.083 S0 F1500
G1 Z0 F800 ; Drop S>0
G1 X44.683 S800 F1500
G1 Z2.5 F800 ; Lift S=0
G1 X42.514 S0 F1500
G1 Z0 F800 ; Drop S>0
G1 X39.247 S800 F1500
G1 Z2.5 F800 ; Lift S=0
G1 X30.901 S0 F1500
G1 Z0 F800 ; Drop S>0
G1 X27.58 S800 F1500
G1 Z2.5 F800 ; Lift S=0
G1 X26.932 S0 F1500
; --- FIX X Backlash ---
G0 X27.832 Y47.289 F1200
G1 X27.981 Y48.189 Z2.5 F1500
G1 X28.629 Z2.5 F1500
G1 Z0 F800 ; Drop S>0
G1 X31.878 S800 F1500
G1 Z2.5 F800 ; Lift S=0
G1 X40.293 S0 F1500
G1 Z0 F800 ; Drop S>0
G1 X43.56 S800 F1500
G1 Z2.5 F800 ; Lift S=0
G1 X45.717 S0 F1500
G1 Z0 F800 ; Drop S>0
G1 X48.743 S800 F1500
G1 Z2.5 F800 ; Lift S=0
G1 X53.272 S0 F1500
G1 Z0 F800 ; Drop S>0
G1 X55.962 S800 F1500
G1 Z2.5 F800 ; Lift S=0
G1 X58.386 S0 F1500
G1 Z0 F800 ; Drop S>0
G1 X61.368 S800 F1500
G1 Z2.5 F800 ; Lift S=0
G1 X66.087 S0 F1500
G1 Z0 F800 ; Drop S>0
G1 X69.425 S800 F1500
G1 Z2.5 F800 ; Lift S=0
G1 X71.2 S0 F1500
G1 Z0 F800 ; Drop S>0
G1 X74.573 S800 F1500
G1 Z2.5 F800 ; Lift S=0
G1 X95.125 S0 F1500
G1 Z0 F800 ; Drop S>0
G1 X100.985 S800 F1500
G1 Z2.5 F800 ; Lift S=0
G1 X104.288 S0 F1500
G1 Z0 F800 ; Drop S>0
G1 X107.834 S800 F1500
G1 Z2.5 F800 ; Lift S=0
G1 X110.191 S0 F1500
G1 Z0 F800 ; Drop S>0
G1 X114.199 S800 F1500
G1 Z2.5 F800 ; Lift S=0
G1 X119.39 S0 F1500
G1 Z0 F800 ; Drop S>0
G1 X123.075 S800 F1500
G1 Z2.5 F800 ; Lift S=0
G1 X123.723 S0 F1500
; --- FIX X Backlash ---
G0 X122.823 Y48.189 F1200
G1 X122.685 Y49.089 Z2.5 F1500
G1 X122.037 Z2.5 F1500
G1 Z0 F800 ; Drop S>0
G1 X117.75 S800 F1500
G1 Z2.5 F800 ; Lift S=0
G1 X114.445 S0 F1500
G1 Z0 F800 ; Drop S>0
G1 X109.805 S800 F1500
G1 Z2.5 F800 ; Lift S=0
G1 X107.092 S0 F1500
G1 Z0 F800 ; Drop S>0
G1 X103.499 S800 F1500
G1 Z2.5 F800 ; Lift S=0
G1 X99.633 S0 F1500
G1 Z0 F800 ; Drop S>0
G1 X94.36 S800 F1500
G1 Z2.5 F800 ; Lift S=0
G1 X73.85 S0 F1500
G1 Z0 F800 ; Drop S>0
G1 X70.41 S800 F1500
G1 Z2.5 F800 ; Lift S=0
G1 X42.806 S0 F1500
G1 Z0 F800 ; Drop S>0
G1 X39.527 S800 F1500
G1 Z2.5 F800 ; Lift S=0
G1 X31.527 S0 F1500
G1 Z0 F800 ; Drop S>0
G1 X27.888 S800 F1500
G1 Z2.5 F800 ; Lift S=0
G1 X27.24 S0 F1500
; --- FIX X Backlash ---
G0 X28.14 Y49.089 F1200
G1 X28.304 Y49.989 Z2.5 F1500
G1 X28.952 Z2.5 F1500
G1 Z0 F800 ; Drop S>0
G1 X38.881 S800 F1500
G1 Z2.5 F800 ; Lift S=0
G1 X40.56 S0 F1500
G1 Z0 F800 ; Drop S>0
G1 X44.082 S800 F1500
G1 Z2.5 F800 ; Lift S=0
G1 X59.976 S0 F1500
G1 Z0 F800 ; Drop S>0
G1 X61.172 S800 F1500
G1 Z2.5 F800 ; Lift S=0
G1 X71.403 S0 F1500
G1 Z0 F800 ; Drop S>0
G1 X74.997 S800 F1500
G1 Z2.5 F800 ; Lift S=0
G1 X95.394 S0 F1500
G1 Z0 F800 ; Drop S>0
G1 X100.085 S800 F1500
G1 Z2.5 F800 ; Lift S=0
G1 X104.362 S0 F1500
G1 Z0 F800 ; Drop S>0
G1 X108.151 S800 F1500
G1 Z2.5 F800 ; Lift S=0
G1 X111.376 S0 F1500
G1 Z0 F800 ; Drop S>0
G1 X122.544 S800 F1500
G1 Z2.5 F800 ; Lift S=0
G1 X123.192 S0 F1500
; --- FIX X Backlash ---
G0 X122.292 Y49.989 F1200
G1 X121.648 Y50.889 Z2.5 F1500
G1 X121 Z2.5 F1500
G1 Z0 F800 ; Drop S>0
G1 X111.435 S800 F1500
G1 Z2.5 F800 ; Lift S=0
G1 X107.409 S0 F1500
G1 Z0 F800 ; Drop S>0
G1 X103.652 S800 F1500
G1 Z2.5 F800 ; Lift S=0
G1 X98.723 S0 F1500
G1 Z0 F800 ; Drop S>0
G1 X94.616 S800 F1500
G1 Z2.5 F800 ; Lift S=0
G1 X74.24 S0 F1500
G1 Z0 F800 ; Drop S>0
G1 X70.612 S800 F1500
G1 Z2.5 F800 ; Lift S=0
G1 X61.257 S0 F1500
G1 Z0 F800 ; Drop S>0
G1 X58.286 S800 F1500
G1 Z2.5 F800 ; Lift S=0
G1 X43.315 S0 F1500
G1 Z0 F800 ; Drop S>0
G1 X39.793 S800 F1500
G1 Z2.5 F800 ; Lift S=0
G1 X38.347 S0 F1500
G1 Z0 F800 ; Drop S>0
G1 X28.216 S800 F1500
G1 Z2.5 F800 ; Lift S=0
G1 X27.568 S0 F1500
; --- FIX X Backlash ---
G0 X28.468 Y50.889 F1200
G1 X28.632 Y51.789 Z2.5 F1500
G1 X29.279 Z2.5 F1500
G1 Z0 F800 ; Drop S>0
G1 X39.23 S800 F1500
G1 Z2.5 F800 ; Lift S=0
G1 X41.01 S0 F1500
G1 Z0 F800 ; Drop S>0
G1 X43.897 S800 F1500
G1 Z2.5 F800 ; Lift S=0
G1 X59.03 S0 F1500
G1 Z0 F800 ; Drop S>0
G1 X62.385 S800 F1500
G1 Z2.5 F800 ; Lift S=0
G1 X71.69 S0 F1500
G1 Z0 F800 ; Drop S>0
G1 X75.011 S800 F1500
G1 Z2.5 F800 ; Lift S=0
G1 X95.635 S0 F1500
G1 Z0 F800 ; Drop S>0
G1 X99.135 S800 F1500
G1 Z2.5 F800 ; Lift S=0
G1 X105.113 S0 F1500
G1 Z0 F800 ; Drop S>0
G1 X108.468 S800 F1500
G1 Z2.5 F800 ; Lift S=0
G1 X113.784 S0 F1500
G1 Z0 F800 ; Drop S>0
G1 X120.809 S800 F1500
G1 Z2.5 F800 ; Lift S=0
G1 X121.457 S0 F1500
; --- FIX X Backlash ---
G0 X120.557 Y51.789 F1200
G1 X61.813 Y52.689 Z2.5 F1500
G1 X61.165 Z2.5 F1500
G1 Z0 F800 ; Drop S>0
G1 X58.499 S800 F1500
G1 Z2.5 F800 ; Lift S=0
G1 X57.851 S0 F1500
;Cut @ 1432 mm/min, 80% power

M8
G0 Z4.8 F800
; --- FIX X Backlash ---
G0 X58.751 Y52.689 F1200
; --- FIX Y Backlash ---
G0 X58.751 Y51.789 F1200
G0 X79.343 Y50.851 Z4.8 F1500
G1 Z0 F1500
;Layer C3
G1 Y49.863 Z0 S800 F1500
G1 X79.534 Y48.612 Z0 F1500
G1 X79.807 Y47.384 Z0 F1500
G1 X80.162 Y46.182 Z0 F1500
G1 X80.596 Y45.008 Z0 F1500
G1 X81.106 Y43.865 Z0 F1500
G1 X81.69 Y42.758 Z0 F1500
G1 X82.346 Y41.687 Z0 F1500
G1 X83.071 Y40.657 Z0 F1500
G1 X84.124 Y38.873 Z0 F1500
G1 X85.109 Y37.027 Z0 F1500
G1 X85.521 Y36.074 Z0 F1500
G1 X85.851 Y35.097 Z0 F1500
G1 X85.977 Y34.598 Z0 F1500
G1 X86.075 Y34.093 Z0 F1500
G1 X86.141 Y33.58 Z0 F1500
G1 X86.173 Y33.059 Z0 F1500
G1 X86.2 Y32.357 Z0 F1500
G1 X86.283 Y31.631 Z0 F1500
G1 X86.346 Y31.285 Z0 F1500
G1 X86.423 Y30.963 Z0 F1500
G1 X86.515 Y30.676 Z0 F1500
G1 X86.622 Y30.435 Z0 F1500
G1 X86.744 Y30.25 Z0 F1500
G1 X86.881 Y30.13 Z0 F1500
G1 X87.033 Y30.086 Z0 F1500
G1 X87.201 Y30.129 Z0 F1500
; --- FIX Y Backlash ---
G0 X87.201 Y31.029 F1200
G1 X87.291 Y31.086 Z0 F1500
G1 X87.384 Y31.168 Z0 F1500
G1 X87.481 Y31.277 Z0 F1500
G1 X87.583 Y31.414 Z0 F1500
G1 X87.688 Y31.58 Z0 F1500
G1 X87.797 Y31.777 Z0 F1500
G1 X87.91 Y32.006 Z0 F1500
G1 X88.027 Y32.268 Z0 F1500
G1 X88.37 Y33.113 Z0 F1500
G1 X88.65 Y33.981 Z0 F1500
G1 X88.867 Y34.867 Z0 F1500
G1 X89.021 Y35.766 Z0 F1500
G1 X89.112 Y36.675 Z0 F1500
G1 X89.142 Y37.589 Z0 F1500
G1 X89.111 Y38.504 Z0 F1500
; --- FIX X Backlash ---
G0 X88.211 Y38.504 F1200
G1 X88.118 Y39.415 Z0 F1500
G1 X87.965 Y40.317 Z0 F1500
G1 X87.751 Y41.207 Z0 F1500
G1 X87.478 Y42.081 Z0 F1500
G1 X87.145 Y42.932 Z0 F1500
G1 X86.752 Y43.758 Z0 F1500
G1 X86.301 Y44.554 Z0 F1500
G1 X85.792 Y45.316 Z0 F1500
G1 X85.224 Y46.038 Z0 F1500
G1 X84.787 Y46.655 Z0 F1500
G1 X84.371 Y47.285 Z0 F1500
G1 X83.979 Y47.929 Z0 F1500
G1 X83.61 Y48.584 Z0 F1500
G1 X83.268 Y49.252 Z0 F1500
G1 X82.953 Y49.932 Z0 F1500
G1 X82.667 Y50.623 Z0 F1500
G1 X82.411 Y51.324 Z0 F1500
G1 X82.187 Y52.036 Z0 F1500
G1 X81.995 Y52.758 Z0 F1500
G1 X81.838 Y53.489 Z0 F1500
G1 X81.717 Y54.229 Z0 F1500
G1 X81.633 Y54.978 Z0 F1500
G1 X81.587 Y55.734 Z0 F1500
G1 X81.582 Y56.498 Z0 F1500
G1 X81.618 Y57.269 Z0 F1500
G1 X81.558 Y58.027 Z0 F1500
G1 X81.203 Y58.061 Z0 F1500
; --- FIX Y Backlash ---
G0 X81.203 Y57.161 F1200
G1 X80.799 Y56.866 Z0 F1500
G1 X80.432 Y56.532 Z0 F1500
G1 X80.102 Y56.163 Z0 F1500
G1 X79.806 Y55.763 Z0 F1500
G1 X79.543 Y55.335 Z0 F1500
G1 X79.313 Y54.884 Z0 F1500
G1 X79.112 Y54.412 Z0 F1500
G1 X78.941 Y53.923 Z0 F1500
G1 X78.797 Y53.422 Z0 F1500
G1 X78.68 Y52.911 Z0 F1500
G1 X78.587 Y52.395 Z0 F1500
G1 X78.517 Y51.878 Z0 F1500
G1 X78.443 Y50.851 Z0 F1500
G0 Z4.8 F800
; --- FIX X Backlash ---
G0 X79.343 Y50.851 F1200
; --- FIX Y Backlash ---
G0 X79.343 Y51.751 F1200
G0 X87.556 Y52.9 Z4.8 F1500
G1 Z0 F1500
; --- FIX Y Backlash ---
G0 X87.556 Y52 F1200
G1 X88.408 Y50.293 Z0 F1500
G1 X88.768 Y49.416 Z0 F1500
G1 X89.057 Y48.515 Z0 F1500
G1 X89.169 Y48.054 Z0 F1500
G1 X89.256 Y47.585 Z0 F1500
G1 X89.315 Y47.107 Z0 F1500
G1 X89.344 Y46.619 Z0 F1500
G1 X89.546 Y46.548 Z0 F1500
G1 X89.739 Y46.509 Z0 F1500
G1 X89.924 Y46.499 Z0 F1500
G1 X90.101 Y46.517 Z0 F1500
; --- FIX Y Backlash ---
G0 X90.101 Y47.417 F1200
G1 X90.431 Y47.531 Z0 F1500
G1 X90.726 Y47.739 Z0 F1500
G1 X90.986 Y48.027 Z0 F1500
G1 X91.21 Y48.383 Z0 F1500
G1 X91.397 Y48.796 Z0 F1500
G1 X91.546 Y49.252 Z0 F1500
G1 X91.656 Y49.738 Z0 F1500
G1 X91.726 Y50.243 Z0 F1500
G1 X91.756 Y50.754 Z0 F1500
G1 X91.743 Y51.258 Z0 F1500
; --- FIX X Backlash ---
G0 X90.843 Y51.258 F1200
G1 X90.787 Y51.743 Z0 F1500
G1 X90.687 Y52.196 Z0 F1500
G1 X90.542 Y52.605 Z0 F1500
G1 X90.352 Y52.958 Z0 F1500
G1 X89.339 Y55.208 Z0 F1500
G1 X88.295 Y57.439 Z0 F1500
G1 X87.803 Y58.561 Z0 F1500
G1 X87.352 Y59.693 Z0 F1500
G1 X86.958 Y60.841 Z0 F1500
G1 X86.638 Y62.011 Z0 F1500
G1 X86.482 Y62.117 Z0 F1500
G1 X86.091 Y62.172 Z0 F1500
; --- FIX Y Backlash ---
G0 X86.091 Y61.272 F1200
G1 X85.7 Y60.924 Z0 F1500
G1 X85.366 Y60.534 Z0 F1500
G1 X85.087 Y60.108 Z0 F1500
G1 X84.863 Y59.652 Z0 F1500
G1 X84.69 Y59.171 Z0 F1500
G1 X84.568 Y58.669 Z0 F1500
G1 X84.495 Y58.152 Z0 F1500
G1 X84.469 Y57.626 Z0 F1500
G1 X84.488 Y57.095 Z0 F1500
; --- FIX X Backlash ---
G0 X85.388 Y57.095 F1200
G1 X85.452 Y56.564 Z0 F1500
G1 X85.557 Y56.04 Z0 F1500
G1 X85.703 Y55.526 Z0 F1500
G1 X85.888 Y55.029 Z0 F1500
G1 X86.11 Y54.553 Z0 F1500
G1 X86.368 Y54.103 Z0 F1500
G1 X86.66 Y53.686 Z0 F1500
G1 X87.556 Y52 Z0 F1500
G0 Z4.8 F800
; --- FIX X Backlash ---
G0 X86.656 Y52 F1200
G0 X77.865 Y41.84 Z4.8 F1500
G1 Z0 F1500
G1 X77.549 Y41.873 Z0 F1500
G1 X77.124 Y41.511 Z0 F1500
G1 X76.771 Y41.106 Z0 F1500
G1 X76.485 Y40.664 Z0 F1500
G1 X76.264 Y40.191 Z0 F1500
G1 X76.104 Y39.691 Z0 F1500
G1 X76.002 Y39.171 Z0 F1500
G1 X75.955 Y38.635 Z0 F1500
G1 X75.96 Y38.09 Z0 F1500
; --- FIX X Backlash ---
G0 X76.86 Y38.09 F1200
G1 X76.914 Y37.54 Z0 F1500
G1 X77.013 Y36.991 Z0 F1500
G1 X77.155 Y36.448 Z0 F1500
G1 X77.336 Y35.917 Z0 F1500
G1 X77.554 Y35.404 Z0 F1500
G1 X77.804 Y34.913 Z0 F1500
G1 X78.084 Y34.45 Z0 F1500
G1 X78.391 Y34.021 Z0 F1500
G1 X78.715 Y33.63 Z0 F1500
G1 X79.01 Y33.214 Z0 F1500
G1 X79.281 Y32.777 Z0 F1500
G1 X79.53 Y32.321 Z0 F1500
G1 X79.974 Y31.374 Z0 F1500
G1 X80.366 Y30.404 Z0 F1500
G1 X80.731 Y29.443 Z0 F1500
G1 X81.094 Y28.522 Z0 F1500
G1 X81.281 Y28.087 Z0 F1500
G1 X81.477 Y27.673 Z0 F1500
G1 X81.685 Y27.285 Z0 F1500
G1 X81.907 Y26.928 Z0 F1500
; --- FIX Y Backlash ---
G0 X81.907 Y27.828 F1200
G1 X82.187 Y28.024 Z0 F1500
G1 X82.439 Y28.232 Z0 F1500
G1 X82.663 Y28.451 Z0 F1500
G1 X82.862 Y28.68 Z0 F1500
G1 X83.183 Y29.165 Z0 F1500
G1 X83.41 Y29.683 Z0 F1500
G1 X83.552 Y30.229 Z0 F1500
G1 X83.616 Y30.796 Z0 F1500
G1 X83.611 Y31.38 Z0 F1500
; --- FIX X Backlash ---
G0 X82.711 Y31.38 F1200
G1 X82.643 Y31.976 Z0 F1500
G1 X82.521 Y32.577 Z0 F1500
G1 X82.353 Y33.179 Z0 F1500
G1 X82.146 Y33.776 Z0 F1500
G1 X81.909 Y34.364 Z0 F1500
G1 X81.65 Y34.936 Z0 F1500
G1 X81.376 Y35.487 Z0 F1500
G1 X81.094 Y36.013 Z0 F1500
G1 X80.814 Y36.507 Z0 F1500
G1 X80.346 Y37.237 Z0 F1500
G1 X79.92 Y37.994 Z0 F1500
G1 X79.529 Y38.773 Z0 F1500
G1 X79.167 Y39.566 Z0 F1500
G1 X78.501 Y41.166 Z0 F1500
G1 X77.865 Y42.74 Z0 F1500
M9
M5
G1 Z10 F1000
G1 Z10 F800
; --- FIX X Backlash ---
G0 X78.765 Y42.74 F1200
G1 X120 F1500

