G90 ; Force absolute mode
;LightBurn 1.6.04
;Custom GCode device profile, absolute coords
;Bounds: X11.92 Y13.49 to X82.09 Y58.51
G00 G17 G40 G21 G54
M3
G1 Z10 F600
;Scan @ 444 mm/min, 80% power

M8
G0 Z3.5 F600
G0 X36.438 Y30.357 Z3.5
G1 Z0 F600
;Layer C3 Pass 1 of 2
G1 X36.743 F600
G1 Z2.5 F800 ; Lift S=0
G1 X40.91 Y30.997 F600
G1 Z0 F800 ; Drop S>0
; --- FIX X Backlash ---
G0 X40.11 Y30.997 F410
G1 X39.208 F600
G1 Z2.5 F800 ; Lift S=0
G1 X36.376 F600
G1 Z0 F800 ; Drop S>0
G1 X35.409 F600
G1 Z2.5 F800 ; Lift S=0
; --- FIX X Backlash ---
G0 X36.209 Y30.997 F410
G1 X36.615 Y31.637 F600
G1 Z0 F800 ; Drop S>0
G1 X36.794 F600
G1 Z2.5 F800 ; Lift S=0
G1 X39.836 F600
G1 Z0 F800 ; Drop S>0
G1 X40.112 F600
G1 Z2.5 F800 ; Lift S=0
; --- FIX X Backlash ---
G0 X39.312 Y31.637 F410
G1 X39.134 Y32.277 F600
G1 Z0 F800 ; Drop S>0
G1 X38.865 F600
G1 Z2.5 F800 ; Lift S=0
G1 X36.063 F600
G1 Z0 F800 ; Drop S>0
G1 X36.026 F600
G1 Z2.5 F800 ; Lift S=0
; --- FIX X Backlash ---
G0 X36.826 Y32.277 F410
G1 X36.886 Y32.917 F600
G1 Z0 F800 ; Drop S>0
G1 X36.932 F600
G1 Z2.5 F800 ; Lift S=0
G1 X39.483 F600
G1 Z0 F800 ; Drop S>0
G1 X39.756 F600
G1 Z2.5 F800 ; Lift S=0
; --- FIX X Backlash ---
G0 X38.956 Y32.917 F410
G1 X38.778 Y33.557 F600
G1 Z0 F800 ; Drop S>0
G1 X38.477 F600
G1 Z2.5 F800 ; Lift S=0
G1 X36.202 F600
G1 Z0 F800 ; Drop S>0
G1 X35.974 F600
G1 Z2.5 F800 ; Lift S=0
G1 X33.112 Y34.197 F600
G1 Z0 F800 ; Drop S>0
; --- FIX X Backlash ---
G0 X33.912 Y34.197 F410
G1 X34.474 F600
G1 Z2.5 F800 ; Lift S=0
G1 X36.741 F600
G1 Z0 F800 ; Drop S>0
G1 X37.248 F600
G1 Z2.5 F800 ; Lift S=0
G1 X39.218 F600
G1 Z0 F800 ; Drop S>0
G1 X39.531 F600
G1 Z2.5 F800 ; Lift S=0
G1 X41.898 F600
G1 Z0 F800 ; Drop S>0
G1 X42.325 F600
G1 Z2.5 F800 ; Lift S=0
G1 X44.504 F600
G1 Z0 F800 ; Drop S>0
G1 X44.906 F600
G1 Z2.5 F800 ; Lift S=0
G1 X47.158 F600
G1 Z0 F800 ; Drop S>0
G1 X47.524 F600
G1 Z2.5 F800 ; Lift S=0
G1 X47.479 Y34.837 F600
G1 Z0 F800 ; Drop S>0
; --- FIX X Backlash ---
G0 X46.679 Y34.837 F410
G1 X46.168 F600
G1 Z2.5 F800 ; Lift S=0
G1 X44.088 F600
G1 Z0 F800 ; Drop S>0
G1 X43.823 F600
G1 Z2.5 F800 ; Lift S=0
G1 X41.404 F600
G1 Z0 F800 ; Drop S>0
G1 X41.077 F600
G1 Z2.5 F800 ; Lift S=0
G1 X38.761 F600
G1 Z0 F800 ; Drop S>0
G1 X38.413 F600
G1 Z2.5 F800 ; Lift S=0
G1 X36.521 F600
G1 Z0 F800 ; Drop S>0
G1 X35.96 F600
G1 Z2.5 F800 ; Lift S=0
G1 X33.692 F600
G1 Z0 F800 ; Drop S>0
G1 X33.112 F600
G1 Z2.5 F800 ; Lift S=0
G1 Y35.477 F600
G1 Z0 F800 ; Drop S>0
; --- FIX X Backlash ---
G0 X33.912 Y35.477 F410
G1 X34.51 F600
G1 Z2.5 F800 ; Lift S=0
G1 X36.737 F600
G1 Z0 F800 ; Drop S>0
G1 X37.295 F600
G1 Z2.5 F800 ; Lift S=0
G1 X39.209 F600
G1 Z0 F800 ; Drop S>0
G1 X39.591 F600
G1 Z2.5 F800 ; Lift S=0
G1 X41.855 F600
G1 Z0 F800 ; Drop S>0
G1 X42.258 F600
G1 Z2.5 F800 ; Lift S=0
G1 X44.63 F600
G1 Z0 F800 ; Drop S>0
G1 X44.87 F600
G1 Z2.5 F800 ; Lift S=0
G1 X46.941 F600
G1 Z0 F800 ; Drop S>0
G1 X47.435 F600
G1 Z2.5 F800 ; Lift S=0
G1 X47.408 Y36.117 F600
G1 Z0 F800 ; Drop S>0
; --- FIX X Backlash ---
G0 X46.608 Y36.117 F410
G1 X46.127 F600
G1 Z2.5 F800 ; Lift S=0
G1 X44.053 F600
G1 Z0 F800 ; Drop S>0
G1 X43.789 F600
G1 Z2.5 F800 ; Lift S=0
G1 X41.511 F600
G1 Z0 F800 ; Drop S>0
G1 X41.034 F600
G1 Z2.5 F800 ; Lift S=0
G1 X38.822 F600
G1 Z0 F800 ; Drop S>0
G1 X38.405 F600
G1 Z2.5 F800 ; Lift S=0
G1 X36.47 F600
G1 Z0 F800 ; Drop S>0
G1 X35.915 F600
G1 Z2.5 F800 ; Lift S=0
G1 X33.727 F600
G1 Z0 F800 ; Drop S>0
G1 X33.112 F600
G1 Z2.5 F800 ; Lift S=0
G1 Y36.757 F600
G1 Z0 F800 ; Drop S>0
; --- FIX X Backlash ---
G0 X33.912 Y36.757 F410
G1 X34.545 F600
G1 Z2.5 F800 ; Lift S=0
G1 X36.692 F600
G1 Z0 F800 ; Drop S>0
G1 X37.244 F600
G1 Z2.5 F800 ; Lift S=0
G1 X39.201 F600
G1 Z0 F800 ; Drop S>0
G1 X39.652 F600
G1 Z2.5 F800 ; Lift S=0
G1 X41.812 F600
G1 Z0 F800 ; Drop S>0
G1 X42.364 F600
G1 Z2.5 F800 ; Lift S=0
G1 X44.548 F600
G1 Z0 F800 ; Drop S>0
G1 X44.861 F600
G1 Z2.5 F800 ; Lift S=0
G1 X46.935 F600
G1 Z0 F800 ; Drop S>0
G1 X47.384 F600
G1 Z2.5 F800 ; Lift S=0
G1 X47.443 Y37.397 F600
G1 Z0 F800 ; Drop S>0
; --- FIX X Backlash ---
G0 X46.643 Y37.397 F410
G1 X46.143 F600
G1 Z2.5 F800 ; Lift S=0
G1 X44.069 F600
G1 Z0 F800 ; Drop S>0
G1 X43.708 F600
G1 Z2.5 F800 ; Lift S=0
G1 X41.566 F600
G1 Z0 F800 ; Drop S>0
G1 X40.991 F600
G1 Z2.5 F800 ; Lift S=0
G1 X38.882 F600
G1 Z0 F800 ; Drop S>0
G1 X38.396 F600
G1 Z2.5 F800 ; Lift S=0
G1 X36.419 F600
G1 Z0 F800 ; Drop S>0
G1 X35.869 F600
G1 Z2.5 F800 ; Lift S=0
G1 X33.763 F600
G1 Z0 F800 ; Drop S>0
G1 X33.112 F600
G1 Z2.5 F800 ; Lift S=0
G1 Y38.037 F600
G1 Z0 F800 ; Drop S>0
; --- FIX X Backlash ---
G0 X33.912 Y38.037 F410
G1 X34.58 F600
G1 Z2.5 F800 ; Lift S=0
G1 X36.646 F600
G1 Z0 F800 ; Drop S>0
G1 X37.193 F600
G1 Z2.5 F800 ; Lift S=0
G1 X39.192 F600
G1 Z0 F800 ; Drop S>0
G1 X39.713 F600
G1 Z2.5 F800 ; Lift S=0
G1 X41.769 F600
G1 Z0 F800 ; Drop S>0
G1 X42.307 F600
G1 Z2.5 F800 ; Lift S=0
G1 X44.467 F600
G1 Z0 F800 ; Drop S>0
G1 X44.877 F600
G1 Z2.5 F800 ; Lift S=0
G1 X46.951 F600
G1 Z0 F800 ; Drop S>0
G1 X47.535 F600
G1 Z2.5 F800 ; Lift S=0
G1 X47.619 Y38.677 F600
G1 Z0 F800 ; Drop S>0
; --- FIX X Backlash ---
G0 X46.819 Y38.677 F410
G1 X46.479 F600
G1 Z2.5 F800 ; Lift S=0
G1 X44.085 F600
G1 Z0 F800 ; Drop S>0
G1 X44.055 F600
G1 Z2.5 F800 ; Lift S=0
G1 X41.108 F600
G1 Z0 F800 ; Drop S>0
G1 X40.948 F600
G1 Z2.5 F800 ; Lift S=0
G1 X38.92 F600
G1 Z0 F800 ; Drop S>0
G1 X38.423 F600
G1 Z2.5 F800 ; Lift S=0
G1 X33.621 F600
G1 Z0 F800 ; Drop S>0
G1 X33.371 F600
G1 Z2.5 F800 ; Lift S=0
G1 Y39.317 F600
G1 Z0 F800 ; Drop S>0
; --- FIX X Backlash ---
G0 X34.171 Y39.317 F410
G1 X34.352 F600
G1 Z2.5 F800 ; Lift S=0
G1 X39.462 F600
G1 Z0 F800 ; Drop S>0
G1 X39.587 F600
G1 Z2.5 F800 ; Lift S=0
; --- FIX X Backlash ---
G0 X38.787 Y39.317 F410
G1 X38.654 Y39.957 F600
G1 Z0 F800 ; Drop S>0
G1 X38.608 F600
G1 Z2.5 F800 ; Lift S=0
G1 X33.536 F600
G1 Z0 F800 ; Drop S>0
G1 X33.376 F600
G1 Z2.5 F800 ; Lift S=0
G1 Y40.597 F600
G1 Z0 F800 ; Drop S>0
; --- FIX X Backlash ---
G0 X34.176 Y40.597 F410
G1 X34.321 F600
G1 Z2.5 F800 ; Lift S=0
G1 X39.318 Y41.237 F600
G1 Z0 F800 ; Drop S>0
; --- FIX X Backlash ---
G0 X38.518 Y41.237 F410
G1 X36.215 F600
G1 Z2.5 F800 ; Lift S=0
G1 X33.506 F600
G1 Z0 F800 ; Drop S>0
G1 X33.38 F600
G1 Z2.5 F800 ; Lift S=0
G1 X33.383 Y41.877 F600
G1 Z0 F800 ; Drop S>0
; --- FIX X Backlash ---
G0 X34.183 Y41.877 F410
G1 X34.29 F600
G1 Z2.5 F800 ; Lift S=0
G1 X36.971 F600
G1 Z0 F800 ; Drop S>0
G1 X37.013 F600
G1 Z2.5 F800 ; Lift S=0
G1 X37.038 Y42.517 F600
G1 Z0 F800 ; Drop S>0
; --- FIX X Backlash ---
G0 X36.238 Y42.517 F410
G1 X36.126 F600
G1 Z2.5 F800 ; Lift S=0
G1 X33.475 F600
G1 Z0 F800 ; Drop S>0
G1 X33.385 F600
G1 Z2.5 F800 ; Lift S=0
G1 Y43.157 F600
G1 Z0 F800 ; Drop S>0
; --- FIX X Backlash ---
G0 X34.185 Y43.157 F410
G1 X34.26 F600
G1 Z2.5 F800 ; Lift S=0
G1 X36.882 F600
G1 Z0 F800 ; Drop S>0
G1 X37.064 F600
G1 Z2.5 F800 ; Lift S=0
G1 X50.001 Y43.797 F600
G1 Z0 F800 ; Drop S>0
; --- FIX X Backlash ---
G0 X49.201 Y43.797 F410
G1 X48.744 F600
G1 Z2.5 F800 ; Lift S=0
G1 X46.574 F600
G1 Z0 F800 ; Drop S>0
G1 X46.188 F600
G1 Z2.5 F800 ; Lift S=0
G1 X43.988 F600
G1 Z0 F800 ; Drop S>0
G1 X43.533 F600
G1 Z2.5 F800 ; Lift S=0
G1 X38.78 F600
G1 Z0 F800 ; Drop S>0
G1 X38.356 F600
G1 Z2.5 F800 ; Lift S=0
G1 X36.282 F600
G1 Z0 F800 ; Drop S>0
G1 X35.766 F600
G1 Z2.5 F800 ; Lift S=0
G1 X33.599 F600
G1 Z0 F800 ; Drop S>0
G1 X33.444 F600
G1 Z2.5 F800 ; Lift S=0
G1 X33.39 F600
G1 Z0 F800 ; Drop S>0
G1 X33.175 F600
G1 Z2.5 F800 ; Lift S=0
G1 X33.171 Y44.437 F600
G1 Z0 F800 ; Drop S>0
; --- FIX X Backlash ---
G0 X33.971 Y44.437 F410
G1 X34.192 F600
G1 Z2.5 F800 ; Lift S=0
G1 X34.229 F600
G1 Z0 F800 ; Drop S>0
G1 X34.404 F600
G1 Z2.5 F800 ; Lift S=0
G1 X36.566 F600
G1 Z0 F800 ; Drop S>0
G1 X37.068 F600
G1 Z2.5 F800 ; Lift S=0
G1 X39.156 F600
G1 Z0 F800 ; Drop S>0
G1 X39.619 F600
G1 Z2.5 F800 ; Lift S=0
G1 X41.859 F600
G1 Z0 F800 ; Drop S>0
G1 X42.273 F600
G1 Z2.5 F800 ; Lift S=0
G1 X44.325 F600
G1 Z0 F800 ; Drop S>0
G1 X44.794 F600
G1 Z2.5 F800 ; Lift S=0
G1 X46.979 F600
G1 Z0 F800 ; Drop S>0
G1 X47.356 F600
G1 Z2.5 F800 ; Lift S=0
G1 X49.535 F600
G1 Z0 F800 ; Drop S>0
G1 X50.024 F600
G1 Z2.5 F800 ; Lift S=0
G1 X50.047 Y45.077 F600
G1 Z0 F800 ; Drop S>0
; --- FIX X Backlash ---
G0 X49.247 Y45.077 F410
G1 X48.726 F600
G1 Z2.5 F800 ; Lift S=0
G1 X46.539 F600
G1 Z0 F800 ; Drop S>0
G1 X46.17 F600
G1 Z2.5 F800 ; Lift S=0
G1 X43.999 F600
G1 Z0 F800 ; Drop S>0
G1 X43.516 F600
G1 Z2.5 F800 ; Lift S=0
G1 X41.417 F600
G1 Z0 F800 ; Drop S>0
G1 X41.042 F600
G1 Z2.5 F800 ; Lift S=0
G1 X38.857 F600
G1 Z0 F800 ; Drop S>0
G1 X38.356 F600
G1 Z2.5 F800 ; Lift S=0
G1 X36.255 F600
G1 Z0 F800 ; Drop S>0
G1 X35.766 F600
G1 Z2.5 F800 ; Lift S=0
G1 X33.608 F600
G1 Z0 F800 ; Drop S>0
G1 X33.414 F600
G1 Z2.5 F800 ; Lift S=0
G1 X33.394 F600
G1 Z0 F800 ; Drop S>0
G1 X33.167 F600
G1 Z2.5 F800 ; Lift S=0
G1 X33.162 Y45.717 F600
G1 Z0 F800 ; Drop S>0
; --- FIX X Backlash ---
G0 X33.962 Y45.717 F410
G1 X34.196 F600
G1 X34.412 Z0 F600
G1 Z2.5 F800 ; Lift S=0
G1 X36.566 F600
G1 Z0 F800 ; Drop S>0
G1 X37.042 F600
G1 Z2.5 F800 ; Lift S=0
G1 X39.156 F600
G1 Z0 F800 ; Drop S>0
G1 X39.667 F600
G1 Z2.5 F800 ; Lift S=0
G1 X41.826 F600
G1 Z0 F800 ; Drop S>0
G1 X42.162 F600
G1 Z2.5 F800 ; Lift S=0
G1 X44.308 F600
G1 Z0 F800 ; Drop S>0
G1 X44.805 F600
G1 Z2.5 F800 ; Lift S=0
G1 X46.961 F600
G1 Z0 F800 ; Drop S>0
G1 X47.321 F600
G1 Z2.5 F800 ; Lift S=0
G1 X49.517 F600
G1 Z0 F800 ; Drop S>0
G1 X50.049 F600
G1 Z2.5 F800 ; Lift S=0
; --- FIX X Backlash ---
G0 X49.249 Y45.717 F410
G1 X49.19 Y46.357 F600
G1 Z0 F800 ; Drop S>0
G1 X48.709 F600
G1 Z2.5 F800 ; Lift S=0
G1 X46.503 F600
G1 Z0 F800 ; Drop S>0
G1 X46.152 F600
G1 Z2.5 F800 ; Lift S=0
G1 X44.01 F600
G1 Z0 F800 ; Drop S>0
G1 X43.499 F600
G1 Z2.5 F800 ; Lift S=0
G1 X41.307 F600
G1 Z0 F800 ; Drop S>0
G1 X41.009 F600
G1 Z2.5 F800 ; Lift S=0
G1 X38.854 F600
G1 Z0 F800 ; Drop S>0
G1 X38.356 F600
G1 Z2.5 F800 ; Lift S=0
G1 X36.228 F600
G1 Z0 F800 ; Drop S>0
G1 X35.766 F600
G1 Z2.5 F800 ; Lift S=0
G1 X33.616 F600
G1 Z0 F800 ; Drop S>0
G1 X33.399 F600
G1 Z2.5 F800 ; Lift S=0
G1 X33.383 F600
G1 Z0 F800 ; Drop S>0
G1 X33.158 F600
G1 Z2.5 F800 ; Lift S=0
G1 X33.154 Y46.997 F600
G1 Z0 F800 ; Drop S>0
; --- FIX X Backlash ---
G0 X33.954 Y46.997 F410
G1 X34.168 F600
G1 Z2.5 F800 ; Lift S=0
G1 X34.201 F600
G1 Z0 F800 ; Drop S>0
G1 X34.42 F600
G1 Z2.5 F800 ; Lift S=0
G1 X36.566 F600
G1 Z0 F800 ; Drop S>0
G1 X37.015 F600
G1 Z2.5 F800 ; Lift S=0
G1 X39.156 F600
G1 Z0 F800 ; Drop S>0
G1 X39.641 F600
G1 Z2.5 F800 ; Lift S=0
G1 X41.792 F600
G1 Z0 F800 ; Drop S>0
G1 X42.051 F600
G1 Z2.5 F800 ; Lift S=0
G1 X44.291 F600
G1 Z0 F800 ; Drop S>0
G1 X44.815 F600
G1 Z2.5 F800 ; Lift S=0
G1 X46.943 F600
G1 Z0 F800 ; Drop S>0
G1 X47.286 F600
G1 Z2.5 F800 ; Lift S=0
G1 X49.5 F600
G1 Z0 F800 ; Drop S>0
G1 X49.932 F600
G1 Z2.5 F800 ; Lift S=0
G1 X49.967 Y47.637 F600
G1 Z0 F800 ; Drop S>0
; --- FIX X Backlash ---
G0 X49.167 Y47.637 F410
G1 X48.691 F600
G1 Z2.5 F800 ; Lift S=0
G1 X46.468 F600
G1 Z0 F800 ; Drop S>0
G1 X46.134 F600
G1 Z2.5 F800 ; Lift S=0
G1 X44.022 F600
G1 Z0 F800 ; Drop S>0
G1 X43.482 F600
G1 Z2.5 F800 ; Lift S=0
G1 X41.281 F600
G1 Z0 F800 ; Drop S>0
G1 X40.975 F600
G1 Z2.5 F800 ; Lift S=0
G1 X38.829 F600
G1 Z0 F800 ; Drop S>0
G1 X38.356 F600
G1 Z2.5 F800 ; Lift S=0
G1 X36.202 F600
G1 Z0 F800 ; Drop S>0
G1 X35.766 F600
G1 Z2.5 F800 ; Lift S=0
G1 X33.624 F600
G1 Z0 F800 ; Drop S>0
G1 X33.403 F600
G1 Z2.5 F800 ; Lift S=0
G1 X33.352 F600
G1 Z0 F800 ; Drop S>0
G1 X33.15 F600
G1 Z2.5 F800 ; Lift S=0
G1 X33.145 Y48.277 F600
G1 Z0 F800 ; Drop S>0
; --- FIX X Backlash ---
G0 X33.945 Y48.277 F410
G1 X34.062 F600
G1 Z2.5 F800 ; Lift S=0
G1 X34.366 F600
G1 Z0 F800 ; Drop S>0
G1 X34.428 F600
G1 Z2.5 F800 ; Lift S=0
G1 X36.566 F600
G1 Z0 F800 ; Drop S>0
G1 X36.988 F600
G1 Z2.5 F800 ; Lift S=0
G1 X39.156 F600
G1 Z0 F800 ; Drop S>0
G1 X39.616 F600
G1 Z2.5 F800 ; Lift S=0
G1 X41.759 F600
G1 Z0 F800 ; Drop S>0
G1 X42.142 F600
G1 Z2.5 F800 ; Lift S=0
G1 X44.273 F600
G1 Z0 F800 ; Drop S>0
G1 X44.844 F600
G1 Z2.5 F800 ; Lift S=0
G1 X46.926 F600
G1 Z0 F800 ; Drop S>0
G1 X47.25 F600
G1 Z2.5 F800 ; Lift S=0
G1 X49.482 F600
G1 Z0 F800 ; Drop S>0
G1 X49.542 F600
G1 Z2.5 F800 ; Lift S=0
; --- FIX X Backlash ---
G0 X48.742 Y48.277 F410
G1 X41.413 Y48.917 F600
G1 Z0 F800 ; Drop S>0
G1 X41.246 F600
G1 Z2.5 F800 ; Lift S=0
G1 X38.682 F600
G1 Z0 F800 ; Drop S>0
G1 X38.642 F600
G1 Z2.5 F800 ; Lift S=0
G1 X38.57 Y49.557 F600
G1 Z0 F800 ; Drop S>0
G1 X38.615 F600
G1 Z2.5 F800 ; Lift S=0
; --- FIX X Backlash ---
G0 X39.415 Y49.557 F410
G1 X42.433 F600
G1 Z0 F800 ; Drop S>0
G1 X42.464 F600
G1 Z2.5 F800 ; Lift S=0
G1 X43.274 Y50.197 F600
G1 Z0 F800 ; Drop S>0
; --- FIX X Backlash ---
G0 X42.474 Y50.197 F410
G1 X42.02 F600
G1 Z2.5 F800 ; Lift S=0
G1 X38.615 F600
G1 Z0 F800 ; Drop S>0
G1 X38.498 F600
G1 Z2.5 F800 ; Lift S=0
G1 X38.37 Y50.837 F600
G1 Z0 F800 ; Drop S>0
; --- FIX X Backlash ---
G0 X39.17 Y50.837 F410
G1 X39.415 F600
G1 Z2.5 F800 ; Lift S=0
G1 X43.259 F600
G1 Z0 F800 ; Drop S>0
G1 X44.149 F600
G1 Z2.5 F800 ; Lift S=0
G1 X44.321 Y51.477 F600
G1 Z0 F800 ; Drop S>0
; --- FIX X Backlash ---
G0 X43.521 Y51.477 F410
G1 X42.923 F600
G1 Z2.5 F800 ; Lift S=0
G1 X38.343 F600
G1 Z0 F800 ; Drop S>0
G1 X38.149 F600
;Layer C3 Pass 2 of 2
G1 Z2.5 F800 ; Lift S=0
; --- FIX Y Backlash ---
G0 X38.149 Y50.777 F410
G1 X35.638 Y29.657 F600
G1 Z0 F800 ; Drop S>0
; --- FIX X Backlash ---
G0 X36.438 Y29.657 F410
G1 X36.743 F600
G1 Z2.5 F800 ; Lift S=0
; --- FIX Y Backlash ---
G0 X36.743 Y30.357 F410
G1 X40.91 Y30.997 F600
G1 Z0 F800 ; Drop S>0
; --- FIX X Backlash ---
G0 X40.11 Y30.997 F410
G1 X39.208 F600
G1 Z2.5 F800 ; Lift S=0
G1 X36.376 F600
G1 Z0 F800 ; Drop S>0
G1 X35.409 F600
G1 Z2.5 F800 ; Lift S=0
; --- FIX X Backlash ---
G0 X36.209 Y30.997 F410
G1 X36.615 Y31.637 F600
G1 Z0 F800 ; Drop S>0
G1 X36.794 F600
G1 Z2.5 F800 ; Lift S=0
G1 X39.836 F600
G1 Z0 F800 ; Drop S>0
G1 X40.112 F600
G1 Z2.5 F800 ; Lift S=0
; --- FIX X Backlash ---
G0 X39.312 Y31.637 F410
G1 X39.134 Y32.277 F600
G1 Z0 F800 ; Drop S>0
G1 X38.865 F600
G1 Z2.5 F800 ; Lift S=0
G1 X36.063 F600
G1 Z0 F800 ; Drop S>0
G1 X36.026 F600
G1 Z2.5 F800 ; Lift S=0
; --- FIX X Backlash ---
G0 X36.826 Y32.277 F410
G1 X36.886 Y32.917 F600
G1 Z0 F800 ; Drop S>0
G1 X36.932 F600
G1 Z2.5 F800 ; Lift S=0
G1 X39.483 F600
G1 Z0 F800 ; Drop S>0
G1 X39.756 F600
G1 Z2.5 F800 ; Lift S=0
; --- FIX X Backlash ---
G0 X38.956 Y32.917 F410
G1 X38.778 Y33.557 F600
G1 Z0 F800 ; Drop S>0
G1 X38.477 F600
G1 Z2.5 F800 ; Lift S=0
G1 X36.202 F600
G1 Z0 F800 ; Drop S>0
G1 X35.974 F600
G1 Z2.5 F800 ; Lift S=0
G1 X33.112 Y34.197 F600
G1 Z0 F800 ; Drop S>0
; --- FIX X Backlash ---
G0 X33.912 Y34.197 F410
G1 X34.474 F600
G1 Z2.5 F800 ; Lift S=0
G1 X36.741 F600
G1 Z0 F800 ; Drop S>0
G1 X37.248 F600
G1 Z2.5 F800 ; Lift S=0
G1 X39.218 F600
G1 Z0 F800 ; Drop S>0
G1 X39.531 F600
G1 Z2.5 F800 ; Lift S=0
G1 X41.898 F600
G1 Z0 F800 ; Drop S>0
G1 X42.325 F600
G1 Z2.5 F800 ; Lift S=0
G1 X44.504 F600
G1 Z0 F800 ; Drop S>0
G1 X44.906 F600
G1 Z2.5 F800 ; Lift S=0
G1 X47.158 F600
G1 Z0 F800 ; Drop S>0
G1 X47.524 F600
G1 Z2.5 F800 ; Lift S=0
G1 X47.479 Y34.837 F600
G1 Z0 F800 ; Drop S>0
; --- FIX X Backlash ---
G0 X46.679 Y34.837 F410
G1 X46.168 F600
G1 Z2.5 F800 ; Lift S=0
G1 X44.088 F600
G1 Z0 F800 ; Drop S>0
G1 X43.823 F600
G1 Z2.5 F800 ; Lift S=0
G1 X41.404 F600
G1 Z0 F800 ; Drop S>0
G1 X41.077 F600
G1 Z2.5 F800 ; Lift S=0
G1 X38.761 F600
G1 Z0 F800 ; Drop S>0
G1 X38.413 F600
G1 Z2.5 F800 ; Lift S=0
G1 X36.521 F600
G1 Z0 F800 ; Drop S>0
G1 X35.96 F600
G1 Z2.5 F800 ; Lift S=0
G1 X33.692 F600
G1 Z0 F800 ; Drop S>0
G1 X33.112 F600
G1 Z2.5 F800 ; Lift S=0
G1 Y35.477 F600
G1 Z0 F800 ; Drop S>0
; --- FIX X Backlash ---
G0 X33.912 Y35.477 F410
G1 X34.51 F600
G1 Z2.5 F800 ; Lift S=0
G1 X36.737 F600
G1 Z0 F800 ; Drop S>0
G1 X37.295 F600
G1 Z2.5 F800 ; Lift S=0
G1 X39.209 F600
G1 Z0 F800 ; Drop S>0
G1 X39.591 F600
G1 Z2.5 F800 ; Lift S=0
G1 X41.855 F600
G1 Z0 F800 ; Drop S>0
G1 X42.258 F600
G1 Z2.5 F800 ; Lift S=0
G1 X44.63 F600
G1 Z0 F800 ; Drop S>0
G1 X44.87 F600
G1 Z2.5 F800 ; Lift S=0
G1 X46.941 F600
G1 Z0 F800 ; Drop S>0
G1 X47.435 F600
G1 Z2.5 F800 ; Lift S=0
G1 X47.408 Y36.117 F600
G1 Z0 F800 ; Drop S>0
; --- FIX X Backlash ---
G0 X46.608 Y36.117 F410
G1 X46.127 F600
G1 Z2.5 F800 ; Lift S=0
G1 X44.053 F600
G1 Z0 F800 ; Drop S>0
G1 X43.789 F600
G1 Z2.5 F800 ; Lift S=0
G1 X41.511 F600
G1 Z0 F800 ; Drop S>0
G1 X41.034 F600
G1 Z2.5 F800 ; Lift S=0
G1 X38.822 F600
G1 Z0 F800 ; Drop S>0
G1 X38.405 F600
G1 Z2.5 F800 ; Lift S=0
G1 X36.47 F600
G1 Z0 F800 ; Drop S>0
G1 X35.915 F600
G1 Z2.5 F800 ; Lift S=0
G1 X33.727 F600
G1 Z0 F800 ; Drop S>0
G1 X33.112 F600
G1 Z2.5 F800 ; Lift S=0
G1 Y36.757 F600
G1 Z0 F800 ; Drop S>0
; --- FIX X Backlash ---
G0 X33.912 Y36.757 F410
G1 X34.545 F600
G1 Z2.5 F800 ; Lift S=0
G1 X36.692 F600
G1 Z0 F800 ; Drop S>0
G1 X37.244 F600
G1 Z2.5 F800 ; Lift S=0
G1 X39.201 F600
G1 Z0 F800 ; Drop S>0
G1 X39.652 F600
G1 Z2.5 F800 ; Lift S=0
G1 X41.812 F600
G1 Z0 F800 ; Drop S>0
G1 X42.364 F600
G1 Z2.5 F800 ; Lift S=0
G1 X44.548 F600
G1 Z0 F800 ; Drop S>0
G1 X44.861 F600
G1 Z2.5 F800 ; Lift S=0
G1 X46.935 F600
G1 Z0 F800 ; Drop S>0
G1 X47.384 F600
G1 Z2.5 F800 ; Lift S=0
G1 X47.443 Y37.397 F600
G1 Z0 F800 ; Drop S>0
; --- FIX X Backlash ---
G0 X46.643 Y37.397 F410
G1 X46.143 F600
G1 Z2.5 F800 ; Lift S=0
G1 X44.069 F600
G1 Z0 F800 ; Drop S>0
G1 X43.708 F600
G1 Z2.5 F800 ; Lift S=0
G1 X41.566 F600
G1 Z0 F800 ; Drop S>0
G1 X40.991 F600
G1 Z2.5 F800 ; Lift S=0
G1 X38.882 F600
G1 Z0 F800 ; Drop S>0
G1 X38.396 F600
G1 Z2.5 F800 ; Lift S=0
G1 X36.419 F600
G1 Z0 F800 ; Drop S>0
G1 X35.869 F600
G1 Z2.5 F800 ; Lift S=0
G1 X33.763 F600
G1 Z0 F800 ; Drop S>0
G1 X33.112 F600
G1 Z2.5 F800 ; Lift S=0
G1 Y38.037 F600
G1 Z0 F800 ; Drop S>0
; --- FIX X Backlash ---
G0 X33.912 Y38.037 F410
G1 X34.58 F600
G1 Z2.5 F800 ; Lift S=0
G1 X36.646 F600
G1 Z0 F800 ; Drop S>0
G1 X37.193 F600
G1 Z2.5 F800 ; Lift S=0
G1 X39.192 F600
G1 Z0 F800 ; Drop S>0
G1 X39.713 F600
G1 Z2.5 F800 ; Lift S=0
G1 X41.769 F600
G1 Z0 F800 ; Drop S>0
G1 X42.307 F600
G1 Z2.5 F800 ; Lift S=0
G1 X44.467 F600
G1 Z0 F800 ; Drop S>0
G1 X44.877 F600
G1 Z2.5 F800 ; Lift S=0
G1 X46.951 F600
G1 Z0 F800 ; Drop S>0
G1 X47.535 F600
G1 Z2.5 F800 ; Lift S=0
G1 X47.619 Y38.677 F600
G1 Z0 F800 ; Drop S>0
; --- FIX X Backlash ---
G0 X46.819 Y38.677 F410
G1 X46.479 F600
G1 Z2.5 F800 ; Lift S=0
G1 X44.085 F600
G1 Z0 F800 ; Drop S>0
G1 X44.055 F600
G1 Z2.5 F800 ; Lift S=0
G1 X41.108 F600
G1 Z0 F800 ; Drop S>0
G1 X40.948 F600
G1 Z2.5 F800 ; Lift S=0
G1 X38.92 F600
G1 Z0 F800 ; Drop S>0
G1 X38.423 F600
G1 Z2.5 F800 ; Lift S=0
G1 X33.621 F600
G1 Z0 F800 ; Drop S>0
G1 X33.371 F600
G1 Z2.5 F800 ; Lift S=0
G1 Y39.317 F600
G1 Z0 F800 ; Drop S>0
; --- FIX X Backlash ---
G0 X34.171 Y39.317 F410
G1 X34.352 F600
G1 Z2.5 F800 ; Lift S=0
G1 X39.462 F600
G1 Z0 F800 ; Drop S>0
G1 X39.587 F600
G1 Z2.5 F800 ; Lift S=0
; --- FIX X Backlash ---
G0 X38.787 Y39.317 F410
G1 X38.654 Y39.957 F600
G1 Z0 F800 ; Drop S>0
G1 X38.608 F600
G1 Z2.5 F800 ; Lift S=0
G1 X33.536 F600
G1 Z0 F800 ; Drop S>0
G1 X33.376 F600
G1 Z2.5 F800 ; Lift S=0
G1 Y40.597 F600
G1 Z0 F800 ; Drop S>0
; --- FIX X Backlash ---
G0 X34.176 Y40.597 F410
G1 X34.321 F600
G1 Z2.5 F800 ; Lift S=0
G1 X39.318 Y41.237 F600
G1 Z0 F800 ; Drop S>0
; --- FIX X Backlash ---
G0 X38.518 Y41.237 F410
G1 X36.215 F600
G1 Z2.5 F800 ; Lift S=0
G1 X33.506 F600
G1 Z0 F800 ; Drop S>0
G1 X33.38 F600
G1 Z2.5 F800 ; Lift S=0
G1 X33.383 Y41.877 F600
G1 Z0 F800 ; Drop S>0
; --- FIX X Backlash ---
G0 X34.183 Y41.877 F410
G1 X34.29 F600
G1 Z2.5 F800 ; Lift S=0
G1 X36.971 F600
G1 Z0 F800 ; Drop S>0
G1 X37.013 F600
G1 Z2.5 F800 ; Lift S=0
G1 X37.038 Y42.517 F600
G1 Z0 F800 ; Drop S>0
; --- FIX X Backlash ---
G0 X36.238 Y42.517 F410
G1 X36.126 F600
G1 Z2.5 F800 ; Lift S=0
G1 X33.475 F600
G1 Z0 F800 ; Drop S>0
G1 X33.385 F600
G1 Z2.5 F800 ; Lift S=0
G1 Y43.157 F600
G1 Z0 F800 ; Drop S>0
; --- FIX X Backlash ---
G0 X34.185 Y43.157 F410
G1 X34.26 F600
G1 Z2.5 F800 ; Lift S=0
G1 X36.882 F600
G1 Z0 F800 ; Drop S>0
G1 X37.064 F600
G1 Z2.5 F800 ; Lift S=0
G1 X50.001 Y43.797 F600
G1 Z0 F800 ; Drop S>0
; --- FIX X Backlash ---
G0 X49.201 Y43.797 F410
G1 X48.744 F600
G1 Z2.5 F800 ; Lift S=0
G1 X46.574 F600
G1 Z0 F800 ; Drop S>0
G1 X46.188 F600
G1 Z2.5 F800 ; Lift S=0
G1 X43.988 F600
G1 Z0 F800 ; Drop S>0
G1 X43.533 F600
G1 Z2.5 F800 ; Lift S=0
G1 X38.78 F600
G1 Z0 F800 ; Drop S>0
G1 X38.356 F600
G1 Z2.5 F800 ; Lift S=0
G1 X36.282 F600
G1 Z0 F800 ; Drop S>0
G1 X35.766 F600
G1 Z2.5 F800 ; Lift S=0
G1 X33.599 F600
G1 Z0 F800 ; Drop S>0
G1 X33.444 F600
G1 Z2.5 F800 ; Lift S=0
G1 X33.39 F600
G1 Z0 F800 ; Drop S>0
G1 X33.175 F600
G1 Z2.5 F800 ; Lift S=0
G1 X33.171 Y44.437 F600
G1 Z0 F800 ; Drop S>0
; --- FIX X Backlash ---
G0 X33.971 Y44.437 F410
G1 X34.192 F600
G1 Z2.5 F800 ; Lift S=0
G1 X34.229 F600
G1 Z0 F800 ; Drop S>0
G1 X34.404 F600
G1 Z2.5 F800 ; Lift S=0
G1 X36.566 F600
G1 Z0 F800 ; Drop S>0
G1 X37.068 F600
G1 Z2.5 F800 ; Lift S=0
G1 X39.156 F600
G1 Z0 F800 ; Drop S>0
G1 X39.619 F600
G1 Z2.5 F800 ; Lift S=0
G1 X41.859 F600
G1 Z0 F800 ; Drop S>0
G1 X42.273 F600
G1 Z2.5 F800 ; Lift S=0
G1 X44.325 F600
G1 Z0 F800 ; Drop S>0
G1 X44.794 F600
G1 Z2.5 F800 ; Lift S=0
G1 X46.979 F600
G1 Z0 F800 ; Drop S>0
G1 X47.356 F600
G1 Z2.5 F800 ; Lift S=0
G1 X49.535 F600
G1 Z0 F800 ; Drop S>0
G1 X50.024 F600
G1 Z2.5 F800 ; Lift S=0
G1 X50.047 Y45.077 F600
G1 Z0 F800 ; Drop S>0
; --- FIX X Backlash ---
G0 X49.247 Y45.077 F410
G1 X48.726 F600
G1 Z2.5 F800 ; Lift S=0
G1 X46.539 F600
G1 Z0 F800 ; Drop S>0
G1 X46.17 F600
G1 Z2.5 F800 ; Lift S=0
G1 X43.999 F600
G1 Z0 F800 ; Drop S>0
G1 X43.516 F600
G1 Z2.5 F800 ; Lift S=0
G1 X41.417 F600
G1 Z0 F800 ; Drop S>0
G1 X41.042 F600
G1 Z2.5 F800 ; Lift S=0
G1 X38.857 F600
G1 Z0 F800 ; Drop S>0
G1 X38.356 F600
G1 Z2.5 F800 ; Lift S=0
G1 X36.255 F600
G1 Z0 F800 ; Drop S>0
G1 X35.766 F600
G1 Z2.5 F800 ; Lift S=0
G1 X33.608 F600
G1 Z0 F800 ; Drop S>0
G1 X33.414 F600
G1 Z2.5 F800 ; Lift S=0
G1 X33.394 F600
G1 Z0 F800 ; Drop S>0
G1 X33.167 F600
G1 Z2.5 F800 ; Lift S=0
G1 X33.162 Y45.717 F600
G1 Z0 F800 ; Drop S>0
; --- FIX X Backlash ---
G0 X33.962 Y45.717 F410
G1 X34.196 F600
G1 X34.412 Z0 F600
G1 Z2.5 F800 ; Lift S=0
G1 X36.566 F600
G1 Z0 F800 ; Drop S>0
G1 X37.042 F600
G1 Z2.5 F800 ; Lift S=0
G1 X39.156 F600
G1 Z0 F800 ; Drop S>0
G1 X39.667 F600
G1 Z2.5 F800 ; Lift S=0
G1 X41.826 F600
G1 Z0 F800 ; Drop S>0
G1 X42.162 F600
G1 Z2.5 F800 ; Lift S=0
G1 X44.308 F600
G1 Z0 F800 ; Drop S>0
G1 X44.805 F600
G1 Z2.5 F800 ; Lift S=0
G1 X46.961 F600
G1 Z0 F800 ; Drop S>0
G1 X47.321 F600
G1 Z2.5 F800 ; Lift S=0
G1 X49.517 F600
G1 Z0 F800 ; Drop S>0
G1 X50.049 F600
G1 Z2.5 F800 ; Lift S=0
; --- FIX X Backlash ---
G0 X49.249 Y45.717 F410
G1 X49.19 Y46.357 F600
G1 Z0 F800 ; Drop S>0
G1 X48.709 F600
G1 Z2.5 F800 ; Lift S=0
G1 X46.503 F600
G1 Z0 F800 ; Drop S>0
G1 X46.152 F600
G1 Z2.5 F800 ; Lift S=0
G1 X44.01 F600
G1 Z0 F800 ; Drop S>0
G1 X43.499 F600
G1 Z2.5 F800 ; Lift S=0
G1 X41.307 F600
G1 Z0 F800 ; Drop S>0
G1 X41.009 F600
G1 Z2.5 F800 ; Lift S=0
G1 X38.854 F600
G1 Z0 F800 ; Drop S>0
G1 X38.356 F600
G1 Z2.5 F800 ; Lift S=0
G1 X36.228 F600
G1 Z0 F800 ; Drop S>0
G1 X35.766 F600
G1 Z2.5 F800 ; Lift S=0
G1 X33.616 F600
G1 Z0 F800 ; Drop S>0
G1 X33.399 F600
G1 Z2.5 F800 ; Lift S=0
G1 X33.383 F600
G1 Z0 F800 ; Drop S>0
G1 X33.158 F600
G1 Z2.5 F800 ; Lift S=0
G1 X33.154 Y46.997 F600
G1 Z0 F800 ; Drop S>0
; --- FIX X Backlash ---
G0 X33.954 Y46.997 F410
G1 X34.168 F600
G1 Z2.5 F800 ; Lift S=0
G1 X34.201 F600
G1 Z0 F800 ; Drop S>0
G1 X34.42 F600
G1 Z2.5 F800 ; Lift S=0
G1 X36.566 F600
G1 Z0 F800 ; Drop S>0
G1 X37.015 F600
G1 Z2.5 F800 ; Lift S=0
G1 X39.156 F600
G1 Z0 F800 ; Drop S>0
G1 X39.641 F600
G1 Z2.5 F800 ; Lift S=0
G1 X41.792 F600
G1 Z0 F800 ; Drop S>0
G1 X42.051 F600
G1 Z2.5 F800 ; Lift S=0
G1 X44.291 F600
G1 Z0 F800 ; Drop S>0
G1 X44.815 F600
G1 Z2.5 F800 ; Lift S=0
G1 X46.943 F600
G1 Z0 F800 ; Drop S>0
G1 X47.286 F600
G1 Z2.5 F800 ; Lift S=0
G1 X49.5 F600
G1 Z0 F800 ; Drop S>0
G1 X49.932 F600
G1 Z2.5 F800 ; Lift S=0
G1 X49.967 Y47.637 F600
G1 Z0 F800 ; Drop S>0
; --- FIX X Backlash ---
G0 X49.167 Y47.637 F410
G1 X48.691 F600
G1 Z2.5 F800 ; Lift S=0
G1 X46.468 F600
G1 Z0 F800 ; Drop S>0
G1 X46.134 F600
G1 Z2.5 F800 ; Lift S=0
G1 X44.022 F600
G1 Z0 F800 ; Drop S>0
G1 X43.482 F600
G1 Z2.5 F800 ; Lift S=0
G1 X41.281 F600
G1 Z0 F800 ; Drop S>0
G1 X40.975 F600
G1 Z2.5 F800 ; Lift S=0
G1 X38.829 F600
G1 Z0 F800 ; Drop S>0
G1 X38.356 F600
G1 Z2.5 F800 ; Lift S=0
G1 X36.202 F600
G1 Z0 F800 ; Drop S>0
G1 X35.766 F600
G1 Z2.5 F800 ; Lift S=0
G1 X33.624 F600
G1 Z0 F800 ; Drop S>0
G1 X33.403 F600
G1 Z2.5 F800 ; Lift S=0
G1 X33.352 F600
G1 Z0 F800 ; Drop S>0
G1 X33.15 F600
G1 Z2.5 F800 ; Lift S=0
G1 X33.145 Y48.277 F600
G1 Z0 F800 ; Drop S>0
; --- FIX X Backlash ---
G0 X33.945 Y48.277 F410
G1 X34.062 F600
G1 Z2.5 F800 ; Lift S=0
G1 X34.366 F600
G1 Z0 F800 ; Drop S>0
G1 X34.428 F600
G1 Z2.5 F800 ; Lift S=0
G1 X36.566 F600
G1 Z0 F800 ; Drop S>0
G1 X36.988 F600
G1 Z2.5 F800 ; Lift S=0
G1 X39.156 F600
G1 Z0 F800 ; Drop S>0
G1 X39.616 F600
G1 Z2.5 F800 ; Lift S=0
G1 X41.759 F600
G1 Z0 F800 ; Drop S>0
G1 X42.142 F600
G1 Z2.5 F800 ; Lift S=0
G1 X44.273 F600
G1 Z0 F800 ; Drop S>0
G1 X44.844 F600
G1 Z2.5 F800 ; Lift S=0
G1 X46.926 F600
G1 Z0 F800 ; Drop S>0
G1 X47.25 F600
G1 Z2.5 F800 ; Lift S=0
G1 X49.482 F600
G1 Z0 F800 ; Drop S>0
G1 X49.542 F600
G1 Z2.5 F800 ; Lift S=0
; --- FIX X Backlash ---
G0 X48.742 Y48.277 F410
G1 X41.413 Y48.917 F600
G1 Z0 F800 ; Drop S>0
G1 X41.246 F600
G1 Z2.5 F800 ; Lift S=0
G1 X38.682 F600
G1 Z0 F800 ; Drop S>0
G1 X38.642 F600
G1 Z2.5 F800 ; Lift S=0
G1 X38.57 Y49.557 F600
G1 Z0 F800 ; Drop S>0
G1 X38.615 F600
G1 Z2.5 F800 ; Lift S=0
; --- FIX X Backlash ---
G0 X39.415 Y49.557 F410
G1 X42.433 F600
G1 Z0 F800 ; Drop S>0
G1 X42.464 F600
G1 Z2.5 F800 ; Lift S=0
G1 X43.274 Y50.197 F600
G1 Z0 F800 ; Drop S>0
; --- FIX X Backlash ---
G0 X42.474 Y50.197 F410
G1 X42.02 F600
G1 Z2.5 F800 ; Lift S=0
G1 X38.615 F600
G1 Z0 F800 ; Drop S>0
G1 X38.498 F600
G1 Z2.5 F800 ; Lift S=0
G1 X38.37 Y50.837 F600
G1 Z0 F800 ; Drop S>0
; --- FIX X Backlash ---
G0 X39.17 Y50.837 F410
G1 X39.415 F600
G1 Z2.5 F800 ; Lift S=0
G1 X43.259 F600
G1 Z0 F800 ; Drop S>0
G1 X44.149 F600
G1 Z2.5 F800 ; Lift S=0
G1 X44.321 Y51.477 F600
G1 Z0 F800 ; Drop S>0
; --- FIX X Backlash ---
G0 X43.521 Y51.477 F410
G1 X42.923 F600
G1 Z2.5 F800 ; Lift S=0
G1 X38.343 F600
G1 Z0 F800 ; Drop S>0
G1 X38.149 F600
;Offset @ 555 mm/min, 90% power

M8
G0 Z3.5 F600
; --- FIX Y Backlash ---
G0 X38.149 Y50.777 F410
G0 X38.076 Y50.585 Z3.5 F600
G1 Z0 F600
;Layer C1
; --- FIX X Backlash ---
G0 X38.876 Y50.585 F410
G1 X39.03 Y50.628 Z0 F600
; --- FIX X Backlash ---
G0 X38.23 Y50.628 F410
G1 X38.004 Z0 F600
G1 X34.912 Y50.614 Z0 F600
G1 X34.906 Y50.574 Z0 F600
; --- FIX X Backlash ---
G0 X35.706 Y50.574 F410
G1 X36.628 Y50.578 Z0 F600
G1 X37.78 Y50.565 Z0 F600
G1 X38.804 Y50.498 Z0 F600
; --- FIX Y Backlash ---
G0 X38.804 Y51.198 F410
G1 X38.876 Y51.285 Z0 F600
G0 Z3.5 F600
G0 X39.841 Y51.83 Z3.5 F600
G1 Z0 F600
; --- FIX X Backlash ---
G0 X39.041 Y51.83 F410
G1 X38.002 Y51.827 Z0 F600
G1 X34.489 Y51.813 Z0 F600
; --- FIX Y Backlash ---
G0 X34.489 Y51.113 F410
G1 X34.475 Y51.021 Z0 F600
G1 X34.384 Y50.487 Z0 F600
G1 X34.287 Y50.081 Z0 F600
; --- FIX X Backlash ---
G0 X35.087 Y50.081 F410
G1 X35.519 Y50.073 Z0 F600
G1 X36.627 Y50.078 Z0 F600
G1 X37.76 Y50.065 Z0 F600
G1 X39.011 Y49.983 Z0 F600
G1 X39.022 Y49.976 Z0 F600
; --- FIX Y Backlash ---
G0 X39.022 Y50.676 F410
G1 X39.162 Y50.846 Z0 F600
G1 X39.501 Y50.94 Z0 F600
G1 X39.762 Y50.917 Z0 F600
; --- FIX Y Backlash ---
G0 X39.762 Y50.217 F410
G1 X40.075 Y50.131 Z0 F600
; --- FIX Y Backlash ---
G0 X40.075 Y50.831 F410
G1 X40.109 Y50.953 Z0 F600
G1 X40.172 Y51.146 Z0 F600
G1 X40.31 Y51.744 Z0 F600
G1 X40.321 Y51.823 Z0 F600
; --- FIX X Backlash ---
G0 X39.521 Y51.823 F410
G1 X39.041 Y51.83 Z0 F600
G0 Z3.5 F600
G0 X33.981 Y51.798 Z3.5
G1 Z0 F600
; --- FIX Y Backlash ---
G0 X33.981 Y51.098 F410
G1 X33.893 Y50.587 Z0 F600
G1 X33.774 Y50.084 Z0 F600
G1 X33.606 Y49.593 Z0 F600
; --- FIX X Backlash ---
G0 X34.406 Y49.593 F410
G1 X35.511 Y49.573 Z0 F600
G1 X36.625 Y49.578 Z0 F600
G1 X37.741 Y49.565 Z0 F600
G1 X38.852 Y49.492 Z0 F600
G1 X39.083 Y49.346 Z0 F600
G1 X39.245 Y49.249 Z0 F600
G1 X39.3 Y49.24 Z0 F600
G1 X39.337 Y49.269 Z0 F600
; --- FIX Y Backlash ---
G0 X39.337 Y49.969 F410
G1 X39.355 Y50.045 Z0 F600
G1 Y50.177 Z0 F600
G1 X39.381 Y50.326 Z0 F600
G1 X39.448 Y50.406 Z0 F600
G1 X39.547 Y50.434 Z0 F600
G1 X39.672 Y50.423 Z0 F600
; --- FIX Y Backlash ---
G0 X39.672 Y49.723 F410
G1 X39.967 Y49.642 Z0 F600
G1 X40.268 Y49.577 Z0 F600
G1 X40.357 Y49.615 Z0 F600
; --- FIX Y Backlash ---
G0 X40.357 Y50.315 F410
G1 X40.426 Y50.383 Z0 F600
G1 X40.48 Y50.473 Z0 F600
G1 X40.522 Y50.578 Z0 F600
G1 X40.588 Y50.807 Z0 F600
G1 X40.655 Y51.016 Z0 F600
G1 X40.803 Y51.656 Z0 F600
G1 X40.893 Y52.315 Z0 F600
; --- FIX X Backlash ---
G0 X40.093 Y52.315 F410
G1 X39.047 Y52.33 Z0 F600
G1 X38 Y52.327 Z0 F600
G1 X34.054 Y52.311 Z0 F600
; --- FIX Y Backlash ---
G0 X34.054 Y51.611 F410
G1 X33.981 Y51.098 Z0 F600
G0 Z3.5 F600
G0 X27.598 Y45.26 Z3.5
G1 Z0 F600
G1 X27.619 Y45.286 Z0 F600
; --- FIX Y Backlash ---
G0 X27.619 Y45.986 F410
G1 X27.644 Y46.05 Z0 F600
G1 X27.665 Y46.157 Z0 F600
G1 X27.677 Y46.3 Z0 F600
G1 X27.674 Y46.497 Z0 F600
; --- FIX X Backlash ---
G0 X28.474 Y46.497 F410
G1 X28.549 Y47.213 Z0 F600
G1 X28.617 Y47.884 Z0 F600
G1 X28.608 Y48.199 Z0 F600
; --- FIX X Backlash ---
G0 X27.808 Y48.199 F410
G1 X27.75 Y48.5 Z0 F600
G1 X27.625 Y48.785 Z0 F600
G1 X27.418 Y49.053 Z0 F600
G1 X27.327 Y49.219 Z0 F600
G1 X27.239 Y49.388 Z0 F600
G1 X26.828 Y49.849 Z0 F600
G1 X26.328 Y50.333 Z0 F600
G1 X26.319 Y50.364 Z0 F600
G1 X26.334 Y50.417 Z0 F600
G1 X26.371 Y50.491 Z0 F600
; --- FIX X Backlash ---
G0 X27.171 Y50.491 F410
G1 X27.228 Y50.581 Z0 F600
G1 X27.382 Y50.802 Z0 F600
G1 X27.774 Y51.338 Z0 F600
G1 X27.96 Y51.612 Z0 F600
G1 X28.105 Y51.863 Z0 F600
G1 X28.184 Y52.07 Z0 F600
G1 X28.174 Y52.134 Z0 F600
; --- FIX X Backlash ---
G0 X27.374 Y52.134 F410
G1 X27.311 Y52.114 Z0 F600
; --- FIX Y Backlash ---
G0 X27.311 Y51.414 F410
G1 X27.209 Y51.334 Z0 F600
G1 X27.083 Y51.214 Z0 F600
G1 X26.951 Y51.075 Z0 F600
G1 X26.828 Y50.94 Z0 F600
G1 X26.672 Y50.764 Z0 F600
G1 X25.895 Y49.939 Z0 F600
G1 X25.764 Y49.771 Z0 F600
G1 X25.674 Y49.604 Z0 F600
G1 X25.591 Y49.432 Z0 F600
G1 X25.48 Y49.247 Z0 F600
; --- FIX X Backlash ---
G0 X26.28 Y49.247 F410
G1 X26.362 Y49.277 Z0 F600
G1 X26.459 Y49.271 Z0 F600
G1 X26.564 Y49.255 Z0 F600
G1 X26.669 Z0 F600
G1 X26.818 Y49.239 Z0 F600
G1 X26.982 Y49.169 Z0 F600
G1 X27.144 Y49.069 Z0 F600
G1 X27.286 Y48.964 Z0 F600
G1 X27.515 Y48.772 Z0 F600
G1 X27.723 Y48.559 Z0 F600
G1 X27.905 Y48.327 Z0 F600
G1 X28.057 Y48.075 Z0 F600
G1 X28.174 Y47.804 Z0 F600
G1 X28.253 Y47.514 Z0 F600
G1 X28.289 Y47.206 Z0 F600
G1 X28.277 Y46.878 Z0 F600
G1 X28.23 Y46.53 Z0 F600
G1 X28.275 Y45.888 Z0 F600
G1 X28.299 Y45.255 Z0 F600
G1 X28.363 Y45.248 Z0 F600
G1 X28.398 Y45.26 Z0 F600
G0 Z3.5 F600
; --- FIX X Backlash ---
G0 X27.598 Y45.26 F410
G0 X23.619 Y36.933 Z3.5
G1 Z0 F600
G1 X23.487 Y36.729 Z0 F600
G1 X23.4 Y36.633 Z0 F600
; --- FIX X Backlash ---
G0 X24.2 Y36.633 F410
G1 X24.346 Y36.163 Z0 F600
G1 X24.387 Y35.959 Z0 F600
; --- FIX Y Backlash ---
G0 X24.387 Y36.659 F410
G1 X24.419 Y37.633 Z0 F600
G0 Z3.5 F600
; --- FIX X Backlash ---
G0 X23.619 Y37.633 F410
; --- FIX Y Backlash ---
G0 X23.619 Y36.933 F410
G0 X23.515 Y33.786 Z3.5
G1 Z0 F600
G1 X23.439 Y33.489 Z0 F600
G1 X23.26 Y32.928 Z0 F600
G1 X23.101 Y32.562 Z0 F600
; --- FIX X Backlash ---
G0 X23.901 Y32.562 F410
G1 X24.169 Y32.079 Z0 F600
G1 X24.251 Y31.947 Z0 F600
; --- FIX Y Backlash ---
G0 X24.251 Y32.647 F410
G1 X24.311 Y34.346 Z0 F600
G1 X24.315 Y34.486 Z0 F600
G0 Z3.5 F600
; --- FIX X Backlash ---
G0 X23.515 Y34.486 F410
G0 X23.194 Y35.8 Z3.5
G1 Z0 F600
; --- FIX Y Backlash ---
G0 X23.194 Y35.1 F410
G1 X23.173 Y34.603 Z0 F600
G1 X23.087 Y34.128 Z0 F600
G1 X22.959 Y33.628 Z0 F600
G1 X22.791 Y33.105 Z0 F600
G1 X22.552 Y32.553 Z0 F600
G1 X22.547 Y32.545 Z0 F600
; --- FIX X Backlash ---
G0 X23.347 Y32.545 F410
G1 X23.41 Y32.415 Z0 F600
G1 X23.738 Y31.825 Z0 F600
G1 X24.1 Y31.242 Z0 F600
G1 X24.489 Y30.663 Z0 F600
G1 X24.696 Y30.378 Z0 F600
; --- FIX Y Backlash ---
G0 X24.696 Y31.078 F410
G1 X24.811 Y34.329 Z0 F600
G1 X24.974 Y39.301 Z0 F600
; --- FIX X Backlash ---
G0 X24.174 Y39.301 F410
G1 X23.744 Y39.298 Z0 F600
G1 X23.642 Y39.301 Z0 F600
; --- FIX Y Backlash ---
G0 X23.642 Y38.601 F410
G1 X23.595 Y38.09 Z0 F600
G1 X23.405 Y37.521 Z0 F600
G1 X23.089 Y37.034 Z0 F600
G1 X22.819 Y36.737 Z0 F600
; --- FIX X Backlash ---
G0 X23.619 Y36.737 F410
G1 X23.726 Y36.472 Z0 F600
G1 X23.861 Y36.039 Z0 F600
G1 X23.954 Y35.58 Z0 F600
G1 X23.994 Y35.1 Z0 F600
G0 Z3.5 F600
G0 X24.077 Y30.379 Z3.5
G1 Z0 F600
G1 X24.942 Y29.191 Z0 F600
G1 X25.146 Y28.925 Z0 F600
; --- FIX Y Backlash ---
G0 X25.146 Y29.625 F410
G1 X25.311 Y34.313 Z0 F600
G1 X25.491 Y39.815 Z0 F600
; --- FIX X Backlash ---
G0 X24.691 Y39.815 F410
G1 X24.497 Y39.803 Z0 F600
G1 X23.75 Y39.798 Z0 F600
G1 X23.086 Y39.818 Z0 F600
G1 X23.094 Y39.795 Z0 F600
; --- FIX X Backlash ---
G0 X23.894 Y39.795 F410
; --- FIX Y Backlash ---
G0 X23.894 Y39.095 F410
G1 X23.944 Y38.651 Z0 F600
G1 X23.902 Y38.193 Z0 F600
; --- FIX X Backlash ---
G0 X23.102 Y38.193 F410
G1 X22.95 Y37.739 Z0 F600
G1 X22.691 Y37.341 Z0 F600
G1 X22.475 Y37.102 Z0 F600
G1 X22.228 Y36.903 Z0 F600
G1 X22.198 Y36.885 Z0 F600
; --- FIX X Backlash ---
G0 X22.998 Y36.885 F410
G1 X23.104 Y36.673 Z0 F600
G1 X23.255 Y36.302 Z0 F600
G1 X23.375 Y35.915 Z0 F600
G1 X23.458 Y35.509 Z0 F600
G1 X23.493 Y35.09 Z0 F600
G1 X23.475 Y34.658 Z0 F600
; --- FIX X Backlash ---
G0 X22.675 Y34.658 F410
G1 X22.598 Y34.235 Z0 F600
G1 X22.478 Y33.766 Z0 F600
G1 X22.323 Y33.28 Z0 F600
G1 X22.107 Y32.784 Z0 F600
G1 X21.977 Y32.573 Z0 F600
; --- FIX X Backlash ---
G0 X22.777 Y32.573 F410
G1 X22.967 Y32.183 Z0 F600
G1 X23.308 Y31.571 Z0 F600
G1 X23.686 Y30.961 Z0 F600
G1 X24.077 Y30.379 Z0 F600
G0 Z3.5 F600
G0 X25.434 Y27.722 Z3.5
G1 Z0 F600
G1 X25.597 Y27.542 Z0 F600
; --- FIX Y Backlash ---
G0 X25.597 Y28.242 F410
G1 X25.81 Y34.296 Z0 F600
G1 X26.009 Y40.347 Z0 F600
; --- FIX X Backlash ---
G0 X25.209 Y40.347 F410
G1 X24.481 Y40.303 Z0 F600
G1 X23.756 Y40.298 Z0 F600
G1 X23.036 Y40.32 Z0 F600
G1 X22.324 Y40.361 Z0 F600
; --- FIX X Backlash ---
G0 X23.124 Y40.361 F410
; --- FIX Y Backlash ---
G0 X23.124 Y39.661 F410
G1 X23.292 Y39.339 Z0 F600
G1 X23.402 Y38.99 Z0 F600
G1 X23.441 Y38.646 Z0 F600
G1 X23.409 Y38.297 Z0 F600
; --- FIX X Backlash ---
G0 X22.609 Y38.297 F410
G1 X22.496 Y37.958 Z0 F600
G1 X22.294 Y37.646 Z0 F600
G1 X22.131 Y37.467 Z0 F600
G1 X21.943 Y37.315 Z0 F600
G1 X21.733 Y37.191 Z0 F600
G1 X21.509 Y37.091 Z0 F600
; --- FIX X Backlash ---
G0 X22.309 Y37.091 F410
G1 X22.488 Y36.785 Z0 F600
G1 X22.648 Y36.466 Z0 F600
G1 X22.784 Y36.133 Z0 F600
G1 X22.891 Y35.791 Z0 F600
G1 X22.962 Y35.439 Z0 F600
G1 X22.992 Y35.079 Z0 F600
G1 X22.977 Y34.713 Z0 F600
; --- FIX X Backlash ---
G0 X22.177 Y34.713 F410
G1 X22.11 Y34.342 Z0 F600
G1 X21.997 Y33.905 Z0 F600
G1 X21.854 Y33.457 Z0 F600
G1 X21.663 Y33.016 Z0 F600
G1 X21.408 Y32.602 Z0 F600
; --- FIX X Backlash ---
G0 X22.208 Y32.602 F410
G1 X22.524 Y31.952 Z0 F600
G1 X22.877 Y31.318 Z0 F600
G1 X23.261 Y30.697 Z0 F600
G1 X23.669 Y30.089 Z0 F600
G1 X24.538 Y28.897 Z0 F600
G1 X25.434 Y27.722 Z0 F600
G0 Z3.5 F600
; --- FIX X Backlash ---
G0 X24.634 Y27.722 F410
G0 X18.121 Y25.68 Z3.5
G1 Z0 F600
G1 X18.141 Y25.624 Z0 F600
G1 X18.177 Y25.597 Z0 F600
G1 X18.184 Y25.589 Z0 F600
; --- FIX Y Backlash ---
G0 X18.184 Y26.289 F410
G1 X18.121 Y26.38 Z0 F600
G0 Z3.5 F600
G0 X16.957 Y28.116 Z3.5
G1 Z0 F600
G1 X16.684 Y28.255 Z0 F600
G1 X16.32 Y28.375 Z0 F600
G1 X15.915 Y28.463 Z0 F600
G1 X15.505 Y28.513 Z0 F600
G1 X15.349 Y28.517 Z0 F600
G1 X15.357 Y28.492 Z0 F600
; --- FIX Y Backlash ---
G0 X15.357 Y27.792 F410
G1 X15.371 Y27.417 Z0 F600
G1 X15.328 Y27.167 Z0 F600
; --- FIX X Backlash ---
G0 X16.128 Y27.167 F410
G1 X16.319 Y27.19 Z0 F600
G1 X16.531 Y27.183 Z0 F600
G1 X17.044 Y27.069 Z0 F600
G1 X17.519 Y26.82 Z0 F600
G1 X17.895 Y26.493 Z0 F600
G1 X18.172 Y26.13 Z0 F600
G1 X18.345 Y25.8 Z0 F600
G1 X18.463 Y25.478 Z0 F600
G1 X18.497 Y25.335 Z0 F600
G1 X18.641 Y25.225 Z0 F600
G1 X19.083 Y24.753 Z0 F600
G1 X19.44 Y24.221 Z0 F600
G1 X19.447 Y24.207 Z0 F600
G1 X19.77 Y24.094 Z0 F600
G1 X20.123 Y23.889 Z0 F600
G1 X20.494 Y23.538 Z0 F600
G1 X20.512 Y23.509 Z0 F600
; --- FIX Y Backlash ---
G0 X20.512 Y24.209 F410
G1 X20.49 Y24.29 Z0 F600
; --- FIX X Backlash ---
G0 X19.69 Y24.29 F410
G1 X19.422 Y25.036 Z0 F600
G1 X19.1 Y25.737 Z0 F600
G1 X18.712 Y26.406 Z0 F600
G1 X18.511 Y26.696 Z0 F600
G1 X18.282 Y26.988 Z0 F600
G1 X18.04 Y27.26 Z0 F600
G1 X17.794 Y27.501 Z0 F600
G1 X17.525 Y27.731 Z0 F600
G1 X17.247 Y27.935 Z0 F600
G1 X16.957 Y28.116 Z0 F600
G0 Z3.5 F600
G0 X15.541 Y29.011 Z3.5
G1 Z0 F600
G1 X15.066 Y29.024 Z0 F600
G1 X14.778 Y28.997 Z0 F600
; --- FIX Y Backlash ---
G0 X14.778 Y28.297 F410
G1 X14.607 Y28.243 Z0 F600
; --- FIX X Backlash ---
G0 X15.407 Y28.243 F410
G1 X15.463 Y28.18 Z0 F600
G1 X15.585 Y27.966 Z0 F600
G1 X15.659 Y27.712 Z0 F600
G1 X15.669 Y27.45 Z0 F600
G1 X15.626 Y27.199 Z0 F600
; --- FIX X Backlash ---
G0 X14.826 Y27.199 F410
G1 X14.736 Y26.964 Z0 F600
G1 X14.642 Y26.817 Z0 F600
G1 X14.527 Y26.702 Z0 F600
G1 X14.006 Y26.323 Z0 F600
; --- FIX X Backlash ---
G0 X14.806 Y26.323 F410
; --- FIX Y Backlash ---
G0 X14.806 Y27.023 F410
G1 X15.272 Y27.189 Z0 F600
G1 X15.788 Y27.321 Z0 F600
G1 X16.341 Y27.389 Z0 F600
G1 X16.468 Y27.385 Z0 F600
; --- FIX Y Backlash ---
G0 X16.468 Y26.685 F410
G1 X16.871 Y26.595 Z0 F600
G1 X17.235 Y26.404 Z0 F600
G1 X17.528 Y26.15 Z0 F600
G1 X17.749 Y25.86 Z0 F600
G1 X17.887 Y25.597 Z0 F600
G1 X17.983 Y25.335 Z0 F600
G1 X18.044 Y25.075 Z0 F600
G1 X18.047 Y25.049 Z0 F600
G1 X18.304 Y24.853 Z0 F600
G1 X18.69 Y24.44 Z0 F600
G1 X19.003 Y23.974 Z0 F600
G1 X19.101 Y23.765 Z0 F600
G1 X19.292 Y23.731 Z0 F600
G1 X19.56 Y23.638 Z0 F600
G1 X19.821 Y23.486 Z0 F600
G1 X20.104 Y23.219 Z0 F600
G1 X20.317 Y22.875 Z0 F600
G1 X20.438 Y22.472 Z0 F600
G1 Y22.066 Z0 F600
G1 X20.403 Y21.832 Z0 F600
; --- FIX Y Backlash ---
G0 X20.403 Y22.532 F410
G1 X20.434 Y22.626 Z0 F600
G1 X20.454 Y22.621 Z0 F600
G1 X20.551 Y22.793 Z0 F600
G1 X20.824 Y23.068 Z0 F600
G1 X21.14 Y23.253 Z0 F600
G1 X21.265 Y23.289 Z0 F600
G1 X21.256 Y23.317 Z0 F600
; --- FIX X Backlash ---
G0 X20.456 Y23.317 F410
G1 X20.389 Y23.623 Z0 F600
G1 X20.166 Y24.441 Z0 F600
G1 X19.887 Y25.22 Z0 F600
G1 X19.544 Y25.968 Z0 F600
G1 X19.132 Y26.677 Z0 F600
G1 X18.911 Y26.996 Z0 F600
G1 X18.662 Y27.313 Z0 F600
G1 X18.408 Y27.599 Z0 F600
G1 X18.128 Y27.875 Z0 F600
G1 X17.843 Y28.119 Z0 F600
G1 X17.526 Y28.351 Z0 F600
G1 X17.204 Y28.55 Z0 F600
G1 X16.876 Y28.718 Z0 F600
G1 X16.45 Y28.858 Z0 F600
G1 X16.004 Y28.956 Z0 F600
G1 X15.541 Y29.011 Z0 F600
G0 Z3.5 F600
; --- FIX Y Backlash ---
G0 X15.541 Y28.311 F410
G0 X15.454 Y22.797 Z3.5
G1 Z0 F600
G1 X15.398 Y22.722 Z0 F600
G1 X15.365 Y22.622 Z0 F600
G1 X15.362 Y22.516 Z0 F600
G1 X15.389 Y22.418 Z0 F600
G1 Y22.415 Z0 F600
G1 X15.4 Y22.406 Z0 F600
G1 X15.41 Y22.4 Z0 F600
; --- FIX X Backlash ---
G0 X16.21 Y22.4 F410
G1 X16.263 Y22.381 Z0 F600
G1 X16.379 Y22.35 Z0 F600
G1 X16.449 Z0 F600
G1 X16.524 Y22.376 Z0 F600
G1 X16.596 Y22.42 Z0 F600
; --- FIX Y Backlash ---
G0 X16.596 Y23.12 F410
G1 X16.65 Y23.176 Z0 F600
G1 X16.679 Y23.229 Z0 F600
G1 X16.688 Y23.274 Z0 F600
G1 X16.683 Y23.317 Z0 F600
G1 X16.636 Y23.403 Z0 F600
; --- FIX X Backlash ---
G0 X15.836 Y23.403 F410
G1 X15.749 Y23.491 Z0 F600
G1 X15.734 Y23.5 Z0 F600
G1 X15.715 Y23.507 Z0 F600
G1 X15.703 Z0 F600
G1 X15.597 Y23.499 Z0 F600
G1 X15.477 Y23.503 Z0 F600
G1 X15.461 Y23.5 Z0 F600
G1 X15.454 Y23.497 Z0 F600
G0 Z3.5 F600
; --- FIX Y Backlash ---
G0 X15.454 Y22.797 F410
G0 X14.86 Y22.454 Z3.5
G1 Z0 F600
; --- FIX X Backlash ---
G0 X15.66 Y22.454 F410
G1 X15.728 Y22.213 Z0 F600
G1 X15.792 Y22.109 Z0 F600
G1 X15.878 Y22.019 Z0 F600
G1 X15.985 Y21.949 Z0 F600
G1 X16.114 Y21.903 Z0 F600
G1 X16.323 Y21.847 Z0 F600
G1 X16.534 Y21.855 Z0 F600
; --- FIX Y Backlash ---
G0 X16.534 Y22.555 F410
G1 X16.734 Y22.618 Z0 F600
G1 X16.912 Y22.728 Z0 F600
G1 X17.056 Y22.876 Z0 F600
G1 X17.154 Y23.055 Z0 F600
G1 X17.195 Y23.256 Z0 F600
G1 X17.167 Y23.472 Z0 F600
; --- FIX X Backlash ---
G0 X16.367 Y23.472 F410
G1 X16.242 Y23.704 Z0 F600
G1 X16.061 Y23.887 Z0 F600
G1 X15.953 Y23.953 Z0 F600
G1 X15.836 Y23.995 Z0 F600
G1 X15.712 Y24.012 Z0 F600
G1 X15.582 Y24 Z0 F600
G1 X15.439 Y24.005 Z0 F600
G1 X15.311 Y23.98 Z0 F600
; --- FIX Y Backlash ---
G0 X15.311 Y23.28 F410
G1 X15.197 Y23.229 Z0 F600
G1 X15.098 Y23.156 Z0 F600
G1 X14.949 Y22.956 Z0 F600
G1 X14.868 Y22.712 Z0 F600
G1 X14.86 Y22.454 Z0 F600
G0 Z3.5 F600
G0 X14.874 Y19.047 Z3.5
G1 Z0 F600
; --- FIX Y Backlash ---
G0 X14.874 Y19.747 F410
G1 X14.526 Y19.838 Z0 F600
G1 X14.19 Y19.964 Z0 F600
G1 X13.869 Y20.124 Z0 F600
G1 X13.567 Y20.314 Z0 F600
G1 X13.283 Y20.532 Z0 F600
G1 X13.022 Y20.776 Z0 F600
G1 X12.785 Y21.044 Z0 F600
G1 X12.576 Y21.333 Z0 F600
G1 X12.396 Y21.642 Z0 F600
G1 X12.248 Y21.967 Z0 F600
G1 X12.134 Y22.307 Z0 F600
G1 X12.057 Y22.659 Z0 F600
G1 X12.019 Y23.021 Z0 F600
G1 X12.022 Y23.391 Z0 F600
; --- FIX X Backlash ---
G0 X12.822 Y23.391 F410
G1 X12.878 Y23.824 Z0 F600
G1 X12.98 Y24.252 Z0 F600
G1 X13.127 Y24.67 Z0 F600
G1 X13.319 Y25.07 Z0 F600
G1 X13.555 Y25.446 Z0 F600
G1 X13.835 Y25.79 Z0 F600
G1 X14.159 Y26.095 Z0 F600
G1 X14.525 Y26.354 Z0 F600
G1 X14.556 Y26.371 Z0 F600
G1 X14.976 Y26.553 Z0 F600
G1 X15.418 Y26.711 Z0 F600
G1 X15.881 Y26.829 Z0 F600
G1 X16.363 Y26.888 Z0 F600
G1 X16.404 Z0 F600
; --- FIX Y Backlash ---
G0 X16.404 Y26.188 F410
G1 X16.698 Y26.122 Z0 F600
G1 X16.951 Y25.989 Z0 F600
G1 X17.161 Y25.806 Z0 F600
G1 X17.326 Y25.59 Z0 F600
G1 X17.429 Y25.394 Z0 F600
G1 X17.503 Y25.191 Z0 F600
G1 X17.552 Y24.984 Z0 F600
G1 X17.58 Y24.777 Z0 F600
G1 X17.967 Y24.481 Z0 F600
G1 X18.298 Y24.128 Z0 F600
G1 X18.567 Y23.728 Z0 F600
G1 X18.771 Y23.289 Z0 F600
G1 X18.971 Y23.28 Z0 F600
G1 X19.166 Y23.246 Z0 F600
G1 X19.35 Y23.181 Z0 F600
G1 X19.52 Y23.083 Z0 F600
G1 X19.713 Y22.9 Z0 F600
G1 X19.857 Y22.668 Z0 F600
G1 X19.938 Y22.399 Z0 F600
G1 Y22.102 Z0 F600
G1 X19.89 Y21.777 Z0 F600
; --- FIX X Backlash ---
G0 X19.09 Y21.777 F410
G1 X19.01 Y21.462 Z0 F600
G1 X18.9 Y21.157 Z0 F600
G1 X18.762 Y20.866 Z0 F600
G1 X18.598 Y20.589 Z0 F600
G1 X18.41 Y20.328 Z0 F600
G1 X18.2 Y20.086 Z0 F600
G1 X17.969 Y19.863 Z0 F600
G1 X17.719 Y19.66 Z0 F600
G1 X17.452 Y19.481 Z0 F600
G1 X17.17 Y19.327 Z0 F600
G1 X16.875 Y19.198 Z0 F600
G1 X16.569 Y19.097 Z0 F600
G1 X16.253 Y19.026 Z0 F600
G1 X15.929 Y18.986 Z0 F600
G1 X15.599 Y18.978 Z0 F600
G1 X15.233 Y18.992 Z0 F600
; --- FIX Y Backlash ---
G0 X15.233 Y19.692 F410
G1 X14.874 Y19.747 Z0 F600
G0 Z3.5 F600
G0 X12.506 Y20.007 Z3.5
G1 Z0 F600
; --- FIX X Backlash ---
G0 X13.306 Y20.007 F410
; --- FIX Y Backlash ---
G0 X13.306 Y19.307 F410
G1 X13.826 Y18.877 Z0 F600
G1 X14.107 Y18.692 Z0 F600
G1 X14.4 Y18.528 Z0 F600
G1 X14.703 Y18.387 Z0 F600
G1 X15.016 Y18.271 Z0 F600
G1 X15.337 Y18.181 Z0 F600
G1 X15.665 Y18.118 Z0 F600
G1 X15.998 Y18.084 Z0 F600
G1 X16.346 Y18.081 Z0 F600
G1 X16.724 Y18.085 Z0 F600
G1 X17.089 Y18.122 Z0 F600
; --- FIX Y Backlash ---
G0 X17.089 Y18.822 F410
G1 X17.449 Y18.892 Z0 F600
G1 X17.802 Y18.992 Z0 F600
G1 X18.147 Y19.122 Z0 F600
G1 X18.481 Y19.278 Z0 F600
G1 X18.802 Y19.461 Z0 F600
G1 X19.108 Y19.669 Z0 F600
G1 X19.397 Y19.899 Z0 F600
G1 X19.667 Y20.151 Z0 F600
G1 X19.916 Y20.424 Z0 F600
G1 X20.141 Y20.714 Z0 F600
G1 X20.341 Y21.022 Z0 F600
G1 X20.514 Y21.345 Z0 F600
G1 X20.657 Y21.683 Z0 F600
G1 X20.769 Y22.032 Z0 F600
; --- FIX Y Backlash ---
G0 X20.769 Y21.332 F410
G1 X20.759 Y21.271 Z0 F600
; --- FIX Y Backlash ---
G0 X20.759 Y21.971 F410
G1 X20.821 Y22.253 Z0 F600
G1 X20.953 Y22.488 Z0 F600
G1 X21.133 Y22.669 Z0 F600
G1 X21.338 Y22.79 Z0 F600
G1 X21.604 Y22.866 Z0 F600
G1 X21.856 Y22.9 Z0 F600
G1 Y22.991 Z0 F600
G1 X21.832 Y23.126 Z0 F600
; --- FIX X Backlash ---
G0 X21.032 Y23.126 F410
G1 X20.941 Y23.44 Z0 F600
G1 X20.864 Y23.794 Z0 F600
G1 X20.869 Y23.764 Z0 F600
G1 X20.643 Y24.593 Z0 F600
G1 X20.35 Y25.41 Z0 F600
G1 X19.989 Y26.198 Z0 F600
G1 X19.556 Y26.943 Z0 F600
G1 X19.312 Y27.295 Z0 F600
G1 X19.05 Y27.629 Z0 F600
G1 X18.768 Y27.946 Z0 F600
G1 X18.468 Y28.241 Z0 F600
G1 X18.148 Y28.515 Z0 F600
G1 X17.809 Y28.764 Z0 F600
G1 X17.45 Y28.987 Z0 F600
G1 X17.07 Y29.181 Z0 F600
G1 X16.582 Y29.341 Z0 F600
G1 X16.084 Y29.45 Z0 F600
G1 X15.578 Y29.511 Z0 F600
G1 X15.053 Y29.525 Z0 F600
G1 X14.678 Y29.489 Z0 F600
; --- FIX Y Backlash ---
G0 X14.678 Y28.789 F410
G1 X14.309 Y28.674 Z0 F600
G1 X13.979 Y28.488 Z0 F600
G1 X13.718 Y28.242 Z0 F600
; --- FIX X Backlash ---
G0 X14.518 Y28.242 F410
G1 X14.646 Y28.188 Z0 F600
G1 X14.79 Y28.113 Z0 F600
G1 X14.882 Y28.054 Z0 F600
G1 X14.972 Y27.98 Z0 F600
G1 X15.055 Y27.886 Z0 F600
G1 X15.122 Y27.769 Z0 F600
G1 X15.162 Y27.631 Z0 F600
G1 X15.168 Y27.483 Z0 F600
G1 X15.142 Y27.333 Z0 F600
; --- FIX X Backlash ---
G0 X14.342 Y27.333 F410
G1 X14.287 Y27.19 Z0 F600
G1 X14.25 Y27.132 Z0 F600
G1 X14.201 Y27.083 Z0 F600
G1 X13.647 Y26.68 Z0 F600
G1 X13.101 Y26.315 Z0 F600
G1 X12.599 Y25.94 Z0 F600
G1 X12.174 Y25.505 Z0 F600
G1 X11.813 Y25.017 Z0 F600
G1 X11.529 Y24.489 Z0 F600
G1 X11.317 Y23.925 Z0 F600
G1 X11.179 Y23.338 Z0 F600
G1 X11.115 Y22.738 Z0 F600
G1 X11.126 Y22.134 Z0 F600
; --- FIX X Backlash ---
G0 X11.926 Y22.134 F410
G1 X12.012 Y21.54 Z0 F600
G1 X12.175 Y20.966 Z0 F600
G1 X12.47 Y20.363 Z0 F600
G1 X12.85 Y19.806 Z0 F600
G1 X13.306 Y19.307 Z0 F600
G0 Z3.5 F600
; --- FIX Y Backlash ---
G0 X13.306 Y20.007 F410
G0 X17.794 Y31.933 Z3.5
G1 Z0 F600
G1 X17.762 Y31.919 Z0 F600
; --- FIX X Backlash ---
G0 X16.962 Y31.919 F410
; --- FIX Y Backlash ---
G0 X16.962 Y31.219 F410
G1 X16.784 Y31.116 Z0 F600
; --- FIX X Backlash ---
G0 X17.584 Y31.116 F410
G1 X17.962 Y31.007 Z0 F600
; --- FIX X Backlash ---
G0 X17.162 Y31.007 F410
; --- FIX Y Backlash ---
G0 X17.162 Y31.707 F410
G1 X16.994 Y31.933 Z0 F600
G0 Z3.5 F600
; --- FIX X Backlash ---
G0 X17.794 Y31.933 F410
; --- FIX Y Backlash ---
G0 X17.794 Y31.233 F410
G0 X20.797 Y30.1 Z3.5
G1 Z0 F600
G1 X20.755 Y30.002 Z0 F600
; --- FIX X Backlash ---
G0 X19.955 Y30.002 F410
G1 X19.819 Y29.802 Z0 F600
G1 X19.687 Y29.68 Z0 F600
; --- FIX X Backlash ---
G0 X20.487 Y29.68 F410
G1 X20.849 Y29.393 Z0 F600
G1 X21.415 Y28.839 Z0 F600
G1 X21.908 Y28.241 Z0 F600
G1 X22.143 Y27.945 Z0 F600
G1 X22.375 Y27.627 Z0 F600
G1 X22.599 Y27.283 Z0 F600
G1 X22.664 Y27.164 Z0 F600
G1 X23.091 Y27.125 Z0 F600
; --- FIX X Backlash ---
G0 X22.291 Y27.125 F410
; --- FIX Y Backlash ---
G0 X22.291 Y27.825 F410
G1 X22.022 Y28.133 Z0 F600
G1 X20.98 Y29.433 Z0 F600
G1 X20.48 Y30.107 Z0 F600
G1 X20 Y30.795 Z0 F600
G1 X19.997 Y30.8 Z0 F600
G0 Z3.5 F600
G0 X19.475 Y31.582 Z3.5
G1 Z0 F600
; --- FIX X Backlash ---
G0 X20.275 Y31.582 F410
; --- FIX Y Backlash ---
G0 X20.275 Y30.882 F410
G1 X20.381 Y30.499 Z0 F600
G1 X20.384 Y30.437 Z0 F600
G1 X20.373 Y30.376 Z0 F600
; --- FIX X Backlash ---
G0 X19.573 Y30.376 F410
G1 X19.515 Y30.245 Z0 F600
G1 X19.437 Y30.131 Z0 F600
G1 X19.34 Y30.04 Z0 F600
G1 X19.225 Y29.978 Z0 F600
G1 X19.103 Y29.948 Z0 F600
G1 X18.985 Z0 F600
G1 X18.872 Y29.967 Z0 F600
G1 X18.768 Y30.003 Z0 F600
; --- FIX Y Backlash ---
G0 X18.768 Y30.703 F410
G1 X18.581 Y30.801 Z0 F600
G1 X18.419 Y30.926 Z0 F600
G1 X18.283 Y31.067 Z0 F600
G1 X18.175 Y31.218 Z0 F600
G1 X17.649 Y31.889 Z0 F600
G1 X17.162 Y32.548 Z0 F600
; --- FIX Y Backlash ---
G0 X17.162 Y31.848 F410
G1 X16.737 Y31.667 Z0 F600
G1 X16.346 Y31.439 Z0 F600
G1 X16.008 Y31.159 Z0 F600
G1 X15.741 Y30.824 Z0 F600
; --- FIX X Backlash ---
G0 X16.541 Y30.824 F410
G1 X17.269 Y30.687 Z0 F600
G1 X17.979 Y30.482 Z0 F600
G1 X18.665 Y30.21 Z0 F600
G1 X19.321 Y29.874 Z0 F600
G1 X19.941 Y29.476 Z0 F600
G1 X20.518 Y29.017 Z0 F600
G1 X21.046 Y28.5 Z0 F600
G1 X21.519 Y27.927 Z0 F600
G1 X21.745 Y27.642 Z0 F600
G1 X21.964 Y27.343 Z0 F600
G1 X22.169 Y27.027 Z0 F600
G1 X22.352 Y26.691 Z0 F600
G1 X23.325 Y26.601 Z0 F600
G1 X24.287 Y26.516 Z0 F600
; --- FIX X Backlash ---
G0 X23.487 Y26.516 F410
; --- FIX Y Backlash ---
G0 X23.487 Y27.216 F410
G1 X22.406 Y28.454 Z0 F600
G1 X21.376 Y29.738 Z0 F600
G1 X20.886 Y30.399 Z0 F600
G1 X20.415 Y31.075 Z0 F600
G1 X19.966 Y31.766 Z0 F600
G1 X19.54 Y32.473 Z0 F600
G1 X19.446 Y32.477 Z0 F600
G1 X19.351 Y32.485 Z0 F600
G1 X19.002 Y32.556 Z0 F600
; --- FIX X Backlash ---
G0 X19.802 Y32.556 F410
; --- FIX Y Backlash ---
G0 X19.802 Y31.856 F410
G1 X20.127 Y31.229 Z0 F600
G1 X20.275 Y30.882 Z0 F600
G0 Z3.5 F600
; --- FIX X Backlash ---
G0 X19.475 Y30.882 F410
; --- FIX Y Backlash ---
G0 X19.475 Y31.582 F410
G0 X17.858 Y34.155 Z3.5
G1 Z0 F600
G1 X17.825 Y34.285 Z0 F600
G1 Y34.424 Z0 F600
G1 X17.841 Y34.561 Z0 F600
; --- FIX X Backlash ---
G0 X18.641 Y34.561 F410
G1 X18.748 Y35.264 Z0 F600
G1 X18.831 Y35.965 Z0 F600
G1 X18.885 Y37.105 Z0 F600
G1 X18.909 Y37.203 Z0 F600
G1 X18.959 Y37.291 Z0 F600
; --- FIX X Backlash ---
G0 X18.159 Y37.291 F410
G1 X17.9 Y37.323 Z0 F600
G1 X17.638 Y37.351 Z0 F600
; --- FIX X Backlash ---
G0 X18.438 Y37.351 F410
; --- FIX Y Backlash ---
G0 X18.438 Y36.651 F410
G1 X18.551 Y36.501 Z0 F600
G1 X18.636 Y36.333 Z0 F600
G1 X18.698 Y36.154 Z0 F600
G1 X18.746 Y35.972 Z0 F600
G1 X18.77 Y35.706 Z0 F600
G1 X18.757 Y35.439 Z0 F600
; --- FIX X Backlash ---
G0 X17.957 Y35.439 F410
G1 X17.891 Y34.908 Z0 F600
G1 X17.854 Y34.652 Z0 F600
G1 X17.804 Y34.397 Z0 F600
G1 X17.724 Y34.152 Z0 F600
G1 X17.601 Y33.925 Z0 F600
G1 X17.508 Y33.789 Z0 F600
G1 X17.404 Y33.66 Z0 F600
G1 X17.283 Y33.55 Z0 F600
G1 X17.137 Y33.475 Z0 F600
; --- FIX X Backlash ---
G0 X17.937 Y33.475 F410
G1 X18.338 Y33.406 Z0 F600
G1 X18.741 Y33.345 Z0 F600
; --- FIX X Backlash ---
G0 X17.941 Y33.345 F410
; --- FIX Y Backlash ---
G0 X17.941 Y34.045 F410
G1 X17.858 Y34.155 Z0 F600
G0 Z3.5 F600
; --- FIX X Backlash ---
G0 X18.658 Y34.155 F410
G0 X20.517 Y34.428 Z3.5
G1 Z0 F600
G1 X20.667 Y34.455 Z0 F600
G1 X20.708 Y34.469 Z0 F600
G1 X20.788 Y34.569 Z0 F600
G1 X20.896 Y34.771 Z0 F600
G1 X20.978 Y35 Z0 F600
G1 X21.03 Y35.248 Z0 F600
G1 X21.055 Y35.519 Z0 F600
G1 Y35.792 Z0 F600
G1 X21.032 Y36.074 Z0 F600
G1 X21.002 Y36.269 Z0 F600
; --- FIX X Backlash ---
G0 X20.202 Y36.269 F410
G1 X20.148 Y36.369 Z0 F600
G1 X20.069 Y36.442 Z0 F600
G1 X19.945 Y36.505 Z0 F600
G1 X19.771 Y36.554 Z0 F600
G1 X19.364 Y36.603 Z0 F600
; --- FIX Y Backlash ---
G0 X19.364 Y35.903 F410
G1 X19.383 Y35.66 Z0 F600
G1 Y35.214 Z0 F600
G1 X19.343 Y34.77 Z0 F600
G1 X19.266 Y34.331 Z0 F600
G1 X19.153 Y33.901 Z0 F600
G1 X19.098 Y33.747 Z0 F600
; --- FIX X Backlash ---
G0 X19.898 Y33.747 F410
G1 X20.145 Y33.725 Z0 F600
G1 X20.332 Y33.718 Z0 F600
G1 X20.517 Y33.728 Z0 F600
G0 Z3.5 F600
; --- FIX Y Backlash ---
G0 X20.517 Y34.428 F410
G0 X21.355 Y34.568 Z3.5
G1 Z0 F600
G1 X21.46 Y34.864 Z0 F600
G1 X21.525 Y35.175 Z0 F600
G1 X21.555 Y35.494 Z0 F600
G1 Y35.813 Z0 F600
G1 X21.53 Y36.128 Z0 F600
G1 X21.483 Y36.431 Z0 F600
; --- FIX X Backlash ---
G0 X20.683 Y36.431 F410
G1 X20.547 Y36.68 Z0 F600
G1 X20.358 Y36.856 Z0 F600
G1 X20.127 Y36.973 Z0 F600
G1 X19.868 Y37.046 Z0 F600
G1 X19.309 Y37.114 Z0 F600
G1 X18.777 Y37.173 Z0 F600
; --- FIX X Backlash ---
G0 X19.577 Y37.173 F410
; --- FIX Y Backlash ---
G0 X19.577 Y36.473 F410
G1 X19.65 Y36.044 Z0 F600
G1 X19.683 Y35.64 Z0 F600
G1 Y35.237 Z0 F600
G1 X19.646 Y34.835 Z0 F600
; --- FIX X Backlash ---
G0 X18.846 Y34.835 F410
G1 X18.777 Y34.438 Z0 F600
G1 X18.675 Y34.048 Z0 F600
G1 X18.539 Y33.667 Z0 F600
G1 X18.371 Y33.298 Z0 F600
; --- FIX X Backlash ---
G0 X19.171 Y33.298 F410
G1 X19.637 Y33.269 Z0 F600
G1 X20.108 Y33.226 Z0 F600
G1 X20.342 Y33.218 Z0 F600
G1 X20.571 Y33.23 Z0 F600
G1 X20.794 Y33.27 Z0 F600
; --- FIX Y Backlash ---
G0 X20.794 Y33.97 F410
G1 X21.009 Y34.045 Z0 F600
G1 X21.207 Y34.292 Z0 F600
G1 X21.355 Y34.568 Z0 F600
G0 Z3.5 F600
; --- FIX X Backlash ---
G0 X20.555 Y34.568 F410
G0 X19.443 Y38.713 Z3.5
G1 Z0 F600
G1 X19.362 Y38.967 Z0 F600
G1 X19.32 Y39.229 Z0 F600
G1 Y39.494 Z0 F600
G1 X19.359 Y39.757 Z0 F600
; --- FIX X Backlash ---
G0 X20.159 Y39.757 F410
G1 X20.243 Y40.011 Z0 F600
G1 X20.371 Y40.251 Z0 F600
G1 X20.544 Y40.473 Z0 F600
G1 X20.662 Y40.611 Z0 F600
G1 X20.793 Y40.729 Z0 F600
G1 X20.936 Y40.829 Z0 F600
G1 X21.085 Y40.912 Z0 F600
G1 X21.063 Y41.025 Z0 F600
G1 X21.087 Y41.184 Z0 F600
G1 X21.121 Y41.345 Z0 F600
G1 X21.127 Y41.469 Z0 F600
G1 X21.108 Y41.645 Z0 F600
G1 X21.142 Y41.758 Z0 F600
G1 X21.227 Y41.862 Z0 F600
G1 X21.357 Y42.011 Z0 F600
G1 X27.1 Y50.32 Z0 F600
G1 X27.088 Y50.337 Z0 F600
; --- FIX X Backlash ---
G0 X26.288 Y50.337 F410
G1 X26.221 Y50.327 Z0 F600
G1 X26.118 Y50.298 Z0 F600
G1 X25.994 Y50.256 Z0 F600
; --- FIX Y Backlash ---
G0 X25.994 Y49.556 F410
G1 X25.758 Y49.468 Z0 F600
G1 X25.648 Y49.425 Z0 F600
G1 X25.547 Y49.397 Z0 F600
G1 X25.422 Y49.316 Z0 F600
G1 X25.273 Y49.185 Z0 F600
G1 X25.102 Y49.008 Z0 F600
G1 X24.912 Y48.787 Z0 F600
G1 X24.704 Y48.527 Z0 F600
G1 X24.479 Y48.23 Z0 F600
G1 X24.24 Y47.9 Z0 F600
G1 X23.724 Y47.155 Z0 F600
G1 X23.17 Y46.319 Z0 F600
G1 X22.592 Y45.418 Z0 F600
G1 X22.003 Y44.48 Z0 F600
G1 X21.417 Y43.531 Z0 F600
G1 X20.849 Y42.599 Z0 F600
G1 X19.592 Y40.519 Z0 F600
G1 X19.191 Y39.859 Z0 F600
G1 X18.868 Y39.336 Z0 F600
G1 X18.742 Y39.135 Z0 F600
G1 X18.639 Y38.979 Z0 F600
G1 X18.563 Y38.871 Z0 F600
G1 X18.438 Y38.655 Z0 F600
G1 X18.339 Y38.422 Z0 F600
G1 X18.267 Y38.186 Z0 F600
G1 X18.226 Y37.958 Z0 F600
; --- FIX X Backlash ---
G0 X19.026 Y37.958 F410
G1 X19.699 Y37.862 Z0 F600
G1 X20.363 Y37.773 Z0 F600
; --- FIX X Backlash ---
G0 X19.563 Y37.773 F410
; --- FIX Y Backlash ---
G0 X19.563 Y38.473 F410
G1 X19.443 Y38.713 Z0 F600
G0 Z3.5 F600
; --- FIX X Backlash ---
G0 X20.243 Y38.713 F410
; --- FIX Y Backlash ---
G0 X20.243 Y38.013 F410
G0 X30.767 Y34.128 Z3.5
G1 Z0 F600
G1 X31.686 Y34.145 Z0 F600
G1 X32.512 Y34.148 Z0 F600
G1 X33.079 Y34.145 Z0 F600
G1 Y34.15 Z0 F600
; --- FIX Y Backlash ---
G0 X33.079 Y34.85 F410
G1 X33.043 Y35.032 Z0 F600
G1 X33.036 Y35.058 Z0 F600
G1 X33.012 Z0 F600
; --- FIX X Backlash ---
G0 X32.212 Y35.058 F410
G1 X31.875 Y35.053 Z0 F600
G1 X31.694 Y35.037 Z0 F600
G1 X31.671 Y35.032 Z0 F600
; --- FIX Y Backlash ---
G0 X31.671 Y34.332 F410
G1 X30.926 Y34.281 Z0 F600
G1 X30.252 Y34.244 Z0 F600
G1 X29.754 Y34.211 Z0 F600
G1 X29.729 Y34.12 Z0 F600
; --- FIX X Backlash ---
G0 X30.529 Y34.12 F410
G1 X30.767 Y34.128 Z0 F600
G0 Z3.5 F600
; --- FIX Y Backlash ---
G0 X30.767 Y34.828 F410
G0 X33.574 Y34.92 Z3.5
G1 Z0 F600
G1 X33.529 Y35.15 Z0 F600
; --- FIX X Backlash ---
G0 X32.729 Y35.15 F410
G1 X32.664 Y35.378 Z0 F600
G1 X32.586 Y35.593 Z0 F600
G1 X32.575 Y35.619 Z0 F600
G1 X32.4 Y35.577 Z0 F600
G1 X32.185 Y35.555 Z0 F600
G1 X31.851 Y35.552 Z0 F600
G1 X31.627 Y35.532 Z0 F600
G1 X31.608 Y35.529 Z0 F600
G1 X30.895 Y35.48 Z0 F600
G1 X30.224 Y35.443 Z0 F600
G1 X29.582 Y35.4 Z0 F600
G1 X29.339 Y35.374 Z0 F600
; --- FIX Y Backlash ---
G0 X29.339 Y34.674 F410
G1 X29.311 Y34.493 Z0 F600
G1 X29.242 Y34.232 Z0 F600
G1 X29.107 Y33.959 Z0 F600
G1 X28.986 Y33.803 Z0 F600
G1 X28.844 Y33.672 Z0 F600
G1 X28.675 Y33.564 Z0 F600
G1 X28.664 Y33.559 Z0 F600
; --- FIX X Backlash ---
G0 X29.464 Y33.559 F410
G1 X29.873 Y33.589 Z0 F600
G1 X30.319 Y33.612 Z0 F600
G1 X30.78 Y33.629 Z0 F600
G1 X31.691 Y33.645 Z0 F600
G1 X32.511 Y33.648 Z0 F600
G1 X33.393 Y33.643 Z0 F600
G1 X33.523 Y33.664 Z0 F600
G1 X33.54 Y33.672 Z0 F600
; --- FIX Y Backlash ---
G0 X33.54 Y34.372 F410
G1 X33.565 Y34.426 Z0 F600
G1 X33.588 Y34.541 Z0 F600
G1 X33.593 Y34.718 Z0 F600
G1 X33.574 Y34.92 Z0 F600
G0 Z3.5 F600
; --- FIX X Backlash ---
G0 X32.774 Y34.92 F410
; --- FIX Y Backlash ---
G0 X32.774 Y34.22 F410
G0 X26.175 Y23.251 Z3.5
G1 Z0 F600
G1 X26.144 Y23.246 Z0 F600
G1 X25.662 Y23.273 Z0 F600
G1 X25.613 Y23.279 Z0 F600
; --- FIX X Backlash ---
G0 X26.413 Y23.279 F410
G1 X26.973 Y23.165 Z0 F600
; --- FIX Y Backlash ---
G0 X26.973 Y23.865 F410
G1 Y23.951 Z0 F600
G0 Z3.5 F600
; --- FIX X Backlash ---
G0 X26.173 Y23.951 F410
G0 X26.116 Y24.448 Z3.5
G1 Z0 F600
G1 X25.711 Y24.471 Z0 F600
G1 X25.439 Y24.508 Z0 F600
G1 X23.802 Y24.713 Z0 F600
G1 X23.196 Y24.788 Z0 F600
; --- FIX X Backlash ---
G0 X23.996 Y24.788 F410
; --- FIX Y Backlash ---
G0 X23.996 Y24.088 F410
G1 X24.204 Y23.825 Z0 F600
G1 X24.497 Y23.537 Z0 F600
G1 X24.819 Y23.291 Z0 F600
G1 X25.169 Y23.094 Z0 F600
G1 X25.535 Y22.953 Z0 F600
G1 X25.971 Y22.859 Z0 F600
G1 X27 Y22.649 Z0 F600
G1 X27.458 Y22.563 Z0 F600
; --- FIX Y Backlash ---
G0 X27.458 Y23.263 F410
G1 X27.49 Y24.637 Z0 F600
; --- FIX X Backlash ---
G0 X26.69 Y24.637 F410
; --- FIX Y Backlash ---
G0 X26.69 Y23.937 F410
G1 X26.421 Y23.799 Z0 F600
G1 X26.116 Y23.748 Z0 F600
G0 Z3.5 F600
; --- FIX X Backlash ---
G0 X26.916 Y23.748 F410
; --- FIX Y Backlash ---
G0 X26.916 Y24.448 F410
G0 X30.388 Y40.457 Z3.5
G1 Z0 F600
G1 X30.664 Y40.47 Z0 F600
G1 X30.959 Y40.477 Z0 F600
G1 X31.029 Y40.484 Z0 F600
G1 X31.067 Y41.277 Z0 F600
G1 X31.083 Y42.439 Z0 F600
G1 X31.062 Y43.616 Z0 F600
G1 X31.024 Y44.48 Z0 F600
G1 X30.996 Z0 F600
; --- FIX X Backlash ---
G0 X30.196 Y44.48 F410
G1 X29.944 Z0 F600
G1 X29.609 Y44.456 Z0 F600
; --- FIX Y Backlash ---
G0 X29.609 Y43.756 F410
G1 X29.592 Y43.483 Z0 F600
G1 X29.596 Y42.891 Z0 F600
G1 Y42.248 Z0 F600
G1 X29.536 Y41.549 Z0 F600
G1 X29.484 Y41.379 Z0 F600
G1 X29.384 Y41.226 Z0 F600
G1 X29.24 Y41.092 Z0 F600
G1 X29.287 Y41.047 Z0 F600
; --- FIX X Backlash ---
G0 X30.087 Y41.047 F410
G1 X30.212 Y40.874 Z0 F600
G1 X30.333 Y40.577 Z0 F600
G1 X30.38 Y40.291 Z0 F600
G1 X30.388 Y39.757 Z0 F600
G0 Z3.5 F600
; --- FIX X Backlash ---
G0 X29.588 Y39.757 F410
G0 X27.899 Y33.46 Z3.5
G1 Z0 F600
G1 X27.848 Y33.466 Z0 F600
; --- FIX Y Backlash ---
G0 X27.848 Y34.166 F410
G1 X27.575 Y34.275 Z0 F600
G1 X27.487 Y34.337 Z0 F600
; --- FIX Y Backlash ---
G0 X27.487 Y33.637 F410
G1 X27.476 Y33.34 Z0 F600
; --- FIX X Backlash ---
G0 X28.276 Y33.34 F410
G1 X28.405 Y33.388 Z0 F600
; --- FIX Y Backlash ---
G0 X28.405 Y34.088 F410
G1 X28.699 Y34.16 Z0 F600
G0 Z3.5 F600
G0 X29.24 Y34.707 Z3.5
G1 Z0 F600
; --- FIX X Backlash ---
G0 X28.44 Y34.707 F410
G1 X28.33 Y34.66 Z0 F600
G1 X28.145 Y34.633 Z0 F600
G1 X27.974 Y34.654 Z0 F600
G1 X27.815 Y34.717 Z0 F600
G1 X27.678 Y34.815 Z0 F600
G1 X27.568 Y34.943 Z0 F600
G1 X27.493 Y35.095 Z0 F600
G1 X27.463 Y35.265 Z0 F600
G1 X27.483 Y35.447 Z0 F600
G1 X27.477 Y35.405 Z0 F600
G1 X27.512 Y38.046 Z0 F600
; --- FIX X Backlash ---
G0 X28.312 Y38.046 F410
G1 X28.388 Y40.688 Z0 F600
G1 Y40.711 Z0 F600
G1 X28.396 Y40.735 Z0 F600
G1 X28.451 Y40.884 Z0 F600
G1 X28.524 Y41.032 Z0 F600
G1 X28.616 Y41.176 Z0 F600
G1 X28.726 Y41.311 Z0 F600
G1 X28.855 Y41.43 Z0 F600
G1 X29.005 Y41.527 Z0 F600
G1 X29.175 Y41.593 Z0 F600
G1 X29.361 Y41.617 Z0 F600
G1 X29.39 Z0 F600
G1 X29.417 Y41.608 Z0 F600
G1 X29.53 Y41.561 Z0 F600
; --- FIX Y Backlash ---
G0 X29.53 Y40.861 F410
G1 X29.627 Y40.796 Z0 F600
G1 X29.708 Y40.718 Z0 F600
G1 X29.771 Y40.631 Z0 F600
G1 X29.848 Y40.441 Z0 F600
G1 X29.88 Y40.246 Z0 F600
G1 X29.891 Y39.58 Z0 F600
G1 X29.949 Y39.436 Z0 F600
G1 X30.058 Y39.313 Z0 F600
G1 X30.19 Y39.246 Z0 F600
G1 X30.326 Y39.249 Z0 F600
G1 X30.359 Y39.255 Z0 F600
G1 X30.682 Y39.27 Z0 F600
G1 X30.99 Y39.278 Z0 F600
G1 X31.27 Y39.306 Z0 F600
; --- FIX Y Backlash ---
G0 X31.27 Y40.006 F410
G1 X31.511 Y40.085 Z0 F600
G1 X31.567 Y41.266 Z0 F600
G1 X31.583 Y42.448 Z0 F600
G1 X31.562 Y43.628 Z0 F600
; --- FIX X Backlash ---
G0 X30.762 Y43.628 F410
G1 X30.71 Y44.807 Z0 F600
G1 X30.69 Y44.877 Z0 F600
G1 X30.653 Y44.917 Z0 F600
G1 X30.583 Y44.949 Z0 F600
G1 X30.478 Y44.973 Z0 F600
G1 X30.21 Y44.981 Z0 F600
G1 X29.926 Z0 F600
G1 X29.399 Y44.941 Z0 F600
G1 X29.289 Y44.918 Z0 F600
G1 X29.207 Y44.884 Z0 F600
G1 X29.16 Y44.844 Z0 F600
; --- FIX Y Backlash ---
G0 X29.16 Y44.144 F410
G1 X29.13 Y44.088 Z0 F600
G1 X29.092 Y43.498 Z0 F600
G1 X29.096 Y42.89 Z0 F600
G1 Y42.27 Z0 F600
G1 X29.042 Y41.644 Z0 F600
G1 X29.027 Y41.594 Z0 F600
G1 X28.999 Y41.551 Z0 F600
G1 X28.79 Y41.357 Z0 F600
G1 X28.526 Y41.196 Z0 F600
G1 X28.374 Y41.14 Z0 F600
G1 X28.212 Y41.109 Z0 F600
G1 X28.044 Y41.113 Z0 F600
G1 X27.876 Y41.161 Z0 F600
G1 X27.842 Y41.181 Z0 F600
G1 X27.812 Y41.209 Z0 F600
; --- FIX Y Backlash ---
G0 X27.812 Y41.909 F410
G1 X27.694 Y42.093 Z0 F600
G1 X27.631 Y42.289 Z0 F600
G1 X27.607 Y42.488 Z0 F600
G1 X27.61 Y42.684 Z0 F600
G1 X27.64 Y43.047 Z0 F600
G1 Y43.362 Z0 F600
G1 X27.648 Y43.678 Z0 F600
G1 X27.659 Y43.913 Z0 F600
G1 X27.651 Y43.959 Z0 F600
G1 X27.637 Z0 F600
G1 X27.528 Y43.937 Z0 F600
G1 X27.474 Y43.928 Z0 F600
G1 X27.42 Y43.937 Z0 F600
G1 X27.341 Y43.953 Z0 F600
G1 X27.338 Y43.943 Z0 F600
; --- FIX Y Backlash ---
G0 X27.338 Y43.243 F410
G1 X27.325 Y43.092 Z0 F600
G1 X27.314 Y42.866 Z0 F600
G1 Y42.875 Z0 F600
G1 X27.137 Y38.35 Z0 F600
G1 X26.993 Y33.818 Z0 F600
G1 X26.836 Y29.281 Z0 F600
G1 X26.618 Y24.747 Z0 F600
G1 X26.597 Y24.627 Z0 F600
G1 X26.558 Y24.525 Z0 F600
G1 X26.502 Y24.437 Z0 F600
G1 X26.43 Y24.365 Z0 F600
G1 X26.263 Y24.279 Z0 F600
G1 X26.089 Y24.251 Z0 F600
G1 X25.759 Y24.269 Z0 F600
G1 X25.501 Y24.304 Z0 F600
; --- FIX Y Backlash ---
G0 X25.501 Y25.004 F410
G1 X23.864 Y25.209 Z0 F600
G1 X22.276 Y25.403 Z0 F600
; --- FIX X Backlash ---
G0 X23.076 Y25.403 F410
; --- FIX Y Backlash ---
G0 X23.076 Y24.703 F410
G1 X23.281 Y24.27 Z0 F600
G1 X23.534 Y23.864 Z0 F600
G1 X23.831 Y23.491 Z0 F600
G1 X24.169 Y23.158 Z0 F600
G1 X24.544 Y22.872 Z0 F600
G1 X24.953 Y22.641 Z0 F600
G1 X25.393 Y22.472 Z0 F600
G1 X25.866 Y22.37 Z0 F600
G1 X26.908 Y22.157 Z0 F600
G1 X27.945 Y21.964 Z0 F600
; --- FIX Y Backlash ---
G0 X27.945 Y22.664 F410
G1 X28.068 Y27.984 Z0 F600
G1 X28.214 Y33.303 Z0 F600
G1 X28.264 Y33.434 Z0 F600
G1 X28.352 Y33.518 Z0 F600
G1 X28.446 Y33.57 Z0 F600
G1 X28.552 Y33.609 Z0 F600
G1 X28.81 Y33.672 Z0 F600
G1 X29.126 Y33.721 Z0 F600
G1 X29.495 Y33.76 Z0 F600
G1 X29.904 Y33.79 Z0 F600
G1 X30.341 Y33.813 Z0 F600
G1 X30.793 Y33.829 Z0 F600
G1 X31.697 Y33.845 Z0 F600
G1 X32.511 Y33.848 Z0 F600
G1 X33.43 Y33.843 Z0 F600
G1 X33.676 Y33.881 Z0 F600
G1 X33.85 Y33.968 Z0 F600
G1 X33.967 Y34.099 Z0 F600
G1 X34.043 Y34.272 Z0 F600
G1 X34.087 Y34.485 Z0 F600
G1 X34.094 Y34.73 Z0 F600
G1 X34.069 Y34.995 Z0 F600
; --- FIX X Backlash ---
G0 X33.269 Y34.995 F410
G1 X33.216 Y35.266 Z0 F600
G1 X33.14 Y35.533 Z0 F600
G1 X33.05 Y35.782 Z0 F600
G1 X32.952 Y36.001 Z0 F600
G1 X32.855 Y36.18 Z0 F600
G1 X32.812 Y36.243 Z0 F600
G1 X32.778 Y36.282 Z0 F600
; --- FIX Y Backlash ---
G0 X32.778 Y35.582 F410
G1 X32.633 Y35.478 Z0 F600
G1 X32.477 Y35.41 Z0 F600
G1 X32.316 Y35.371 Z0 F600
G1 X32.158 Y35.355 Z0 F600
G1 X31.827 Y35.352 Z0 F600
G1 X31.558 Y35.328 Z0 F600
G1 X31.545 Z0 F600
G1 X30.865 Y35.279 Z0 F600
G1 X30.198 Y35.243 Z0 F600
G1 X29.541 Y35.199 Z0 F600
G1 X28.904 Y35.13 Z0 F600
G1 X28.821 Y34.596 Z0 F600
G1 X28.771 Y34.408 Z0 F600
G1 X28.682 Y34.227 Z0 F600
G1 X28.617 Y34.143 Z0 F600
G1 X28.536 Y34.069 Z0 F600
G1 X28.44 Y34.007 Z0 F600
G0 Z3.5 F600
; --- FIX X Backlash ---
G0 X29.24 Y34.007 F410
G0 X35.076 Y25.269 Z3.5
G1 Z0 F600
; --- FIX X Backlash ---
G0 X34.276 Y25.269 F410
; --- FIX Y Backlash ---
G0 X34.276 Y25.969 F410
G1 X33.596 Y26.919 Z0 F600
G1 X33.571 Y26.978 Z0 F600
G1 X33.279 Z0 F600
; --- FIX Y Backlash ---
G0 X33.279 Y26.278 F410
G1 X33.268 Y25.975 Z0 F600
G1 X33.25 Y25.182 Z0 F600
; --- FIX X Backlash ---
G0 X34.05 Y25.182 F410
G1 X35.125 Y25.125 Z0 F600
G1 X35.275 Y25.12 Z0 F600
; --- FIX X Backlash ---
G0 X34.475 Y25.12 F410
; --- FIX Y Backlash ---
G0 X34.475 Y25.82 F410
G1 X34.276 Y25.969 Z0 F600
G0 Z3.5 F600
G0 X32.767 Y26.673 Z3.5
G1 Z0 F600
; --- FIX Y Backlash ---
G0 X32.767 Y25.973 F410
G1 X32.746 Y25.004 Z0 F600
G1 Y24.709 Z0 F600
; --- FIX X Backlash ---
G0 X33.546 Y24.709 F410
G1 X35.103 Y24.625 Z0 F600
G1 X36.707 Y24.577 Z0 F600
; --- FIX Y Backlash ---
G0 X36.707 Y25.277 F410
G1 Y25.372 Z0 F600
G1 X36.702 Y25.509 Z0 F600
; --- FIX X Backlash ---
G0 X35.902 Y25.509 F410
G1 X35.513 Y25.669 Z0 F600
G1 X34.638 Y26.323 Z0 F600
G1 X34.034 Y27.165 Z0 F600
G1 X33.902 Y27.477 Z0 F600
G1 X32.798 Z0 F600
; --- FIX Y Backlash ---
G0 X32.798 Y26.777 F410
G1 X32.767 Y25.973 Z0 F600
G0 Z3.5 F600
G0 X32.243 Y24.235 Z3.5
G1 Z0 F600
; --- FIX X Backlash ---
G0 X33.043 Y24.235 F410
G1 X35.083 Y24.126 Z0 F600
G1 X37.131 Y24.065 Z0 F600
G1 X37.215 Z0 F600
; --- FIX Y Backlash ---
G0 X37.215 Y24.765 F410
G1 X37.205 Y25.412 Z0 F600
G1 X37.192 Y25.849 Z0 F600
; --- FIX X Backlash ---
G0 X36.392 Y25.849 F410
G1 X35.761 Y26.108 Z0 F600
G1 X34.999 Y26.677 Z0 F600
G1 X34.473 Y27.411 Z0 F600
G1 X34.234 Y27.976 Z0 F600
G1 X32.317 Y27.98 Z0 F600
; --- FIX Y Backlash ---
G0 X32.317 Y27.28 F410
G1 X32.267 Y25.974 Z0 F600
G1 X32.246 Y25.016 Z0 F600
G1 X32.243 Y24.235 Z0 F600
G0 Z3.5 F600
G0 X32.199 Y23.737 Z3.5
G1 Z0 F600
; --- FIX X Backlash ---
G0 X32.999 Y23.737 F410
G1 X35.061 Y23.626 Z0 F600
G1 X37.134 Y23.565 Z0 F600
G1 X37.723 Y23.56 Z0 F600
; --- FIX Y Backlash ---
G0 X37.723 Y24.26 F410
G1 X37.705 Y25.401 Z0 F600
G1 X37.682 Y26.201 Z0 F600
; --- FIX X Backlash ---
G0 X36.882 Y26.201 F410
G1 X36.811 Y26.217 Z0 F600
G1 X36.01 Y26.546 Z0 F600
G1 X35.36 Y27.031 Z0 F600
G1 X34.912 Y27.657 Z0 F600
G1 X34.64 Y28.298 Z0 F600
G1 X34.594 Y28.459 Z0 F600
G1 X34.487 Y28.476 Z0 F600
G1 X32.054 Y28.481 Z0 F600
G1 X31.835 Z0 F600
; --- FIX Y Backlash ---
G0 X31.835 Y27.781 F410
G1 X31.769 Y26.03 Z0 F600
G1 X31.746 Y25.004 Z0 F600
G1 X31.743 Y24.022 Z0 F600
G1 X31.749 Y23.772 Z0 F600
; --- FIX X Backlash ---
G0 X32.549 Y23.772 F410
G1 X32.999 Y23.737 Z0 F600
G0 Z3.5 F600
G0 X35.04 Y23.126 Z3.5
G1 Z0 F600
G1 X37.115 Y23.065 Z0 F600
G1 X38.229 Y23.057 Z0 F600
; --- FIX Y Backlash ---
G0 X38.229 Y23.757 F410
G1 Y23.947 Z0 F600
G1 X38.205 Y25.416 Z0 F600
G1 X38.17 Y26.603 Z0 F600
; --- FIX X Backlash ---
G0 X37.37 Y26.603 F410
G1 X36.962 Y26.695 Z0 F600
G1 X36.258 Y26.984 Z0 F600
G1 X35.721 Y27.385 Z0 F600
G1 X35.351 Y27.903 Z0 F600
G1 X35.112 Y28.466 Z0 F600
G1 X34.979 Y28.923 Z0 F600
G1 X34.657 Y28.956 Z0 F600
G1 X34.529 Y28.976 Z0 F600
G1 X32.056 Y28.981 Z0 F600
G1 X31.353 Y28.985 Z0 F600
; --- FIX Y Backlash ---
G0 X31.353 Y28.285 F410
G1 X31.347 Y28.113 Z0 F600
G1 X31.269 Y26.031 Z0 F600
G1 X31.246 Y25.016 Z0 F600
G1 X31.243 Y24.029 Z0 F600
G1 X31.261 Y23.308 Z0 F600
; --- FIX X Backlash ---
G0 X32.061 Y23.308 F410
G1 X32.973 Y23.237 Z0 F600
G1 X35.04 Y23.126 Z0 F600
G0 Z3.5 F600
G0 X37.119 Y22.565 Z3.5
G1 Z0 F600
G1 X38.73 Y22.553 Z0 F600
; --- FIX Y Backlash ---
G0 X38.73 Y23.253 F410
G1 Y23.933 Z0 F600
G1 X38.705 Y25.431 Z0 F600
G1 X38.66 Y26.945 Z0 F600
G1 X38.656 Y27.033 Z0 F600
; --- FIX X Backlash ---
G0 X37.856 Y27.033 F410
G1 X37.647 Y27.053 Z0 F600
G1 X37.114 Y27.174 Z0 F600
G1 X36.507 Y27.423 Z0 F600
G1 X36.083 Y27.739 Z0 F600
G1 X35.789 Y28.149 Z0 F600
G1 X35.584 Y28.634 Z0 F600
G1 X35.466 Y29.04 Z0 F600
G1 X35.399 Y29.394 Z0 F600
G1 X35.102 Y29.414 Z0 F600
G1 X34.72 Y29.452 Z0 F600
G1 X34.565 Y29.476 Z0 F600
G1 X32.058 Y29.481 Z0 F600
G1 X30.871 Y29.487 Z0 F600
; --- FIX Y Backlash ---
G0 X30.871 Y28.787 F410
G1 X30.847 Y28.132 Z0 F600
G1 X30.768 Y26.03 Z0 F600
G1 X30.746 Y25.029 Z0 F600
G1 X30.743 Y24.017 Z0 F600
G1 X30.767 Y23.035 Z0 F600
G1 X30.778 Y22.844 Z0 F600
; --- FIX X Backlash ---
G0 X31.578 Y22.844 F410
G1 X32.929 Y22.739 Z0 F600
G1 X35.019 Y22.627 Z0 F600
G1 X37.119 Y22.565 Z0 F600
G0 Z3.5 F600
G0 X39.232 Y22.05 Z3.5
G1 Z0 F600
; --- FIX Y Backlash ---
G0 X39.232 Y22.75 F410
G1 X39.228 Y23.941 Z0 F600
G1 X39.204 Y25.459 Z0 F600
G1 X39.161 Y26.947 Z0 F600
G1 X39.136 Y27.506 Z0 F600
; --- FIX X Backlash ---
G0 X38.336 Y27.506 F410
G1 X38.146 Z0 F600
G1 X37.726 Y27.548 Z0 F600
G1 X37.265 Y27.652 Z0 F600
G1 X36.755 Y27.861 Z0 F600
G1 X36.445 Y28.093 Z0 F600
G1 X36.228 Y28.396 Z0 F600
G1 X36.055 Y28.802 Z0 F600
G1 X35.952 Y29.157 Z0 F600
G1 X35.888 Y29.493 Z0 F600
G1 X35.854 Y29.816 Z0 F600
G1 Y29.868 Z0 F600
G1 X35.518 Y29.887 Z0 F600
G1 X35.144 Y29.913 Z0 F600
G1 X34.782 Y29.948 Z0 F600
G1 X34.603 Y29.976 Z0 F600
G1 X32.06 Y29.981 Z0 F600
G1 X30.389 Y29.99 Z0 F600
; --- FIX Y Backlash ---
G0 X30.389 Y29.29 F410
G1 X30.348 Y28.151 Z0 F600
G1 X30.269 Y26.049 Z0 F600
G1 X30.246 Y25.039 Z0 F600
G1 X30.243 Y24 Z0 F600
G1 X30.267 Y23.028 Z0 F600
G1 X30.304 Y22.38 Z0 F600
; --- FIX X Backlash ---
G0 X31.104 Y22.38 F410
G1 X32.902 Y22.239 Z0 F600
G1 X34.999 Y22.127 Z0 F600
G1 X37.1 Y22.065 Z0 F600
G1 X39.202 Y22.05 Z0 F600
G1 X39.232 Z0 F600
G0 Z3.5 F600
G0 X39.734 Y21.715 Z3.5
G1 Z0 F600
; --- FIX Y Backlash ---
G0 X39.734 Y22.415 F410
G1 X39.728 Y23.949 Z0 F600
G1 X39.704 Y25.46 Z0 F600
G1 X39.66 Y26.977 Z0 F600
G1 X39.614 Y28.006 Z0 F600
; --- FIX X Backlash ---
G0 X38.814 Y28.006 F410
G1 X38.503 Z0 F600
G1 X38.173 Z0 F600
G1 X37.805 Y28.042 Z0 F600
G1 X37.416 Y28.13 Z0 F600
G1 X37.004 Y28.3 Z0 F600
G1 X36.806 Y28.448 Z0 F600
G1 X36.667 Y28.642 Z0 F600
G1 X36.528 Y28.971 Z0 F600
G1 X36.439 Y29.273 Z0 F600
G1 X36.384 Y29.566 Z0 F600
G1 X36.353 Y29.852 Z0 F600
G1 X36.337 Y30.34 Z0 F600
G1 X36.184 Y30.35 Z0 F600
G1 X35.55 Y30.386 Z0 F600
G1 X35.185 Y30.411 Z0 F600
G1 X34.845 Y30.444 Z0 F600
G1 X34.643 Y30.475 Z0 F600
G1 X32.062 Y30.481 Z0 F600
G1 X29.906 Y30.493 Z0 F600
; --- FIX Y Backlash ---
G0 X29.906 Y29.793 F410
G1 X29.848 Y28.169 Z0 F600
G1 X29.769 Y26.075 Z0 F600
G1 X29.746 Y25.031 Z0 F600
G1 X29.743 Y24.015 Z0 F600
G1 X29.768 Y22.982 Z0 F600
; --- FIX X Backlash ---
G0 X30.568 Y22.982 F410
G1 X30.627 Y21.965 Z0 F600
G1 Y21.952 Z0 F600
G1 X30.635 Y21.909 Z0 F600
G1 X30.666 Y21.906 Z0 F600
G1 X30.688 Z0 F600
G1 X30.755 Z0 F600
G1 X32.858 Y21.741 Z0 F600
G1 X34.977 Y21.628 Z0 F600
G1 X37.1 Y21.565 Z0 F600
G1 X39.207 Y21.55 Z0 F600
G1 X39.371 Y21.553 Z0 F600
G1 X39.499 Y21.573 Z0 F600
G1 X39.618 Y21.61 Z0 F600
G1 X39.709 Y21.654 Z0 F600
G1 X39.733 Y21.672 Z0 F600
G1 Y21.708 Z0 F600
G1 Y21.715 Z0 F600
G0 Z3.5 F600
; --- FIX X Backlash ---
G0 X38.933 Y21.715 F410
; --- FIX Y Backlash ---
G0 X38.933 Y22.415 F410
G0 X38.504 Y28.504 Z3.5
G1 Z0 F600
G1 X38.199 Y28.507 Z0 F600
G1 X37.885 Y28.537 Z0 F600
G1 X37.567 Y28.609 Z0 F600
G1 X37.252 Y28.738 Z0 F600
G1 X37.167 Y28.802 Z0 F600
G1 X37.106 Y28.888 Z0 F600
G1 X36.999 Y29.139 Z0 F600
G1 X36.926 Y29.39 Z0 F600
G1 X36.879 Y29.64 Z0 F600
G1 X36.852 Y29.886 Z0 F600
G1 X36.837 Y30.363 Z0 F600
G1 X36.831 Y30.809 Z0 F600
G1 X36.648 Y30.822 Z0 F600
G1 X36.216 Y30.849 Z0 F600
G1 X35.581 Y30.885 Z0 F600
G1 X35.227 Y30.909 Z0 F600
G1 X34.907 Y30.94 Z0 F600
G1 X34.682 Y30.975 Z0 F600
G1 X32.064 Y30.981 Z0 F600
G1 X29.424 Y30.996 Z0 F600
; --- FIX Y Backlash ---
G0 X29.424 Y30.296 F410
G1 X29.348 Y28.187 Z0 F600
G1 X29.269 Y26.087 Z0 F600
G1 X29.246 Y25.042 Z0 F600
G1 X29.243 Y24.003 Z0 F600
G1 X29.268 Y22.969 Z0 F600
; --- FIX X Backlash ---
G0 X30.068 Y22.969 F410
G1 X30.128 Y21.944 Z0 F600
G1 Y21.906 Z0 F600
G1 X30.164 Y21.69 Z0 F600
G1 X30.272 Y21.524 Z0 F600
G1 X30.441 Y21.425 Z0 F600
G1 X30.658 Y21.405 Z0 F600
G1 X30.691 Z0 F600
G1 X30.725 Z0 F600
G1 X32.832 Y21.242 Z0 F600
G1 X34.956 Y21.128 Z0 F600
G1 X37.084 Y21.065 Z0 F600
G1 X39.212 Y21.05 Z0 F600
G1 X39.414 Y21.053 Z0 F600
G1 X39.612 Y21.085 Z0 F600
; --- FIX Y Backlash ---
G0 X39.612 Y21.785 F410
G1 X39.802 Y21.843 Z0 F600
G1 X39.967 Y21.923 Z0 F600
G1 X40.095 Y22.017 Z0 F600
G1 X40.184 Y22.123 Z0 F600
G1 X40.23 Y22.251 Z0 F600
G1 X40.235 Y22.414 Z0 F600
G1 Y22.43 Z0 F600
G1 X40.228 Y23.957 Z0 F600
G1 X40.204 Y25.475 Z0 F600
G1 X40.16 Y26.992 Z0 F600
; --- FIX X Backlash ---
G0 X39.36 Y26.992 F410
G1 X39.292 Y28.5 Z0 F600
G1 X38.915 Y28.507 Z0 F600
G1 X38.504 Y28.504 Z0 F600
G0 Z3.5 F600
; --- FIX X Backlash ---
G0 X39.304 Y28.504 F410
; --- FIX Y Backlash ---
G0 X39.304 Y27.804 F410
G0 X46.182 Y27.436 Z3.5
G1 Z0 F600
; --- FIX X Backlash ---
G0 X45.382 Y27.436 F410
G1 X45.223 Z0 F600
G1 X44.493 Y27.432 Z0 F600
G1 X44.517 Y26.463 Z0 F600
G1 X44.52 Y26.261 Z0 F600
; --- FIX X Backlash ---
G0 X45.32 Y26.261 F410
; --- FIX Y Backlash ---
G0 X45.32 Y26.961 F410
G1 X46.182 Y28.136 Z0 F600
G0 Z3.5 F600
G0 X47.161 Y28.638 Z3.5
G1 Z0 F600
; --- FIX X Backlash ---
G0 X46.361 Y28.638 F410
G1 X45.22 Z0 F600
G1 X43.98 Y28.628 Z0 F600
; --- FIX Y Backlash ---
G0 X43.98 Y27.928 F410
G1 X44.017 Y26.453 Z0 F600
G1 X44.038 Y24.821 Z0 F600
G1 Y24.775 Z0 F600
; --- FIX X Backlash ---
G0 X44.838 Y24.775 F410
; --- FIX Y Backlash ---
G0 X44.838 Y25.475 F410
G1 X45.095 Y25.808 Z0 F600
G1 X46.724 Y28.03 Z0 F600
G1 X47.161 Y28.638 Z0 F600
G0 Z3.5 F600
G0 X48.138 Y29.139 Z3.5
G1 Z0 F600
; --- FIX X Backlash ---
G0 X47.338 Y29.139 F410
G1 X45.217 Y29.136 Z0 F600
G1 X43.458 Y29.125 Z0 F600
; --- FIX Y Backlash ---
G0 X43.458 Y28.425 F410
G1 X43.464 Y28.304 Z0 F600
G1 X43.472 Y28.257 Z0 F600
G1 X43.517 Y26.444 Z0 F600
G1 X43.538 Y24.809 Z0 F600
G1 X43.573 Y23.344 Z0 F600
; --- FIX X Backlash ---
G0 X44.373 Y23.344 F410
; --- FIX Y Backlash ---
G0 X44.373 Y24.044 F410
G1 X45.477 Y25.484 Z0 F600
G1 X47.141 Y27.753 Z0 F600
G1 X48.138 Y29.139 Z0 F600
G0 Z3.5 F600
G0 X49.114 Y29.64 Z3.5
G1 Z0 F600
; --- FIX X Backlash ---
G0 X48.314 Y29.64 F410
G1 X45.213 Y29.636 Z0 F600
G1 X42.967 Y29.622 Z0 F600
; --- FIX Y Backlash ---
G0 X42.967 Y28.922 F410
G1 Y28.865 Z0 F600
G1 X42.956 Y28.451 Z0 F600
G1 X42.967 Y28.248 Z0 F600
G1 X42.973 Y28.211 Z0 F600
G1 X43.018 Y26.434 Z0 F600
G1 X43.039 Y24.782 Z0 F600
G1 X43.076 Y23.185 Z0 F600
G1 X43.124 Y22.326 Z0 F600
G1 X43.166 Z0 F600
; --- FIX X Backlash ---
G0 X43.966 Y22.326 F410
G1 X44.2 Y22.33 Z0 F600
G1 X44.227 Z0 F600
; --- FIX Y Backlash ---
G0 X44.227 Y23.03 F410
G1 X45.889 Y25.201 Z0 F600
G1 X47.536 Y27.446 Z0 F600
G1 X49.114 Y29.64 Z0 F600
G0 Z3.5 F600
G0 X50.093 Y30.142 Z3.5
G1 Z0 F600
; --- FIX X Backlash ---
G0 X49.293 Y30.142 F410
G1 X45.21 Y30.136 Z0 F600
G1 X42.419 Y30.119 Z0 F600
; --- FIX Y Backlash ---
G0 X42.419 Y29.419 F410
G1 X42.457 Y29.19 Z0 F600
G1 X42.469 Y28.863 Z0 F600
G1 X42.456 Y28.446 Z0 F600
G1 X42.469 Y28.198 Z0 F600
G1 X42.474 Y28.164 Z0 F600
G1 X42.518 Y26.425 Z0 F600
G1 X42.539 Y24.776 Z0 F600
G1 X42.575 Y23.182 Z0 F600
; --- FIX X Backlash ---
G0 X43.375 Y23.182 F410
G1 X43.449 Y21.864 Z0 F600
G1 X43.535 Y21.848 Z0 F600
G1 X43.733 Y21.831 Z0 F600
G1 X43.978 Y21.826 Z0 F600
G1 X44.217 Y21.83 Z0 F600
G1 X44.441 Y21.844 Z0 F600
G1 X44.504 Y21.861 Z0 F600
; --- FIX Y Backlash ---
G0 X44.504 Y22.561 F410
G1 X44.547 Y22.628 Z0 F600
G1 X46.295 Y24.91 Z0 F600
G1 X47.942 Y27.154 Z0 F600
G1 X49.588 Y29.443 Z0 F600
G1 X50.093 Y30.142 Z0 F600
G0 Z3.5 F600
G0 X51.073 Y30.643 Z3.5
G1 Z0 F600
; --- FIX X Backlash ---
G0 X50.273 Y30.643 F410
G1 X45.207 Y30.636 Z0 F600
G1 X41.693 Y30.614 Z0 F600
; --- FIX X Backlash ---
G0 X42.493 Y30.614 F410
; --- FIX Y Backlash ---
G0 X42.493 Y29.914 F410
G1 X42.581 Y29.79 Z0 F600
G1 X42.707 Y29.455 Z0 F600
G1 X42.758 Y29.14 Z0 F600
G1 X42.769 Y28.863 Z0 F600
G1 X42.755 Y28.442 Z0 F600
G1 X42.771 Y28.141 Z0 F600
G1 X42.775 Y28.117 Z0 F600
G1 X42.818 Y26.415 Z0 F600
G1 X42.839 Y24.775 Z0 F600
G1 X42.877 Y23.138 Z0 F600
G1 X42.962 Y21.609 Z0 F600
G1 X42.993 Y21.533 Z0 F600
G1 X43.028 Y21.492 Z0 F600
G1 X43.104 Y21.445 Z0 F600
G1 X43.252 Y21.393 Z0 F600
G1 X43.462 Y21.352 Z0 F600
G1 X43.708 Y21.331 Z0 F600
G1 X43.977 Y21.325 Z0 F600
G1 X44.234 Y21.33 Z0 F600
G1 X44.52 Y21.348 Z0 F600
; --- FIX Y Backlash ---
G0 X44.52 Y22.048 F410
G1 X44.731 Y22.104 Z0 F600
G1 X44.782 Y22.129 Z0 F600
G1 X44.833 Y22.167 Z0 F600
G1 X44.873 Y22.208 Z0 F600
G1 X44.958 Y22.341 Z0 F600
G1 X46.686 Y24.597 Z0 F600
G1 X48.351 Y26.866 Z0 F600
G1 X49.994 Y29.151 Z0 F600
G1 X51.073 Y30.643 Z0 F600
G0 Z3.5 F600
G0 X52.053 Y31.144 Z3.5
G1 Z0 F600
; --- FIX X Backlash ---
G0 X51.253 Y31.144 F410
G1 X45.204 Y31.136 Z0 F600
G1 X39.152 Y31.098 Z0 F600
G1 X39.112 Y31.102 Z0 F600
G1 X38.957 Y31.14 Z0 F600
G1 X38.921 Z0 F600
G1 X38.917 Y31.136 Z0 F600
G1 X38.903 Y31.098 Z0 F600
; --- FIX Y Backlash ---
G0 X38.903 Y30.398 F410
G1 X38.894 Y30.224 Z0 F600
G1 X38.91 Y29.974 Z0 F600
; --- FIX X Backlash ---
G0 X39.71 Y29.974 F410
G1 X40.23 Y29.982 Z0 F600
G1 X40.774 Y29.996 Z0 F600
G1 X41.053 Y29.988 Z0 F600
G1 X41.334 Y29.962 Z0 F600
G1 X41.616 Y29.909 Z0 F600
G1 X41.897 Y29.825 Z0 F600
G1 X41.945 Y29.8 Z0 F600
G1 X41.986 Y29.766 Z0 F600
G1 X42.135 Y29.554 Z0 F600
G1 X42.221 Y29.325 Z0 F600
G1 X42.26 Y29.091 Z0 F600
G1 X42.268 Y28.861 Z0 F600
G1 X42.255 Y28.437 Z0 F600
G1 X42.273 Y28.089 Z0 F600
G1 X42.276 Y28.071 Z0 F600
G1 X42.318 Y26.406 Z0 F600
G1 X42.339 Y24.763 Z0 F600
G1 X42.377 Y23.126 Z0 F600
G1 X42.468 Y21.498 Z0 F600
G1 X42.558 Y21.273 Z0 F600
G1 X42.699 Y21.108 Z0 F600
G1 X42.887 Y20.991 Z0 F600
G1 X43.121 Y20.909 Z0 F600
G1 X43.394 Y20.857 Z0 F600
G1 X43.683 Y20.831 Z0 F600
G1 X43.975 Y20.825 Z0 F600
G1 X44.251 Y20.83 Z0 F600
G1 X44.601 Y20.852 Z0 F600
; --- FIX Y Backlash ---
G0 X44.601 Y21.552 F410
G1 X44.908 Y21.633 Z0 F600
G1 X45.043 Y21.701 Z0 F600
G1 X45.165 Y21.79 Z0 F600
G1 X45.27 Y21.9 Z0 F600
G1 X45.368 Y22.055 Z0 F600
G1 X47.089 Y24.301 Z0 F600
G1 X48.754 Y26.57 Z0 F600
G1 X50.399 Y28.858 Z0 F600
G1 X52.053 Y31.144 Z0 F600
G0 Z3.5 F600
; --- FIX Y Backlash ---
G0 X52.053 Y30.444 F410
G0 X58.804 Y26.154 Z3.5
G1 Z0 F600
G1 X58.773 Y26.146 Z0 F600
G1 X58.869 Y26.171 Z0 F600
G1 X58.962 Y26.191 Z0 F600
; --- FIX X Backlash ---
G0 X58.162 Y26.191 F410
; --- FIX Y Backlash ---
G0 X58.162 Y26.891 F410
G1 X57.885 Y27.185 Z0 F600
G1 X57.607 Y27.461 Z0 F600
G1 X57.324 Y27.711 Z0 F600
G1 X57.034 Y27.927 Z0 F600
G1 X56.504 Y27.883 Z0 F600
G1 X56.542 Z0 F600
G1 X56.58 Y27.88 Z0 F600
; --- FIX X Backlash ---
G0 X57.38 Y27.88 F410
; --- FIX Y Backlash ---
G0 X57.38 Y27.18 F410
G1 X57.7 Y27.028 Z0 F600
G1 X57.947 Y26.826 Z0 F600
G1 X58.144 Y26.61 Z0 F600
G1 X58.313 Y26.415 Z0 F600
G1 X58.463 Y26.268 Z0 F600
G1 X58.588 Y26.18 Z0 F600
G1 X58.685 Y26.144 Z0 F600
G1 X58.804 Y26.154 Z0 F600
G0 Z3.5 F600
; --- FIX X Backlash ---
G0 X58.004 Y26.154 F410
G0 X51.002 Y23.813 Z3.5
G1 Z0 F600
; --- FIX X Backlash ---
G0 X51.802 Y23.813 F410
; --- FIX Y Backlash ---
G0 X51.802 Y24.513 F410
G1 X52.205 Y24.738 Z0 F600
; --- FIX X Backlash ---
G0 X51.405 Y24.738 F410
G1 X51.294 Y24.935 Z0 F600
G1 X51.135 Y25.231 Z0 F600
G1 X51.014 Y25.65 Z0 F600
G1 Y25.683 Z0 F600
; --- FIX Y Backlash ---
G0 X51.014 Y24.983 F410
G1 X50.896 Y24.83 Z0 F600
G1 X50.565 Y24.341 Z0 F600
G1 X50.226 Y23.849 Z0 F600
G1 X50.173 Y23.769 Z0 F600
G1 X50.193 Y23.757 Z0 F600
; --- FIX X Backlash ---
G0 X50.993 Y23.757 F410
G1 X51.342 Y23.504 Z0 F600
; --- FIX Y Backlash ---
G0 X51.342 Y24.204 F410
G1 X51.802 Y24.513 Z0 F600
G0 Z3.5 F600
G0 X52.532 Y25.175 Z3.5
G1 Z0 F600
; --- FIX X Backlash ---
G0 X51.732 Y25.175 F410
G1 X51.601 Y25.42 Z0 F600
G1 X51.511 Y25.732 Z0 F600
G1 X51.495 Y26.063 Z0 F600
; --- FIX X Backlash ---
G0 X52.295 Y26.063 F410
G1 X52.365 Y26.399 Z0 F600
G1 X52.541 Y26.73 Z0 F600
G1 X52.799 Y27.002 Z0 F600
G1 X52.814 Y27.011 Z0 F600
; --- FIX X Backlash ---
G0 X52.014 Y27.011 F410
; --- FIX Y Backlash ---
G0 X52.014 Y26.311 F410
G1 X51.328 Y26.253 Z0 F600
G1 X51.236 Y26.15 Z0 F600
G1 X51.012 Y25.84 Z0 F600
G1 X50.756 Y25.47 Z0 F600
G1 X50.489 Y25.121 Z0 F600
G1 X50.153 Y24.623 Z0 F600
G1 X49.805 Y24.119 Z0 F600
G1 X49.497 Y23.654 Z0 F600
G1 X49.464 Y23.596 Z0 F600
; --- FIX X Backlash ---
G0 X50.264 Y23.596 F410
G1 X50.423 Y23.508 Z0 F600
G1 X50.722 Y23.337 Z0 F600
G1 X51.047 Y23.1 Z0 F600
G1 X51.304 Y22.839 Z0 F600
; --- FIX Y Backlash ---
G0 X51.304 Y23.539 F410
G1 X51.629 Y23.795 Z0 F600
G1 X52.064 Y24.086 Z0 F600
G1 X52.521 Y24.343 Z0 F600
G1 X52.991 Y24.557 Z0 F600
; --- FIX X Backlash ---
G0 X52.191 Y24.557 F410
G1 X51.933 Y24.819 Z0 F600
G1 X51.732 Y25.175 Z0 F600
G0 Z3.5 F600
G0 X50.607 Y26.833 Z3.5
G1 Z0 F600
; --- FIX Y Backlash ---
G0 X50.607 Y26.133 F410
G1 X50.352 Y25.765 Z0 F600
G1 X50.084 Y25.415 Z0 F600
G1 X49.74 Y24.904 Z0 F600
G1 X49.393 Y24.403 Z0 F600
G1 X49.068 Y23.91 Z0 F600
G1 X48.781 Y23.418 Z0 F600
; --- FIX X Backlash ---
G0 X49.581 Y23.418 F410
G1 X49.857 Y23.251 Z0 F600
G1 X50.177 Y23.072 Z0 F600
G1 X50.45 Y22.916 Z0 F600
G1 X50.72 Y22.72 Z0 F600
G1 X50.965 Y22.471 Z0 F600
G1 X51.162 Y22.154 Z0 F600
G1 X51.173 Y22.128 Z0 F600
G1 X51.183 Y22.1 Z0 F600
G1 Y22.064 Z0 F600
; --- FIX Y Backlash ---
G0 X51.183 Y22.764 F410
G1 X51.542 Y23.09 Z0 F600
G1 X51.923 Y23.39 Z0 F600
G1 X52.326 Y23.66 Z0 F600
G1 X52.748 Y23.896 Z0 F600
G1 X53.189 Y24.098 Z0 F600
G1 X53.648 Y24.262 Z0 F600
G1 X54.123 Y24.385 Z0 F600
G1 X54.614 Y24.465 Z0 F600
G1 X54.894 Y24.486 Z0 F600
G1 X55.169 Z0 F600
; --- FIX X Backlash ---
G0 X54.369 Y24.486 F410
G1 X54.235 Y24.535 Z0 F600
G1 X54.094 Y24.561 Z0 F600
G1 X53.615 Y24.576 Z0 F600
G1 X53.357 Y24.597 Z0 F600
G1 X53.085 Y24.643 Z0 F600
G1 X52.817 Y24.737 Z0 F600
G1 X52.559 Y24.896 Z0 F600
G1 X52.336 Y25.123 Z0 F600
G1 X52.171 Y25.416 Z0 F600
G1 X52.067 Y25.61 Z0 F600
G1 X52.008 Y25.815 Z0 F600
G1 X51.997 Y26.024 Z0 F600
G1 X52.04 Y26.228 Z0 F600
; --- FIX X Backlash ---
G0 X52.84 Y26.228 F410
G1 X52.95 Y26.436 Z0 F600
G1 X53.116 Y26.61 Z0 F600
G1 X53.325 Y26.738 Z0 F600
G1 X53.568 Y26.807 Z0 F600
; --- FIX X Backlash ---
G0 X52.768 Y26.807 F410
G1 X52.689 Y26.788 Z0 F600
; --- FIX X Backlash ---
G0 X53.489 Y26.788 F410
G1 X54.376 Y27.088 Z0 F600
G1 X55.271 Y27.368 Z0 F600
G1 X56.171 Y27.626 Z0 F600
G1 X57.073 Y27.864 Z0 F600
; --- FIX X Backlash ---
G0 X56.273 Y27.864 F410
; --- FIX Y Backlash ---
G0 X56.273 Y27.164 F410
G1 X53.666 Y26.954 Z0 F600
G1 X51.087 Y26.734 Z0 F600
G1 X50.846 Y26.463 Z0 F600
G1 X50.607 Y26.133 Z0 F600
G0 Z3.5 F600
G0 X48.529 Y20.31 Z3.5
G1 Z0 F600
; --- FIX X Backlash ---
G0 X49.329 Y20.31 F410
; --- FIX Y Backlash ---
G0 X49.329 Y21.01 F410
G1 X49.441 Y21.241 Z0 F600
; --- FIX X Backlash ---
G0 X48.641 Y21.241 F410
G1 X48.386 Y21.34 Z0 F600
G1 X47.97 Y21.538 Z0 F600
G1 X47.693 Y21.678 Z0 F600
; --- FIX Y Backlash ---
G0 X47.693 Y20.978 F410
G1 X47.547 Y20.764 Z0 F600
G1 X47.467 Y20.625 Z0 F600
; --- FIX X Backlash ---
G0 X48.267 Y20.625 F410
G1 X48.779 Y20.315 Z0 F600
G1 X49.221 Y20.043 Z0 F600
; --- FIX Y Backlash ---
G0 X49.221 Y20.743 F410
G1 X49.329 Y21.01 Z0 F600
G0 Z3.5 F600
G0 X49.821 Y21.63 Z3.5
G1 Z0 F600
; --- FIX X Backlash ---
G0 X49.021 Y21.63 F410
G1 X48.584 Y21.799 Z0 F600
G1 X48.19 Y21.986 Z0 F600
G1 X47.836 Y22.166 Z0 F600
G1 X47.519 Y22.312 Z0 F600
; --- FIX Y Backlash ---
G0 X47.519 Y21.612 F410
G1 X47.119 Y21.024 Z0 F600
G1 X46.791 Y20.45 Z0 F600
; --- FIX X Backlash ---
G0 X47.591 Y20.45 F410
G1 X48.519 Y19.888 Z0 F600
G1 X49.485 Y19.294 Z0 F600
; --- FIX Y Backlash ---
G0 X49.485 Y19.994 F410
G1 X49.624 Y20.405 Z0 F600
G1 X49.786 Y20.806 Z0 F600
G1 X49.975 Y21.195 Z0 F600
G1 X50.191 Y21.57 Z0 F600
; --- FIX X Backlash ---
G0 X49.391 Y21.57 F410
G1 X49.204 Y21.58 Z0 F600
G1 X49.021 Y21.63 Z0 F600
G0 Z3.5 F600
; --- FIX X Backlash ---
G0 X49.821 Y21.63 F410
; --- FIX Y Backlash ---
G0 X49.821 Y20.93 F410
G0 X55.817 Y17.105 Z3.5
G1 Z0 F600
; --- FIX Y Backlash ---
G0 X55.817 Y17.805 F410
G1 X55.899 Y17.858 Z0 F600
G1 X55.907 Y17.874 Z0 F600
G1 X55.913 Y17.892 Z0 F600
G1 X55.917 Y17.943 Z0 F600
G1 X55.913 Y18.121 Z0 F600
; --- FIX X Backlash ---
G0 X55.113 Y18.121 F410
G1 X55.062 Y18.257 Z0 F600
G1 X55.055 Y18.266 Z0 F600
G1 X55.014 Y18.269 Z0 F600
G1 X54.889 Z0 F600
G1 X54.831 Y18.255 Z0 F600
G1 X54.776 Y18.224 Z0 F600
G1 X54.731 Y18.18 Z0 F600
; --- FIX Y Backlash ---
G0 X54.731 Y17.48 F410
G1 X54.699 Y17.429 Z0 F600
G1 X54.684 Y17.379 Z0 F600
G1 Y17.33 Z0 F600
G1 X54.719 Y17.203 Z0 F600
G1 X54.74 Y17.133 Z0 F600
G1 X54.746 Y17.121 Z0 F600
G1 X54.754 Y17.113 Z0 F600
; --- FIX X Backlash ---
G0 X55.554 Y17.113 F410
G1 X55.633 Y17.084 Z0 F600
G1 X55.728 Y17.081 Z0 F600
G1 X55.817 Y17.105 Z0 F600
G0 Z3.5 F600
; --- FIX Y Backlash ---
G0 X55.817 Y17.805 F410
G0 X56.418 Y17.93 Z3.5
G1 Z0 F600
G1 X56.41 Y18.217 Z0 F600
; --- FIX X Backlash ---
G0 X55.61 Y18.217 F410
G1 X55.506 Y18.498 Z0 F600
G1 X55.42 Y18.614 Z0 F600
G1 X55.311 Y18.704 Z0 F600
G1 X55.181 Y18.758 Z0 F600
G1 X55.031 Y18.769 Z0 F600
G1 X54.828 Y18.772 Z0 F600
G1 X54.64 Y18.722 Z0 F600
; --- FIX Y Backlash ---
G0 X54.64 Y18.022 F410
G1 X54.474 Y17.928 Z0 F600
G1 X54.339 Y17.797 Z0 F600
G1 X54.24 Y17.637 Z0 F600
G1 X54.185 Y17.457 Z0 F600
G1 X54.182 Y17.264 Z0 F600
; --- FIX X Backlash ---
G0 X54.982 Y17.264 F410
G1 X55.038 Y17.067 Z0 F600
G1 X55.077 Y16.936 Z0 F600
G1 X55.139 Y16.826 Z0 F600
G1 X55.219 Y16.737 Z0 F600
G1 X55.315 Y16.667 Z0 F600
G1 X55.541 Y16.586 Z0 F600
G1 X55.786 Y16.579 Z0 F600
; --- FIX Y Backlash ---
G0 X55.786 Y17.279 F410
G1 X56.024 Y17.344 Z0 F600
G1 X56.228 Y17.476 Z0 F600
G1 X56.308 Y17.566 Z0 F600
G1 X56.368 Y17.672 Z0 F600
G1 X56.406 Y17.793 Z0 F600
G1 X56.418 Y17.93 Z0 F600
G0 Z3.5 F600
G0 X56.898 Y21.384 Z3.5
G1 Z0 F600
; --- FIX Y Backlash ---
G0 X56.898 Y20.684 F410
G1 X57.223 Y20.548 Z0 F600
G1 X57.532 Y20.379 Z0 F600
G1 X57.822 Y20.18 Z0 F600
G1 X58.091 Y19.952 Z0 F600
G1 X58.338 Y19.7 Z0 F600
G1 X58.56 Y19.425 Z0 F600
G1 X58.756 Y19.13 Z0 F600
G1 X58.922 Y18.818 Z0 F600
G1 X59.058 Y18.491 Z0 F600
G1 X59.161 Y18.152 Z0 F600
G1 X59.229 Y17.804 Z0 F600
G1 X59.261 Y17.448 Z0 F600
G1 X59.254 Y17.089 Z0 F600
; --- FIX X Backlash ---
G0 X58.454 Y17.089 F410
G1 X58.397 Y16.59 Z0 F600
G1 X58.258 Y16.117 Z0 F600
G1 X58.048 Y15.675 Z0 F600
G1 X57.776 Y15.266 Z0 F600
G1 X57.453 Y14.894 Z0 F600
G1 X57.091 Y14.564 Z0 F600
G1 X56.698 Y14.277 Z0 F600
G1 X56.285 Y14.038 Z0 F600
G1 X56.253 Y14.024 Z0 F600
G1 X55.944 Y13.93 Z0 F600
G1 X55.627 Y13.863 Z0 F600
G1 X55.307 Y13.824 Z0 F600
G1 X54.985 Y13.811 Z0 F600
G1 X54.662 Y13.825 Z0 F600
G1 X54.343 Y13.865 Z0 F600
; --- FIX Y Backlash ---
G0 X54.343 Y14.565 F410
G1 X54.028 Y14.63 Z0 F600
G1 X53.72 Y14.722 Z0 F600
G1 X53.422 Y14.839 Z0 F600
G1 X53.135 Y14.981 Z0 F600
G1 X52.862 Y15.148 Z0 F600
G1 X52.606 Y15.339 Z0 F600
G1 X52.368 Y15.555 Z0 F600
G1 X52.151 Y15.795 Z0 F600
G1 X51.956 Y16.059 Z0 F600
G1 X51.787 Y16.346 Z0 F600
G1 X51.595 Y16.763 Z0 F600
G1 X51.468 Y17.199 Z0 F600
G1 X51.403 Y17.647 Z0 F600
G1 X51.395 Y18.1 Z0 F600
G1 X51.44 Y18.552 Z0 F600
; --- FIX X Backlash ---
G0 X52.24 Y18.552 F410
G1 X52.334 Y18.994 Z0 F600
G1 X52.473 Y19.421 Z0 F600
G1 X52.655 Y19.833 Z0 F600
G1 X52.93 Y20.236 Z0 F600
G1 X53.253 Y20.584 Z0 F600
G1 X53.62 Y20.882 Z0 F600
G1 X54.022 Y21.129 Z0 F600
G1 X54.454 Y21.322 Z0 F600
G1 X54.907 Y21.461 Z0 F600
G1 X55.372 Y21.543 Z0 F600
G1 X55.843 Y21.567 Z0 F600
G1 X56.206 Y21.546 Z0 F600
; --- FIX Y Backlash ---
G0 X56.206 Y20.846 F410
G1 X56.558 Y20.784 Z0 F600
G1 X56.898 Y20.684 Z0 F600
G0 Z3.5 F600
; --- FIX Y Backlash ---
G0 X56.898 Y21.384 F410
G0 X57.011 Y21.872 Z3.5
G1 Z0 F600
; --- FIX X Backlash ---
G0 X56.211 Y21.872 F410
G1 X56.04 Y21.932 Z0 F600
G1 X55.762 Y22.008 Z0 F600
G1 X55.48 Y22.062 Z0 F600
G1 X55.204 Y22.091 Z0 F600
G1 X54.902 Y22.097 Z0 F600
G1 X54.367 Y22.068 Z0 F600
; --- FIX Y Backlash ---
G0 X54.367 Y21.368 F410
G1 X53.852 Y21.265 Z0 F600
G1 X53.353 Y21.092 Z0 F600
G1 X52.878 Y20.853 Z0 F600
G1 X52.437 Y20.555 Z0 F600
G1 X52.033 Y20.201 Z0 F600
G1 X51.681 Y19.8 Z0 F600
G1 X51.372 Y19.337 Z0 F600
G1 X51.165 Y18.973 Z0 F600
G1 X51.021 Y18.613 Z0 F600
G1 X50.922 Y18.225 Z0 F600
G1 X50.866 Y17.825 Z0 F600
G1 X50.85 Y17.406 Z0 F600
G1 X50.871 Y16.981 Z0 F600
; --- FIX X Backlash ---
G0 X51.671 Y16.981 F410
G1 X51.727 Y16.545 Z0 F600
G1 X51.806 Y16.142 Z0 F600
G1 X51.947 Y15.751 Z0 F600
G1 X52.137 Y15.371 Z0 F600
G1 X52.369 Y15.009 Z0 F600
G1 X52.641 Y14.668 Z0 F600
G1 X52.949 Y14.352 Z0 F600
G1 X53.283 Y14.069 Z0 F600
G1 X53.643 Y13.819 Z0 F600
G1 X54 Y13.62 Z0 F600
G1 X54.495 Y13.458 Z0 F600
G1 X55.031 Y13.345 Z0 F600
G1 X55.575 Y13.293 Z0 F600
G1 X56.122 Y13.303 Z0 F600
; --- FIX Y Backlash ---
G0 X56.122 Y14.003 F410
G1 X56.652 Y14.078 Z0 F600
G1 X57.163 Y14.219 Z0 F600
G1 X57.641 Y14.429 Z0 F600
G1 X58.094 Y14.719 Z0 F600
G1 X58.348 Y14.918 Z0 F600
G1 X58.577 Y15.129 Z0 F600
G1 X58.792 Y15.365 Z0 F600
G1 X58.983 Y15.609 Z0 F600
G1 X59.164 Y15.882 Z0 F600
G1 X59.316 Y16.155 Z0 F600
G1 X59.451 Y16.445 Z0 F600
G1 X59.511 Y16.605 Z0 F600
; --- FIX X Backlash ---
G0 X58.711 Y16.605 F410
; --- FIX Y Backlash ---
G0 X58.711 Y15.905 F410
G1 X58.484 Y15.427 Z0 F600
G1 X58.174 Y14.962 Z0 F600
G1 X57.812 Y14.545 Z0 F600
G1 X57.407 Y14.175 Z0 F600
G1 X56.971 Y13.858 Z0 F600
G1 X56.51 Y13.591 Z0 F600
G1 X56.425 Y13.554 Z0 F600
G1 X56.068 Y13.446 Z0 F600
G1 X55.71 Y13.37 Z0 F600
G1 X55.347 Y13.325 Z0 F600
G1 X54.984 Y13.311 Z0 F600
G1 X54.621 Y13.326 Z0 F600
G1 X54.261 Y13.371 Z0 F600
; --- FIX Y Backlash ---
G0 X54.261 Y14.071 F410
G1 X53.905 Y14.145 Z0 F600
G1 X53.557 Y14.249 Z0 F600
G1 X53.219 Y14.381 Z0 F600
G1 X52.893 Y14.543 Z0 F600
G1 X52.581 Y14.733 Z0 F600
G1 X52.287 Y14.953 Z0 F600
G1 X52.014 Y15.201 Z0 F600
G1 X51.763 Y15.478 Z0 F600
G1 X51.538 Y15.783 Z0 F600
G1 X51.344 Y16.114 Z0 F600
G1 X51.125 Y16.587 Z0 F600
G1 X50.978 Y17.093 Z0 F600
G1 X50.903 Y17.606 Z0 F600
G1 X50.894 Y18.121 Z0 F600
; --- FIX X Backlash ---
G0 X51.694 Y18.121 F410
G1 X51.746 Y18.629 Z0 F600
G1 X51.851 Y19.124 Z0 F600
G1 X52.005 Y19.6 Z0 F600
G1 X52.216 Y20.077 Z0 F600
G1 X52.538 Y20.548 Z0 F600
G1 X52.91 Y20.95 Z0 F600
G1 X53.33 Y21.292 Z0 F600
G1 X53.789 Y21.572 Z0 F600
G1 X54.278 Y21.791 Z0 F600
G1 X54.79 Y21.948 Z0 F600
G1 X55.315 Y22.041 Z0 F600
G1 X55.844 Y22.068 Z0 F600
G1 X56.264 Y22.044 Z0 F600
; --- FIX Y Backlash ---
G0 X56.264 Y21.344 F410
G1 X56.672 Y21.272 Z0 F600
G1 X57.011 Y21.172 Z0 F600
G0 Z3.5 F600
G0 X57.108 Y21.138 Z3.5
G1 Z0 F600
G1 X57.44 Y20.999 Z0 F600
G1 X57.794 Y20.805 Z0 F600
G1 X58.125 Y20.578 Z0 F600
G1 X58.432 Y20.319 Z0 F600
G1 X58.712 Y20.032 Z0 F600
G1 X58.964 Y19.721 Z0 F600
G1 X59.186 Y19.386 Z0 F600
G1 X59.375 Y19.032 Z0 F600
G1 X59.529 Y18.66 Z0 F600
G1 X59.647 Y18.273 Z0 F600
G1 X59.725 Y17.875 Z0 F600
G1 X59.762 Y17.466 Z0 F600
G1 X59.753 Y17.055 Z0 F600
; --- FIX X Backlash ---
G0 X58.953 Y17.055 F410
G1 X58.894 Y16.537 Z0 F600
; --- FIX Y Backlash ---
G0 X58.894 Y17.237 F410
G1 X58.92 Y17.359 Z0 F600
G1 X58.963 Y17.68 Z0 F600
G1 X58.98 Y17.983 Z0 F600
G1 X58.972 Y18.308 Z0 F600
G1 X58.94 Y18.614 Z0 F600
G1 X58.88 Y18.92 Z0 F600
G1 X58.79 Y19.232 Z0 F600
G1 X58.618 Y19.715 Z0 F600
G1 X58.393 Y20.147 Z0 F600
G1 X58.11 Y20.552 Z0 F600
G1 X57.772 Y20.926 Z0 F600
G1 X57.39 Y21.257 Z0 F600
G1 X56.977 Y21.535 Z0 F600
G1 X56.532 Y21.76 Z0 F600
G1 X56.308 Y21.838 Z0 F600
G0 Z3.5 F600
; --- FIX X Backlash ---
G0 X57.108 Y21.838 F410
; --- FIX Y Backlash ---
G0 X57.108 Y21.138 F410
G0 X59.671 Y16.431 Z3.5
G1 Z0 F600
; --- FIX X Backlash ---
G0 X58.871 Y16.431 F410
G1 X58.739 Y15.978 Z0 F600
; --- FIX Y Backlash ---
G0 X58.739 Y16.678 F410
G1 X58.765 Y16.75 Z0 F600
; --- FIX X Backlash ---
G0 X59.565 Y16.75 F410
G1 X59.654 Y17.052 Z0 F600
G1 X59.671 Y17.131 Z0 F600
G0 Z3.5 F600
G0 X60.167 Y19.038 Z3.5
G1 Z0 F600
; --- FIX X Backlash ---
G0 X59.367 Y19.038 F410
G1 X59.266 Y19.387 Z0 F600
G1 X59.078 Y19.915 Z0 F600
G1 X58.822 Y20.408 Z0 F600
G1 X58.501 Y20.866 Z0 F600
G1 X58.123 Y21.284 Z0 F600
G1 X57.697 Y21.653 Z0 F600
G1 X57.229 Y21.968 Z0 F600
G1 X56.727 Y22.222 Z0 F600
G1 X56.193 Y22.408 Z0 F600
G1 X55.874 Y22.496 Z0 F600
G1 X55.555 Y22.557 Z0 F600
G1 X55.232 Y22.591 Z0 F600
G1 X54.898 Y22.597 Z0 F600
G1 X54.303 Y22.565 Z0 F600
; --- FIX Y Backlash ---
G0 X54.303 Y21.865 F410
G1 X53.721 Y21.749 Z0 F600
G1 X53.158 Y21.553 Z0 F600
G1 X52.625 Y21.286 Z0 F600
G1 X52.13 Y20.951 Z0 F600
G1 X51.679 Y20.555 Z0 F600
G1 X51.283 Y20.105 Z0 F600
G1 X50.945 Y19.598 Z0 F600
G1 X50.713 Y19.19 Z0 F600
G1 X50.545 Y18.767 Z0 F600
G1 X50.431 Y18.325 Z0 F600
G1 X50.367 Y17.87 Z0 F600
G1 X50.349 Y17.406 Z0 F600
G1 X50.372 Y16.937 Z0 F600
; --- FIX X Backlash ---
G0 X51.172 Y16.937 F410
G1 X51.232 Y16.469 Z0 F600
G1 X51.324 Y16.006 Z0 F600
G1 X51.486 Y15.555 Z0 F600
G1 X51.701 Y15.125 Z0 F600
G1 X51.962 Y14.717 Z0 F600
G1 X52.266 Y14.337 Z0 F600
G1 X52.606 Y13.987 Z0 F600
G1 X52.979 Y13.672 Z0 F600
G1 X53.377 Y13.395 Z0 F600
G1 X53.798 Y13.16 Z0 F600
G1 X54.366 Y12.974 Z0 F600
G1 X54.956 Y12.851 Z0 F600
G1 X55.557 Y12.793 Z0 F600
G1 X56.161 Y12.803 Z0 F600
; --- FIX Y Backlash ---
G0 X56.161 Y13.503 F410
G1 X56.756 Y13.587 Z0 F600
G1 X57.332 Y13.747 Z0 F600
G1 X57.877 Y13.987 Z0 F600
G1 X58.383 Y14.311 Z0 F600
G1 X58.67 Y14.535 Z0 F600
G1 X58.932 Y14.777 Z0 F600
G1 X59.173 Y15.04 Z0 F600
G1 X59.392 Y15.321 Z0 F600
G1 X59.589 Y15.618 Z0 F600
G1 X59.763 Y15.929 Z0 F600
G1 X59.913 Y16.253 Z0 F600
G1 X60.039 Y16.587 Z0 F600
G1 X60.139 Y16.929 Z0 F600
G1 X60.213 Y17.277 Z0 F600
G1 X60.261 Y17.629 Z0 F600
G1 X60.281 Y17.983 Z0 F600
G1 X60.272 Y18.337 Z0 F600
G1 X60.234 Y18.689 Z0 F600
; --- FIX X Backlash ---
G0 X59.434 Y18.689 F410
G1 X59.367 Y19.038 Z0 F600
G0 Z3.5 F600
; --- FIX X Backlash ---
G0 X60.167 Y19.038 F410
G0 X64.216 Y32.773 Z3.5
G1 Z0 F600
G1 X65.068 Y33.007 Z0 F600
; --- FIX X Backlash ---
G0 X64.268 Y33.007 F410
; --- FIX Y Backlash ---
G0 X64.268 Y32.307 F410
G1 X61.348 Y32.104 Z0 F600
G1 X60.802 Y32.07 Z0 F600
G1 X60.811 Y32.063 Z0 F600
; --- FIX X Backlash ---
G0 X61.611 Y32.063 F410
G1 X62.074 Y31.638 Z0 F600
G1 X62.206 Y31.499 Z0 F600
; --- FIX Y Backlash ---
G0 X62.206 Y32.199 F410
G1 X64.216 Y32.773 Z0 F600
G0 Z3.5 F600
G0 X65.686 Y33.552 Z3.5
G1 Z0 F600
; --- FIX X Backlash ---
G0 X64.886 Y33.552 F410
; --- FIX Y Backlash ---
G0 X64.886 Y32.852 F410
G1 X61.315 Y32.603 Z0 F600
G1 X59.262 Y32.475 Z0 F600
; --- FIX X Backlash ---
G0 X60.062 Y32.475 F410
G1 X60.738 Y32.092 Z0 F600
G1 X61.292 Y31.677 Z0 F600
G1 X61.723 Y31.281 Z0 F600
G1 X62.051 Y30.935 Z0 F600
; --- FIX Y Backlash ---
G0 X62.051 Y31.635 F410
G1 X64.351 Y32.292 Z0 F600
G1 X65.873 Y32.71 Z0 F600
; --- FIX X Backlash ---
G0 X65.073 Y32.71 F410
G1 X64.886 Y33.552 Z0 F600
G0 Z3.5 F600
; --- FIX X Backlash ---
G0 X65.686 Y33.552 F410
G0 X66.074 Y34.08 Z3.5
G1 Z0 F600
; --- FIX X Backlash ---
G0 X65.274 Y34.08 F410
; --- FIX Y Backlash ---
G0 X65.274 Y33.38 F410
G1 X61.283 Y33.102 Z0 F600
G1 X58.079 Y32.902 Z0 F600
G1 X58.117 Y32.311 Z0 F600
; --- FIX X Backlash ---
G0 X58.917 Y32.311 F410
G1 X59.027 Y32.306 Z0 F600
G1 X59.769 Y32.066 Z0 F600
G1 X60.464 Y31.673 Z0 F600
G1 X60.972 Y31.292 Z0 F600
G1 X61.372 Y30.925 Z0 F600
G1 X61.683 Y30.596 Z0 F600
G1 X61.883 Y30.366 Z0 F600
; --- FIX Y Backlash ---
G0 X61.883 Y31.066 F410
G1 X64.486 Y31.811 Z0 F600
G1 X66.464 Y32.354 Z0 F600
; --- FIX X Backlash ---
G0 X65.664 Y32.354 F410
G1 X65.348 Y33.772 Z0 F600
G1 X65.312 Y33.866 Z0 F600
G1 X65.274 Y34.08 Z0 F600
G0 Z3.5 F600
; --- FIX X Backlash ---
G0 X66.074 Y34.08 F410
G0 X66.475 Y34.609 Z3.5
G1 Z0 F600
; --- FIX X Backlash ---
G0 X65.675 Y34.609 F410
; --- FIX Y Backlash ---
G0 X65.675 Y33.909 F410
G1 X61.249 Y33.601 Z0 F600
G1 X57.459 Y33.364 Z0 F600
; --- FIX X Backlash ---
G0 X58.259 Y33.364 F410
G1 X58.37 Y33.02 Z0 F600
G1 X58.415 Y32.319 Z0 F600
; --- FIX X Backlash ---
G0 X57.615 Y32.319 F410
G1 X57.545 Y31.831 Z0 F600
G1 X57.568 Z0 F600
; --- FIX X Backlash ---
G0 X58.368 Y31.831 F410
G1 X58.938 Y31.809 Z0 F600
G1 X59.567 Y31.606 Z0 F600
G1 X60.189 Y31.254 Z0 F600
G1 X60.652 Y30.907 Z0 F600
G1 X61.021 Y30.569 Z0 F600
G1 X61.313 Y30.26 Z0 F600
G1 X61.651 Y29.871 Z0 F600
G1 X61.721 Y29.8 Z0 F600
; --- FIX Y Backlash ---
G0 X61.721 Y30.5 F410
G1 X64.621 Y31.329 Z0 F600
G1 X67.056 Y31.998 Z0 F600
; --- FIX X Backlash ---
G0 X66.256 Y31.998 F410
G1 X65.828 Y33.918 Z0 F600
G1 X65.796 Y34.001 Z0 F600
G1 X65.741 Y34.311 Z0 F600
G1 X65.675 Y34.609 Z0 F600
G0 Z3.5 F600
; --- FIX X Backlash ---
G0 X66.475 Y34.609 F410
G0 X66.869 Y35.138 Z3.5
G1 Z0 F600
; --- FIX X Backlash ---
G0 X66.069 Y35.138 F410
; --- FIX Y Backlash ---
G0 X66.069 Y34.438 F410
G1 X61.217 Y34.1 Z0 F600
G1 X57.408 Y33.862 Z0 F600
G1 X56.698 Y33.821 Z0 F600
; --- FIX X Backlash ---
G0 X57.498 Y33.821 F410
G1 X57.678 Y33.535 Z0 F600
G1 X57.875 Y32.926 Z0 F600
G1 X57.913 Y32.339 Z0 F600
; --- FIX X Backlash ---
G0 X57.113 Y32.339 F410
G1 X57.041 Y31.844 Z0 F600
G1 X56.915 Y31.453 Z0 F600
G1 X56.829 Y31.267 Z0 F600
; --- FIX X Backlash ---
G0 X57.629 Y31.267 F410
; --- FIX Y Backlash ---
G0 X57.629 Y31.967 F410
G1 X58.379 Y32.033 Z0 F600
G1 X58.849 Y32.013 Z0 F600
; --- FIX Y Backlash ---
G0 X58.849 Y31.313 F410
G1 X59.365 Y31.146 Z0 F600
G1 X59.916 Y30.835 Z0 F600
G1 X60.333 Y30.522 Z0 F600
G1 X60.67 Y30.212 Z0 F600
G1 X60.942 Y29.925 Z0 F600
G1 X61.29 Y29.525 Z0 F600
G1 X61.563 Y29.249 Z0 F600
G1 X61.574 Y29.238 Z0 F600
; --- FIX Y Backlash ---
G0 X61.574 Y29.938 F410
G1 X64.756 Y30.848 Z0 F600
G1 X68.394 Y31.846 Z0 F600
G1 X68.44 Y31.916 Z0 F600
G1 X68.768 Y32.24 Z0 F600
; --- FIX X Backlash ---
G0 X67.968 Y32.24 F410
G1 X67.583 Y32.431 Z0 F600
G1 X67.338 Y32.608 Z0 F600
; --- FIX Y Backlash ---
G0 X67.338 Y31.908 F410
G1 X66.662 Y31.775 Z0 F600
; --- FIX Y Backlash ---
G0 X66.662 Y32.475 F410
G1 X66.308 Y34.063 Z0 F600
G1 X66.28 Y34.137 Z0 F600
G1 X66.231 Y34.409 Z0 F600
G1 X66.069 Y35.138 Z0 F600
G0 Z3.5 F600
; --- FIX X Backlash ---
G0 X66.869 Y35.138 F410
G0 X67.237 Y35.832 Z3.5
G1 Z0 F600
; --- FIX Y Backlash ---
G0 X67.237 Y35.132 F410
G1 X67.245 Y34.965 Z0 F600
; --- FIX X Backlash ---
G0 X66.445 Y34.965 F410
G1 X61.183 Y34.599 Z0 F600
G1 X57.378 Y34.361 Z0 F600
G1 X55.552 Y34.255 Z0 F600
; --- FIX X Backlash ---
G0 X56.352 Y34.255 F410
G1 X56.627 Y34.072 Z0 F600
G1 X56.956 Y33.742 Z0 F600
G1 X57.222 Y33.321 Z0 F600
G1 X57.38 Y32.832 Z0 F600
G1 X57.41 Y32.359 Z0 F600
; --- FIX X Backlash ---
G0 X56.61 Y32.359 F410
G1 X56.553 Y31.957 Z0 F600
G1 X56.449 Y31.635 Z0 F600
G1 X56.327 Y31.371 Z0 F600
G1 X56.13 Y31.046 Z0 F600
G1 X55.936 Y30.787 Z0 F600
G1 X55.853 Y30.688 Z0 F600
; --- FIX X Backlash ---
G0 X56.653 Y30.688 F410
G1 X57.083 Y30.717 Z0 F600
; --- FIX Y Backlash ---
G0 X57.083 Y31.417 F410
G1 X58.39 Y31.532 Z0 F600
G1 X58.76 Y31.516 Z0 F600
; --- FIX Y Backlash ---
G0 X58.76 Y30.816 F410
G1 X59.163 Y30.685 Z0 F600
G1 X59.641 Y30.415 Z0 F600
G1 X60.013 Y30.137 Z0 F600
G1 X60.319 Y29.856 Z0 F600
G1 X60.572 Y29.588 Z0 F600
G1 X60.918 Y29.191 Z0 F600
G1 X61.222 Y28.883 Z0 F600
G1 X61.441 Y28.68 Z0 F600
; --- FIX Y Backlash ---
G0 X61.441 Y29.38 F410
G1 X64.891 Y30.366 Z0 F600
G1 X68.706 Y31.414 Z0 F600
G1 X68.828 Y31.596 Z0 F600
G1 X69.238 Y32.001 Z0 F600
G1 X69.749 Y32.277 Z0 F600
G1 X70.498 Y32.524 Z0 F600
; --- FIX X Backlash ---
G0 X69.698 Y32.524 F410
G1 X69.522 Y32.489 Z0 F600
G1 X68.917 Y32.502 Z0 F600
G1 X68.542 Y32.572 Z0 F600
G1 X68.194 Y32.686 Z0 F600
G1 X67.842 Y32.861 Z0 F600
G1 X67.497 Y33.11 Z0 F600
G1 X67.466 Y33.143 Z0 F600
; --- FIX Y Backlash ---
G0 X67.466 Y32.443 F410
G1 X67.044 Y32.36 Z0 F600
; --- FIX Y Backlash ---
G0 X67.044 Y33.06 F410
G1 X66.788 Y34.208 Z0 F600
G1 X66.763 Y34.272 Z0 F600
G1 X66.721 Y34.509 Z0 F600
G1 X66.499 Y35.507 Z0 F600
G1 X66.437 Y35.832 Z0 F600
G0 Z3.5 F600
G0 X30.129 Y55.449 Z3.5
G1 Z0 F600
G1 X29.598 Y55.431 Z0 F600
; --- FIX Y Backlash ---
G0 X29.598 Y54.731 F410
G1 X29.632 Y53.696 Z0 F600
G1 Y53.674 Z0 F600
; --- FIX X Backlash ---
G0 X30.432 Y53.674 F410
; --- FIX Y Backlash ---
G0 X30.432 Y54.374 F410
G1 X30.489 Y54.615 Z0 F600
G1 X30.667 Y55.042 Z0 F600
G1 X30.929 Y55.449 Z0 F600
G0 Z3.5 F600
G0 X31.719 Y55.592 Z3.5
G1 Z0 F600
G1 X32.101 Y55.878 Z0 F600
G1 X32.332 Y55.999 Z0 F600
; --- FIX X Backlash ---
G0 X31.532 Y55.999 F410
; --- FIX Y Backlash ---
G0 X31.532 Y55.299 F410
G1 X29.093 Y55.214 Z0 F600
G1 Y54.847 Z0 F600
G1 X29.132 Y53.686 Z0 F600
G1 X29.143 Y52.701 Z0 F600
; --- FIX X Backlash ---
G0 X29.943 Y52.701 F410
G1 X30.083 Y52.592 Z0 F600
G1 X30.467 Y52.141 Z0 F600
G1 X30.642 Y51.808 Z0 F600
G1 X30.651 Z0 F600
; --- FIX Y Backlash ---
G0 X30.651 Y52.508 F410
G1 X30.764 Y53.237 Z0 F600
G1 X30.898 Y54.172 Z0 F600
G1 X30.966 Y54.46 Z0 F600
G1 X31.112 Y54.809 Z0 F600
G1 X31.381 Y55.229 Z0 F600
G1 X31.719 Y55.592 Z0 F600
G0 Z3.5 F600
G0 X32.739 Y55.646 Z3.5
G1 Z0 F600
G1 X33.269 Y55.786 Z0 F600
G1 X33.701 Y55.815 Z0 F600
G1 X33.995 Y55.81 Z0 F600
G1 X34.189 Y55.802 Z0 F600
G1 X34.251 Z0 F600
G1 X34.288 Y55.807 Z0 F600
G1 X34.43 Y55.818 Z0 F600
G1 X45.99 Y55.963 Z0 F600
G1 X57.429 Y56.075 Z0 F600
G1 X57.631 Y56.095 Z0 F600
G1 X57.934 Y56.08 Z0 F600
G1 X58.937 Y56.09 Z0 F600
; --- FIX Y Backlash ---
G0 X58.937 Y55.39 F410
G1 X58.952 Y55.103 Z0 F600
G1 X58.959 Y55.1 Z0 F600
G1 X59.257 Y54.92 Z0 F600
G1 X59.36 Y54.834 Z0 F600
; --- FIX X Backlash ---
G0 X58.56 Y54.834 F410
; --- FIX Y Backlash ---
G0 X58.56 Y55.534 F410
G1 X58.465 Y55.907 Z0 F600
G1 X58.252 Y56.541 Z0 F600
G1 X58.219 Y56.597 Z0 F600
G1 X58.203 Y56.612 Z0 F600
G1 X58.142 Y56.651 Z0 F600
G1 X57.996 Y56.711 Z0 F600
G1 X57.765 Y56.771 Z0 F600
G1 X57.479 Y56.813 Z0 F600
G1 X57.132 Y56.839 Z0 F600
G1 X56.76 Y56.847 Z0 F600
G1 X55.082 Y56.871 Z0 F600
G1 X53.428 Z0 F600
; --- FIX Y Backlash ---
G0 X53.428 Y56.171 F410
G1 X47.088 Y56.121 Z0 F600
