
G0 Z10 F500;      ; Move to clearance level
; G0 X-10 Y-10 F1200; Homing
; G0 X-5 Y-5 F1200; go in
; G10 P0 L20 X0 Y0; set to zero
G1 F1200;           ; Set feed rate
G90 ; Force absolute mode
;LightBurn 1.6.04
;Custom GCode device profile, absolute coords
;Bounds: X82.16 Y37.5 to X133.84 Y86.5
G00 G17 G40 G21 G54
M3
G1 Z10 F1000

; Color picking sequence
G1 Z10 F1000;         ; Raise brush
G0 X86 Y5 F1200;    ; Rapid move to color 1
G1 Z10 F1000;         ; Raise brush
G0 X86 Y5 F1200;    ; Rapid move to color 1
G1 Z0 F1000;         ; Lower into color
G1 X85.102 Y7.295 Z0 S800 F1200
G1 X85.026 Y7.642 Z0 F1200
G1 X85 Y8 Z0 F1200
G1 X85.026 Y8.358 Z0 F1200
G1 X85.102 Y8.705 Z0 F1200
G1 X85.225 Y9.041 Z0 F1200
G1 X85.393 Y9.362 Z0 F1200
G1 X85.603 Y9.668 Z0 F1200
G1 X85.854 Y9.957 Z0 F1200
G1 X86.142 Y10.226 Z0 F1200
G1 X86.464 Y10.475 Z0 F1200
G1 X86.82 Y10.701 Z0 F1200
G1 X87.204 Y10.902 Z0 F1200
G1 X87.617 Y11.078 Z0 F1200
G1 X88.054 Y11.225 Z0 F1200
G1 X88.513 Y11.343 Z0 F1200
G1 X88.992 Y11.429 Z0 F1200
G1 X89.489 Y11.482 Z0 F1200
G1 X90 Y11.5 Z0 F1200
G1 X90.511 Y11.482 Z0 F1200
G1 X91.008 Y11.429 Z0 F1200
G1 X91.487 Y11.343 Z0 F1200
G1 X91.946 Y11.225 Z0 F1200
G1 X92.383 Y11.078 Z0 F1200
G1 X92.796 Y10.902 Z0 F1200
G1 X93.18 Y10.701 Z0 F1200
G1 X93.536 Y10.475 Z0 F1200
G1 X93.858 Y10.226 Z0 F1200
G1 X94.146 Y9.957 Z0 F1200
G1 X94.397 Y9.668 Z0 F1200
G1 X94.607 Y9.362 Z0 F1200
G1 X94.775 Y9.041 Z0 F1200
G1 X94.898 Y8.705 Z0 F1200
G1 X94.974 Y8.358 Z0 F1200
G1 X95 Y8 Z0 F1200
G1 X94.974 Y7.642 Z0 F1200
G1 X94.898 Y7.295 Z0 F1200
G1 X94.775 Y6.959 Z0 F1200
G1 X94.607 Y6.638 Z0 F1200
G1 X94.397 Y6.332 Z0 F1200
G1 X94.146 Y6.043 Z0 F1200
G1 X93.858 Y5.774 Z0 F1200
G1 X93.536 Y5.525 Z0 F1200
G1 X93.18 Y5.299 Z0 F1200
G1 X92.796 Y5.098 Z0 F1200
G1 X92.383 Y4.922 Z0 F1200
G1 X91.946 Y4.775 Z0 F1200
G1 X91.487 Y4.657 Z0 F1200
G1 X91.008 Y4.571 Z0 F1200
G1 X90.511 Y4.518 Z0 F1200
G1 X90 Y4.5 Z0 F1200
G1 X89.489 Y4.518 Z0 F1200
G1 X88.992 Y4.571 Z0 F1200
G1 X88.513 Y4.657 Z0 F1200
G1 X88.054 Y4.775 Z0 F1200
G1 X87.617 Y4.922 Z0 F1200
G1 X87.204 Y5.098 Z0 F1200
G1 X86.82 Y5.299 Z0 F1200
G1 X86.464 Y5.525 Z0 F1200
G1 X86.142 Y5.774 Z0 F1200
G1 X85.854 Y6.043 Z0 F1200
G1 X85.603 Y6.332 Z0 F1200
G1 X85.393 Y6.638 Z0 F1200
G1 X85.225 Y6.959 Z0 F1200
G1 Z7 F800;         ; Raise from color
G1 X79 Y8 Z1 F1200;     ; Movement in paint
G1 X69 Y18 Z8 F500;     ; Move in paint
G1 F1200;           ; Set feed rate
G0 Z5 F1000 ; Safety Lift
;Scan @ 1500 mm/min, 90% power

M8
G0 Z3.5 F1000
G0 X101.374 Y37.5 Z3.5
G1 Z0 F1000
;Layer C2
G0 Z5 F500 ; Lift S=0
G1 X101.999 S0 F1600
G0 Z0 F500 ; Drop S>0
G1 X114.001 S900 F1600
G0 Z5 F500 ; Lift S=0
G1 X114.626 S0 F1600
G1 X117.789 Y38.5 Z5 F1600
; --- FIX X Backlash ---
G0 X116.489 Y38.5 F1200
G1 X115.864 Z5 F1600
G0 Z0 F500 ; Drop S>0
G1 X97.536 S900 F1600
G0 Z5 F500 ; Lift S=0
G1 X96.911 S0 F1600
G1 X94.677 Y39.5 Z5 F1600
; --- FIX X Backlash ---
G0 X95.977 Y39.5 F1200
G1 X96.602 Z5 F1600
G0 Z0 F500 ; Drop S>0
G1 X119.398 S900 F1600
G0 Z5 F500 ; Lift S=0
G1 X120.023 S0 F1600
G1 X121.818 Y40.5 Z5 F1600
; --- FIX X Backlash ---
G0 X120.518 Y40.5 F1200
G1 X119.893 Z5 F1600
G0 Z0 F500 ; Drop S>0
G1 X93.507 S900 F1600
G0 Z5 F500 ; Lift S=0
G1 X92.882 S0 F1600
G1 X91.386 Y41.5 Z5 F1600
; --- FIX X Backlash ---
G0 X92.686 Y41.5 F1200
G1 X93.311 Z5 F1600
G0 Z0 F500 ; Drop S>0
G1 X122.689 S900 F1600
G0 Z5 F500 ; Lift S=0
G1 X123.314 S0 F1600
G1 X124.624 Y42.5 Z5 F1600
; --- FIX X Backlash ---
G0 X123.324 Y42.5 F1200
G1 X122.699 Z5 F1600
G0 Z0 F500 ; Drop S>0
G1 X90.701 S900 F1600
G0 Z5 F500 ; Lift S=0
G1 X90.076 S0 F1600
G1 X88.935 Y43.5 Z5 F1600
; --- FIX X Backlash ---
G0 X90.235 Y43.5 F1200
G1 X90.86 Z5 F1600
G0 Z0 F500 ; Drop S>0
G1 X125.14 S900 F1600
G0 Z5 F500 ; Lift S=0
G1 X125.765 S0 F1600
G1 X126.782 Y44.5 Z5 F1600
; --- FIX X Backlash ---
G0 X125.482 Y44.5 F1200
G1 X124.857 Z5 F1600
G0 Z0 F500 ; Drop S>0
G1 X88.543 S900 F1600
G0 Z5 F500 ; Lift S=0

; Color picking sequence
G1 Z10 F1000;         ; Raise brush
G0 X86 Y5 F1200;    ; Rapid move to color 1
G1 Z10 F1000;         ; Raise brush
G0 X86 Y5 F1200;    ; Rapid move to color 1
G1 Z0 F1000;         ; Lower into color
G1 X85.102 Y7.295 Z0 S800 F1200
G1 X85.026 Y7.642 Z0 F1200
G1 X85 Y8 Z0 F1200
G1 X85.026 Y8.358 Z0 F1200
G1 X85.102 Y8.705 Z0 F1200
G1 X85.225 Y9.041 Z0 F1200
G1 X85.393 Y9.362 Z0 F1200
G1 X85.603 Y9.668 Z0 F1200
G1 X85.854 Y9.957 Z0 F1200
G1 X86.142 Y10.226 Z0 F1200
G1 X86.464 Y10.475 Z0 F1200
G1 X86.82 Y10.701 Z0 F1200
G1 X87.204 Y10.902 Z0 F1200
G1 X87.617 Y11.078 Z0 F1200
G1 X88.054 Y11.225 Z0 F1200
G1 X88.513 Y11.343 Z0 F1200
G1 X88.992 Y11.429 Z0 F1200
G1 X89.489 Y11.482 Z0 F1200
G1 X90 Y11.5 Z0 F1200
G1 X90.511 Y11.482 Z0 F1200
G1 X91.008 Y11.429 Z0 F1200
G1 X91.487 Y11.343 Z0 F1200
G1 X91.946 Y11.225 Z0 F1200
G1 X92.383 Y11.078 Z0 F1200
G1 X92.796 Y10.902 Z0 F1200
G1 X93.18 Y10.701 Z0 F1200
G1 X93.536 Y10.475 Z0 F1200
G1 X93.858 Y10.226 Z0 F1200
G1 X94.146 Y9.957 Z0 F1200
G1 X94.397 Y9.668 Z0 F1200
G1 X94.607 Y9.362 Z0 F1200
G1 X94.775 Y9.041 Z0 F1200
G1 X94.898 Y8.705 Z0 F1200
G1 X94.974 Y8.358 Z0 F1200
G1 X95 Y8 Z0 F1200
G1 X94.974 Y7.642 Z0 F1200
G1 X94.898 Y7.295 Z0 F1200
G1 X94.775 Y6.959 Z0 F1200
G1 X94.607 Y6.638 Z0 F1200
G1 X94.397 Y6.332 Z0 F1200
G1 X94.146 Y6.043 Z0 F1200
G1 X93.858 Y5.774 Z0 F1200
G1 X93.536 Y5.525 Z0 F1200
G1 X93.18 Y5.299 Z0 F1200
G1 X92.796 Y5.098 Z0 F1200
G1 X92.383 Y4.922 Z0 F1200
G1 X91.946 Y4.775 Z0 F1200
G1 X91.487 Y4.657 Z0 F1200
G1 X91.008 Y4.571 Z0 F1200
G1 X90.511 Y4.518 Z0 F1200
G1 X90 Y4.5 Z0 F1200
G1 X89.489 Y4.518 Z0 F1200
G1 X88.992 Y4.571 Z0 F1200
G1 X88.513 Y4.657 Z0 F1200
G1 X88.054 Y4.775 Z0 F1200
G1 X87.617 Y4.922 Z0 F1200
G1 X87.204 Y5.098 Z0 F1200
G1 X86.82 Y5.299 Z0 F1200
G1 X86.464 Y5.525 Z0 F1200
G1 X86.142 Y5.774 Z0 F1200
G1 X85.854 Y6.043 Z0 F1200
G1 X85.603 Y6.332 Z0 F1200
G1 X85.393 Y6.638 Z0 F1200
G1 X85.225 Y6.959 Z0 F1200
G1 Z7 F800;         ; Raise from color
G1 X79 Y8 Z1 F1200;     ; Movement in paint
G1 X69 Y18 Z8 F500;     ; Move in paint
G1 F1200;           ; Set feed rate
G0 Z5 F1000 ; Safety Lift
G1 X87.918 S0 F1600
G1 X87.005 Y45.5 Z5 F1600
; --- FIX X Backlash ---
G0 X88.305 Y45.5 F1200
G1 X88.93 Z5 F1600
G0 Z0 F500 ; Drop S>0
G1 X127.07 S900 F1600
G0 Z5 F500 ; Lift S=0
G1 X127.695 S0 F1600
G1 X128.517 Y46.5 Z5 F1600
; --- FIX X Backlash ---
G0 X127.217 Y46.5 F1200
G1 X126.592 Z5 F1600
G0 Z0 F500 ; Drop S>0
G1 X86.808 S900 F1600
G0 Z5 F500 ; Lift S=0
G1 X86.183 S0 F1600
G1 X85.441 Y47.5 Z5 F1600
; --- FIX X Backlash ---
G0 X86.741 Y47.5 F1200
G1 X87.366 Z5 F1600
G0 Z0 F500 ; Drop S>0
G1 X128.634 S900 F1600
G0 Z5 F500 ; Lift S=0
G1 X129.259 S0 F1600
G1 X129.928 Y48.5 Z5 F1600
; --- FIX X Backlash ---
G0 X128.628 Y48.5 F1200
G1 X128.003 Z5 F1600
G0 Z0 F500 ; Drop S>0
G1 X85.397 S900 F1600
G0 Z5 F500 ; Lift S=0
G1 X84.772 S0 F1600
G1 X84.169 Y49.5 Z5 F1600
; --- FIX X Backlash ---
G0 X85.469 Y49.5 F1200
G1 X86.094 Z5 F1600
G0 Z0 F500 ; Drop S>0
G1 X129.906 S900 F1600
G0 Z5 F500 ; Lift S=0

; Color picking sequence
G1 Z10 F1000;         ; Raise brush
G0 X86 Y5 F1200;    ; Rapid move to color 1
G1 Z10 F1000;         ; Raise brush
G0 X86 Y5 F1200;    ; Rapid move to color 1
G1 Z0 F1000;         ; Lower into color
G1 X85.102 Y7.295 Z0 S800 F1200
G1 X85.026 Y7.642 Z0 F1200
G1 X85 Y8 Z0 F1200
G1 X85.026 Y8.358 Z0 F1200
G1 X85.102 Y8.705 Z0 F1200
G1 X85.225 Y9.041 Z0 F1200
G1 X85.393 Y9.362 Z0 F1200
G1 X85.603 Y9.668 Z0 F1200
G1 X85.854 Y9.957 Z0 F1200
G1 X86.142 Y10.226 Z0 F1200
G1 X86.464 Y10.475 Z0 F1200
G1 X86.82 Y10.701 Z0 F1200
G1 X87.204 Y10.902 Z0 F1200
G1 X87.617 Y11.078 Z0 F1200
G1 X88.054 Y11.225 Z0 F1200
G1 X88.513 Y11.343 Z0 F1200
G1 X88.992 Y11.429 Z0 F1200
G1 X89.489 Y11.482 Z0 F1200
G1 X90 Y11.5 Z0 F1200
G1 X90.511 Y11.482 Z0 F1200
G1 X91.008 Y11.429 Z0 F1200
G1 X91.487 Y11.343 Z0 F1200
G1 X91.946 Y11.225 Z0 F1200
G1 X92.383 Y11.078 Z0 F1200
G1 X92.796 Y10.902 Z0 F1200
G1 X93.18 Y10.701 Z0 F1200
G1 X93.536 Y10.475 Z0 F1200
G1 X93.858 Y10.226 Z0 F1200
G1 X94.146 Y9.957 Z0 F1200
G1 X94.397 Y9.668 Z0 F1200
G1 X94.607 Y9.362 Z0 F1200
G1 X94.775 Y9.041 Z0 F1200
G1 X94.898 Y8.705 Z0 F1200
G1 X94.974 Y8.358 Z0 F1200
G1 X95 Y8 Z0 F1200
G1 X94.974 Y7.642 Z0 F1200
G1 X94.898 Y7.295 Z0 F1200
G1 X94.775 Y6.959 Z0 F1200
G1 X94.607 Y6.638 Z0 F1200
G1 X94.397 Y6.332 Z0 F1200
G1 X94.146 Y6.043 Z0 F1200
G1 X93.858 Y5.774 Z0 F1200
G1 X93.536 Y5.525 Z0 F1200
G1 X93.18 Y5.299 Z0 F1200
G1 X92.796 Y5.098 Z0 F1200
G1 X92.383 Y4.922 Z0 F1200
G1 X91.946 Y4.775 Z0 F1200
G1 X91.487 Y4.657 Z0 F1200
G1 X91.008 Y4.571 Z0 F1200
G1 X90.511 Y4.518 Z0 F1200
G1 X90 Y4.5 Z0 F1200
G1 X89.489 Y4.518 Z0 F1200
G1 X88.992 Y4.571 Z0 F1200
G1 X88.513 Y4.657 Z0 F1200
G1 X88.054 Y4.775 Z0 F1200
G1 X87.617 Y4.922 Z0 F1200
G1 X87.204 Y5.098 Z0 F1200
G1 X86.82 Y5.299 Z0 F1200
G1 X86.464 Y5.525 Z0 F1200
G1 X86.142 Y5.774 Z0 F1200
G1 X85.854 Y6.043 Z0 F1200
G1 X85.603 Y6.332 Z0 F1200
G1 X85.393 Y6.638 Z0 F1200
G1 X85.225 Y6.959 Z0 F1200
G1 Z7 F800;         ; Raise from color
G1 X79 Y8 Z1 F1200;     ; Movement in paint
G1 X69 Y18 Z8 F500;     ; Move in paint
G1 F1200;           ; Set feed rate
G0 Z5 F1000 ; Safety Lift
G1 X130.531 S0 F1600
G1 X131.073 Y50.5 Z5 F1600
; --- FIX X Backlash ---
G0 X129.773 Y50.5 F1200
G1 X129.148 Z5 F1600
G0 Z0 F500 ; Drop S>0
G1 X84.252 S900 F1600
G0 Z5 F500 ; Lift S=0
G1 X83.627 S0 F1600
G1 X83.141 Y51.5 Z5 F1600
; --- FIX X Backlash ---
G0 X84.441 Y51.5 F1200
G1 X85.066 Z5 F1600
G0 Z0 F500 ; Drop S>0
G1 X130.934 S900 F1600
G0 Z5 F500 ; Lift S=0
G1 X131.559 S0 F1600
G1 X131.993 Y52.5 Z5 F1600
; --- FIX X Backlash ---
G0 X130.693 Y52.5 F1200
G1 X130.067 Z5 F1600
G0 Z0 F500 ; Drop S>0
G1 X83.332 S900 F1600
G0 Z5 F500 ; Lift S=0
G1 X82.707 S0 F1600
G1 X82.323 Y53.5 Z5 F1600
; --- FIX X Backlash ---
G0 X83.623 Y53.5 F1200
G1 X84.248 Z5 F1600
G0 Z0 F500 ; Drop S>0
G1 X131.752 S900 F1600
G0 Z5 F500 ; Lift S=0
G1 X132.377 S0 F1600
G1 X132.715 Y54.5 Z5 F1600
; --- FIX X Backlash ---
G0 X131.415 Y54.5 F1200
G1 X130.79 Z5 F1600
G0 Z0 F500 ; Drop S>0
G1 X82.61 S900 F1600
G0 Z5 F500 ; Lift S=0

; Color picking sequence
G1 Z10 F1000;         ; Raise brush
G0 X86 Y5 F1200;    ; Rapid move to color 1
G1 Z10 F1000;         ; Raise brush
G0 X86 Y5 F1200;    ; Rapid move to color 1
G1 Z0 F1000;         ; Lower into color
G1 X85.102 Y7.295 Z0 S800 F1200
G1 X85.026 Y7.642 Z0 F1200
G1 X85 Y8 Z0 F1200
G1 X85.026 Y8.358 Z0 F1200
G1 X85.102 Y8.705 Z0 F1200
G1 X85.225 Y9.041 Z0 F1200
G1 X85.393 Y9.362 Z0 F1200
G1 X85.603 Y9.668 Z0 F1200
G1 X85.854 Y9.957 Z0 F1200
G1 X86.142 Y10.226 Z0 F1200
G1 X86.464 Y10.475 Z0 F1200
G1 X86.82 Y10.701 Z0 F1200
G1 X87.204 Y10.902 Z0 F1200
G1 X87.617 Y11.078 Z0 F1200
G1 X88.054 Y11.225 Z0 F1200
G1 X88.513 Y11.343 Z0 F1200
G1 X88.992 Y11.429 Z0 F1200
G1 X89.489 Y11.482 Z0 F1200
G1 X90 Y11.5 Z0 F1200
G1 X90.511 Y11.482 Z0 F1200
G1 X91.008 Y11.429 Z0 F1200
G1 X91.487 Y11.343 Z0 F1200
G1 X91.946 Y11.225 Z0 F1200
G1 X92.383 Y11.078 Z0 F1200
G1 X92.796 Y10.902 Z0 F1200
G1 X93.18 Y10.701 Z0 F1200
G1 X93.536 Y10.475 Z0 F1200
G1 X93.858 Y10.226 Z0 F1200
G1 X94.146 Y9.957 Z0 F1200
G1 X94.397 Y9.668 Z0 F1200
G1 X94.607 Y9.362 Z0 F1200
G1 X94.775 Y9.041 Z0 F1200
G1 X94.898 Y8.705 Z0 F1200
G1 X94.974 Y8.358 Z0 F1200
G1 X95 Y8 Z0 F1200
G1 X94.974 Y7.642 Z0 F1200
G1 X94.898 Y7.295 Z0 F1200
G1 X94.775 Y6.959 Z0 F1200
G1 X94.607 Y6.638 Z0 F1200
G1 X94.397 Y6.332 Z0 F1200
G1 X94.146 Y6.043 Z0 F1200
G1 X93.858 Y5.774 Z0 F1200
G1 X93.536 Y5.525 Z0 F1200
G1 X93.18 Y5.299 Z0 F1200
G1 X92.796 Y5.098 Z0 F1200
G1 X92.383 Y4.922 Z0 F1200
G1 X91.946 Y4.775 Z0 F1200
G1 X91.487 Y4.657 Z0 F1200
G1 X91.008 Y4.571 Z0 F1200
G1 X90.511 Y4.518 Z0 F1200
G1 X90 Y4.5 Z0 F1200
G1 X89.489 Y4.518 Z0 F1200
G1 X88.992 Y4.571 Z0 F1200
G1 X88.513 Y4.657 Z0 F1200
G1 X88.054 Y4.775 Z0 F1200
G1 X87.617 Y4.922 Z0 F1200
G1 X87.204 Y5.098 Z0 F1200
G1 X86.82 Y5.299 Z0 F1200
G1 X86.464 Y5.525 Z0 F1200
G1 X86.142 Y5.774 Z0 F1200
G1 X85.854 Y6.043 Z0 F1200
G1 X85.603 Y6.332 Z0 F1200
G1 X85.393 Y6.638 Z0 F1200
G1 X85.225 Y6.959 Z0 F1200
G1 Z7 F800;         ; Raise from color
G1 X79 Y8 Z1 F1200;     ; Movement in paint
G1 X69 Y18 Z8 F500;     ; Move in paint
G1 F1200;           ; Set feed rate
G0 Z5 F1000 ; Safety Lift
G1 X81.985 S0 F1600
G1 X81.701 Y55.5 Z5 F1600
; --- FIX X Backlash ---
G0 X83.001 Y55.5 F1200
G1 X83.626 Z5 F1600
G0 Z0 F500 ; Drop S>0
G1 X132.374 S900 F1600
G0 Z5 F500 ; Lift S=0
G1 X132.999 S0 F1600
G1 X133.241 Y56.5 Z5 F1600
; --- FIX X Backlash ---
G0 X131.941 Y56.5 F1200
G1 X131.316 Z5 F1600
G0 Z0 F500 ; Drop S>0
G1 X82.084 S900 F1600
G0 Z5 F500 ; Lift S=0
G1 X81.459 S0 F1600
G1 X81.259 Y57.5 Z5 F1600
; --- FIX X Backlash ---
G0 X82.559 Y57.5 F1200
G1 X83.184 Z5 F1600
G0 Z0 F500 ; Drop S>0
G1 X132.816 S900 F1600
G0 Z5 F500 ; Lift S=0
G1 X133.441 S0 F1600
G1 X133.602 Y58.5 Z5 F1600
; --- FIX X Backlash ---
G0 X132.302 Y58.5 F1200
G1 X131.677 Z5 F1600
G0 Z0 F500 ; Drop S>0
G1 X81.723 S900 F1600
G0 Z5 F500 ; Lift S=0
G1 X81.098 S0 F1600
G1 X80.975 Y59.5 Z5 F1600
; --- FIX X Backlash ---
G0 X82.275 Y59.5 F1200
G1 X82.9 Z5 F1600
G0 Z0 F500 ; Drop S>0
G1 X133.1 S900 F1600
G0 Z5 F500 ; Lift S=0

; Color picking sequence
G1 Z10 F1000;         ; Raise brush
G0 X86 Y5 F1200;    ; Rapid move to color 1
G1 Z10 F1000;         ; Raise brush
G0 X86 Y5 F1200;    ; Rapid move to color 1
G1 Z0 F1000;         ; Lower into color
G1 X85.102 Y7.295 Z0 S800 F1200
G1 X85.026 Y7.642 Z0 F1200
G1 X85 Y8 Z0 F1200
G1 X85.026 Y8.358 Z0 F1200
G1 X85.102 Y8.705 Z0 F1200
G1 X85.225 Y9.041 Z0 F1200
G1 X85.393 Y9.362 Z0 F1200
G1 X85.603 Y9.668 Z0 F1200
G1 X85.854 Y9.957 Z0 F1200
G1 X86.142 Y10.226 Z0 F1200
G1 X86.464 Y10.475 Z0 F1200
G1 X86.82 Y10.701 Z0 F1200
G1 X87.204 Y10.902 Z0 F1200
G1 X87.617 Y11.078 Z0 F1200
G1 X88.054 Y11.225 Z0 F1200
G1 X88.513 Y11.343 Z0 F1200
G1 X88.992 Y11.429 Z0 F1200
G1 X89.489 Y11.482 Z0 F1200
G1 X90 Y11.5 Z0 F1200
G1 X90.511 Y11.482 Z0 F1200
G1 X91.008 Y11.429 Z0 F1200
G1 X91.487 Y11.343 Z0 F1200
G1 X91.946 Y11.225 Z0 F1200
G1 X92.383 Y11.078 Z0 F1200
G1 X92.796 Y10.902 Z0 F1200
G1 X93.18 Y10.701 Z0 F1200
G1 X93.536 Y10.475 Z0 F1200
G1 X93.858 Y10.226 Z0 F1200
G1 X94.146 Y9.957 Z0 F1200
G1 X94.397 Y9.668 Z0 F1200
G1 X94.607 Y9.362 Z0 F1200
G1 X94.775 Y9.041 Z0 F1200
G1 X94.898 Y8.705 Z0 F1200
G1 X94.974 Y8.358 Z0 F1200
G1 X95 Y8 Z0 F1200
G1 X94.974 Y7.642 Z0 F1200
G1 X94.898 Y7.295 Z0 F1200
G1 X94.775 Y6.959 Z0 F1200
G1 X94.607 Y6.638 Z0 F1200
G1 X94.397 Y6.332 Z0 F1200
G1 X94.146 Y6.043 Z0 F1200
G1 X93.858 Y5.774 Z0 F1200
G1 X93.536 Y5.525 Z0 F1200
G1 X93.18 Y5.299 Z0 F1200
G1 X92.796 Y5.098 Z0 F1200
G1 X92.383 Y4.922 Z0 F1200
G1 X91.946 Y4.775 Z0 F1200
G1 X91.487 Y4.657 Z0 F1200
G1 X91.008 Y4.571 Z0 F1200
G1 X90.511 Y4.518 Z0 F1200
G1 X90 Y4.5 Z0 F1200
G1 X89.489 Y4.518 Z0 F1200
G1 X88.992 Y4.571 Z0 F1200
G1 X88.513 Y4.657 Z0 F1200
G1 X88.054 Y4.775 Z0 F1200
G1 X87.617 Y4.922 Z0 F1200
G1 X87.204 Y5.098 Z0 F1200
G1 X86.82 Y5.299 Z0 F1200
G1 X86.464 Y5.525 Z0 F1200
G1 X86.142 Y5.774 Z0 F1200
G1 X85.854 Y6.043 Z0 F1200
G1 X85.603 Y6.332 Z0 F1200
G1 X85.393 Y6.638 Z0 F1200
G1 X85.225 Y6.959 Z0 F1200
G1 Z7 F800;         ; Raise from color
G1 X79 Y8 Z1 F1200;     ; Movement in paint
G1 X69 Y18 Z8 F500;     ; Move in paint
G1 F1200;           ; Set feed rate
G0 Z5 F1000 ; Safety Lift
G1 X133.725 S0 F1600
G1 X133.801 Y60.5 Z5 F1600
; --- FIX X Backlash ---
G0 X132.501 Y60.5 F1200
G1 X131.876 Z5 F1600
G0 Z0 F500 ; Drop S>0
G1 X81.524 S900 F1600
G0 Z5 F500 ; Lift S=0
G1 X80.899 S0 F1600
G1 X80.863 Y61.5 Z5 F1600
; --- FIX X Backlash ---
G0 X82.163 Y61.5 F1200
G1 X82.788 Z5 F1600
G0 Z0 F500 ; Drop S>0
G1 X133.212 S900 F1600
G0 Z5 F500 ; Lift S=0
G1 X133.837 S0 F1600
G1 Y62.5 Z5 F1600
; --- FIX X Backlash ---
G0 X132.537 Y62.5 F1200
G1 X131.912 Z5 F1600
G0 Z0 F500 ; Drop S>0
G1 X81.488 S900 F1600
G0 Z5 F500 ; Lift S=0
G1 X80.863 S0 F1600
G1 X80.899 Y63.5 Z5 F1600
; --- FIX X Backlash ---
G0 X82.199 Y63.5 F1200
G1 X82.824 Z5 F1600
G0 Z0 F500 ; Drop S>0
G1 X133.176 S900 F1600
G0 Z5 F500 ; Lift S=0

; Color picking sequence
G1 Z10 F1000;         ; Raise brush
G0 X86 Y5 F1200;    ; Rapid move to color 1
G1 Z10 F1000;         ; Raise brush
G0 X86 Y5 F1200;    ; Rapid move to color 1
G1 Z0 F1000;         ; Lower into color
G1 X85.102 Y7.295 Z0 S800 F1200
G1 X85.026 Y7.642 Z0 F1200
G1 X85 Y8 Z0 F1200
G1 X85.026 Y8.358 Z0 F1200
G1 X85.102 Y8.705 Z0 F1200
G1 X85.225 Y9.041 Z0 F1200
G1 X85.393 Y9.362 Z0 F1200
G1 X85.603 Y9.668 Z0 F1200
G1 X85.854 Y9.957 Z0 F1200
G1 X86.142 Y10.226 Z0 F1200
G1 X86.464 Y10.475 Z0 F1200
G1 X86.82 Y10.701 Z0 F1200
G1 X87.204 Y10.902 Z0 F1200
G1 X87.617 Y11.078 Z0 F1200
G1 X88.054 Y11.225 Z0 F1200
G1 X88.513 Y11.343 Z0 F1200
G1 X88.992 Y11.429 Z0 F1200
G1 X89.489 Y11.482 Z0 F1200
G1 X90 Y11.5 Z0 F1200
G1 X90.511 Y11.482 Z0 F1200
G1 X91.008 Y11.429 Z0 F1200
G1 X91.487 Y11.343 Z0 F1200
G1 X91.946 Y11.225 Z0 F1200
G1 X92.383 Y11.078 Z0 F1200
G1 X92.796 Y10.902 Z0 F1200
G1 X93.18 Y10.701 Z0 F1200
G1 X93.536 Y10.475 Z0 F1200
G1 X93.858 Y10.226 Z0 F1200
G1 X94.146 Y9.957 Z0 F1200
G1 X94.397 Y9.668 Z0 F1200
G1 X94.607 Y9.362 Z0 F1200
G1 X94.775 Y9.041 Z0 F1200
G1 X94.898 Y8.705 Z0 F1200
G1 X94.974 Y8.358 Z0 F1200
G1 X95 Y8 Z0 F1200
G1 X94.974 Y7.642 Z0 F1200
G1 X94.898 Y7.295 Z0 F1200
G1 X94.775 Y6.959 Z0 F1200
G1 X94.607 Y6.638 Z0 F1200
G1 X94.397 Y6.332 Z0 F1200
G1 X94.146 Y6.043 Z0 F1200
G1 X93.858 Y5.774 Z0 F1200
G1 X93.536 Y5.525 Z0 F1200
G1 X93.18 Y5.299 Z0 F1200
G1 X92.796 Y5.098 Z0 F1200
G1 X92.383 Y4.922 Z0 F1200
G1 X91.946 Y4.775 Z0 F1200
G1 X91.487 Y4.657 Z0 F1200
G1 X91.008 Y4.571 Z0 F1200
G1 X90.511 Y4.518 Z0 F1200
G1 X90 Y4.5 Z0 F1200
G1 X89.489 Y4.518 Z0 F1200
G1 X88.992 Y4.571 Z0 F1200
G1 X88.513 Y4.657 Z0 F1200
G1 X88.054 Y4.775 Z0 F1200
G1 X87.617 Y4.922 Z0 F1200
G1 X87.204 Y5.098 Z0 F1200
G1 X86.82 Y5.299 Z0 F1200
G1 X86.464 Y5.525 Z0 F1200
G1 X86.142 Y5.774 Z0 F1200
G1 X85.854 Y6.043 Z0 F1200
G1 X85.603 Y6.332 Z0 F1200
G1 X85.393 Y6.638 Z0 F1200
G1 X85.225 Y6.959 Z0 F1200
G1 Z7 F800;         ; Raise from color
G1 X79 Y8 Z1 F1200;     ; Movement in paint
G1 X69 Y18 Z8 F500;     ; Move in paint
G1 F1200;           ; Set feed rate
G0 Z5 F1000 ; Safety Lift
G1 X133.801 S0 F1600
; --- FIX X Backlash ---
G0 X132.501 Y63.5 F1200
G1 X132.425 Y64.5 Z5 F1600
G1 X131.8 Z5 F1600
G0 Z0 F500 ; Drop S>0
G1 X81.6 S900 F1600
G0 Z5 F500 ; Lift S=0
G1 X80.975 S0 F1600
; --- FIX X Backlash ---
G0 X82.275 Y64.5 F1200
G1 X82.398 Y65.5 Z5 F1600
G1 X83.023 Z5 F1600
G0 Z0 F500 ; Drop S>0
G1 X132.977 S900 F1600
G0 Z5 F500 ; Lift S=0
G1 X133.602 S0 F1600
; --- FIX X Backlash ---
G0 X132.302 Y65.5 F1200
G1 X132.141 Y66.5 Z5 F1600
G1 X131.516 Z5 F1600
G0 Z0 F500 ; Drop S>0
G1 X81.884 S900 F1600
G0 Z5 F500 ; Lift S=0
G1 X81.259 S0 F1600
; --- FIX X Backlash ---
G0 X82.559 Y66.5 F1200
G1 X82.759 Y67.5 Z5 F1600
G1 X83.384 Z5 F1600
G0 Z0 F500 ; Drop S>0
G1 X132.616 S900 F1600
G0 Z5 F500 ; Lift S=0
G1 X133.241 S0 F1600
; --- FIX X Backlash ---
G0 X131.941 Y67.5 F1200
G1 X131.699 Y68.5 Z5 F1600
G1 X131.074 Z5 F1600
G0 Z0 F500 ; Drop S>0
G1 X82.326 S900 F1600
G0 Z5 F500 ; Lift S=0

; Color picking sequence
G1 Z10 F1000;         ; Raise brush
G0 X86 Y5 F1200;    ; Rapid move to color 1
G1 Z10 F1000;         ; Raise brush
G0 X86 Y5 F1200;    ; Rapid move to color 1
G1 Z0 F1000;         ; Lower into color
G1 X85.102 Y7.295 Z0 S800 F1200
G1 X85.026 Y7.642 Z0 F1200
G1 X85 Y8 Z0 F1200
G1 X85.026 Y8.358 Z0 F1200
G1 X85.102 Y8.705 Z0 F1200
G1 X85.225 Y9.041 Z0 F1200
G1 X85.393 Y9.362 Z0 F1200
G1 X85.603 Y9.668 Z0 F1200
G1 X85.854 Y9.957 Z0 F1200
G1 X86.142 Y10.226 Z0 F1200
G1 X86.464 Y10.475 Z0 F1200
G1 X86.82 Y10.701 Z0 F1200
G1 X87.204 Y10.902 Z0 F1200
G1 X87.617 Y11.078 Z0 F1200
G1 X88.054 Y11.225 Z0 F1200
G1 X88.513 Y11.343 Z0 F1200
G1 X88.992 Y11.429 Z0 F1200
G1 X89.489 Y11.482 Z0 F1200
G1 X90 Y11.5 Z0 F1200
G1 X90.511 Y11.482 Z0 F1200
G1 X91.008 Y11.429 Z0 F1200
G1 X91.487 Y11.343 Z0 F1200
G1 X91.946 Y11.225 Z0 F1200
G1 X92.383 Y11.078 Z0 F1200
G1 X92.796 Y10.902 Z0 F1200
G1 X93.18 Y10.701 Z0 F1200
G1 X93.536 Y10.475 Z0 F1200
G1 X93.858 Y10.226 Z0 F1200
G1 X94.146 Y9.957 Z0 F1200
G1 X94.397 Y9.668 Z0 F1200
G1 X94.607 Y9.362 Z0 F1200
G1 X94.775 Y9.041 Z0 F1200
G1 X94.898 Y8.705 Z0 F1200
G1 X94.974 Y8.358 Z0 F1200
G1 X95 Y8 Z0 F1200
G1 X94.974 Y7.642 Z0 F1200
G1 X94.898 Y7.295 Z0 F1200
G1 X94.775 Y6.959 Z0 F1200
G1 X94.607 Y6.638 Z0 F1200
G1 X94.397 Y6.332 Z0 F1200
G1 X94.146 Y6.043 Z0 F1200
G1 X93.858 Y5.774 Z0 F1200
G1 X93.536 Y5.525 Z0 F1200
G1 X93.18 Y5.299 Z0 F1200
G1 X92.796 Y5.098 Z0 F1200
G1 X92.383 Y4.922 Z0 F1200
G1 X91.946 Y4.775 Z0 F1200
G1 X91.487 Y4.657 Z0 F1200
G1 X91.008 Y4.571 Z0 F1200
G1 X90.511 Y4.518 Z0 F1200
G1 X90 Y4.5 Z0 F1200
G1 X89.489 Y4.518 Z0 F1200
G1 X88.992 Y4.571 Z0 F1200
G1 X88.513 Y4.657 Z0 F1200
G1 X88.054 Y4.775 Z0 F1200
G1 X87.617 Y4.922 Z0 F1200
G1 X87.204 Y5.098 Z0 F1200
G1 X86.82 Y5.299 Z0 F1200
G1 X86.464 Y5.525 Z0 F1200
G1 X86.142 Y5.774 Z0 F1200
G1 X85.854 Y6.043 Z0 F1200
G1 X85.603 Y6.332 Z0 F1200
G1 X85.393 Y6.638 Z0 F1200
G1 X85.225 Y6.959 Z0 F1200
G1 Z7 F800;         ; Raise from color
G1 X79 Y8 Z1 F1200;     ; Movement in paint
G1 X69 Y18 Z8 F500;     ; Move in paint
G1 F1200;           ; Set feed rate
G0 Z5 F1000 ; Safety Lift
G1 X81.701 S0 F1600
; --- FIX X Backlash ---
G0 X83.001 Y68.5 F1200
G1 X83.285 Y69.5 Z5 F1600
G1 X83.91 Z5 F1600
G0 Z0 F500 ; Drop S>0
G1 X132.09 S900 F1600
G0 Z5 F500 ; Lift S=0
G1 X132.715 S0 F1600
; --- FIX X Backlash ---
G0 X131.415 Y69.5 F1200
G1 X131.077 Y70.5 Z5 F1600
G1 X130.452 Z5 F1600
G0 Z0 F500 ; Drop S>0
G1 X82.948 S900 F1600
G0 Z5 F500 ; Lift S=0
G1 X82.323 S0 F1600
; --- FIX X Backlash ---
G0 X83.623 Y70.5 F1200
G1 X84.007 Y71.5 Z5 F1600
G1 X84.632 Z5 F1600
G0 Z0 F500 ; Drop S>0
G1 X131.368 S900 F1600
G0 Z5 F500 ; Lift S=0
G1 X131.992 S0 F1600
; --- FIX X Backlash ---
G0 X130.692 Y71.5 F1200
G1 X130.259 Y72.5 Z5 F1600
G1 X129.634 Z5 F1600
G0 Z0 F500 ; Drop S>0
G1 X83.766 S900 F1600
G0 Z5 F500 ; Lift S=0
G1 X83.141 S0 F1600
; --- FIX X Backlash ---
G0 X84.441 Y72.5 F1200
G1 X84.927 Y73.5 Z5 F1600
G1 X85.552 Z5 F1600
G0 Z0 F500 ; Drop S>0
G1 X130.448 S900 F1600
G0 Z5 F500 ; Lift S=0

; Color picking sequence
G1 Z10 F1000;         ; Raise brush
G0 X86 Y5 F1200;    ; Rapid move to color 1
G1 Z10 F1000;         ; Raise brush
G0 X86 Y5 F1200;    ; Rapid move to color 1
G1 Z0 F1000;         ; Lower into color
G1 X85.102 Y7.295 Z0 S800 F1200
G1 X85.026 Y7.642 Z0 F1200
G1 X85 Y8 Z0 F1200
G1 X85.026 Y8.358 Z0 F1200
G1 X85.102 Y8.705 Z0 F1200
G1 X85.225 Y9.041 Z0 F1200
G1 X85.393 Y9.362 Z0 F1200
G1 X85.603 Y9.668 Z0 F1200
G1 X85.854 Y9.957 Z0 F1200
G1 X86.142 Y10.226 Z0 F1200
G1 X86.464 Y10.475 Z0 F1200
G1 X86.82 Y10.701 Z0 F1200
G1 X87.204 Y10.902 Z0 F1200
G1 X87.617 Y11.078 Z0 F1200
G1 X88.054 Y11.225 Z0 F1200
G1 X88.513 Y11.343 Z0 F1200
G1 X88.992 Y11.429 Z0 F1200
G1 X89.489 Y11.482 Z0 F1200
G1 X90 Y11.5 Z0 F1200
G1 X90.511 Y11.482 Z0 F1200
G1 X91.008 Y11.429 Z0 F1200
G1 X91.487 Y11.343 Z0 F1200
G1 X91.946 Y11.225 Z0 F1200
G1 X92.383 Y11.078 Z0 F1200
G1 X92.796 Y10.902 Z0 F1200
G1 X93.18 Y10.701 Z0 F1200
G1 X93.536 Y10.475 Z0 F1200
G1 X93.858 Y10.226 Z0 F1200
G1 X94.146 Y9.957 Z0 F1200
G1 X94.397 Y9.668 Z0 F1200
G1 X94.607 Y9.362 Z0 F1200
G1 X94.775 Y9.041 Z0 F1200
G1 X94.898 Y8.705 Z0 F1200
G1 X94.974 Y8.358 Z0 F1200
G1 X95 Y8 Z0 F1200
G1 X94.974 Y7.642 Z0 F1200
G1 X94.898 Y7.295 Z0 F1200
G1 X94.775 Y6.959 Z0 F1200
G1 X94.607 Y6.638 Z0 F1200
G1 X94.397 Y6.332 Z0 F1200
G1 X94.146 Y6.043 Z0 F1200
G1 X93.858 Y5.774 Z0 F1200
G1 X93.536 Y5.525 Z0 F1200
G1 X93.18 Y5.299 Z0 F1200
G1 X92.796 Y5.098 Z0 F1200
G1 X92.383 Y4.922 Z0 F1200
G1 X91.946 Y4.775 Z0 F1200
G1 X91.487 Y4.657 Z0 F1200
G1 X91.008 Y4.571 Z0 F1200
G1 X90.511 Y4.518 Z0 F1200
G1 X90 Y4.5 Z0 F1200
G1 X89.489 Y4.518 Z0 F1200
G1 X88.992 Y4.571 Z0 F1200
G1 X88.513 Y4.657 Z0 F1200
G1 X88.054 Y4.775 Z0 F1200
G1 X87.617 Y4.922 Z0 F1200
G1 X87.204 Y5.098 Z0 F1200
G1 X86.82 Y5.299 Z0 F1200
G1 X86.464 Y5.525 Z0 F1200
G1 X86.142 Y5.774 Z0 F1200
G1 X85.854 Y6.043 Z0 F1200
G1 X85.603 Y6.332 Z0 F1200
G1 X85.393 Y6.638 Z0 F1200
G1 X85.225 Y6.959 Z0 F1200
G1 Z7 F800;         ; Raise from color
G1 X79 Y8 Z1 F1200;     ; Movement in paint
G1 X69 Y18 Z8 F500;     ; Move in paint
G1 F1200;           ; Set feed rate
G0 Z5 F1000 ; Safety Lift
G1 X131.073 S0 F1600
; --- FIX X Backlash ---
G0 X129.773 Y73.5 F1200
G1 X129.231 Y74.5 Z5 F1600
G1 X128.606 Z5 F1600
G0 Z0 F500 ; Drop S>0
G1 X84.794 S900 F1600
G0 Z5 F500 ; Lift S=0
G1 X84.169 S0 F1600
; --- FIX X Backlash ---
G0 X85.469 Y74.5 F1200
G1 X86.072 Y75.5 Z5 F1600
G1 X86.697 Z5 F1600
G0 Z0 F500 ; Drop S>0
G1 X129.303 S900 F1600
G0 Z5 F500 ; Lift S=0
G1 X129.928 S0 F1600
; --- FIX X Backlash ---
G0 X128.628 Y75.5 F1200
G1 X127.959 Y76.5 Z5 F1600
G1 X127.334 Z5 F1600
G0 Z0 F500 ; Drop S>0
G1 X86.066 S900 F1600
G0 Z5 F500 ; Lift S=0
G1 X85.441 S0 F1600
; --- FIX X Backlash ---
G0 X86.741 Y76.5 F1200
G1 X87.483 Y77.5 Z5 F1600
G1 X88.108 Z5 F1600
G0 Z0 F500 ; Drop S>0
G1 X127.892 S900 F1600
G0 Z5 F500 ; Lift S=0
G1 X128.517 S0 F1600
; --- FIX X Backlash ---
G0 X127.217 Y77.5 F1200
G1 X126.395 Y78.5 Z5 F1600
G1 X125.77 Z5 F1600
G0 Z0 F500 ; Drop S>0
G1 X87.63 S900 F1600
G0 Z5 F500 ; Lift S=0

; Color picking sequence
G1 Z10 F1000;         ; Raise brush
G0 X86 Y5 F1200;    ; Rapid move to color 1
G1 Z10 F1000;         ; Raise brush
G0 X86 Y5 F1200;    ; Rapid move to color 1
G1 Z0 F1000;         ; Lower into color
G1 X85.102 Y7.295 Z0 S800 F1200
G1 X85.026 Y7.642 Z0 F1200
G1 X85 Y8 Z0 F1200
G1 X85.026 Y8.358 Z0 F1200
G1 X85.102 Y8.705 Z0 F1200
G1 X85.225 Y9.041 Z0 F1200
G1 X85.393 Y9.362 Z0 F1200
G1 X85.603 Y9.668 Z0 F1200
G1 X85.854 Y9.957 Z0 F1200
G1 X86.142 Y10.226 Z0 F1200
G1 X86.464 Y10.475 Z0 F1200
G1 X86.82 Y10.701 Z0 F1200
G1 X87.204 Y10.902 Z0 F1200
G1 X87.617 Y11.078 Z0 F1200
G1 X88.054 Y11.225 Z0 F1200
G1 X88.513 Y11.343 Z0 F1200
G1 X88.992 Y11.429 Z0 F1200
G1 X89.489 Y11.482 Z0 F1200
G1 X90 Y11.5 Z0 F1200
G1 X90.511 Y11.482 Z0 F1200
G1 X91.008 Y11.429 Z0 F1200
G1 X91.487 Y11.343 Z0 F1200
G1 X91.946 Y11.225 Z0 F1200
G1 X92.383 Y11.078 Z0 F1200
G1 X92.796 Y10.902 Z0 F1200
G1 X93.18 Y10.701 Z0 F1200
G1 X93.536 Y10.475 Z0 F1200
G1 X93.858 Y10.226 Z0 F1200
G1 X94.146 Y9.957 Z0 F1200
G1 X94.397 Y9.668 Z0 F1200
G1 X94.607 Y9.362 Z0 F1200
G1 X94.775 Y9.041 Z0 F1200
G1 X94.898 Y8.705 Z0 F1200
G1 X94.974 Y8.358 Z0 F1200
G1 X95 Y8 Z0 F1200
G1 X94.974 Y7.642 Z0 F1200
G1 X94.898 Y7.295 Z0 F1200
G1 X94.775 Y6.959 Z0 F1200
G1 X94.607 Y6.638 Z0 F1200
G1 X94.397 Y6.332 Z0 F1200
G1 X94.146 Y6.043 Z0 F1200
G1 X93.858 Y5.774 Z0 F1200
G1 X93.536 Y5.525 Z0 F1200
G1 X93.18 Y5.299 Z0 F1200
G1 X92.796 Y5.098 Z0 F1200
G1 X92.383 Y4.922 Z0 F1200
G1 X91.946 Y4.775 Z0 F1200
G1 X91.487 Y4.657 Z0 F1200
G1 X91.008 Y4.571 Z0 F1200
G1 X90.511 Y4.518 Z0 F1200
G1 X90 Y4.5 Z0 F1200
G1 X89.489 Y4.518 Z0 F1200
G1 X88.992 Y4.571 Z0 F1200
G1 X88.513 Y4.657 Z0 F1200
G1 X88.054 Y4.775 Z0 F1200
G1 X87.617 Y4.922 Z0 F1200
G1 X87.204 Y5.098 Z0 F1200
G1 X86.82 Y5.299 Z0 F1200
G1 X86.464 Y5.525 Z0 F1200
G1 X86.142 Y5.774 Z0 F1200
G1 X85.854 Y6.043 Z0 F1200
G1 X85.603 Y6.332 Z0 F1200
G1 X85.393 Y6.638 Z0 F1200
G1 X85.225 Y6.959 Z0 F1200
G1 Z7 F800;         ; Raise from color
G1 X79 Y8 Z1 F1200;     ; Movement in paint
G1 X69 Y18 Z8 F500;     ; Move in paint
G1 F1200;           ; Set feed rate
G0 Z5 F1000 ; Safety Lift
G1 X87.005 S0 F1600
; --- FIX X Backlash ---
G0 X88.305 Y78.5 F1200
G1 X89.218 Y79.5 Z5 F1600
G1 X89.843 Z5 F1600
G0 Z0 F500 ; Drop S>0
G1 X126.157 S900 F1600
G0 Z5 F500 ; Lift S=0
G1 X126.782 S0 F1600
; --- FIX X Backlash ---
G0 X125.482 Y79.5 F1200
G1 X124.465 Y80.5 Z5 F1600
G1 X123.84 Z5 F1600
G0 Z0 F500 ; Drop S>0
G1 X89.56 S900 F1600
G0 Z5 F500 ; Lift S=0
G1 X88.935 S0 F1600
; --- FIX X Backlash ---
G0 X90.235 Y80.5 F1200
G1 X91.376 Y81.5 Z5 F1600
G1 X92.001 Z5 F1600
G0 Z0 F500 ; Drop S>0
G1 X123.999 S900 F1600
G0 Z5 F500 ; Lift S=0
G1 X124.624 S0 F1600
; --- FIX X Backlash ---
G0 X123.324 Y81.5 F1200
G1 X122.014 Y82.5 Z5 F1600
G1 X121.389 Z5 F1600
G0 Z0 F500 ; Drop S>0
G1 X92.011 S900 F1600
G0 Z5 F500 ; Lift S=0
G1 X91.386 S0 F1600
; --- FIX X Backlash ---
G0 X92.686 Y82.5 F1200
G1 X94.182 Y83.5 Z5 F1600
G1 X94.807 Z5 F1600
G0 Z0 F500 ; Drop S>0
G1 X121.193 S900 F1600
G0 Z5 F500 ; Lift S=0
G1 X121.818 S0 F1600
; --- FIX X Backlash ---
G0 X120.518 Y83.5 F1200
G1 X118.723 Y84.5 Z5 F1600
G1 X118.098 Z5 F1600
G0 Z0 F500 ; Drop S>0
G1 X95.302 S900 F1600
G0 Z5 F500 ; Lift S=0
G1 X94.677 S0 F1600
; --- FIX X Backlash ---
G0 X95.977 Y84.5 F1200
G1 X98.211 Y85.5 Z5 F1600
G1 X98.836 Z5 F1600
G0 Z0 F500 ; Drop S>0
G1 X117.164 S900 F1600
G0 Z5 F500 ; Lift S=0
G1 X117.789 S0 F1600
; --- FIX X Backlash ---
G0 X116.489 Y85.5 F1200
G1 X113.326 Y86.5 Z5 F1600
G1 X112.701 Z5 F1600
G0 Z0 F500 ; Drop S>0
G1 X100.699 S900 F1600
G0 Z5 F500 ; Lift S=0

; Color picking sequence
G1 Z10 F1000;         ; Raise brush
G0 X86 Y5 F1200;    ; Rapid move to color 1
G1 Z10 F1000;         ; Raise brush
G0 X86 Y5 F1200;    ; Rapid move to color 1
G1 Z0 F1000;         ; Lower into color
G1 X85.102 Y7.295 Z0 S800 F1200
G1 X85.026 Y7.642 Z0 F1200
G1 X85 Y8 Z0 F1200
G1 X85.026 Y8.358 Z0 F1200
G1 X85.102 Y8.705 Z0 F1200
G1 X85.225 Y9.041 Z0 F1200
G1 X85.393 Y9.362 Z0 F1200
G1 X85.603 Y9.668 Z0 F1200
G1 X85.854 Y9.957 Z0 F1200
G1 X86.142 Y10.226 Z0 F1200
G1 X86.464 Y10.475 Z0 F1200
G1 X86.82 Y10.701 Z0 F1200
G1 X87.204 Y10.902 Z0 F1200
G1 X87.617 Y11.078 Z0 F1200
G1 X88.054 Y11.225 Z0 F1200
G1 X88.513 Y11.343 Z0 F1200
G1 X88.992 Y11.429 Z0 F1200
G1 X89.489 Y11.482 Z0 F1200
G1 X90 Y11.5 Z0 F1200
G1 X90.511 Y11.482 Z0 F1200
G1 X91.008 Y11.429 Z0 F1200
G1 X91.487 Y11.343 Z0 F1200
G1 X91.946 Y11.225 Z0 F1200
G1 X92.383 Y11.078 Z0 F1200
G1 X92.796 Y10.902 Z0 F1200
G1 X93.18 Y10.701 Z0 F1200
G1 X93.536 Y10.475 Z0 F1200
G1 X93.858 Y10.226 Z0 F1200
G1 X94.146 Y9.957 Z0 F1200
G1 X94.397 Y9.668 Z0 F1200
G1 X94.607 Y9.362 Z0 F1200
G1 X94.775 Y9.041 Z0 F1200
G1 X94.898 Y8.705 Z0 F1200
G1 X94.974 Y8.358 Z0 F1200
G1 X95 Y8 Z0 F1200
G1 X94.974 Y7.642 Z0 F1200
G1 X94.898 Y7.295 Z0 F1200
G1 X94.775 Y6.959 Z0 F1200
G1 X94.607 Y6.638 Z0 F1200
G1 X94.397 Y6.332 Z0 F1200
G1 X94.146 Y6.043 Z0 F1200
G1 X93.858 Y5.774 Z0 F1200
G1 X93.536 Y5.525 Z0 F1200
G1 X93.18 Y5.299 Z0 F1200
G1 X92.796 Y5.098 Z0 F1200
G1 X92.383 Y4.922 Z0 F1200
G1 X91.946 Y4.775 Z0 F1200
G1 X91.487 Y4.657 Z0 F1200
G1 X91.008 Y4.571 Z0 F1200
G1 X90.511 Y4.518 Z0 F1200
G1 X90 Y4.5 Z0 F1200
G1 X89.489 Y4.518 Z0 F1200
G1 X88.992 Y4.571 Z0 F1200
G1 X88.513 Y4.657 Z0 F1200
G1 X88.054 Y4.775 Z0 F1200
G1 X87.617 Y4.922 Z0 F1200
G1 X87.204 Y5.098 Z0 F1200
G1 X86.82 Y5.299 Z0 F1200
G1 X86.464 Y5.525 Z0 F1200
G1 X86.142 Y5.774 Z0 F1200
G1 X85.854 Y6.043 Z0 F1200
G1 X85.603 Y6.332 Z0 F1200
G1 X85.393 Y6.638 Z0 F1200
G1 X85.225 Y6.959 Z0 F1200
G1 Z7 F800;         ; Raise from color
G1 X79 Y8 Z1 F1200;     ; Movement in paint
G1 X69 Y18 Z8 F500;     ; Move in paint
G1 F1200;           ; Set feed rate
G0 Z5 F1000 ; Safety Lift
G1 X100.074 S0 F1600

; Washing sequence (no color)
G1 Z10 F1000;        ; Raise brush
G0 X5 Y5 F1200;     ; Rapid move to clean
G1 Z-1 F800;         ; Lower brush
G1 X10 Y12 Z8 F1200;     ; Move
G1 Z-1 F800;         ; Lower
G1 X25 Y14 Z6 F800;     ; Move
G1 Z8 F800;         ; Maintain
G0 X5 Y5 F1200;     ; Rapid
G1 Z-1 F800;         ; Lower
G1 X15 Y12 Z8 F1200;     ; Move
G1 Z-1 F800;         ; Lower
G1 X25 Y14 Z6 F800;     ; Move
G1 Z10 F800;         ; Maintain
G1 F1200;           ; Set feed
G0 Z5 F1000 ; Safety Lift

; Color picking sequence
G1 Z10 F1000;         ; Raise brush
G0 X41 Y5 F1200;    ; Rapid move to color 1
G1 Z10 F1000;         ; Raise brush
G0 X41 Y5 F1200;    ; Rapid move to color 1
G1 Z0 F1000;         ; Lower into color
G1 X40.102 Y7.295 Z0 S800 F1200
G1 X40.026 Y7.642 Z0 F1200
G1 X40 Y8 Z0 F1200
G1 X40.026 Y8.358 Z0 F1200
G1 X40.102 Y8.705 Z0 F1200
G1 X40.225 Y9.041 Z0 F1200
G1 X40.393 Y9.362 Z0 F1200
G1 X40.603 Y9.668 Z0 F1200
G1 X40.854 Y9.957 Z0 F1200
G1 X41.142 Y10.226 Z0 F1200
G1 X41.464 Y10.475 Z0 F1200
G1 X41.82 Y10.701 Z0 F1200
G1 X42.204 Y10.902 Z0 F1200
G1 X42.617 Y11.078 Z0 F1200
G1 X43.054 Y11.225 Z0 F1200
G1 X43.513 Y11.343 Z0 F1200
G1 X43.992 Y11.429 Z0 F1200
G1 X44.489 Y11.482 Z0 F1200
G1 X45 Y11.5 Z0 F1200
G1 X45.511 Y11.482 Z0 F1200
G1 X46.008 Y11.429 Z0 F1200
G1 X46.487 Y11.343 Z0 F1200
G1 X46.946 Y11.225 Z0 F1200
G1 X47.383 Y11.078 Z0 F1200
G1 X47.796 Y10.902 Z0 F1200
G1 X48.18 Y10.701 Z0 F1200
G1 X48.536 Y10.475 Z0 F1200
G1 X48.858 Y10.226 Z0 F1200
G1 X49.146 Y9.957 Z0 F1200
G1 X49.397 Y9.668 Z0 F1200
G1 X49.607 Y9.362 Z0 F1200
G1 X49.775 Y9.041 Z0 F1200
G1 X49.898 Y8.705 Z0 F1200
G1 X49.974 Y8.358 Z0 F1200
G1 X50 Y8 Z0 F1200
G1 X49.974 Y7.642 Z0 F1200
G1 X49.898 Y7.295 Z0 F1200
G1 X49.775 Y6.959 Z0 F1200
G1 X49.607 Y6.638 Z0 F1200
G1 X49.397 Y6.332 Z0 F1200
G1 X49.146 Y6.043 Z0 F1200
G1 X48.858 Y5.774 Z0 F1200
G1 X48.536 Y5.525 Z0 F1200
G1 X48.18 Y5.299 Z0 F1200
G1 X47.796 Y5.098 Z0 F1200
G1 X47.383 Y4.922 Z0 F1200
G1 X46.946 Y4.775 Z0 F1200
G1 X46.487 Y4.657 Z0 F1200
G1 X46.008 Y4.571 Z0 F1200
G1 X45.511 Y4.518 Z0 F1200
G1 X45 Y4.5 Z0 F1200
G1 X44.489 Y4.518 Z0 F1200
G1 X43.992 Y4.571 Z0 F1200
G1 X43.513 Y4.657 Z0 F1200
G1 X43.054 Y4.775 Z0 F1200
G1 X42.617 Y4.922 Z0 F1200
G1 X42.204 Y5.098 Z0 F1200
G1 X41.82 Y5.299 Z0 F1200
G1 X41.464 Y5.525 Z0 F1200
G1 X41.142 Y5.774 Z0 F1200
G1 X40.854 Y6.043 Z0 F1200
G1 X40.603 Y6.332 Z0 F1200
G1 X40.393 Y6.638 Z0 F1200
G1 X40.225 Y6.959 Z0 F1200
G1 Z7 F800;         ; Raise from color
G1 X34 Y8 Z1 F1200;     ; Movement in paint
G1 X24 Y18 Z8 F500;     ; Move in paint
G1 F1200;           ; Set feed rate
G0 Z5 F1000 ; Safety Lift
;Cut @ 1500 mm/min, 80% power

M8
G0 Z3.5 F1000
; --- FIX X Backlash ---
G0 X101.374 Y86.5 F1200
; --- FIX Y Backlash ---
G0 X101.374 Y85.2 F1200
G0 X101.441 Y81.392 Z3.5 F1500
G1 Z0 F1000
;Layer C1
; --- FIX X Backlash ---
G0 X100.141 Y81.392 F1200
G1 X99.99 Y81.37 Z0 S800 F1600
G1 X99.804 Y81.316 Z0 F1600
G1 X99.625 Y81.254 Z0 F1600
G1 X99.388 Y81.183 Z0 F1600
G1 X99.248 Y81.137 Z0 F1600
G1 X99.079 Y81.079 Z0 F1600
G1 X98.892 Y81.012 Z0 F1600
G1 X98.781 Y80.953 Z0 F1600
G1 X98.72 Y80.865 Z0 F1600
G1 X98.7 Y80.805 Z0 F1600
G1 X98.697 Y80.744 Z0 F1600
G1 X98.714 Y80.66 Z0 F1600
G1 X98.753 Y80.531 Z0 F1600
; --- FIX X Backlash ---
G0 X100.053 Y80.531 F1200
G1 X100.106 Y80.346 Z0 F1600
G1 X100.137 Y80.178 Z0 F1600
G1 X100.161 Y80.081 Z0 F1600
G1 X100.198 Y79.954 Z0 F1600
G1 X100.313 Y79.588 Z0 F1600
G1 X100.372 Y79.391 Z0 F1600
G1 X100.434 Y79.164 Z0 F1600
G1 X100.517 Y78.853 Z0 F1600
G1 X100.569 Y78.664 Z0 F1600
G1 X100.651 Y78.396 Z0 F1600
G1 X100.693 Y78.242 Z0 F1600
G1 X100.939 Y77.218 Z0 F1600
G1 X101.035 Y76.832 Z0 F1600
G1 X101.08 Y76.665 Z0 F1600
G1 X101.098 Y76.532 Z0 F1600
G1 X101.12 Y76.451 Z0 F1600
G1 X101.161 Y76.311 Z0 F1600
G1 X101.234 Y76.055 Z0 F1600
G1 X101.395 Y75.472 Z0 F1600
G1 X101.424 Y75.358 Z0 F1600
G1 X101.452 Y75.231 Z0 F1600
G1 X101.486 Y75.095 Z0 F1600
G1 X101.523 Y75 Z0 F1600
G1 X101.569 Y74.939 Z0 F1600
G1 X101.626 Y74.905 Z0 F1600
G1 X101.813 Y74.893 Z0 F1600
; --- FIX Y Backlash ---
G0 X101.813 Y76.193 F1200
G1 X102.066 Y76.249 Z0 F1600
G1 X102.222 Y76.294 Z0 F1600
G1 X103.25 Y76.559 Z0 F1600
G1 X103.508 Y76.621 Z0 F1600
G1 X104.155 Y76.771 Z0 F1600
G1 X104.516 Y76.851 Z0 F1600
G1 X105.085 Y76.965 Z0 F1600
G1 X105.299 Y77.026 Z0 F1600
G1 X105.45 Y77.091 Z0 F1600
G1 X105.53 Y77.156 Z0 F1600
G1 X105.555 Y77.207 Z0 F1600
G1 X105.559 Y77.282 Z0 F1600
G1 X105.553 Y77.341 Z0 F1600
G1 X105.541 Y77.419 Z0 F1600
; --- FIX X Backlash ---
G0 X104.241 Y77.419 F1200
G1 X104.167 Y77.832 Z0 F1600
G1 X104.115 Y78.145 Z0 F1600
G1 X104.102 Y78.242 Z0 F1600
G1 X104.079 Y78.37 Z0 F1600
G1 X104.044 Y78.475 Z0 F1600
G1 X103.997 Y78.554 Z0 F1600
G1 X103.94 Y78.603 Z0 F1600
G1 X103.904 Y78.614 Z0 F1600
G1 X103.849 Z0 F1600
G1 X103.768 Y78.606 Z0 F1600
G1 X103.653 Y78.585 Z0 F1600
G1 X103.5 Y78.551 Z0 F1600
G1 X103.3 Y78.502 Z0 F1600
; --- FIX Y Backlash ---
G0 X103.3 Y77.202 F1200
G1 X102.735 Y77.054 Z0 F1600
G1 X102.434 Y76.981 Z0 F1600
G1 X102.086 Y76.906 Z0 F1600
G1 X101.923 Y76.874 Z0 F1600
G1 X101.781 Y76.848 Z0 F1600
G1 X101.672 Y76.83 Z0 F1600
G1 X101.608 Y76.824 Z0 F1600
G1 X101.542 Y76.85 Z0 F1600
; --- FIX Y Backlash ---
G0 X101.542 Y78.15 F1200
G1 X101.478 Y78.221 Z0 F1600
G1 X101.423 Y78.327 Z0 F1600
G1 X101.383 Y78.459 Z0 F1600
G1 X101.36 Y78.556 Z0 F1600
G1 X101.264 Y78.938 Z0 F1600
G1 X101.138 Y79.431 Z0 F1600
G1 X101.017 Y79.927 Z0 F1600
G1 X100.889 Y80.49 Z0 F1600
G1 X100.791 Y80.885 Z0 F1600
G1 X100.521 Y82.019 Z0 F1600
G1 X100.465 Y82.27 Z0 F1600
G1 X100.411 Y82.46 Z0 F1600
G1 X100.343 Y82.593 Z0 F1600
G1 X100.258 Y82.674 Z0 F1600
G1 X100.141 Y82.692 Z0 F1600
G0 Z3.5 F1000
; --- FIX X Backlash ---
G0 X101.441 Y82.692 F1200
; --- FIX Y Backlash ---
G0 X101.441 Y81.392 F1200
G0 X107.436 Y79.989 Z3.5
G1 Z0 F1000
; --- FIX Y Backlash ---
G0 X107.436 Y81.289 F1200
G1 X107.551 Y81.516 Z0 F1600
G1 X107.691 Y81.721 Z0 F1600
G1 X107.856 Y81.902 Z0 F1600
G1 X108.045 Y82.059 Z0 F1600
G1 X108.257 Y82.191 Z0 F1600
G1 X108.364 Y82.243 Z0 F1600
G1 X108.456 Y82.272 Z0 F1600
G1 X108.568 Y82.284 Z0 F1600
G1 X108.738 Y82.287 Z0 F1600
G1 X108.902 Y82.284 Z0 F1600
G1 X109.013 Y82.273 Z0 F1600
G1 X109.1 Y82.249 Z0 F1600
G1 X109.189 Y82.207 Z0 F1600
; --- FIX Y Backlash ---
G0 X109.189 Y80.907 F1200
G1 X109.395 Y80.779 Z0 F1600
G1 X109.572 Y80.629 Z0 F1600
G1 X109.721 Y80.456 Z0 F1600
G1 X109.841 Y80.258 Z0 F1600
G1 X109.934 Y80.035 Z0 F1600
G1 X110 Y79.787 Z0 F1600
G1 X110.039 Y79.511 Z0 F1600
G1 X110.051 Y79.206 Z0 F1600
G1 X110.036 Y78.877 Z0 F1600
G1 X109.99 Y78.579 Z0 F1600
; --- FIX X Backlash ---
G0 X108.69 Y78.579 F1200
G1 X108.61 Y78.301 Z0 F1600
G1 X108.493 Y78.032 Z0 F1600
G1 X108.372 Y77.848 Z0 F1600
G1 X108.206 Y77.665 Z0 F1600
G1 X108.017 Y77.505 Z0 F1600
G1 X107.827 Y77.39 Z0 F1600
G1 X107.607 Y77.309 Z0 F1600
G1 X107.32 Y77.287 Z0 F1600
G1 X107.122 Z0 F1600
G1 X106.956 Y77.302 Z0 F1600
G1 X106.826 Y77.329 Z0 F1600
G1 X106.732 Y77.368 Z0 F1600
G1 X106.682 Y77.395 Z0 F1600
G1 X106.624 Y77.422 Z0 F1600
; --- FIX Y Backlash ---
G0 X106.624 Y78.722 F1200
G1 X106.353 Y78.976 Z0 F1600
G1 X106.161 Y79.25 Z0 F1600
G1 X106.144 Y79.299 Z0 F1600
G1 X106.104 Y79.394 Z0 F1600
G1 X106.018 Y79.63 Z0 F1600
G1 X105.965 Y79.887 Z0 F1600
G1 X105.943 Y80.171 Z0 F1600
G1 X105.951 Y80.489 Z0 F1600
G1 X105.986 Y80.775 Z0 F1600
; --- FIX X Backlash ---
G0 X107.286 Y80.775 F1200
G1 X107.347 Y81.042 Z0 F1600
G1 X107.436 Y81.289 Z0 F1600
G0 Z3.5 F1000
; --- FIX X Backlash ---
G0 X106.136 Y81.289 F1200
G0 X104.477 Y81.505 Z3.5
G1 Z0 F1000
; --- FIX Y Backlash ---
G0 X104.477 Y80.205 F1200
G1 X104.37 Y79.686 Z0 F1600
G1 X104.321 Y79.169 Z0 F1600
G1 X104.331 Y78.664 Z0 F1600
; --- FIX X Backlash ---
G0 X105.631 Y78.664 F1200
G1 X105.701 Y78.177 Z0 F1600
G1 X105.783 Y77.845 Z0 F1600
G1 X105.886 Y77.534 Z0 F1600
G1 X106.004 Y77.259 Z0 F1600
G1 X106.131 Y77.035 Z0 F1600
G1 X106.438 Y76.708 Z0 F1600
G1 X106.829 Y76.381 Z0 F1600
G1 X106.951 Y76.297 Z0 F1600
G1 X107.01 Y76.253 Z0 F1600
G1 X107.073 Y76.215 Z0 F1600
G1 X107.205 Y76.145 Z0 F1600
G1 X107.41 Y76.055 Z0 F1600
G1 X107.659 Y75.972 Z0 F1600
G1 X107.932 Y75.903 Z0 F1600
G1 X108.212 Y75.852 Z0 F1600
G1 X108.62 Y75.838 Z0 F1600
G1 X109.039 Y75.862 Z0 F1600
; --- FIX Y Backlash ---
G0 X109.039 Y77.162 F1200
G1 X109.474 Y77.252 Z0 F1600
G1 X109.86 Y77.383 Z0 F1600
G1 X110.222 Y77.564 Z0 F1600
G1 X110.586 Y77.807 Z0 F1600
G1 X110.851 Y78.03 Z0 F1600
G1 X111.065 Y78.275 Z0 F1600
G1 X111.245 Y78.564 Z0 F1600
G1 X111.407 Y78.921 Z0 F1600
G1 X111.561 Y79.384 Z0 F1600
G1 X111.656 Y79.848 Z0 F1600
G1 X111.691 Y80.323 Z0 F1600
G1 X111.669 Y80.814 Z0 F1600
; --- FIX X Backlash ---
G0 X110.369 Y80.814 F1200
G1 X110.298 Y81.307 Z0 F1600
G1 X110.191 Y81.751 Z0 F1600
G1 X110.047 Y82.149 Z0 F1600
G1 X109.865 Y82.502 Z0 F1600
G1 X109.644 Y82.81 Z0 F1600
G1 X109.383 Y83.076 Z0 F1600
G1 X109.081 Y83.301 Z0 F1600
G1 X108.737 Y83.486 Z0 F1600
G1 X108.405 Y83.619 Z0 F1600
G1 X108.074 Y83.711 Z0 F1600
G1 X107.734 Y83.766 Z0 F1600
G1 X107.378 Y83.785 Z0 F1600
G1 X107.142 Y83.779 Z0 F1600
G1 X106.923 Y83.762 Z0 F1600
G1 X106.758 Y83.738 Z0 F1600
G1 X106.684 Y83.71 Z0 F1600
G1 X106.653 Y83.692 Z0 F1600
G1 X106.526 Y83.671 Z0 F1600
G1 X106.397 Y83.631 Z0 F1600
; --- FIX Y Backlash ---
G0 X106.397 Y82.331 F1200
G1 X106.217 Y82.267 Z0 F1600
G1 X105.991 Y82.179 Z0 F1600
G1 X105.757 Y82.064 Z0 F1600
G1 X105.532 Y81.911 Z0 F1600
G1 X105.324 Y81.726 Z0 F1600
G1 X105.139 Y81.513 Z0 F1600
G1 X105.06 Y81.413 Z0 F1600
G1 X105.017 Y81.362 Z0 F1600
G1 X104.969 Y81.299 Z0 F1600
G1 X104.879 Y81.167 Z0 F1600
G1 X104.753 Y80.961 Z0 F1600
G1 X104.652 Y80.75 Z0 F1600
G1 X104.564 Y80.508 Z0 F1600
G1 X104.477 Y80.205 Z0 F1600
G0 Z3.5 F1000
; --- FIX X Backlash ---
G0 X105.777 Y80.205 F1200
; --- FIX Y Backlash ---
G0 X105.777 Y81.505 F1200
G0 X112.819 Y83.095 Z3.5
G1 Z0 F1000
; --- FIX Y Backlash ---
G0 X112.819 Y81.795 F1200
G1 X112.852 Y78.025 Z0 F1600
G1 X112.867 Y76.876 Z0 F1600
G1 X112.885 Y75.979 Z0 F1600
G1 X112.898 Y75.535 Z0 F1600
G1 X112.907 Y75.374 Z0 F1600
G1 X112.911 Y75.34 Z0 F1600
G1 X112.965 Y75.244 Z0 F1600
G1 X113.088 Y75.144 Z0 F1600
G1 X113.287 Y75.037 Z0 F1600
G1 X113.567 Y74.918 Z0 F1600
G1 X113.817 Y74.824 Z0 F1600
G1 X114.044 Y74.746 Z0 F1600
G1 X114.223 Y74.691 Z0 F1600
G1 X114.327 Y74.668 Z0 F1600
G1 X114.407 Y74.694 Z0 F1600
; --- FIX Y Backlash ---
G0 X114.407 Y75.994 F1200
G1 X114.52 Y76.074 Z0 F1600
G1 X114.65 Y76.195 Z0 F1600
G1 X114.781 Y76.344 Z0 F1600
G1 X114.872 Y76.454 Z0 F1600
G1 X115.189 Y76.829 Z0 F1600
G1 X115.902 Y77.663 Z0 F1600
G1 X118.254 Y80.379 Z0 F1600
G1 X118.418 Y80.581 Z0 F1600
G1 X118.544 Y80.759 Z0 F1600
G1 X118.62 Y80.894 Z0 F1600
G1 X118.633 Y80.967 Z0 F1600
; --- FIX X Backlash ---
G0 X117.333 Y80.967 F1200
G1 X117.258 Y81.031 Z0 F1600
G1 X117.102 Y81.128 Z0 F1600
G1 X116.89 Y81.246 Z0 F1600
G1 X116.649 Y81.37 Z0 F1600
G1 X116.404 Y81.489 Z0 F1600
G1 X116.18 Y81.59 Z0 F1600
G1 X116.004 Y81.66 Z0 F1600
G1 X115.899 Y81.686 Z0 F1600
G1 X115.847 Y81.672 Z0 F1600
; --- FIX Y Backlash ---
G0 X115.847 Y80.372 F1200
G1 X115.774 Y80.319 Z0 F1600
G1 X115.666 Y80.208 Z0 F1600
G1 X115.508 Y80.02 Z0 F1600
G1 X115.283 Y79.736 Z0 F1600
G1 X114.978 Y79.338 Z0 F1600
G1 X114.577 Y78.807 Z0 F1600
G1 X114.065 Y78.124 Z0 F1600
G1 X113.74 Y77.702 Z0 F1600
G1 X113.461 Y77.36 Z0 F1600
G1 X113.347 Y77.23 Z0 F1600
G1 X113.256 Y77.134 Z0 F1600
G1 X113.191 Y77.075 Z0 F1600
G1 X113.156 Y77.058 Z0 F1600
G1 X113.118 Y77.095 Z0 F1600
; --- FIX Y Backlash ---
G0 X113.118 Y78.395 F1200
G1 X113.091 Y78.489 Z0 F1600
G1 X113.077 Y78.654 Z0 F1600
G1 X113.074 Y78.899 Z0 F1600
G1 X113.078 Y79.057 Z0 F1600
G1 X113.085 Y79.239 Z0 F1600
G1 X113.107 Y79.685 Z0 F1600
G1 X113.143 Y80.248 Z0 F1600
; --- FIX X Backlash ---
G0 X114.443 Y80.248 F1200
G1 X114.534 Y81.592 Z0 F1600
G1 X114.563 Y82.13 Z0 F1600
G1 X114.572 Y82.34 Z0 F1600
G1 X114.576 Y82.501 Z0 F1600
G1 Y82.605 Z0 F1600
G1 X114.571 Y82.647 Z0 F1600
; --- FIX X Backlash ---
G0 X113.271 Y82.647 F1200
G1 X113.183 Y82.7 Z0 F1600
G1 X113.018 Y82.769 Z0 F1600
G1 X112.8 Y82.848 Z0 F1600
G1 X112.553 Y82.928 Z0 F1600
G1 X112.301 Y83.004 Z0 F1600
G1 X112.066 Y83.067 Z0 F1600
G1 X111.872 Y83.11 Z0 F1600
G1 X111.744 Y83.126 Z0 F1600
G1 X111.734 Z0 F1600
G1 X111.519 Y83.095 Z0 F1600
G0 Z3.5 F1000
; --- FIX X Backlash ---
G0 X112.819 Y83.095 F1200
; --- FIX Y Backlash ---
G0 X112.819 Y81.795 F1200
G0 X119.883 Y78.625 Z3.5
G1 Z0 F1000
; --- FIX X Backlash ---
G0 X118.583 Y78.625 F1200
G1 X118.502 Y78.545 Z0 F1600
G1 X118.405 Y78.441 Z0 F1600
G1 X118.29 Y78.31 Z0 F1600
G1 X118.154 Y78.149 Z0 F1600
G1 X117.996 Y77.956 Z0 F1600
G1 X117.814 Y77.729 Z0 F1600
G1 X117.367 Y77.161 Z0 F1600
G1 X116.798 Y76.425 Z0 F1600
G1 X116.088 Y75.501 Z0 F1600
G1 X115.852 Y75.188 Z0 F1600
G1 X115.641 Y74.902 Z0 F1600
G1 X115.459 Y74.645 Z0 F1600
G1 X115.305 Y74.42 Z0 F1600
G1 X115.183 Y74.23 Z0 F1600
G1 X115.094 Y74.077 Z0 F1600
G1 X115.039 Y73.963 Z0 F1600
G1 X115.02 Y73.891 Z0 F1600
G1 X115.037 Y73.802 Z0 F1600
; --- FIX X Backlash ---
G0 X116.337 Y73.802 F1200
G1 X116.398 Y73.696 Z0 F1600
G1 X116.516 Y73.559 Z0 F1600
G1 X116.702 Y73.382 Z0 F1600
G1 X116.825 Y73.275 Z0 F1600
G1 X116.971 Y73.153 Z0 F1600
G1 X117.14 Y73.015 Z0 F1600
G1 X117.334 Y72.86 Z0 F1600
G1 X117.805 Y72.491 Z0 F1600
G1 X118.398 Y72.035 Z0 F1600
G1 X118.74 Y71.782 Z0 F1600
G1 X119.043 Y71.575 Z0 F1600
G1 X119.17 Y71.496 Z0 F1600
G1 X119.274 Y71.436 Z0 F1600
G1 X119.353 Y71.397 Z0 F1600
G1 X119.401 Y71.384 Z0 F1600
G1 X119.499 Y71.422 Z0 F1600
; --- FIX Y Backlash ---
G0 X119.499 Y72.722 F1200
G1 X119.623 Y72.824 Z0 F1600
G1 X119.761 Y72.971 Z0 F1600
G1 X119.899 Y73.146 Z0 F1600
G1 X120.024 Y73.33 Z0 F1600
G1 X120.122 Y73.506 Z0 F1600
G1 X120.18 Y73.654 Z0 F1600
G1 X120.186 Y73.757 Z0 F1600
; --- FIX X Backlash ---
G0 X118.886 Y73.757 F1200
G1 X118.817 Y73.851 Z0 F1600
G1 X118.669 Y73.994 Z0 F1600
G1 X118.463 Y74.165 Z0 F1600
G1 X118.222 Y74.346 Z0 F1600
G1 X117.96 Y74.535 Z0 F1600
G1 X117.699 Y74.729 Z0 F1600
G1 X117.468 Y74.905 Z0 F1600
G1 X117.298 Y75.04 Z0 F1600
G1 X116.984 Y75.301 Z0 F1600
; --- FIX X Backlash ---
G0 X118.284 Y75.301 F1200
G1 X118.598 Y75.717 Z0 F1600
G1 X118.723 Y75.879 Z0 F1600
G1 X118.833 Y76.012 Z0 F1600
G1 X118.914 Y76.102 Z0 F1600
G1 X118.957 Y76.136 Z0 F1600
G1 X118.98 Y76.125 Z0 F1600
G1 X119.028 Y76.094 Z0 F1600
; --- FIX Y Backlash ---
G0 X119.028 Y74.794 F1200
G1 X119.189 Y74.678 Z0 F1600
G1 X119.416 Y74.505 Z0 F1600
G1 X119.684 Y74.294 Z0 F1600
G1 X119.965 Y74.082 Z0 F1600
G1 X120.224 Y73.909 Z0 F1600
G1 X120.337 Y73.843 Z0 F1600
G1 X120.434 Y73.792 Z0 F1600
G1 X120.511 Y73.76 Z0 F1600
G1 X120.565 Y73.749 Z0 F1600
G1 X120.657 Y73.778 Z0 F1600
; --- FIX Y Backlash ---
G0 X120.657 Y75.078 F1200
G1 X120.779 Y75.158 Z0 F1600
G1 X120.919 Y75.275 Z0 F1600
G1 X121.062 Y75.415 Z0 F1600
G1 X121.195 Y75.564 Z0 F1600
G1 X121.307 Y75.71 Z0 F1600
G1 X121.384 Y75.838 Z0 F1600
G1 X121.412 Y75.935 Z0 F1600
G1 X121.396 Y75.966 Z0 F1600
G1 X121.351 Y76.02 Z0 F1600
; --- FIX X Backlash ---
G0 X120.051 Y76.02 F1200
G1 X119.98 Y76.093 Z0 F1600
G1 X119.885 Y76.182 Z0 F1600
G1 X119.639 Y76.397 Z0 F1600
G1 X119.339 Y76.642 Z0 F1600
G1 X119.039 Y76.883 Z0 F1600
G1 X118.793 Y77.087 Z0 F1600
G1 X118.699 Y77.169 Z0 F1600
G1 X118.627 Y77.233 Z0 F1600
G1 X118.582 Y77.277 Z0 F1600
G1 X118.566 Y77.298 Z0 F1600
G1 X118.591 Y77.355 Z0 F1600
; --- FIX X Backlash ---
G0 X119.891 Y77.355 F1200
G1 X119.955 Y77.452 Z0 F1600
G1 X120.048 Y77.574 Z0 F1600
G1 X120.157 Y77.706 Z0 F1600
G1 X120.27 Y77.834 Z0 F1600
G1 X120.373 Y77.944 Z0 F1600
G1 X120.456 Y78.02 Z0 F1600
G1 X120.504 Y78.049 Z0 F1600
G1 X120.536 Y78.036 Z0 F1600
G1 X120.596 Y77.999 Z0 F1600
; --- FIX Y Backlash ---
G0 X120.596 Y76.699 F1200
G1 X120.681 Y76.64 Z0 F1600
G1 X120.788 Y76.562 Z0 F1600
G1 X121.052 Y76.36 Z0 F1600
G1 X121.36 Y76.112 Z0 F1600
G1 X121.69 Y75.855 Z0 F1600
G1 X121.979 Y75.654 Z0 F1600
G1 X122.1 Y75.579 Z0 F1600
G1 X122.204 Y75.524 Z0 F1600
G1 X122.286 Y75.489 Z0 F1600
G1 X122.344 Y75.478 Z0 F1600
G1 X122.441 Y75.505 Z0 F1600
; --- FIX Y Backlash ---
G0 X122.441 Y76.805 F1200
G1 X122.561 Y76.878 Z0 F1600
G1 X122.693 Y76.985 Z0 F1600
G1 X122.825 Y77.115 Z0 F1600
G1 X122.946 Y77.255 Z0 F1600
G1 X123.046 Y77.395 Z0 F1600
G1 X123.115 Y77.522 Z0 F1600
G1 X123.14 Y77.625 Z0 F1600
G1 X123.109 Y77.691 Z0 F1600
; --- FIX X Backlash ---
G0 X121.809 Y77.691 F1200
G1 X121.72 Y77.796 Z0 F1600
G1 X121.583 Y77.935 Z0 F1600
G1 X121.403 Y78.102 Z0 F1600
G1 X120.949 Y78.494 Z0 F1600
G1 X120.421 Y78.924 Z0 F1600
G1 X119.879 Y79.343 Z0 F1600
G1 X119.385 Y79.703 Z0 F1600
G1 X119.175 Y79.845 Z0 F1600
G1 X119 Y79.954 Z0 F1600
G1 X118.867 Y80.024 Z0 F1600
G1 X118.785 Y80.048 Z0 F1600
G1 X118.704 Y80.021 Z0 F1600
; --- FIX Y Backlash ---
G0 X118.704 Y78.721 F1200
G1 X118.583 Y78.625 Z0 F1600
G0 Z3.5 F1000
G0 X97.058 Y73.222 Z3.5
G1 Z0 F1000
; --- FIX Y Backlash ---
G0 X97.058 Y74.522 F1200
G1 X96.908 Y74.75 Z0 F1600
G1 X96.748 Y74.933 Z0 F1600
G1 X96.731 Y74.951 Z0 F1600
G1 X96.724 Y74.979 Z0 F1600
G1 X96.699 Y75.03 Z0 F1600
G1 X96.639 Y75.104 Z0 F1600
G1 X96.589 Y75.162 Z0 F1600
G1 X96.512 Y75.258 Z0 F1600
G1 X96.288 Y75.551 Z0 F1600
G1 X95.987 Y75.953 Z0 F1600
G1 X95.634 Y76.433 Z0 F1600
G1 X95.091 Y77.177 Z0 F1600
G1 X94.891 Y77.456 Z0 F1600
G1 X94.717 Y77.703 Z0 F1600
G1 X94.53 Y77.964 Z0 F1600
G1 X94.297 Y78.274 Z0 F1600
G1 X94.049 Y78.609 Z0 F1600
G1 X93.675 Y79.142 Z0 F1600
G1 X93.554 Y79.289 Z0 F1600
G1 X93.455 Y79.374 Z0 F1600
G1 X93.376 Y79.403 Z0 F1600
G1 X93.361 Z0 F1600
G1 X93.348 Y79.399 Z0 F1600
; --- FIX Y Backlash ---
G0 X93.348 Y78.099 F1200
G1 X93.073 Y77.962 Z0 F1600
G1 X92.767 Y77.766 Z0 F1600
G1 X92.669 Y77.695 Z0 F1600
G1 X92.616 Y77.666 Z0 F1600
G1 X92.412 Y77.509 Z0 F1600
G1 X92.179 Y77.292 Z0 F1600
G1 X92.141 Y77.214 Z0 F1600
G1 X92.127 Y77.11 Z0 F1600
G1 X92.145 Y77.003 Z0 F1600
; --- FIX X Backlash ---
G0 X93.445 Y77.003 F1200
G1 X93.528 Y76.849 Z0 F1600
G1 X93.606 Y76.736 Z0 F1600
G1 X93.714 Y76.587 Z0 F1600
G1 X94.337 Y75.768 Z0 F1600
G1 X94.811 Y75.129 Z0 F1600
G1 X95.337 Y74.435 Z0 F1600
G1 X95.615 Y74.063 Z0 F1600
G1 X95.883 Y73.711 Z0 F1600
G1 X96.131 Y73.398 Z0 F1600
G1 X96.352 Y73.124 Z0 F1600
G1 X96.56 Y72.86 Z0 F1600
G1 X96.741 Y72.623 Z0 F1600
G1 X96.881 Y72.43 Z0 F1600
G1 X96.986 Y72.296 Z0 F1600
G1 X97.069 Y72.213 Z0 F1600
G1 X97.135 Y72.171 Z0 F1600
G1 X97.209 Y72.182 Z0 F1600
G1 X97.269 Y72.218 Z0 F1600
; --- FIX Y Backlash ---
G0 X97.269 Y73.518 F1200
G1 X97.356 Y73.578 Z0 F1600
G1 X97.886 Y73.979 Z0 F1600
G1 X98.075 Y74.124 Z0 F1600
G1 X98.21 Y74.234 Z0 F1600
G1 X98.3 Y74.316 Z0 F1600
G1 X98.374 Y74.428 Z0 F1600
G1 X98.358 Y74.522 Z0 F1600
G0 Z3.5 F1000
; --- FIX X Backlash ---
G0 X97.058 Y74.522 F1200
; --- FIX Y Backlash ---
G0 X97.058 Y73.222 F1200
G0 X91.775 Y51.198 Z3.5
G1 Z0 F1000
G1 X91.772 Y51.174 Z0 F1600
G1 X91.754 Y51.127 Z0 F1600
G1 X91.721 Y51.057 Z0 F1600
G1 X91.677 Y50.968 Z0 F1600
G1 X91.558 Y50.742 Z0 F1600
G1 X91.407 Y50.469 Z0 F1600
G1 X91.242 Y50.183 Z0 F1600
G1 X91.096 Y49.943 Z0 F1600
G1 X91.036 Y49.848 Z0 F1600
G1 X90.987 Y49.774 Z0 F1600
G1 X90.951 Y49.724 Z0 F1600
G1 X90.929 Y49.701 Z0 F1600
G1 X90.867 Y49.716 Z0 F1600
; --- FIX Y Backlash ---
G0 X90.867 Y51.016 F1200
G1 X90.768 Y51.097 Z0 F1600
G1 X90.648 Y51.223 Z0 F1600
G1 X90.52 Y51.375 Z0 F1600
G1 X90.402 Y51.534 Z0 F1600
G1 X90.308 Y51.68 Z0 F1600
G1 X90.253 Y51.794 Z0 F1600
G1 Y51.856 Z0 F1600
; --- FIX X Backlash ---
G0 X91.553 Y51.856 F1200
G1 X92.311 Y52.203 Z0 F1600
G1 X93.075 Y52.498 Z0 F1600
G0 Z3.5 F1000
; --- FIX Y Backlash ---
G0 X93.075 Y51.198 F1200
G0 X94.655 Y50.838 Z3.5
G1 Z0 F1000
; --- FIX Y Backlash ---
G0 X94.655 Y52.138 F1200
G1 X94.843 Y52.502 Z0 F1600
G1 X94.986 Y52.788 Z0 F1600
G1 X95.079 Y52.985 Z0 F1600
G1 X95.104 Y53.046 Z0 F1600
G1 X95.115 Y53.08 Z0 F1600
G1 X95.085 Y53.208 Z0 F1600
; --- FIX X Backlash ---
G0 X93.785 Y53.208 F1200
G1 X93.682 Y53.391 Z0 F1600
G1 X93.526 Y53.608 Z0 F1600
G1 X93.337 Y53.836 Z0 F1600
G1 X93.136 Y54.052 Z0 F1600
G1 X92.94 Y54.234 Z0 F1600
G1 X92.772 Y54.36 Z0 F1600
G1 X92.649 Y54.408 Z0 F1600
G1 X92.594 Y54.4 Z0 F1600
G1 X92.502 Y54.378 Z0 F1600
G1 X92.378 Y54.344 Z0 F1600
G1 X92.227 Y54.299 Z0 F1600
; --- FIX Y Backlash ---
G0 X92.227 Y52.999 F1200
G1 X91.864 Y52.881 Z0 F1600
G1 X91.452 Y52.738 Z0 F1600
G1 X88.778 Y51.777 Z0 F1600
G1 X88.093 Y51.529 Z0 F1600
G1 X87.585 Y51.34 Z0 F1600
G1 X87.39 Y51.264 Z0 F1600
G1 X87.229 Y51.199 Z0 F1600
G1 X87.099 Y51.142 Z0 F1600
G1 X86.918 Y51.048 Z0 F1600
G1 X86.819 Y50.969 Z0 F1600
G1 X86.775 Y50.894 Z0 F1600
G1 X86.759 Y50.809 Z0 F1600
G1 X86.769 Y50.678 Z0 F1600
; --- FIX X Backlash ---
G0 X88.069 Y50.678 F1200
G1 X88.125 Y50.506 Z0 F1600
G1 X88.222 Y50.3 Z0 F1600
G1 X88.357 Y50.071 Z0 F1600
G1 X88.487 Y49.878 Z0 F1600
G1 X88.604 Y49.733 Z0 F1600
G1 X88.716 Y49.635 Z0 F1600
G1 X88.834 Y49.58 Z0 F1600
G1 X88.967 Y49.566 Z0 F1600
G1 X89.122 Y49.59 Z0 F1600
; --- FIX Y Backlash ---
G0 X89.122 Y50.89 F1200
G1 X89.311 Y50.95 Z0 F1600
G1 X89.716 Y51.114 Z0 F1600
G1 X89.877 Y51.171 Z0 F1600
G1 X90.006 Y51.211 Z0 F1600
G1 X90.087 Y51.225 Z0 F1600
G1 X90.119 Y51.209 Z0 F1600
G1 X90.174 Y51.162 Z0 F1600
; --- FIX Y Backlash ---
G0 X90.174 Y49.862 F1200
G1 X90.248 Y49.79 Z0 F1600
G1 X90.338 Y49.696 Z0 F1600
G1 X90.551 Y49.458 Z0 F1600
G1 X90.786 Y49.181 Z0 F1600
G1 X91.017 Y48.899 Z0 F1600
G1 X91.215 Y48.643 Z0 F1600
G1 X91.293 Y48.535 Z0 F1600
G1 X91.353 Y48.446 Z0 F1600
G1 X91.392 Y48.38 Z0 F1600
G1 X91.406 Y48.341 Z0 F1600
G1 X91.384 Y48.287 Z0 F1600
; --- FIX X Backlash ---
G0 X90.084 Y48.287 F1200
G1 X90.025 Y48.176 Z0 F1600
G1 X89.939 Y48.024 Z0 F1600
G1 X89.833 Y47.848 Z0 F1600
G1 X89.727 Y47.658 Z0 F1600
G1 X89.641 Y47.471 Z0 F1600
G1 X89.584 Y47.306 Z0 F1600
G1 X89.564 Y47.187 Z0 F1600
G1 X89.595 Y47.068 Z0 F1600
; --- FIX X Backlash ---
G0 X90.895 Y47.068 F1200
G1 X90.977 Y46.908 Z0 F1600
G1 X91.099 Y46.726 Z0 F1600
G1 X91.25 Y46.539 Z0 F1600
G1 X91.37 Y46.404 Z0 F1600
G1 X91.476 Y46.289 Z0 F1600
G1 X91.572 Y46.198 Z0 F1600
G1 X91.662 Y46.135 Z0 F1600
G1 X91.749 Y46.103 Z0 F1600
G1 X91.837 Z0 F1600
G1 X91.93 Y46.146 Z0 F1600
; --- FIX Y Backlash ---
G0 X91.93 Y47.446 F1200
G1 X92.031 Y47.529 Z0 F1600
G1 X92.144 Y47.658 Z0 F1600
G1 X92.273 Y47.836 Z0 F1600
G1 X92.422 Y48.067 Z0 F1600
G1 X92.594 Y48.355 Z0 F1600
G1 X92.793 Y48.703 Z0 F1600
G1 X93.022 Y49.115 Z0 F1600
G1 X93.286 Y49.595 Z0 F1600
G1 X93.89 Y50.7 Z0 F1600
G1 X94.173 Y51.225 Z0 F1600
G1 X94.43 Y51.708 Z0 F1600
G1 X94.655 Y52.138 Z0 F1600
G0 Z3.5 F1000
; --- FIX Y Backlash ---
G0 X94.655 Y50.838 F1200
G0 X97.488 Y47.969 Z3.5
G1 Z0 F1000
G1 X97.61 Y48.001 Z0 F1600
G1 X97.711 Y47.985 Z0 F1600
G1 X97.821 Y47.935 Z0 F1600
G1 X97.944 Y47.85 Z0 F1600
G1 X98.085 Y47.733 Z0 F1600
G1 X98.269 Y47.54 Z0 F1600
G1 X98.402 Y47.333 Z0 F1600
G1 X98.485 Y47.119 Z0 F1600
G1 X98.516 Y46.907 Z0 F1600
G1 X98.497 Y46.705 Z0 F1600
; --- FIX X Backlash ---
G0 X97.197 Y46.705 F1200
G1 X97.126 Y46.521 Z0 F1600
G1 X97.003 Y46.363 Z0 F1600
G1 X96.829 Y46.239 Z0 F1600
G1 X96.598 Y46.146 Z0 F1600
G1 X96.407 Y46.11 Z0 F1600
G1 X96.234 Y46.134 Z0 F1600
; --- FIX Y Backlash ---
G0 X96.234 Y47.434 F1200
G1 X96.052 Y47.496 Z0 F1600
G1 X95.872 Y47.586 Z0 F1600
G1 X95.706 Y47.695 Z0 F1600
G1 X95.565 Y47.816 Z0 F1600
G1 X95.46 Y47.939 Z0 F1600
G1 X95.403 Y48.057 Z0 F1600
G1 Y48.16 Z0 F1600
G1 X95.45 Y48.249 Z0 F1600
; --- FIX X Backlash ---
G0 X96.75 Y48.249 F1200
G1 X96.836 Y48.399 Z0 F1600
G1 X96.951 Y48.59 Z0 F1600
G1 X97.083 Y48.8 Z0 F1600
G1 X97.233 Y49.021 Z0 F1600
G1 X97.365 Y49.176 Z0 F1600
G1 X97.488 Y49.269 Z0 F1600
G0 Z3.5 F1000
G0 X98.719 Y50.234 Z3.5
G1 Z0 F1000
; --- FIX X Backlash ---
G0 X97.419 Y50.234 F1200
G1 X96.969 Y50.579 Z0 F1600
G1 X96.601 Y50.856 Z0 F1600
G1 X96.305 Y51.069 Z0 F1600
G1 X96.075 Y51.226 Z0 F1600
G1 X95.902 Y51.33 Z0 F1600
G1 X95.778 Y51.389 Z0 F1600
G1 X95.695 Y51.407 Z0 F1600
G1 X95.625 Y51.381 Z0 F1600
; --- FIX Y Backlash ---
G0 X95.625 Y50.081 F1200
G1 X95.525 Y49.994 Z0 F1600
G1 X95.387 Y49.837 Z0 F1600
G1 X95.202 Y49.597 Z0 F1600
G1 X95.09 Y49.443 Z0 F1600
G1 X94.963 Y49.263 Z0 F1600
G1 X94.82 Y49.058 Z0 F1600
G1 X94.482 Y48.562 Z0 F1600
G1 X94.069 Y47.944 Z0 F1600
G1 X93.496 Y47.076 Z0 F1600
G1 X93.181 Y46.592 Z0 F1600
G1 X92.895 Y46.145 Z0 F1600
G1 X92.643 Y45.748 Z0 F1600
G1 X92.433 Y45.41 Z0 F1600
G1 X92.272 Y45.143 Z0 F1600
G1 X92.213 Y45.04 Z0 F1600
G1 X92.168 Y44.959 Z0 F1600
G1 X92.139 Y44.901 Z0 F1600
G1 X92.126 Y44.867 Z0 F1600
G1 X92.131 Y44.754 Z0 F1600
; --- FIX X Backlash ---
G0 X93.431 Y44.754 F1200
G1 X93.496 Y44.632 Z0 F1600
G1 X93.635 Y44.485 Z0 F1600
G1 X93.86 Y44.297 Z0 F1600
G1 X94.105 Y44.112 Z0 F1600
G1 X94.308 Y43.988 Z0 F1600
G1 X94.48 Y43.929 Z0 F1600
G1 X94.635 Y43.94 Z0 F1600
; --- FIX Y Backlash ---
G0 X94.635 Y45.24 F1200
G1 X94.785 Y45.323 Z0 F1600
G1 X94.944 Y45.484 Z0 F1600
G1 X95.124 Y45.725 Z0 F1600
G1 X95.338 Y46.052 Z0 F1600
G1 X95.473 Y46.261 Z0 F1600
G1 X95.592 Y46.441 Z0 F1600
G1 X95.698 Y46.59 Z0 F1600
G1 X95.79 Y46.707 Z0 F1600
G1 X95.869 Y46.792 Z0 F1600
G1 X95.938 Y46.845 Z0 F1600
G1 X95.996 Y46.863 Z0 F1600
G1 X96.045 Y46.847 Z0 F1600
; --- FIX Y Backlash ---
G0 X96.045 Y45.547 F1200
G1 X96.086 Y45.496 Z0 F1600
G1 X96.119 Y45.409 Z0 F1600
G1 X96.147 Y45.285 Z0 F1600
G1 X96.169 Y45.124 Z0 F1600
G1 X96.187 Y44.924 Z0 F1600
G1 X96.201 Y44.686 Z0 F1600
G1 X96.214 Y44.408 Z0 F1600
G1 X96.225 Y44.089 Z0 F1600
G1 X96.247 Y43.531 Z0 F1600
G1 X96.275 Y43.066 Z0 F1600
G1 X96.289 Y42.882 Z0 F1600
G1 X96.304 Y42.741 Z0 F1600
G1 X96.318 Y42.646 Z0 F1600
G1 X96.331 Y42.605 Z0 F1600
G1 X96.397 Y42.561 Z0 F1600
G1 X96.53 Y42.485 Z0 F1600
G1 X96.712 Y42.39 Z0 F1600
G1 X96.922 Y42.284 Z0 F1600
G1 X97.215 Y42.144 Z0 F1600
G1 X97.436 Y42.056 Z0 F1600
G1 X97.595 Y42.033 Z0 F1600
; --- FIX Y Backlash ---
G0 X97.595 Y43.333 F1200
G1 X97.704 Y43.386 Z0 F1600
G1 X97.742 Y43.445 Z0 F1600
G1 X97.772 Y43.528 Z0 F1600
G1 X97.794 Y43.635 Z0 F1600
G1 X97.81 Y43.77 Z0 F1600
G1 X97.822 Y43.932 Z0 F1600
G1 X97.83 Y44.124 Z0 F1600
G1 X97.836 Y44.347 Z0 F1600
G1 X97.867 Y45.844 Z0 F1600
G1 X98.322 Y45.906 Z0 F1600
G1 X98.679 Y45.99 Z0 F1600
G1 X99.015 Y46.136 Z0 F1600
G1 X99.321 Y46.337 Z0 F1600
G1 X99.593 Y46.586 Z0 F1600
G1 X99.823 Y46.876 Z0 F1600
G1 X100.004 Y47.2 Z0 F1600
G1 X100.13 Y47.55 Z0 F1600
G1 X100.195 Y47.92 Z0 F1600
G1 X100.209 Y48.214 Z0 F1600
G1 X100.186 Y48.446 Z0 F1600
; --- FIX X Backlash ---
G0 X98.886 Y48.446 F1200
G1 X98.815 Y48.673 Z0 F1600
G1 X98.683 Y48.951 Z0 F1600
G1 X98.542 Y49.188 Z0 F1600
G1 X98.371 Y49.415 Z0 F1600
G1 X98.175 Y49.626 Z0 F1600
G1 X97.959 Y49.814 Z0 F1600
G1 X97.419 Y50.234 Z0 F1600
G0 Z3.5 F1000
; --- FIX X Backlash ---
G0 X98.719 Y50.234 F1200
; --- FIX Y Backlash ---
G0 X98.719 Y48.934 F1200
G0 X101.386 Y47.355 Z3.5
G1 Z0 F1000
; --- FIX X Backlash ---
G0 X100.086 Y47.355 F1200
G1 X100.025 Y47.286 Z0 F1600
G1 X99.954 Y47.135 Z0 F1600
G1 X99.879 Y46.931 Z0 F1600
G1 X99.809 Y46.699 Z0 F1600
G1 X99.75 Y46.465 Z0 F1600
G1 X99.71 Y46.255 Z0 F1600
G1 X99.696 Y46.097 Z0 F1600
G1 X99.716 Y46.016 Z0 F1600
G1 X99.746 Y45.998 Z0 F1600
; --- FIX X Backlash ---
G0 X101.046 Y45.998 F1200
G1 X101.104 Y45.973 Z0 F1600
G1 X101.187 Y45.942 Z0 F1600
G1 X101.291 Y45.906 Z0 F1600
G1 X101.549 Y45.824 Z0 F1600
G1 X101.85 Y45.736 Z0 F1600
G1 X102.149 Y45.644 Z0 F1600
G1 X102.399 Y45.554 Z0 F1600
G1 X102.498 Y45.512 Z0 F1600
G1 X102.575 Y45.475 Z0 F1600
G1 X102.627 Y45.443 Z0 F1600
G1 X102.65 Y45.418 Z0 F1600
G1 Y45.375 Z0 F1600
G1 X102.64 Y45.29 Z0 F1600
G1 X102.618 Y45.168 Z0 F1600
G1 X102.585 Y45.015 Z0 F1600
; --- FIX X Backlash ---
G0 X101.285 Y45.015 F1200
G1 X101.192 Y44.634 Z0 F1600
G1 X101.072 Y44.188 Z0 F1600
G1 X100.761 Y43.047 Z0 F1600
G1 X100.48 Y41.959 Z0 F1600
G1 X100.366 Y41.495 Z0 F1600
G1 X100.277 Y41.115 Z0 F1600
G1 X100.244 Y40.964 Z0 F1600
G1 X100.219 Y40.844 Z0 F1600
G1 X100.204 Y40.756 Z0 F1600
G1 X100.199 Y40.704 Z0 F1600
G1 X100.236 Y40.633 Z0 F1600
; --- FIX X Backlash ---
G0 X101.536 Y40.633 F1200
G1 X101.645 Y40.555 Z0 F1600
G1 X101.823 Y40.471 Z0 F1600
G1 X102.067 Y40.384 Z0 F1600
G1 X102.309 Y40.315 Z0 F1600
G1 X102.547 Y40.261 Z0 F1600
G1 X102.755 Y40.228 Z0 F1600
G1 X102.904 Y40.221 Z0 F1600
G1 X103.009 Y40.23 Z0 F1600
G1 X103.093 Y40.263 Z0 F1600
; --- FIX Y Backlash ---
G0 X103.093 Y41.563 F1200
G1 X103.169 Y41.657 Z0 F1600
G1 X103.249 Y41.847 Z0 F1600
G1 X103.295 Y41.991 Z0 F1600
G1 X103.346 Y42.172 Z0 F1600
G1 X103.405 Y42.395 Z0 F1600
G1 X103.473 Y42.666 Z0 F1600
G1 X103.642 Y43.366 Z0 F1600
G1 X103.866 Y44.309 Z0 F1600
G1 X104.049 Y45.072 Z0 F1600
G1 X104.205 Y45.706 Z0 F1600
G1 X104.317 Y46.147 Z0 F1600
G1 X104.352 Y46.273 Z0 F1600
G1 X104.37 Y46.327 Z0 F1600
G1 X104.421 Y46.343 Z0 F1600
G1 X104.529 Y46.337 Z0 F1600
G1 X104.677 Y46.31 Z0 F1600
G1 X104.85 Y46.265 Z0 F1600
; --- FIX Y Backlash ---
G0 X104.85 Y44.965 F1200
G1 X105.29 Y44.866 Z0 F1600
G1 X105.732 Y44.811 Z0 F1600
G1 X106.176 Y44.788 Z0 F1600
; --- FIX Y Backlash ---
G0 X106.176 Y46.088 F1200
G1 X106.284 Y46.542 Z0 F1600
G1 X106.362 Y46.936 Z0 F1600
G1 X106.4 Y47.243 Z0 F1600
G1 X106.404 Y47.334 Z0 F1600
G1 X106.393 Y47.404 Z0 F1600
; --- FIX X Backlash ---
G0 X105.093 Y47.404 F1200
G1 X105.041 Y47.463 Z0 F1600
G1 X104.924 Y47.519 Z0 F1600
G1 X104.832 Y47.549 Z0 F1600
G1 X104.715 Y47.582 Z0 F1600
G1 X104.568 Y47.618 Z0 F1600
G1 X104.39 Y47.66 Z0 F1600
G1 X103.923 Y47.763 Z0 F1600
G1 X103.29 Y47.901 Z0 F1600
G1 X102.201 Y48.156 Z0 F1600
G1 X101.178 Y48.424 Z0 F1600
G1 X100.836 Y48.516 Z0 F1600
G1 X100.532 Y48.589 Z0 F1600
G1 X100.288 Y48.638 Z0 F1600
G1 X100.129 Y48.658 Z0 F1600
G1 X100.103 Z0 F1600
G1 X100.086 Y48.655 Z0 F1600
G0 Z3.5 F1000

; Color picking sequence
G1 Z10 F1000;         ; Raise brush
G0 X41 Y5 F1200;    ; Rapid move to color 1
G1 Z10 F1000;         ; Raise brush
G0 X41 Y5 F1200;    ; Rapid move to color 1
G1 Z0 F1000;         ; Lower into color
G1 X40.102 Y7.295 Z0 S800 F1200
G1 X40.026 Y7.642 Z0 F1200
G1 X40 Y8 Z0 F1200
G1 X40.026 Y8.358 Z0 F1200
G1 X40.102 Y8.705 Z0 F1200
G1 X40.225 Y9.041 Z0 F1200
G1 X40.393 Y9.362 Z0 F1200
G1 X40.603 Y9.668 Z0 F1200
G1 X40.854 Y9.957 Z0 F1200
G1 X41.142 Y10.226 Z0 F1200
G1 X41.464 Y10.475 Z0 F1200
G1 X41.82 Y10.701 Z0 F1200
G1 X42.204 Y10.902 Z0 F1200
G1 X42.617 Y11.078 Z0 F1200
G1 X43.054 Y11.225 Z0 F1200
G1 X43.513 Y11.343 Z0 F1200
G1 X43.992 Y11.429 Z0 F1200
G1 X44.489 Y11.482 Z0 F1200
G1 X45 Y11.5 Z0 F1200
G1 X45.511 Y11.482 Z0 F1200
G1 X46.008 Y11.429 Z0 F1200
G1 X46.487 Y11.343 Z0 F1200
G1 X46.946 Y11.225 Z0 F1200
G1 X47.383 Y11.078 Z0 F1200
G1 X47.796 Y10.902 Z0 F1200
G1 X48.18 Y10.701 Z0 F1200
G1 X48.536 Y10.475 Z0 F1200
G1 X48.858 Y10.226 Z0 F1200
G1 X49.146 Y9.957 Z0 F1200
G1 X49.397 Y9.668 Z0 F1200
G1 X49.607 Y9.362 Z0 F1200
G1 X49.775 Y9.041 Z0 F1200
G1 X49.898 Y8.705 Z0 F1200
G1 X49.974 Y8.358 Z0 F1200
G1 X50 Y8 Z0 F1200
G1 X49.974 Y7.642 Z0 F1200
G1 X49.898 Y7.295 Z0 F1200
G1 X49.775 Y6.959 Z0 F1200
G1 X49.607 Y6.638 Z0 F1200
G1 X49.397 Y6.332 Z0 F1200
G1 X49.146 Y6.043 Z0 F1200
G1 X48.858 Y5.774 Z0 F1200
G1 X48.536 Y5.525 Z0 F1200
G1 X48.18 Y5.299 Z0 F1200
G1 X47.796 Y5.098 Z0 F1200
G1 X47.383 Y4.922 Z0 F1200
G1 X46.946 Y4.775 Z0 F1200
G1 X46.487 Y4.657 Z0 F1200
G1 X46.008 Y4.571 Z0 F1200
G1 X45.511 Y4.518 Z0 F1200
G1 X45 Y4.5 Z0 F1200
G1 X44.489 Y4.518 Z0 F1200
G1 X43.992 Y4.571 Z0 F1200
G1 X43.513 Y4.657 Z0 F1200
G1 X43.054 Y4.775 Z0 F1200
G1 X42.617 Y4.922 Z0 F1200
G1 X42.204 Y5.098 Z0 F1200
G1 X41.82 Y5.299 Z0 F1200
G1 X41.464 Y5.525 Z0 F1200
G1 X41.142 Y5.774 Z0 F1200
G1 X40.854 Y6.043 Z0 F1200
G1 X40.603 Y6.332 Z0 F1200
G1 X40.393 Y6.638 Z0 F1200
G1 X40.225 Y6.959 Z0 F1200
G1 Z7 F800;         ; Raise from color
G1 X34 Y8 Z1 F1200;     ; Movement in paint
G1 X24 Y18 Z8 F500;     ; Move in paint
G1 F1200;           ; Set feed rate
G0 Z5 F1000 ; Safety Lift
; --- FIX X Backlash ---
G0 X101.386 Y48.655 F1200
; --- FIX Y Backlash ---
G0 X101.386 Y47.355 F1200
G0 X107.746 Y46.115 Z3.5
G1 Z0 F1000
G1 X107.738 Y46.089 Z0 F1600
G1 X107.731 Y46.029 Z0 F1600
G1 X107.726 Y45.938 Z0 F1600
G1 X107.722 Y45.819 Z0 F1600
G1 Y45.503 Z0 F1600
G1 Y45.1 Z0 F1600
G1 X107.732 Y44.625 Z0 F1600
G1 X107.745 Y44.098 Z0 F1600
G1 X107.762 Y43.535 Z0 F1600
G1 X107.782 Y42.954 Z0 F1600
G1 X107.804 Y42.372 Z0 F1600
G1 X107.828 Y41.808 Z0 F1600
G1 X107.854 Y41.278 Z0 F1600
G1 X107.88 Y40.8 Z0 F1600
G1 X107.906 Y40.393 Z0 F1600
G1 X107.931 Y40.072 Z0 F1600
G1 X107.943 Y39.95 Z0 F1600
G1 X107.955 Y39.857 Z0 F1600
G1 X107.966 Y39.794 Z0 F1600
G1 X107.977 Y39.764 Z0 F1600
G1 X108.037 Y39.723 Z0 F1600
G1 X108.138 Y39.691 Z0 F1600
G1 X108.275 Y39.668 Z0 F1600
G1 X108.44 Y39.656 Z0 F1600
G1 X108.83 Y39.661 Z0 F1600
G1 X109.253 Y39.709 Z0 F1600
; --- FIX Y Backlash ---
G0 X109.253 Y41.009 F1200
G1 X109.597 Y41.066 Z0 F1600
; --- FIX X Backlash ---
G0 X108.297 Y41.066 F1200
G1 X108.236 Y43.84 Z0 F1600
G1 X108.213 Y44.727 Z0 F1600
G1 X108.191 Y45.491 Z0 F1600
G1 X108.168 Y46.13 Z0 F1600
G1 X108.146 Y46.646 Z0 F1600
G1 X108.123 Y47.038 Z0 F1600
G1 X108.112 Y47.187 Z0 F1600
G1 X108.101 Y47.306 Z0 F1600
G1 X108.09 Y47.395 Z0 F1600
G1 X108.078 Y47.452 Z0 F1600
G1 X108.067 Y47.479 Z0 F1600
G1 X107.98 Y47.5 Z0 F1600
G1 X107.794 Y47.51 Z0 F1600
G1 X107.403 Z0 F1600
G1 X106.974 Y47.488 Z0 F1600
G1 X106.781 Y47.474 Z0 F1600
G1 X106.619 Y47.456 Z0 F1600
G1 X106.503 Y47.437 Z0 F1600
G1 X106.446 Y47.415 Z0 F1600
G0 Z3.5 F1000
; --- FIX X Backlash ---
G0 X107.746 Y47.415 F1200
; --- FIX Y Backlash ---
G0 X107.746 Y46.115 F1200
G0 X111.302 Y45.54 Z3.5
G1 Z0 F1000
; --- FIX X Backlash ---
G0 X110.002 Y45.54 F1200
G1 X109.939 Y45.298 Z0 F1600
G1 X109.909 Y45.051 Z0 F1600
G1 X109.912 Y44.803 Z0 F1600
G1 X109.949 Y44.555 Z0 F1600
; --- FIX X Backlash ---
G0 X111.249 Y44.555 F1200
G1 X111.322 Y44.313 Z0 F1600
G1 X111.431 Y44.077 Z0 F1600
G1 X111.578 Y43.852 Z0 F1600
G1 X111.762 Y43.641 Z0 F1600
G1 X111.914 Y43.503 Z0 F1600
G1 X112.072 Y43.388 Z0 F1600
G1 X112.246 Y43.295 Z0 F1600
G1 X112.444 Y43.219 Z0 F1600
G1 X112.674 Y43.159 Z0 F1600
G1 X112.944 Y43.112 Z0 F1600
G1 X113.262 Y43.075 Z0 F1600
G1 X113.974 Y43.019 Z0 F1600
G1 X114.246 Y42.983 Z0 F1600
G1 X114.46 Y42.936 Z0 F1600
G1 X114.622 Y42.875 Z0 F1600
G1 X114.737 Y42.796 Z0 F1600
G1 X114.812 Y42.696 Z0 F1600
G1 X114.853 Y42.573 Z0 F1600
G1 X114.865 Y42.423 Z0 F1600
G1 X114.853 Y42.266 Z0 F1600
G1 X114.814 Y42.144 Z0 F1600
; --- FIX X Backlash ---
G0 X113.514 Y42.144 F1200
G1 X113.442 Y42.044 Z0 F1600
G1 X113.329 Y41.955 Z0 F1600
G1 X113.184 Y41.88 Z0 F1600
G1 X113.008 Y41.823 Z0 F1600
G1 X112.81 Y41.783 Z0 F1600
G1 X112.598 Y41.762 Z0 F1600
G1 X112.172 Y41.775 Z0 F1600
; --- FIX Y Backlash ---
G0 X112.172 Y43.075 F1200
G1 X111.801 Y43.168 Z0 F1600
G1 X111.655 Y43.225 Z0 F1600
G1 X111.516 Y43.271 Z0 F1600
G1 X111.399 Y43.303 Z0 F1600
G1 X111.321 Y43.314 Z0 F1600
G1 X111.256 Y43.275 Z0 F1600
; --- FIX Y Backlash ---
G0 X111.256 Y41.975 F1200
G1 X111.172 Y41.87 Z0 F1600
G1 X111.078 Y41.717 Z0 F1600
G1 X110.981 Y41.532 Z0 F1600
G1 X110.891 Y41.334 Z0 F1600
G1 X110.816 Y41.139 Z0 F1600
G1 X110.765 Y40.966 Z0 F1600
G1 X110.746 Y40.833 Z0 F1600
G1 X110.786 Y40.703 Z0 F1600
; --- FIX X Backlash ---
G0 X112.086 Y40.703 F1200
G1 X112.204 Y40.584 Z0 F1600
G1 X112.402 Y40.473 Z0 F1600
G1 X112.678 Y40.373 Z0 F1600
G1 X112.883 Y40.328 Z0 F1600
G1 X113.136 Y40.301 Z0 F1600
G1 X113.42 Y40.29 Z0 F1600
G1 X113.722 Y40.296 Z0 F1600
G1 X114.029 Y40.318 Z0 F1600
G1 X114.324 Y40.355 Z0 F1600
; --- FIX Y Backlash ---
G0 X114.324 Y41.655 F1200
G1 X114.596 Y41.706 Z0 F1600
G1 X114.828 Y41.771 Z0 F1600
G1 X115.237 Y41.931 Z0 F1600
G1 X115.585 Y42.109 Z0 F1600
G1 X115.875 Y42.308 Z0 F1600
G1 X116.112 Y42.533 Z0 F1600
G1 X116.296 Y42.787 Z0 F1600
G1 X116.432 Y43.072 Z0 F1600
G1 X116.523 Y43.392 Z0 F1600
G1 X116.57 Y43.751 Z0 F1600
G1 X116.578 Y44.007 Z0 F1600
G1 X116.564 Y44.243 Z0 F1600
G1 X116.526 Y44.461 Z0 F1600
; --- FIX X Backlash ---
G0 X115.226 Y44.461 F1200
G1 X115.164 Y44.662 Z0 F1600
G1 X115.077 Y44.849 Z0 F1600
G1 X114.965 Y45.023 Z0 F1600
G1 X114.827 Y45.187 Z0 F1600
G1 X114.663 Y45.341 Z0 F1600
G1 X114.373 Y45.541 Z0 F1600
G1 X114.022 Y45.677 Z0 F1600
G1 X113.798 Y45.728 Z0 F1600
G1 X113.529 Y45.771 Z0 F1600
G1 X113.206 Y45.809 Z0 F1600
G1 X112.47 Y45.876 Z0 F1600
G1 X112.189 Y45.912 Z0 F1600
G1 X111.97 Y45.955 Z0 F1600
G1 X111.806 Y46.007 Z0 F1600
G1 X111.691 Y46.071 Z0 F1600
G1 X111.616 Y46.151 Z0 F1600
G1 X111.576 Y46.247 Z0 F1600
G1 X111.565 Y46.365 Z0 F1600
G1 X111.597 Y46.532 Z0 F1600
; --- FIX X Backlash ---
G0 X112.897 Y46.532 F1200
G1 X112.986 Y46.68 Z0 F1600
G1 X113.126 Y46.805 Z0 F1600
G1 X113.306 Y46.904 Z0 F1600
G1 X113.518 Y46.973 Z0 F1600
G1 X113.754 Y47.009 Z0 F1600
G1 X114.005 Z0 F1600
G1 X114.262 Y46.964 Z0 F1600
G1 X114.432 Y46.924 Z0 F1600
G1 X114.592 Y46.891 Z0 F1600
G1 X114.723 Y46.869 Z0 F1600
G1 X114.808 Y46.86 Z0 F1600
G1 X114.868 Y46.898 Z0 F1600
G1 X114.943 Y46.998 Z0 F1600
G1 X115.028 Y47.145 Z0 F1600
G1 X115.113 Y47.323 Z0 F1600
G1 X115.192 Y47.514 Z0 F1600
G1 X115.258 Y47.702 Z0 F1600
G1 X115.303 Y47.872 Z0 F1600
G1 X115.32 Y48.005 Z0 F1600
G1 X115.294 Y48.09 Z0 F1600
; --- FIX X Backlash ---
G0 X113.994 Y48.09 F1200
G1 X113.919 Y48.166 Z0 F1600
G1 X113.802 Y48.232 Z0 F1600
G1 X113.647 Y48.289 Z0 F1600
G1 X113.249 Y48.369 Z0 F1600
G1 X112.768 Y48.401 Z0 F1600
G1 X112.46 Y48.396 Z0 F1600
G1 X112.148 Y48.371 Z0 F1600
G1 X111.842 Y48.326 Z0 F1600
; --- FIX Y Backlash ---
G0 X111.842 Y47.026 F1200
G1 X111.551 Y46.959 Z0 F1600
G1 X111.265 Y46.86 Z0 F1600
G1 X111.003 Y46.733 Z0 F1600
G1 X110.766 Y46.58 Z0 F1600
G1 X110.556 Y46.405 Z0 F1600
G1 X110.374 Y46.21 Z0 F1600
G1 X110.22 Y46 Z0 F1600
G1 X110.096 Y45.775 Z0 F1600
G1 X110.002 Y45.54 Z0 F1600
G0 Z3.5 F1000
; --- FIX X Backlash ---
G0 X111.302 Y45.54 F1200
; --- FIX Y Backlash ---
G0 X111.302 Y46.84 F1200
G0 X116.32 Y48.127 Z3.5
G1 Z0 F1000
; --- FIX Y Backlash ---
G0 X116.32 Y46.827 F1200
G1 X116.429 Y46.69 Z0 F1600
G1 X116.541 Y46.606 Z0 F1600
G1 X116.665 Y46.575 Z0 F1600
G1 X116.809 Y46.596 Z0 F1600
; --- FIX Y Backlash ---
G0 X116.809 Y47.896 F1200
G1 X116.984 Y47.968 Z0 F1600
G1 X117.197 Y48.092 Z0 F1600
G1 X117.457 Y48.266 Z0 F1600
G1 X118.037 Y48.672 Z0 F1600
; --- FIX Y Backlash ---
G0 X118.037 Y47.372 F1200
G1 X118.426 Y46.832 Z0 F1600
G1 X118.665 Y46.486 Z0 F1600
G1 X119.152 Y45.77 Z0 F1600
G1 X119.854 Y44.725 Z0 F1600
G1 X120.171 Y44.256 Z0 F1600
G1 X120.424 Y43.889 Z0 F1600
G1 X120.577 Y43.674 Z0 F1600
G1 X120.676 Y43.559 Z0 F1600
G1 X120.784 Y43.465 Z0 F1600
G1 X120.887 Y43.401 Z0 F1600
G1 X120.973 Y43.378 Z0 F1600
G1 X121.098 Y43.409 Z0 F1600
; --- FIX Y Backlash ---
G0 X121.098 Y44.709 F1200
G1 X121.274 Y44.791 Z0 F1600
G1 X121.48 Y44.91 Z0 F1600
G1 X121.695 Y45.052 Z0 F1600
G1 X121.898 Y45.202 Z0 F1600
G1 X122.069 Y45.345 Z0 F1600
G1 X122.186 Y45.468 Z0 F1600
G1 X122.23 Y45.555 Z0 F1600
G1 X122.21 Y45.637 Z0 F1600
; --- FIX X Backlash ---
G0 X120.91 Y45.637 F1200
G1 X120.855 Y45.753 Z0 F1600
G1 X120.774 Y45.889 Z0 F1600
G1 X120.675 Y46.029 Z0 F1600
G1 X120.601 Y46.129 Z0 F1600
G1 X120.488 Y46.288 Z0 F1600
G1 X120.169 Y46.748 Z0 F1600
G1 X119.762 Y47.345 Z0 F1600
G1 X119.313 Y48.013 Z0 F1600
G1 X118.207 Y49.665 Z0 F1600
; --- FIX X Backlash ---
G0 X119.507 Y49.665 F1200
G1 X120.141 Y50.135 Z0 F1600
G1 X120.387 Y50.328 Z0 F1600
G1 X120.589 Y50.506 Z0 F1600
G1 X120.667 Y50.583 Z0 F1600
G1 X120.725 Y50.648 Z0 F1600
G1 X120.763 Y50.7 Z0 F1600
G1 X120.776 Y50.736 Z0 F1600
G1 X120.747 Y50.848 Z0 F1600
; --- FIX X Backlash ---
G0 X119.447 Y50.848 F1200
G1 X119.369 Y50.997 Z0 F1600
G1 X119.255 Y51.167 Z0 F1600
G1 X119.119 Y51.342 Z0 F1600
G1 X118.974 Y51.505 Z0 F1600
G1 X118.832 Y51.642 Z0 F1600
G1 X118.708 Y51.736 Z0 F1600
G1 X118.615 Y51.771 Z0 F1600
G1 X118.56 Y51.757 Z0 F1600
G1 X118.475 Y51.72 Z0 F1600
; --- FIX Y Backlash ---
G0 X118.475 Y50.42 F1200
G1 X118.363 Y50.36 Z0 F1600
G1 X118.23 Y50.282 Z0 F1600
G1 X117.916 Y50.077 Z0 F1600
G1 X117.566 Y49.827 Z0 F1600
G1 X116.655 Y49.17 Z0 F1600
G1 X115.679 Y48.492 Z0 F1600
G1 X115.442 Y48.329 Z0 F1600
G1 X115.235 Y48.181 Z0 F1600
G1 X115.059 Y48.049 Z0 F1600
G1 X114.915 Y47.934 Z0 F1600
G1 X114.802 Y47.834 Z0 F1600
G1 X114.721 Y47.751 Z0 F1600
G1 X114.673 Y47.685 Z0 F1600
G1 X114.656 Y47.635 Z0 F1600
G1 X114.676 Y47.535 Z0 F1600
; --- FIX X Backlash ---
G0 X115.976 Y47.535 F1200
G1 X116.03 Y47.385 Z0 F1600
G1 X116.109 Y47.206 Z0 F1600
G1 X116.206 Y47.017 Z0 F1600
G1 X116.32 Y46.827 Z0 F1600
G0 Z3.5 F1000
; --- FIX Y Backlash ---
G0 X116.32 Y48.127 F1200
G0 X121.656 Y51.106 Z3.5
G1 Z0 F1000
; --- FIX Y Backlash ---
G0 X121.656 Y49.806 F1200
G1 X121.878 Y49.635 Z0 F1600
G1 X122.117 Y49.498 Z0 F1600
G1 X122.368 Y49.396 Z0 F1600
G1 X122.623 Y49.333 Z0 F1600
G1 X122.879 Y49.311 Z0 F1600
G1 X123.13 Y49.333 Z0 F1600
G1 X123.213 Y49.354 Z0 F1600
G1 X123.323 Y49.391 Z0 F1600
; --- FIX Y Backlash ---
G0 X123.323 Y50.691 F1200
G1 X123.456 Y50.743 Z0 F1600
G1 X123.607 Y50.807 Z0 F1600
G1 X123.943 Y50.962 Z0 F1600
G1 X124.293 Y51.141 Z0 F1600
G1 X124.598 Y51.299 Z0 F1600
G1 X124.855 Y51.42 Z0 F1600
G1 X125.071 Y51.506 Z0 F1600
G1 X125.251 Y51.558 Z0 F1600
G1 X125.401 Y51.577 Z0 F1600
G1 X125.526 Y51.563 Z0 F1600
G1 X125.632 Y51.519 Z0 F1600
; --- FIX Y Backlash ---
G0 X125.632 Y50.219 F1200
G1 X125.725 Y50.146 Z0 F1600
G1 X125.805 Y50.042 Z0 F1600
G1 X125.853 Y49.928 Z0 F1600
G1 X125.87 Y49.806 Z0 F1600
G1 X125.858 Y49.678 Z0 F1600
; --- FIX X Backlash ---
G0 X124.558 Y49.678 F1200
G1 X124.456 Y49.415 Z0 F1600
G1 X124.266 Y49.159 Z0 F1600
G1 X124.004 Y48.926 Z0 F1600
G1 X123.687 Y48.737 Z0 F1600
G1 X123.333 Y48.609 Z0 F1600
G1 X122.959 Y48.562 Z0 F1600
G1 X122.799 Y48.53 Z0 F1600
G1 X122.694 Y48.454 Z0 F1600
G1 X122.665 Y48.358 Z0 F1600
G1 X122.649 Y48.201 Z0 F1600
G1 X122.645 Y48.003 Z0 F1600
G1 X122.653 Y47.784 Z0 F1600
G1 X122.67 Y47.567 Z0 F1600
G1 X122.695 Y47.371 Z0 F1600
G1 X122.728 Y47.219 Z0 F1600
G1 X122.767 Y47.129 Z0 F1600
; --- FIX X Backlash ---
G0 X124.067 Y47.129 F1200
G1 X124.171 Y47.048 Z0 F1600
G1 X124.325 Y47.023 Z0 F1600
G1 X124.433 Y47.032 Z0 F1600
G1 X124.568 Y47.055 Z0 F1600
G1 X124.734 Y47.093 Z0 F1600
; --- FIX Y Backlash ---
G0 X124.734 Y48.393 F1200
G1 X124.937 Y48.445 Z0 F1600
G1 X125.422 Y48.612 Z0 F1600
G1 X125.864 Y48.847 Z0 F1600
G1 X126.278 Y49.16 Z0 F1600
G1 X126.678 Y49.561 Z0 F1600
G1 X127.011 Y49.986 Z0 F1600
G1 X127.256 Y50.412 Z0 F1600
G1 X127.413 Y50.836 Z0 F1600
G1 X127.48 Y51.252 Z0 F1600
G1 X127.459 Y51.656 Z0 F1600
; --- FIX X Backlash ---
G0 X126.159 Y51.656 F1200
G1 X126.049 Y52.043 Z0 F1600
G1 X125.849 Y52.41 Z0 F1600
G1 X125.559 Y52.751 Z0 F1600
G1 X125.223 Y53.004 Z0 F1600
G1 X124.823 Y53.183 Z0 F1600
G1 X124.612 Y53.241 Z0 F1600
G1 X124.401 Y53.276 Z0 F1600
G1 X124.195 Y53.285 Z0 F1600
G1 X124 Y53.267 Z0 F1600
G1 X123.906 Y53.245 Z0 F1600
G1 X123.785 Y53.207 Z0 F1600
; --- FIX Y Backlash ---
G0 X123.785 Y51.907 F1200
G1 X123.642 Y51.855 Z0 F1600
G1 X123.482 Y51.791 Z0 F1600
G1 X123.131 Y51.637 Z0 F1600
G1 X122.427 Y51.287 Z0 F1600
G1 X122.111 Y51.146 Z0 F1600
G1 X121.974 Y51.092 Z0 F1600
G1 X121.858 Y51.051 Z0 F1600
G1 X121.767 Y51.025 Z0 F1600
G1 X121.705 Y51.016 Z0 F1600
G1 X121.541 Y51.056 Z0 F1600
; --- FIX Y Backlash ---
G0 X121.541 Y52.356 F1200
G1 X121.411 Y52.468 Z0 F1600
G1 X121.325 Y52.638 Z0 F1600
G1 X121.294 Y52.853 Z0 F1600
G1 X121.318 Y52.962 Z0 F1600
; --- FIX X Backlash ---
G0 X122.618 Y52.962 F1200
G1 X122.685 Y53.086 Z0 F1600
G1 X122.787 Y53.218 Z0 F1600
G1 X122.919 Y53.352 Z0 F1600
G1 X123.243 Y53.601 Z0 F1600
G1 X123.599 Y53.781 Z0 F1600
G1 X124.003 Y53.928 Z0 F1600
G1 X123.979 Y54.372 Z0 F1600
G1 X123.963 Y54.634 Z0 F1600
G1 X123.943 Y54.837 Z0 F1600
G1 X123.917 Y54.987 Z0 F1600
G1 X123.88 Y55.093 Z0 F1600
; --- FIX X Backlash ---
G0 X122.58 Y55.093 F1200
G1 X122.527 Y55.163 Z0 F1600
G1 X122.457 Y55.203 Z0 F1600
G1 X122.364 Y55.221 Z0 F1600
G1 X122.244 Y55.226 Z0 F1600
G1 X121.963 Y55.188 Z0 F1600
; --- FIX Y Backlash ---
G0 X121.963 Y53.888 F1200
G1 X121.652 Y53.781 Z0 F1600
G1 X121.327 Y53.615 Z0 F1600
G1 X121.002 Y53.4 Z0 F1600
G1 X120.691 Y53.148 Z0 F1600
G1 X120.408 Y52.869 Z0 F1600
G1 X120.167 Y52.573 Z0 F1600
G1 X119.983 Y52.27 Z0 F1600
G1 X119.874 Y52.012 Z0 F1600
G1 X119.796 Y51.743 Z0 F1600
G1 X119.75 Y51.468 Z0 F1600
G1 X119.734 Y51.195 Z0 F1600
G1 X119.75 Y50.928 Z0 F1600
G1 X119.796 Y50.676 Z0 F1600
; --- FIX X Backlash ---
G0 X121.096 Y50.676 F1200
G1 X121.174 Y50.442 Z0 F1600
G1 X121.284 Y50.235 Z0 F1600
G1 X121.456 Y50.006 Z0 F1600
G1 X121.656 Y49.806 Z0 F1600

; Washing sequence (no color)
G1 Z10 F1000;        ; Raise brush
G0 X5 Y5 F1200;     ; Rapid move to clean
G1 Z-1 F800;         ; Lower brush
G1 X10 Y12 Z8 F1200;     ; Move
G1 Z-1 F800;         ; Lower
G1 X25 Y14 Z6 F800;     ; Move
G1 Z8 F800;         ; Maintain
G0 X5 Y5 F1200;     ; Rapid
G1 Z-1 F800;         ; Lower
G1 X15 Y12 Z8 F1200;     ; Move
G1 Z-1 F800;         ; Lower
G1 X25 Y14 Z6 F800;     ; Move
G1 Z10 F800;         ; Maintain
G1 F1200;           ; Set feed
G0 Z5 F1000 ; Safety Lift

; Color picking sequence
G1 Z10 F1000;         ; Raise brush
G0 X131 Y5 F1200;    ; Rapid move to color 1
G1 Z10 F1000;         ; Raise brush
G0 X131 Y5 F1200;    ; Rapid move to color 1
G1 Z0 F1000;         ; Lower into color
G1 X130.102 Y7.295 Z0 S800 F1200
G1 X130.026 Y7.642 Z0 F1200
G1 X130 Y8 Z0 F1200
G1 X130.026 Y8.358 Z0 F1200
G1 X130.102 Y8.705 Z0 F1200
G1 X130.225 Y9.041 Z0 F1200
G1 X130.393 Y9.362 Z0 F1200
G1 X130.603 Y9.668 Z0 F1200
G1 X130.854 Y9.957 Z0 F1200
G1 X131.142 Y10.226 Z0 F1200
G1 X131.464 Y10.475 Z0 F1200
G1 X131.82 Y10.701 Z0 F1200
G1 X132.204 Y10.902 Z0 F1200
G1 X132.617 Y11.078 Z0 F1200
G1 X133.054 Y11.225 Z0 F1200
G1 X133.513 Y11.343 Z0 F1200
G1 X133.992 Y11.429 Z0 F1200
G1 X134.489 Y11.482 Z0 F1200
G1 X135 Y11.5 Z0 F1200
G1 X135.511 Y11.482 Z0 F1200
G1 X136.008 Y11.429 Z0 F1200
G1 X136.487 Y11.343 Z0 F1200
G1 X136.946 Y11.225 Z0 F1200
G1 X137.383 Y11.078 Z0 F1200
G1 X137.796 Y10.902 Z0 F1200
G1 X138.18 Y10.701 Z0 F1200
G1 X138.536 Y10.475 Z0 F1200
G1 X138.858 Y10.226 Z0 F1200
G1 X139.146 Y9.957 Z0 F1200
G1 X139.397 Y9.668 Z0 F1200
G1 X139.607 Y9.362 Z0 F1200
G1 X139.775 Y9.041 Z0 F1200
G1 X139.898 Y8.705 Z0 F1200
G1 X139.974 Y8.358 Z0 F1200
G1 X140 Y8 Z0 F1200
G1 X139.974 Y7.642 Z0 F1200
G1 X139.898 Y7.295 Z0 F1200
G1 X139.775 Y6.959 Z0 F1200
G1 X139.607 Y6.638 Z0 F1200
G1 X139.397 Y6.332 Z0 F1200
G1 X139.146 Y6.043 Z0 F1200
G1 X138.858 Y5.774 Z0 F1200
G1 X138.536 Y5.525 Z0 F1200
G1 X138.18 Y5.299 Z0 F1200
G1 X137.796 Y5.098 Z0 F1200
G1 X137.383 Y4.922 Z0 F1200
G1 X136.946 Y4.775 Z0 F1200
G1 X136.487 Y4.657 Z0 F1200
G1 X136.008 Y4.571 Z0 F1200
G1 X135.511 Y4.518 Z0 F1200
G1 X135 Y4.5 Z0 F1200
G1 X134.489 Y4.518 Z0 F1200
G1 X133.992 Y4.571 Z0 F1200
G1 X133.513 Y4.657 Z0 F1200
G1 X133.054 Y4.775 Z0 F1200
G1 X132.617 Y4.922 Z0 F1200
G1 X132.204 Y5.098 Z0 F1200
G1 X131.82 Y5.299 Z0 F1200
G1 X131.464 Y5.525 Z0 F1200
G1 X131.142 Y5.774 Z0 F1200
G1 X130.854 Y6.043 Z0 F1200
G1 X130.603 Y6.332 Z0 F1200
G1 X130.393 Y6.638 Z0 F1200
G1 X130.225 Y6.959 Z0 F1200
G1 Z7 F800;         ; Raise from color
G1 X124 Y8 Z1 F1200;     ; Movement in paint
G1 X114 Y18 Z8 F500;     ; Move in paint
G1 F1200;           ; Set feed rate
G0 Z5 F1000 ; Safety Lift
;Offset @ 1500 mm/min, 80% power

M8
G0 Z3.5 F1000
; --- FIX X Backlash ---
G0 X120.356 Y49.806 F1200
; --- FIX Y Backlash ---
G0 X120.356 Y51.106 F1200
G0 X107.133 Y58.45 Z3.5
G1 Z0 F1000
;Layer C3
; --- FIX X Backlash ---
G0 X108.433 Y58.45 F1200
G1 X108.887 Y58.455 Z0 F1600
G1 X109.626 Y58.49 Z0 F1600
G1 X110.364 Y58.563 Z0 F1600
G1 X111.119 Y58.668 Z0 F1600
G1 X112 Y58.819 Z0 F1600
G1 X112.773 Y58.946 Z0 F1600
G1 X113.374 Y59.089 Z0 F1600
G1 X114.056 Y59.291 Z0 F1600
G1 X115.36 Y59.731 Z0 F1600
G1 X115.802 Y59.898 Z0 F1600
G1 X116.19 Y60.064 Z0 F1600
G1 X116.764 Y60.348 Z0 F1600
G1 X117.258 Y60.55 Z0 F1600
G1 X117.563 Y60.704 Z0 F1600
G1 X118.042 Y60.969 Z0 F1600
G1 X118.462 Y61.203 Z0 F1600
G1 X118.998 Y61.533 Z0 F1600
G1 X119.614 Y61.908 Z0 F1600
G1 X119.83 Y62.045 Z0 F1600
G1 X119.966 Y62.139 Z0 F1600
G1 X120.022 Y62.181 Z0 F1600
G1 X120.221 Y62.355 Z0 F1600
G1 X120.767 Y62.783 Z0 F1600
G1 X121.138 Y63.102 Z0 F1600
G1 X121.378 Y63.341 Z0 F1600
G1 X121.626 Y63.649 Z0 F1600
G1 X121.887 Y64 Z0 F1600
G1 X122.042 Y64.245 Z0 F1600
G1 X122.153 Y64.46 Z0 F1600
G1 X122.184 Y64.535 Z0 F1600
G1 X122.203 Y64.622 Z0 F1600
G1 X122.214 Y64.707 Z0 F1600
; --- FIX X Backlash ---
G0 X120.914 Y64.707 F1200
G1 X120.795 Y65.101 Z0 F1600
; --- FIX Y Backlash ---
G0 X120.795 Y63.801 F1200
G1 X120.544 Y63.68 Z0 F1600
G1 X120.229 Y63.49 Z0 F1600
G1 X119.677 Y63.132 Z0 F1600
G1 X119.193 Y62.84 Z0 F1600
G1 X118.595 Y62.412 Z0 F1600
G1 X117.738 Y61.845 Z0 F1600
G1 X116.783 Y61.285 Z0 F1600
G1 X115.896 Y60.847 Z0 F1600
G1 X115.24 Y60.518 Z0 F1600
G1 X114.423 Y60.166 Z0 F1600
G1 X113.585 Y59.858 Z0 F1600
G1 X112.741 Y59.598 Z0 F1600
G1 X111.636 Y59.309 Z0 F1600
G1 X111.018 Y59.168 Z0 F1600
G1 X110.185 Y59.015 Z0 F1600
G1 X108.844 Y58.901 Z0 F1600
G1 X107.605 Y58.823 Z0 F1600
G1 X106.229 Y58.811 Z0 F1600
; --- FIX Y Backlash ---
G0 X106.229 Y60.111 F1200
G1 X104.963 Y60.208 Z0 F1600
G1 X104.173 Y60.272 Z0 F1600
G1 X103.345 Y60.413 Z0 F1600
G1 X102.745 Y60.541 Z0 F1600
G1 X102.107 Y60.67 Z0 F1600
G1 X100.96 Y61.004 Z0 F1600
G1 X99.9 Y61.354 Z0 F1600
G1 X98.784 Y61.791 Z0 F1600
G1 X97.815 Y62.255 Z0 F1600
G1 X97.015 Y62.626 Z0 F1600
G1 X96.096 Y63.143 Z0 F1600
G1 X95.148 Y63.712 Z0 F1600
G1 X94.617 Y64.011 Z0 F1600
G1 X94.307 Y64.262 Z0 F1600
G1 X94.28 Y64.282 Z0 F1600
G1 X94.156 Y64.369 Z0 F1600
G1 X93.97 Y64.495 Z0 F1600
G1 X93.523 Y64.785 Z0 F1600
G1 X93.09 Y65.052 Z0 F1600
G1 X92.818 Y65.211 Z0 F1600
G1 X92.707 Y65.262 Z0 F1600
G1 X92.584 Y65.303 Z0 F1600
G1 X92.472 Y65.327 Z0 F1600
G1 X92.36 Y65.339 Z0 F1600
; --- FIX Y Backlash ---
G0 X92.36 Y64.039 F1200
G1 X92.221 Y63.966 Z0 F1600
G1 X92.132 Y63.88 Z0 F1600
G1 X92.123 Y63.577 Z0 F1600
G1 X92.145 Y63.235 Z0 F1600
G1 X92.173 Y63.161 Z0 F1600
G1 X92.223 Y63.066 Z0 F1600
; --- FIX X Backlash ---
G0 X93.523 Y63.066 F1200
G1 X93.622 Y62.922 Z0 F1600
G1 X93.844 Y62.656 Z0 F1600
G1 X94.117 Y62.346 Z0 F1600
G1 X94.265 Y62.201 Z0 F1600
G1 X94.75 Y61.837 Z0 F1600
G1 X95.249 Y61.37 Z0 F1600
G1 X95.509 Y61.178 Z0 F1600
G1 X96.05 Y60.818 Z0 F1600
G1 X96.441 Y60.541 Z0 F1600
G1 X97.186 Y60.139 Z0 F1600
G1 X98.031 Y59.674 Z0 F1600
G1 X99.522 Y58.983 Z0 F1600
G1 X101.063 Y58.357 Z0 F1600
G1 X101.771 Y58.11 Z0 F1600
G1 X102.478 Y57.896 Z0 F1600
G1 X103.178 Y57.719 Z0 F1600
G1 X103.964 Y57.564 Z0 F1600
G1 X104.778 Y57.415 Z0 F1600
G1 X105.531 Y57.309 Z0 F1600
G1 X106.294 Y57.234 Z0 F1600
G1 X107.163 Y57.181 Z0 F1600
G1 X107.59 Y57.155 Z0 F1600
G1 X107.979 Y57.148 Z0 F1600
G1 X108.433 Z0 F1600
G0 Z3.5 F1000
G0 X112.95 Y56.763 Z3.5
G1 Z0 F1000
; --- FIX Y Backlash ---
G0 X112.95 Y58.063 F1200
G1 X113.605 Y58.219 Z0 F1600
G1 X114.327 Y58.433 Z0 F1600
G1 X115.673 Y58.887 Z0 F1600
G1 X116.141 Y59.063 Z0 F1600
G1 X116.56 Y59.243 Z0 F1600
G1 X117.134 Y59.527 Z0 F1600
G1 X117.628 Y59.729 Z0 F1600
G1 X117.984 Y59.909 Z0 F1600
G1 X118.463 Y60.173 Z0 F1600
G1 X118.925 Y60.43 Z0 F1600
G1 X119.468 Y60.766 Z0 F1600
G1 X120.093 Y61.146 Z0 F1600
G1 X120.322 Y61.292 Z0 F1600
G1 X120.495 Y61.41 Z0 F1600
G1 X120.59 Y61.482 Z0 F1600
G1 X120.795 Y61.662 Z0 F1600
G1 X121.342 Y62.091 Z0 F1600
G1 X121.744 Y62.436 Z0 F1600
G1 X122.048 Y62.737 Z0 F1600
G1 X122.34 Y63.1 Z0 F1600
G1 X122.627 Y63.488 Z0 F1600
G1 X122.823 Y63.798 Z0 F1600
G1 X122.97 Y64.082 Z0 F1600
G1 X123.046 Y64.269 Z0 F1600
G1 X123.089 Y64.462 Z0 F1600
G1 X123.131 Y64.782 Z0 F1600
; --- FIX X Backlash ---
G0 X121.831 Y64.782 F1200
G1 X121.588 Y65.589 Z0 F1600
G1 X121.513 Y65.706 Z0 F1600
G1 X121.293 Y65.906 Z0 F1600
G1 X121.01 Y66.052 Z0 F1600
G1 X120.966 Y66.068 Z0 F1600
G1 X120.918 Y66.079 Z0 F1600
G1 X120.863 Y66.083 Z0 F1600
G1 X120.815 Z0 F1600
G1 X120.772 Y66.075 Z0 F1600
G1 X120.733 Y66.063 Z0 F1600
; --- FIX Y Backlash ---
G0 X120.733 Y64.763 F1200
G1 X120.52 Y64.666 Z0 F1600
G1 X120.115 Y64.473 Z0 F1600
G1 X119.758 Y64.257 Z0 F1600
G1 X119.2 Y63.895 Z0 F1600
G1 X118.699 Y63.593 Z0 F1600
G1 X118.084 Y63.154 Z0 F1600
G1 X117.261 Y62.608 Z0 F1600
G1 X116.356 Y62.078 Z0 F1600
G1 X115.497 Y61.654 Z0 F1600
G1 X114.86 Y61.334 Z0 F1600
G1 X114.089 Y61.002 Z0 F1600
G1 X113.297 Y60.711 Z0 F1600
G1 X112.494 Y60.464 Z0 F1600
G1 X111.421 Y60.183 Z0 F1600
G1 X110.836 Y60.049 Z0 F1600
G1 X110.065 Y59.908 Z0 F1600
G1 X108.778 Y59.798 Z0 F1600
G1 X107.573 Y59.722 Z0 F1600
G1 X106.26 Y59.711 Z0 F1600
; --- FIX Y Backlash ---
G0 X106.26 Y61.011 F1200
G1 X105.034 Y61.104 Z0 F1600
G1 X104.285 Y61.166 Z0 F1600
G1 X103.514 Y61.297 Z0 F1600
G1 X102.927 Y61.422 Z0 F1600
G1 X102.323 Y61.545 Z0 F1600
G1 X101.227 Y61.864 Z0 F1600
G1 X100.205 Y62.201 Z0 F1600
G1 X99.143 Y62.617 Z0 F1600
G1 X98.228 Y63.056 Z0 F1600
G1 X97.426 Y63.428 Z0 F1600
G1 X96.548 Y63.921 Z0 F1600
G1 X95.593 Y64.494 Z0 F1600
G1 X95.125 Y64.758 Z0 F1600
G1 X94.857 Y64.975 Z0 F1600
G1 X94.795 Y65.021 Z0 F1600
G1 X94.658 Y65.116 Z0 F1600
G1 X94.472 Y65.242 Z0 F1600
G1 X94.019 Y65.537 Z0 F1600
G1 X93.548 Y65.827 Z0 F1600
G1 X93.231 Y66.013 Z0 F1600
G1 X93.031 Y66.104 Z0 F1600
G1 X92.826 Y66.171 Z0 F1600
G1 X92.614 Y66.217 Z0 F1600
G1 X92.402 Y66.24 Z0 F1600
G1 X92.197 Z0 F1600
G1 X92.122 Y66.231 Z0 F1600
; --- FIX Y Backlash ---
G0 X92.122 Y64.931 F1200
G1 X91.789 Y64.755 Z0 F1600
G1 X91.612 Y64.69 Z0 F1600
G1 X91.523 Y64.543 Z0 F1600
G1 X91.243 Y64.272 Z0 F1600
G1 X91.221 Y63.562 Z0 F1600
G1 X91.253 Y63.074 Z0 F1600
G1 X91.274 Y62.991 Z0 F1600
; --- FIX X Backlash ---
G0 X92.574 Y62.991 F1200
G1 X92.651 Y62.789 Z0 F1600
G1 X92.75 Y62.6 Z0 F1600
G1 X92.904 Y62.378 Z0 F1600
G1 X93.155 Y62.076 Z0 F1600
G1 X93.467 Y61.722 Z0 F1600
G1 X93.677 Y61.517 Z0 F1600
G1 X94.171 Y61.146 Z0 F1600
G1 X94.673 Y60.676 Z0 F1600
G1 X94.986 Y60.445 Z0 F1600
G1 X95.54 Y60.076 Z0 F1600
G1 X95.966 Y59.774 Z0 F1600
G1 X96.755 Y59.349 Z0 F1600
G1 X97.628 Y58.868 Z0 F1600
G1 X99.159 Y58.159 Z0 F1600
G1 X100.753 Y57.512 Z0 F1600
G1 X101.483 Y57.257 Z0 F1600
G1 X102.234 Y57.029 Z0 F1600
G1 X102.979 Y56.841 Z0 F1600
G1 X103.798 Y56.679 Z0 F1600
G1 X104.631 Y56.527 Z0 F1600
G1 X105.428 Y56.415 Z0 F1600
G1 X106.227 Y56.336 Z0 F1600
G1 X107.108 Y56.283 Z0 F1600
G1 X107.553 Y56.255 Z0 F1600
G1 X107.969 Y56.247 Z0 F1600
G1 X108.458 Y56.25 Z0 F1600
G1 X108.901 Y56.255 Z0 F1600
G1 X109.699 Y56.293 Z0 F1600
; --- FIX Y Backlash ---
G0 X109.699 Y57.593 F1200
G1 X110.458 Y57.667 Z0 F1600
G1 X111.266 Y57.781 Z0 F1600
G1 X112.148 Y57.931 Z0 F1600
G1 X112.95 Y58.063 Z0 F1600
G0 Z3.5 F1000
G0 X116.943 Y58.428 Z3.5
G1 Z0 F1000
G1 X117.505 Y58.706 Z0 F1600
G1 X118.006 Y58.912 Z0 F1600
G1 X118.401 Y59.111 Z0 F1600
G1 X118.901 Y59.387 Z0 F1600
G1 X119.38 Y59.654 Z0 F1600
G1 X119.938 Y59.999 Z0 F1600
G1 X120.561 Y60.377 Z0 F1600
G1 X120.814 Y60.538 Z0 F1600
G1 X121.024 Y60.682 Z0 F1600
G1 X121.159 Y60.784 Z0 F1600
G1 X121.37 Y60.969 Z0 F1600
G1 X121.91 Y61.392 Z0 F1600
G1 X122.357 Y61.776 Z0 F1600
G1 X122.718 Y62.134 Z0 F1600
G1 X123.047 Y62.543 Z0 F1600
G1 X123.374 Y62.984 Z0 F1600
G1 X123.603 Y63.346 Z0 F1600
G1 X123.79 Y63.708 Z0 F1600
G1 X123.909 Y63.998 Z0 F1600
G1 X123.977 Y64.308 Z0 F1600
G1 X124.034 Y64.741 Z0 F1600
G1 X124.037 Y64.833 Z0 F1600
G1 X124.033 Y64.903 Z0 F1600
G1 X124.03 Y64.92 Z0 F1600
; --- FIX X Backlash ---
G0 X122.73 Y64.92 F1200
G1 X122.501 Y65.68 Z0 F1600
G1 X122.521 Y65.8 Z0 F1600
G1 X122.207 Y66.292 Z0 F1600
G1 X121.812 Y66.651 Z0 F1600
G1 X121.369 Y66.879 Z0 F1600
G1 X121.214 Y66.936 Z0 F1600
G1 X121.057 Y66.97 Z0 F1600
G1 X120.889 Y66.985 Z0 F1600
G1 X120.727 Y66.979 Z0 F1600
G1 X120.565 Y66.953 Z0 F1600
G1 X120.416 Y66.908 Z0 F1600
; --- FIX Y Backlash ---
G0 X120.416 Y65.608 F1200
G1 X120.143 Y65.484 Z0 F1600
G1 X119.687 Y65.266 Z0 F1600
G1 X119.275 Y65.017 Z0 F1600
G1 X118.723 Y64.658 Z0 F1600
G1 X118.201 Y64.345 Z0 F1600
G1 X117.573 Y63.895 Z0 F1600
G1 X116.784 Y63.372 Z0 F1600
G1 X115.929 Y62.87 Z0 F1600
G1 X115.099 Y62.461 Z0 F1600
G1 X114.479 Y62.151 Z0 F1600
G1 X113.756 Y61.838 Z0 F1600
G1 X113.01 Y61.564 Z0 F1600
G1 X112.248 Y61.33 Z0 F1600
G1 X111.206 Y61.057 Z0 F1600
G1 X110.655 Y60.931 Z0 F1600
G1 X109.946 Y60.801 Z0 F1600
G1 X108.711 Y60.696 Z0 F1600
G1 X107.541 Y60.622 Z0 F1600
G1 X106.29 Y60.612 Z0 F1600
; --- FIX Y Backlash ---
G0 X106.29 Y61.912 F1200
G1 X105.105 Y62.002 Z0 F1600
G1 X104.398 Y62.06 Z0 F1600
G1 X103.683 Y62.181 Z0 F1600
G1 X103.115 Y62.302 Z0 F1600
G1 X102.539 Y62.419 Z0 F1600
G1 X101.494 Y62.724 Z0 F1600
G1 X100.51 Y63.048 Z0 F1600
G1 X99.502 Y63.443 Z0 F1600
G1 X98.594 Y63.878 Z0 F1600
G1 X97.836 Y64.229 Z0 F1600
G1 X97 Y64.7 Z0 F1600
G1 X96.054 Y65.267 Z0 F1600
G1 X95.633 Y65.505 Z0 F1600
G1 X95.409 Y65.686 Z0 F1600
G1 X95.327 Y65.746 Z0 F1600
G1 X95.157 Y65.865 Z0 F1600
G1 X94.979 Y65.985 Z0 F1600
G1 X94.486 Y66.306 Z0 F1600
G1 X94.006 Y66.602 Z0 F1600
G1 X93.645 Y66.813 Z0 F1600
G1 X93.363 Y66.941 Z0 F1600
G1 X93.064 Y67.04 Z0 F1600
G1 X92.755 Y67.107 Z0 F1600
G1 X92.451 Y67.14 Z0 F1600
G1 X92.14 Z0 F1600
G1 X91.853 Y67.106 Z0 F1600
; --- FIX Y Backlash ---
G0 X91.853 Y65.806 F1200
G1 X91.421 Y65.579 Z0 F1600
G1 X91.004 Y65.425 Z0 F1600
G1 X90.813 Y65.108 Z0 F1600
G1 X90.352 Y64.66 Z0 F1600
G1 Y64.644 Z0 F1600
G1 X90.321 Y63.547 Z0 F1600
G1 X90.361 Y62.932 Z0 F1600
; --- FIX X Backlash ---
G0 X91.661 Y62.932 F1200
G1 X91.715 Y62.719 Z0 F1600
G1 X91.831 Y62.417 Z0 F1600
G1 X91.979 Y62.132 Z0 F1600
G1 X92.186 Y61.834 Z0 F1600
G1 X92.466 Y61.497 Z0 F1600
G1 X92.813 Y61.103 Z0 F1600
G1 X93.09 Y60.833 Z0 F1600
G1 X93.591 Y60.456 Z0 F1600
G1 X94.093 Y59.985 Z0 F1600
G1 X94.48 Y59.701 Z0 F1600
G1 X95.03 Y59.334 Z0 F1600
G1 X95.49 Y59.009 Z0 F1600
G1 X96.324 Y58.559 Z0 F1600
G1 X97.215 Y58.068 Z0 F1600
G1 X98.802 Y57.333 Z0 F1600
G1 X100.437 Y56.669 Z0 F1600
G1 X101.207 Y56.4 Z0 F1600
G1 X101.991 Y56.162 Z0 F1600
G1 X102.794 Y55.96 Z0 F1600
G1 X103.631 Y55.794 Z0 F1600
G1 X104.485 Y55.638 Z0 F1600
G1 X105.31 Y55.523 Z0 F1600
G1 X106.162 Y55.439 Z0 F1600
G1 X107.052 Y55.385 Z0 F1600
G1 X107.523 Y55.355 Z0 F1600
G1 X107.958 Y55.347 Z0 F1600
G1 X108.463 Y55.35 Z0 F1600
G1 X108.928 Y55.355 Z0 F1600
G1 X109.761 Y55.395 Z0 F1600
; --- FIX Y Backlash ---
G0 X109.761 Y56.695 F1200
G1 X110.577 Y56.775 Z0 F1600
G1 X111.394 Y56.89 Z0 F1600
G1 X112.296 Y57.043 Z0 F1600
G1 X113.125 Y57.179 Z0 F1600
G1 X113.838 Y57.349 Z0 F1600
G1 X114.606 Y57.577 Z0 F1600
G1 X115.961 Y58.034 Z0 F1600
G1 X116.482 Y58.23 Z0 F1600
G1 X116.943 Y58.428 Z0 F1600
G0 Z3.5 F1000

; Color picking sequence
G1 Z10 F1000;         ; Raise brush
G0 X131 Y5 F1200;    ; Rapid move to color 1
G1 Z10 F1000;         ; Raise brush
G0 X131 Y5 F1200;    ; Rapid move to color 1
G1 Z0 F1000;         ; Lower into color
G1 X130.102 Y7.295 Z0 S800 F1200
G1 X130.026 Y7.642 Z0 F1200
G1 X130 Y8 Z0 F1200
G1 X130.026 Y8.358 Z0 F1200
G1 X130.102 Y8.705 Z0 F1200
G1 X130.225 Y9.041 Z0 F1200
G1 X130.393 Y9.362 Z0 F1200
G1 X130.603 Y9.668 Z0 F1200
G1 X130.854 Y9.957 Z0 F1200
G1 X131.142 Y10.226 Z0 F1200
G1 X131.464 Y10.475 Z0 F1200
G1 X131.82 Y10.701 Z0 F1200
G1 X132.204 Y10.902 Z0 F1200
G1 X132.617 Y11.078 Z0 F1200
G1 X133.054 Y11.225 Z0 F1200
G1 X133.513 Y11.343 Z0 F1200
G1 X133.992 Y11.429 Z0 F1200
G1 X134.489 Y11.482 Z0 F1200
G1 X135 Y11.5 Z0 F1200
G1 X135.511 Y11.482 Z0 F1200
G1 X136.008 Y11.429 Z0 F1200
G1 X136.487 Y11.343 Z0 F1200
G1 X136.946 Y11.225 Z0 F1200
G1 X137.383 Y11.078 Z0 F1200
G1 X137.796 Y10.902 Z0 F1200
G1 X138.18 Y10.701 Z0 F1200
G1 X138.536 Y10.475 Z0 F1200
G1 X138.858 Y10.226 Z0 F1200
G1 X139.146 Y9.957 Z0 F1200
G1 X139.397 Y9.668 Z0 F1200
G1 X139.607 Y9.362 Z0 F1200
G1 X139.775 Y9.041 Z0 F1200
G1 X139.898 Y8.705 Z0 F1200
G1 X139.974 Y8.358 Z0 F1200
G1 X140 Y8 Z0 F1200
G1 X139.974 Y7.642 Z0 F1200
G1 X139.898 Y7.295 Z0 F1200
G1 X139.775 Y6.959 Z0 F1200
G1 X139.607 Y6.638 Z0 F1200
G1 X139.397 Y6.332 Z0 F1200
G1 X139.146 Y6.043 Z0 F1200
G1 X138.858 Y5.774 Z0 F1200
G1 X138.536 Y5.525 Z0 F1200
G1 X138.18 Y5.299 Z0 F1200
G1 X137.796 Y5.098 Z0 F1200
G1 X137.383 Y4.922 Z0 F1200
G1 X136.946 Y4.775 Z0 F1200
G1 X136.487 Y4.657 Z0 F1200
G1 X136.008 Y4.571 Z0 F1200
G1 X135.511 Y4.518 Z0 F1200
G1 X135 Y4.5 Z0 F1200
G1 X134.489 Y4.518 Z0 F1200
G1 X133.992 Y4.571 Z0 F1200
G1 X133.513 Y4.657 Z0 F1200
G1 X133.054 Y4.775 Z0 F1200
G1 X132.617 Y4.922 Z0 F1200
G1 X132.204 Y5.098 Z0 F1200
G1 X131.82 Y5.299 Z0 F1200
G1 X131.464 Y5.525 Z0 F1200
G1 X131.142 Y5.774 Z0 F1200
G1 X130.854 Y6.043 Z0 F1200
G1 X130.603 Y6.332 Z0 F1200
G1 X130.393 Y6.638 Z0 F1200
G1 X130.225 Y6.959 Z0 F1200
G1 Z7 F800;         ; Raise from color
G1 X124 Y8 Z1 F1200;     ; Movement in paint
G1 X114 Y18 Z8 F500;     ; Move in paint
G1 F1200;           ; Set feed rate
G0 Z5 F1000 ; Safety Lift
G0 X121.302 Y59.782 Z3.5
G1 Z0 F1000
G1 X121.552 Y59.953 Z0 F1600
G1 X121.728 Y60.086 Z0 F1600
G1 X121.945 Y60.276 Z0 F1600
G1 X122.485 Y60.699 Z0 F1600
G1 X122.971 Y61.117 Z0 F1600
G1 X123.388 Y61.531 Z0 F1600
G1 X123.754 Y61.986 Z0 F1600
G1 X124.118 Y62.477 Z0 F1600
G1 X124.385 Y62.899 Z0 F1600
G1 X124.607 Y63.328 Z0 F1600
G1 X124.77 Y63.727 Z0 F1600
G1 X124.864 Y64.154 Z0 F1600
G1 X124.932 Y64.668 Z0 F1600
G1 X124.938 Y64.845 Z0 F1600
G1 X124.929 Y65.001 Z0 F1600
G1 X124.908 Y65.127 Z0 F1600
; --- FIX X Backlash ---
G0 X123.608 Y65.127 F1200
G1 X123.424 Y65.737 Z0 F1600
G1 X123.458 Y65.939 Z0 F1600
G1 X123.432 Y66.047 Z0 F1600
G1 X122.902 Y66.876 Z0 F1600
G1 X122.407 Y67.327 Z0 F1600
G1 X122.386 Y67.368 Z0 F1600
G1 X121.726 Y67.708 Z0 F1600
G1 X121.467 Y67.801 Z0 F1600
G1 X121.194 Y67.861 Z0 F1600
G1 X120.915 Y67.887 Z0 F1600
G1 X120.636 Y67.876 Z0 F1600
G1 X120.363 Y67.832 Z0 F1600
; --- FIX Y Backlash ---
G0 X120.363 Y66.532 F1200
G1 X120.1 Y66.452 Z0 F1600
G1 X119.737 Y66.287 Z0 F1600
G1 X119.261 Y66.06 Z0 F1600
G1 X118.794 Y65.778 Z0 F1600
G1 X118.246 Y65.421 Z0 F1600
G1 X117.705 Y65.096 Z0 F1600
G1 X117.062 Y64.637 Z0 F1600
G1 X116.308 Y64.136 Z0 F1600
G1 X115.501 Y63.663 Z0 F1600
G1 X114.711 Y63.273 Z0 F1600
G1 X114.099 Y62.967 Z0 F1600
G1 X113.422 Y62.675 Z0 F1600
G1 X112.722 Y62.417 Z0 F1600
G1 X112.001 Y62.196 Z0 F1600
G1 X110.992 Y61.931 Z0 F1600
G1 X110.472 Y61.813 Z0 F1600
G1 X109.826 Y61.694 Z0 F1600
G1 X108.645 Y61.593 Z0 F1600
G1 X107.509 Y61.522 Z0 F1600
G1 X106.321 Y61.512 Z0 F1600
; --- FIX Y Backlash ---
G0 X106.321 Y62.812 F1200
G1 X105.176 Y62.899 Z0 F1600
G1 X104.51 Y62.954 Z0 F1600
G1 X103.852 Y63.065 Z0 F1600
G1 X103.319 Y63.179 Z0 F1600
G1 X102.755 Y63.294 Z0 F1600
G1 X101.761 Y63.583 Z0 F1600
G1 X100.815 Y63.896 Z0 F1600
G1 X99.862 Y64.269 Z0 F1600
G1 X98.975 Y64.693 Z0 F1600
G1 X98.246 Y65.031 Z0 F1600
G1 X97.452 Y65.478 Z0 F1600
G1 X96.507 Y66.045 Z0 F1600
G1 X96.14 Y66.252 Z0 F1600
G1 X95.953 Y66.403 Z0 F1600
G1 X95.867 Y66.466 Z0 F1600
G1 X95.67 Y66.604 Z0 F1600
G1 X95.451 Y66.752 Z0 F1600
G1 X94.968 Y67.066 Z0 F1600
G1 X94.496 Y67.357 Z0 F1600
G1 X94.059 Y67.614 Z0 F1600
G1 X93.69 Y67.781 Z0 F1600
G1 X93.303 Y67.909 Z0 F1600
G1 X92.895 Y67.998 Z0 F1600
G1 X92.496 Y68.041 Z0 F1600
G1 X92.094 Z0 F1600
G1 X91.692 Y67.994 Z0 F1600
G1 X91.523 Y67.954 Z0 F1600
G1 X91.492 Y67.934 Z0 F1600
; --- FIX Y Backlash ---
G0 X91.492 Y66.634 F1200
G1 X91.054 Y66.403 Z0 F1600
G1 X90.525 Y66.207 Z0 F1600
G1 X90.414 Y66.189 Z0 F1600
G1 X90.103 Y65.673 Z0 F1600
G1 X89.576 Y65.162 Z0 F1600
G1 X89.531 Y65.14 Z0 F1600
G1 X89.43 Y64.784 Z0 F1600
G1 X89.452 Y64.602 Z0 F1600
G1 X89.42 Y63.532 Z0 F1600
G1 X89.468 Y62.789 Z0 F1600
; --- FIX X Backlash ---
G0 X90.768 Y62.789 F1200
G1 X90.855 Y62.448 Z0 F1600
G1 X91.008 Y62.047 Z0 F1600
G1 X91.208 Y61.666 Z0 F1600
G1 X91.467 Y61.291 Z0 F1600
G1 X91.794 Y60.898 Z0 F1600
G1 X92.16 Y60.483 Z0 F1600
G1 X92.501 Y60.149 Z0 F1600
G1 X93.011 Y59.766 Z0 F1600
G1 X93.519 Y59.29 Z0 F1600
G1 X93.956 Y58.969 Z0 F1600
G1 X94.521 Y58.592 Z0 F1600
G1 X95.016 Y58.242 Z0 F1600
G1 X95.894 Y57.769 Z0 F1600
G1 X96.812 Y57.263 Z0 F1600
G1 X98.441 Y56.508 Z0 F1600
G1 X100.112 Y55.829 Z0 F1600
G1 X100.931 Y55.543 Z0 F1600
G1 X101.76 Y55.292 Z0 F1600
G1 X102.588 Y55.083 Z0 F1600
G1 X103.458 Y54.911 Z0 F1600
G1 X104.339 Y54.75 Z0 F1600
G1 X105.206 Y54.629 Z0 F1600
G1 X106.084 Y54.542 Z0 F1600
G1 X106.997 Y54.486 Z0 F1600
G1 X107.484 Y54.456 Z0 F1600
G1 X107.968 Y54.447 Z0 F1600
G1 X108.46 Y54.45 Z0 F1600
G1 X108.955 Y54.455 Z0 F1600
G1 X109.824 Y54.497 Z0 F1600
; --- FIX Y Backlash ---
G0 X109.824 Y55.797 F1200
G1 X110.682 Y55.881 Z0 F1600
G1 X111.543 Y56.002 Z0 F1600
G1 X112.445 Y56.156 Z0 F1600
G1 X113.301 Y56.296 Z0 F1600
G1 X114.079 Y56.481 Z0 F1600
G1 X114.861 Y56.713 Z0 F1600
G1 X116.278 Y57.191 Z0 F1600
G1 X116.811 Y57.393 Z0 F1600
G1 X117.323 Y57.612 Z0 F1600
G1 X117.875 Y57.885 Z0 F1600
G1 X118.377 Y58.091 Z0 F1600
G1 X118.828 Y58.319 Z0 F1600
G1 X119.339 Y58.6 Z0 F1600
G1 X119.838 Y58.878 Z0 F1600
G1 X120.409 Y59.231 Z0 F1600
G1 X121.045 Y59.618 Z0 F1600
G1 X121.302 Y59.782 Z0 F1600
G0 Z3.5 F1000
G0 X124.478 Y61.451 Z3.5
G1 Z0 F1000
G1 X124.856 Y61.96 Z0 F1600
G1 X125.167 Y62.451 Z0 F1600
G1 X125.424 Y62.949 Z0 F1600
G1 X125.633 Y63.46 Z0 F1600
G1 X125.752 Y64 Z0 F1600
G1 X125.831 Y64.595 Z0 F1600
G1 X125.838 Y64.853 Z0 F1600
G1 X125.824 Y65.105 Z0 F1600
G1 X125.787 Y65.327 Z0 F1600
; --- FIX X Backlash ---
G0 X124.487 Y65.327 F1200
G1 X124.346 Y65.794 Z0 F1600
G1 X124.389 Y66.045 Z0 F1600
G1 X124.359 Z0 F1600
G1 X124.185 Y66.762 Z0 F1600
G1 X124.041 Y66.765 Z0 F1600
G1 X123.532 Y67.561 Z0 F1600
G1 X123.461 Y67.584 Z0 F1600
G1 X123.134 Y67.882 Z0 F1600
G1 X123.056 Y68.035 Z0 F1600
G1 X122.089 Y68.534 Z0 F1600
G1 X121.717 Y68.667 Z0 F1600
G1 X121.334 Y68.752 Z0 F1600
G1 X120.938 Y68.788 Z0 F1600
G1 X120.548 Y68.774 Z0 F1600
; --- FIX Y Backlash ---
G0 X120.548 Y67.474 F1200
G1 X120.155 Y67.409 Z0 F1600
G1 X119.783 Y67.297 Z0 F1600
G1 X119.365 Y67.107 Z0 F1600
G1 X118.834 Y66.853 Z0 F1600
G1 X118.327 Y66.547 Z0 F1600
G1 X117.769 Y66.185 Z0 F1600
G1 X117.214 Y65.851 Z0 F1600
G1 X116.552 Y65.378 Z0 F1600
G1 X115.831 Y64.9 Z0 F1600
G1 X115.074 Y64.456 Z0 F1600
G1 X114.303 Y64.075 Z0 F1600
G1 X113.719 Y63.783 Z0 F1600
G1 X113.088 Y63.511 Z0 F1600
G1 X112.434 Y63.271 Z0 F1600
G1 X111.755 Y63.062 Z0 F1600
G1 X110.777 Y62.806 Z0 F1600
G1 X110.291 Y62.694 Z0 F1600
G1 X109.706 Y62.587 Z0 F1600
G1 X108.578 Y62.491 Z0 F1600
G1 X107.477 Y62.422 Z0 F1600
G1 X106.351 Y62.412 Z0 F1600
; --- FIX Y Backlash ---
G0 X106.351 Y63.712 F1200
G1 X105.247 Y63.796 Z0 F1600
G1 X104.622 Y63.847 Z0 F1600
G1 X104.021 Y63.949 Z0 F1600
G1 X103.49 Y64.063 Z0 F1600
G1 X102.971 Y64.168 Z0 F1600
G1 X102.028 Y64.443 Z0 F1600
G1 X101.121 Y64.742 Z0 F1600
G1 X100.221 Y65.095 Z0 F1600
G1 X99.374 Y65.5 Z0 F1600
G1 X98.657 Y65.833 Z0 F1600
G1 X97.904 Y66.256 Z0 F1600
G1 X96.952 Y66.827 Z0 F1600
G1 X96.648 Y66.999 Z0 F1600
G1 X96.513 Y67.109 Z0 F1600
G1 X96.375 Y67.209 Z0 F1600
G1 X96.192 Y67.338 Z0 F1600
G1 X95.958 Y67.496 Z0 F1600
G1 X95.45 Y67.826 Z0 F1600
G1 X94.937 Y68.142 Z0 F1600
G1 X94.477 Y68.413 Z0 F1600
G1 X94.018 Y68.621 Z0 F1600
G1 X93.537 Y68.78 Z0 F1600
G1 X93.045 Y68.886 Z0 F1600
G1 X92.54 Y68.94 Z0 F1600
G1 X92.038 Z0 F1600
; --- FIX Y Backlash ---
G0 X92.038 Y67.64 F1200
G1 X91.541 Y67.582 Z0 F1600
G1 X91.158 Y67.493 Z0 F1600
G1 X91.031 Y67.408 Z0 F1600
G1 X90.686 Y67.226 Z0 F1600
G1 X90.294 Y67.081 Z0 F1600
G1 X89.869 Y67.012 Z0 F1600
G1 X89.757 Y67.018 Z0 F1600
G1 X89.749 Y66.978 Z0 F1600
G1 X89.613 Y66.603 Z0 F1600
G1 X89.392 Y66.237 Z0 F1600
G1 X89.054 Y65.909 Z0 F1600
G1 X88.776 Y65.776 Z0 F1600
G1 X88.598 Y65.149 Z0 F1600
G1 X88.455 Y65.092 Z0 F1600
; --- FIX X Backlash ---
G0 X89.755 Y65.092 F1200
G1 X89.807 Y64.913 Z0 F1600
G1 X89.851 Y64.56 Z0 F1600
G1 X89.819 Y63.513 Z0 F1600
G1 X89.875 Y62.649 Z0 F1600
G1 X89.996 Y62.176 Z0 F1600
G1 X90.187 Y61.676 Z0 F1600
G1 X90.436 Y61.201 Z0 F1600
G1 X90.752 Y60.743 Z0 F1600
G1 X91.116 Y60.306 Z0 F1600
G1 X91.503 Y59.867 Z0 F1600
G1 X91.915 Y59.464 Z0 F1600
G1 X92.431 Y59.076 Z0 F1600
G1 X92.941 Y58.598 Z0 F1600
G1 X93.442 Y58.229 Z0 F1600
G1 X94.011 Y57.85 Z0 F1600
G1 X94.541 Y57.475 Z0 F1600
G1 X95.463 Y56.978 Z0 F1600
G1 X96.401 Y56.461 Z0 F1600
G1 X98.085 Y55.681 Z0 F1600
G1 X99.804 Y54.983 Z0 F1600
G1 X100.647 Y54.689 Z0 F1600
G1 X101.516 Y54.426 Z0 F1600
G1 X102.389 Y54.205 Z0 F1600
G1 X103.3 Y54.025 Z0 F1600
G1 X104.204 Y53.86 Z0 F1600
G1 X105.101 Y53.735 Z0 F1600
G1 X106.005 Y53.645 Z0 F1600
G1 X106.941 Y53.588 Z0 F1600
G1 X107.455 Y53.556 Z0 F1600
G1 X107.958 Y53.547 Z0 F1600
G1 X108.469 Y53.55 Z0 F1600
G1 X108.982 Y53.555 Z0 F1600
G1 X109.897 Y53.599 Z0 F1600
; --- FIX Y Backlash ---
G0 X109.897 Y54.899 F1200
G1 X110.788 Y54.987 Z0 F1600
G1 X111.672 Y55.111 Z0 F1600
G1 X112.594 Y55.268 Z0 F1600
G1 X113.477 Y55.413 Z0 F1600
G1 X114.31 Y55.611 Z0 F1600
G1 X115.144 Y55.858 Z0 F1600
G1 X116.561 Y56.336 Z0 F1600
G1 X117.158 Y56.562 Z0 F1600
G1 X117.696 Y56.792 Z0 F1600
G1 X118.246 Y57.064 Z0 F1600
G1 X118.755 Y57.273 Z0 F1600
G1 X119.245 Y57.521 Z0 F1600
G1 X119.777 Y57.814 Z0 F1600
G1 X120.288 Y58.099 Z0 F1600
G1 X120.879 Y58.464 Z0 F1600
G1 X121.514 Y58.85 Z0 F1600
G1 X121.813 Y59.04 Z0 F1600
G1 X122.07 Y59.216 Z0 F1600
G1 X122.297 Y59.388 Z0 F1600
G1 X122.52 Y59.583 Z0 F1600
G1 X123.053 Y60.001 Z0 F1600
G1 X123.581 Y60.454 Z0 F1600
G1 X124.055 Y60.925 Z0 F1600
G1 X124.478 Y61.451 Z0 F1600
G0 Z3.5 F1000
; --- FIX X Backlash ---
G0 X123.178 Y61.451 F1200
G0 X88.817 Y69.856 Z3.5
G1 Z0 F1000
; --- FIX X Backlash ---
G0 X90.117 Y69.856 F1200
; --- FIX Y Backlash ---
G0 X90.117 Y68.556 F1200
G1 X90.19 Y68.295 Z0 F1600
G1 X90.234 Y68.021 Z0 F1600
G1 X90.248 Y67.744 Z0 F1600
G1 X90.229 Y67.474 Z0 F1600
G1 X90.18 Y67.22 Z0 F1600
; --- FIX X Backlash ---
G0 X88.88 Y67.22 F1200
G1 X88.797 Y66.993 Z0 F1600
G1 X88.682 Y66.802 Z0 F1600
G1 X88.533 Y66.657 Z0 F1600
G1 X88.349 Y66.569 Z0 F1600
G1 X88.13 Y66.546 Z0 F1600
; --- FIX Y Backlash ---
G0 X88.13 Y67.846 F1200
