
G0 Z10 F500;      ; Move to clearance level - Z motion limited to 500
; G0 X-10 Y-10 F1200; Homing
; G0 X-5 Y-5 F1200; go in
; G10 P0 L20 X0 Y0; set to zero
G1 F1200;           ; Set feed rate to 1000

G0 Z10 F500;      ; Move to clearance level - Z motion limited to 500
; G0 X-10 Y-10 F1200; Homing
; G0 X-5 Y-5 F1200; go in
; G10 P0 L20 X0 Y0; set to zero
G1 F1200;           ; Set feed rate to 1000
;LightBurn 1.6.04
;Custom GCode device profile, absolute coords
;Bounds: X8.37 Y7.32 to X115.63 Y88.68
G00 G17 G40 G21 G54
G90
M3
G1 Z10 F500
;Cut @ 1200 mm/min, 90% power

M8

; Washing sequence (no color)
G1 Z10 F1000;        ; Raise brush to safe height
G0 X2 Y0 F1200;     ; Rapid move to brush cleaning position
G1 Z0 F500;         ; Lower brush for cleaning - controlled movement
G1 Z10 F500;         ; Raise brush slightly - controlled movement
G1 Z0 F500;         ; Lower brush for cleaning - controlled movement
G1 Z2 F500;         ; Raise brush slightly - controlled movement
G1 X22 Y0 Z8 F500;     ; Move across cleaning area - controlled movement
G1 Z10 F500;         ; Maintain brush height - controlled movement
G1 X2 Y0 Z8 F1000;     ; Move across cleaning area - controlled movement
G1 Z10 F500;         ; Maintain brush height - controlled movement
G1 F1200;           ; Set feed rate to 1000

; Color 1 picking sequence
G1 Z10 F500;         ; Raise brush to safe height
;G0 X2 Y0 F1000;     ; Rapid move to brush cleaning position
;G1 Z0 F500;         ; Lower brush for cleaning - controlled movement
;G1 Z2 F500;         ; Raise brush slightly - controlled movement
;G1 X22 Y0 Z8 F800;     ; Move across cleaning area - controlled movement
;G1 Z8 F500;         ; Maintain brush height - controlled movement
G0 X85 Y0 F1200;    ; Rapid move to color 1 position
G1 Z0 F500;         ; Lower into color - controlled movement
G1 X79 Y1 F500;     ; Small movement in paint - controlled movement
G1 Z7 F500;         ; Raise from color - controlled movement
G1 X82 Y1 F500;     ; Movement in paint - controlled movement
G1 Z1 F500;         ; Lower slightly - controlled movement
G1 X71 Y10 Z10 F500;     ; Move in paint - controlled movement
;G1 Z8 F500;         ; Raise brush - controlled movement
G1 F1200;           ; Set feed rate to 1000
G0 Z2.8F500
G0 X115.362Y86.918Z2.8F1500
G1 Z0F500
;Layer Blue
G1 X115.382Y85.549Z0S900F1200
G1 X115.32Y84.099Z0F1200
G1 X115.286Y82.676Z0F1200
G1 X115.302Y81.304Z0F1200
G1 X115.312Y79.925Z0F1200
G1 X115.328Y78.551Z0F1200
G1 X115.397Y77.231Z0F1200
G1 X115.318Y75.764Z0F1200
G1 Y74.374Z0F1200
G1 X115.363Y73.03Z0F1200
G1 X115.431Y71.709Z0F1200
G1 X115.546Y70.434Z0F1200
G1 X115.542Y69.04Z0F1200
G1 X115.533Y67.642Z0F1200
G1 X115.569Y66.29Z0F1200
G1 X115.626Y64.957Z0F1200
G1 X115.582Y63.524Z0F1200
G1 X115.57Y62.124Z0F1200
G1 X115.485Y60.651Z0F1200
G1 X115.39Y59.168Z0F1200
G1 X115.3Y57.691Z0F1200
G1 X115.252Y56.254Z0F1200
G1 X115.139Y54.754Z0F1200
G1 X115.05Y53.277Z0F1200
G1 X114.936Y51.776Z0F1200
G1 X114.831Y50.284Z0F1200
G1 X114.852Y48.915Z0F1200
G1 X114.806Y47.481Z0F1200
G1 X114.81Y46.096Z0F1200
G1 X114.798Y44.695Z0F1200
G1 X114.756Y43.265Z0F1200
G1 X114.786Y41.906Z0F1200
G1 X114.845Y40.575Z0F1200
G1 X114.873Y39.214Z0F1200
G1 Y37.825Z0F1200
G1 X114.823Y36.387Z0F1200
G1 X114.758Y34.934Z0F1200
G1 X114.751Y33.538Z0F1200
G1 X114.746Y32.144Z0F1200
G1 X114.606Y30.716Z0F1200
G1 X114.561Y29.481Z0F1200
G1 X114.699Y28.129Z0F1200
G1 X114.786Y26.826Z0F1200
G1 X114.901Y25.551Z0F1200
G1 X115.001Y24.261Z0F1200
G1 X115.036Y22.907Z0F1200
G1 X114.966Y21.448Z0F1200
G1 X114.975Y20.069Z0F1200
G1 X114.966Y18.671Z0F1200
G1 X114.95Y17.266Z0F1200
G1 X114.937Y15.865Z0F1200
G1 X114.906Y14.445Z0F1200
G1 X114.946Y13.095Z0F1200
G1 X114.963Y11.724Z0F1200
G1 X114.993Y10.364Z0F1200
G1 X115.078Y9.059Z0F1200
G1 X115.048Y7.641Z0F1200
G0 Z2.8F500
G0 X111.346Y55.376Z2.8F1500
G1 Z0F500
G1 X110.404Y55.836Z0F1200
G0 Z2.8F500
G0 X109.705Y55.94Z2.8F1500
G1 Z0F500
G1 X108.701Y57.132Z0F1200
G1 X108.849Y58.964Z0F1200
G1 X109.516Y57.836Z0F1200
G1 X109.78Y57.303Z0F1200
G1 X108.743Y59.158Z0F1200
G1 X108.091Y58.613Z0F1200
G1 X107.393Y59.809Z0F1200
G1 X106.522Y61.727Z0F1200
G1 X105.783Y62.586Z0F1200
G1 X105.007Y64.598Z0F1200
G1 X103.747Y66.232Z0F1200
G1 X103.283Y66.27Z0F1200
G1 X101.469Y66.861Z0F1200
G1 X100.884Y68.268Z0F1200
G1 X99.485Y69.07Z0F1200
G1 X98.178Y69.765Z0F1200
G1 X96.812Y70.202Z0F1200
G1 X97.259Y70.049Z0F1200
G1 X99.21Y69.493Z0F1200
G1 X100.285Y68.967Z0F1200
G1 X102.963Y67.739Z0F1200
G1 X102.324Y66.415Z0F1200
G1 X103.756Y66.141Z0F1200
G1 X105.196Y65.38Z0F1200
G1 X105.374Y63.968Z0F1200
G1 X106.143Y63.734Z0F1200
G1 X106.397Y62.398Z0F1200
G1 X108.644Y60.548Z0F1200
G1 X108.682Y59.99Z0F1200
G1 X108.769Y59.282Z0F1200
G1 X108.203Y59.219Z0F1200
G1 X109.192Y57.913Z0F1200
G1 X109.707Y57.331Z0F1200
G1 X110.008Y56.834Z0F1200
G1 X110.032Y55.668Z0F1200
G1 X110.273Y54.318Z0F1200
G1 X110.561Y52.816Z0F1200
G1 X111.869Y50.436Z0F1200
G1 X112.414Y50.18Z0F1200
G1 X111.931Y49.406Z0F1200
G1 X112.495Y47.78Z0F1200
G1 X111.401Y46.502Z0F1200
G1 X111.539Y45.051Z0F1200
G1 X111.73Y43.652Z0F1200
G1 X112.598Y43.021Z0F1200
G1 Y41.534Z0F1200
G1 X112.439Y40.086Z0F1200
G1 X111.879Y38.542Z0F1200
G1 X111.787Y37.26Z0F1200
G1 X111.47Y35.459Z0F1200
G1 X111.156Y34.157Z0F1200
G1 X110.766Y33.177Z0F1200
G1 X110.081Y34.486Z0F1200
G1 X109.906Y33.123Z0F1200
G1 X111.183Y32.696Z0F1200

; Color 1 picking sequence
G1 Z10 F500;         ; Raise brush to safe height
;G0 X2 Y0 F1000;     ; Rapid move to brush cleaning position
;G1 Z0 F500;         ; Lower brush for cleaning - controlled movement
;G1 Z2 F500;         ; Raise brush slightly - controlled movement
;G1 X22 Y0 Z8 F800;     ; Move across cleaning area - controlled movement
;G1 Z8 F500;         ; Maintain brush height - controlled movement
G0 X85 Y0 F1200;    ; Rapid move to color 1 position
G1 Z0 F500;         ; Lower into color - controlled movement
G1 X79 Y1 F500;     ; Small movement in paint - controlled movement
G1 Z7 F500;         ; Raise from color - controlled movement
G1 X82 Y1 F500;     ; Movement in paint - controlled movement
G1 Z1 F500;         ; Lower slightly - controlled movement
G1 X71 Y10 Z10 F500;     ; Move in paint - controlled movement
;G1 Z8 F500;         ; Raise brush - controlled movement
G1 F1200;           ; Set feed rate to 1000

; Return to drawing position
G0 X111.183 Y32.696 F1200;  ; Return to position with raised Z
G1 Z0 F500;                       ; Lower Z to drawing position
G0 Z2.8F500
G0 X110.241Y32.758Z2.8F1500
G1 Z0F500
G1 X109.57Y31.898Z0F1200
G1 X109.108Y28.764Z0F1200
G1 X108.057Y27.131Z0F1200
G1 X108.156Y26.634Z0F1200
G1 X107.01Y25.304Z0F1200
G1 X105.96Y23.971Z0F1200
G1 X104.581Y22.61Z0F1200
G1 X103.134Y21.282Z0F1200
G0 Z2.8F500
G0 X102.397Y22.34Z2.8F1500
G1 Z0F500
G1 X102.587Y24.909Z0F1200
G1 X102.811Y27.511Z0F1200
G1 X102.975Y30.053Z0F1200
G1 X103.067Y32.526Z0F1200
G1 X102.95Y34.79Z0F1200
G1 X102.892Y37.115Z0F1200
G1 X102.952Y39.554Z0F1200
G1 X103.081Y42.063Z0F1200
G1 X103.266Y44.626Z0F1200
G1 X103.491Y47.23Z0F1200
G1 X103.221Y49.344Z0F1200
G1 X102.932Y51.44Z0F1200
G1 X102.701Y53.593Z0F1200
G1 X102.532Y55.807Z0F1200
G1 X102.282Y57.941Z0F1200
G1 X102.342Y60.381Z0F1200
G1 X102.311Y62.731Z0F1200
G1 X102.305Y65.106Z0F1200
G1 X102.311Y67.493Z0F1200
G0 Z2.8F500
G0 X101.945Y68.323Z2.8F1500
G1 Z0F500
G1 X101.975Y65.971Z0F1200
G1 X101.956Y63.572Z0F1200
G1 X101.822Y61.059Z0F1200
G1 X101.631Y58.489Z0F1200
G1 X101.724Y56.2Z0F1200
G1 X101.68Y53.775Z0F1200
G1 X101.669Y51.383Z0F1200
G1 X101.769Y49.102Z0F1200
G1 X101.855Y46.805Z0F1200
G1 X101.869Y44.438Z0F1200
G1 X101.587Y41.779Z0F1200
G1 X101.381Y39.195Z0F1200
G1 X101.239Y36.674Z0F1200
G1 X101.299Y34.352Z0F1200
G1 X101.39Y32.061Z0F1200
G1 X101.494Y29.783Z0F1200
G1 X101.525Y27.432Z0F1200
G1 X101.358Y24.887Z0F1200
G1 X101.067Y22.218Z0F1200

; Color 1 picking sequence
G1 Z10 F500;         ; Raise brush to safe height
;G0 X2 Y0 F1000;     ; Rapid move to brush cleaning position
;G1 Z0 F500;         ; Lower brush for cleaning - controlled movement
;G1 Z2 F500;         ; Raise brush slightly - controlled movement
;G1 X22 Y0 Z8 F800;     ; Move across cleaning area - controlled movement
;G1 Z8 F500;         ; Maintain brush height - controlled movement
G0 X85 Y0 F1200;    ; Rapid move to color 1 position
G1 Z0 F500;         ; Lower into color - controlled movement
G1 X79 Y1 F500;     ; Small movement in paint - controlled movement
G1 Z7 F500;         ; Raise from color - controlled movement
G1 X82 Y1 F500;     ; Movement in paint - controlled movement
G1 Z1 F500;         ; Lower slightly - controlled movement
G1 X71 Y10 Z10 F500;     ; Move in paint - controlled movement
;G1 Z8 F500;         ; Raise brush - controlled movement
G1 F1200;           ; Set feed rate to 1000

; Return to drawing position
G0 X101.067 Y22.218 F1200;  ; Return to position with raised Z
G1 Z0 F500;                       ; Lower Z to drawing position
G0 Z2.8F500
G0 X101.517Y22.762Z2.8F1500
G1 Z0F500
G1 X99.276Y25.312Z0F1200
G1 X97.03Y27.858Z0F1200
G1 X94.687Y30.309Z0F1200
G1 X92.227Y32.643Z0F1200
G0 Z2.8F500
G0 X90.887Y32.412Z2.8F1500
G1 Z0F500
G1 X93.293Y30.024Z0F1200
G1 X95.519Y27.459Z0F1200
G1 X97.65Y24.799Z0F1200
G1 X100.136Y22.49Z0F1200
G0 Z2.8F500
G0 X100.014Y22.37Z2.8F1500
G1 Z0F500
G1 Y24.749Z0F1200
G1 X100.313Y27.427Z0F1200
G1 X100.558Y30.05Z0F1200
G1 X100.713Y32.583Z0F1200
G1 X100.682Y34.933Z0F1200
G1 X100.671Y37.304Z0F1200
G1 X100.829Y39.841Z0F1200
G1 X100.821Y42.214Z0F1200
G1 X100.677Y44.453Z0F1200
G1 X100.663Y46.82Z0F1200
G1 X100.604Y49.142Z0F1200
G1 X100.455Y51.377Z0F1200
G1 X100.302Y53.607Z0F1200
G1 X100.124Y55.812Z0F1200
G1 X99.955Y58.026Z0F1200
G1 X99.96Y60.412Z0F1200
G1 X99.912Y62.745Z0F1200
G1 X99.896Y65.11Z0F1200
G1 X99.992Y67.587Z0F1200
G0 Z2.8F500
G0 X99.054Y67.256Z2.8F1500
G1 Z0F500
G1 X100.876Y65.78Z0F1200
G1 X102.422Y64.131Z0F1200
G1 X103.568Y62.682Z0F1200
G1 X104.588Y61.308Z0F1200
G1 X105.533Y59.958Z0F1200
G1 X106.248Y58.58Z0F1200
G1 X106.951Y57.19Z0F1200
G1 X107.515Y55.862Z0F1200
G1 X108.123Y54.577Z0F1200
G1 X108.498Y53.161Z0F1200
G1 X108.901Y51.873Z0F1200
G1 X109.131Y50.909Z0F1200
G1 X109.423Y49.511Z0F1200
G1 X110.634Y50.805Z0F1200
G0 Z2.8F500
G0 X112.167Y49.837Z2.8F1500
G1 Z0F500
G1 Y47.455Z0F1200
G1 X112.154Y45.062Z0F1200
G1 X112.207Y42.734Z0F1200
G1 X112.244Y40.39Z0F1200
G1 X112.314Y38.078Z0F1200

; Color 1 picking sequence
G1 Z10 F500;         ; Raise brush to safe height
;G0 X2 Y0 F1000;     ; Rapid move to brush cleaning position
;G1 Z0 F500;         ; Lower brush for cleaning - controlled movement
;G1 Z2 F500;         ; Raise brush slightly - controlled movement
;G1 X22 Y0 Z8 F800;     ; Move across cleaning area - controlled movement
;G1 Z8 F500;         ; Maintain brush height - controlled movement
G0 X85 Y0 F1200;    ; Rapid move to color 1 position
G1 Z0 F500;         ; Lower into color - controlled movement
G1 X79 Y1 F500;     ; Small movement in paint - controlled movement
G1 Z7 F500;         ; Raise from color - controlled movement
G1 X82 Y1 F500;     ; Movement in paint - controlled movement
G1 Z1 F500;         ; Lower slightly - controlled movement
G1 X71 Y10 Z10 F500;     ; Move in paint - controlled movement
;G1 Z8 F500;         ; Raise brush - controlled movement
G1 F1200;           ; Set feed rate to 1000

; Return to drawing position
G0 X112.314 Y38.078 F1200;  ; Return to position with raised Z
G1 Z0 F500;                       ; Lower Z to drawing position
G0 Z2.8F500
G0 X111.91Y37.778Z2.8F1500
G1 Z0F500
G1 X109.547Y40.209Z0F1200
G1 X107.039Y42.496Z0F1200
G1 X104.47Y44.723Z0F1200
G1 X101.801Y46.851Z0F1200
G0 Z2.8F500
G0 X101.329Y48.767Z2.8F1500
G1 Z0F500
G1 X103.916Y46.558Z0F1200
G1 X106.545Y44.39Z0F1200
G1 X109.025Y42.074Z0F1200
G1 X111.358Y39.615Z0F1200
G0 Z2.8F500
G0 X112.518Y46.613Z2.8F1500
G1 Z0F500
G1 X112.43Y44.145Z0F1200
G1 X112.258Y41.594Z0F1200
G1 X112.114Y39.071Z0F1200
G1 X112.068Y36.645Z0F1200
G0 Z2.8F500
G0 X109.547Y38.126Z2.8F1500
G1 Z0F500
G1 X109.703Y39.47Z0F1200
G1 X109.655Y41.506Z0F1200
G1 X109.424Y42.865Z0F1200
G1 X109.573Y44.302Z0F1200
G1 X109.534Y45.751Z0F1200
G1 X110.142Y46.847Z0F1200
G1 X111.393Y48.578Z0F1200
G0 Z2.8F500
G0 X112.312Y48.889Z2.8F1500
G1 Z0F500
G1 X110.838Y52.098Z0F1200
G1 X109.858Y54.206Z0F1200
G1 X107.957Y56.1Z0F1200
G1 X106.129Y58.761Z0F1200
G1 X104.816Y61.235Z0F1200
G1 X103.493Y63.204Z0F1200
G1 X102.151Y64.856Z0F1200
G1 X100.678Y65.683Z0F1200
G1 X99.271Y66.775Z0F1200
G1 X98.68Y67.581Z0F1200
G1 X97.952Y67.657Z0F1200
G1 X97.426Y67.832Z0F1200
G1 X99.856Y66.361Z0F1200
G1 X101.624Y64.931Z0F1200
G1 X102.791Y63.403Z0F1200
G1 X104.554Y62.762Z0F1200
G1 X105.17Y61.683Z0F1200
G1 X106.152Y60.371Z0F1200
G1 X106.924Y59.049Z0F1200
G1 X107.642Y57.674Z0F1200
G1 X108.229Y56.269Z0F1200
G1 X108.765Y54.913Z0F1200
G1 X108.971Y53.43Z0F1200
G1 X109.276Y51.946Z0F1200
G1 X109.428Y50.409Z0F1200
G1 X109.655Y48.847Z0F1200
G1 X108.889Y47.892Z0F1200
G1 X109.154Y46.566Z0F1200
G1 X109.416Y46.429Z0F1200
G1 X109.563Y45.184Z0F1200
G1 X109.748Y43.879Z0F1200
G1 X109.743Y42.486Z0F1200
G1 X109.705Y41.158Z0F1200
G1 X109.111Y39.382Z0F1200
G1 X109.12Y38.002Z0F1200
G1 Y36.615Z0F1200
G1 X108.821Y35.226Z0F1200

; Color 1 picking sequence
G1 Z10 F500;         ; Raise brush to safe height
;G0 X2 Y0 F1000;     ; Rapid move to brush cleaning position
;G1 Z0 F500;         ; Lower brush for cleaning - controlled movement
;G1 Z2 F500;         ; Raise brush slightly - controlled movement
;G1 X22 Y0 Z8 F800;     ; Move across cleaning area - controlled movement
;G1 Z8 F500;         ; Maintain brush height - controlled movement
G0 X85 Y0 F1200;    ; Rapid move to color 1 position
G1 Z0 F500;         ; Lower into color - controlled movement
G1 X79 Y1 F500;     ; Small movement in paint - controlled movement
G1 Z7 F500;         ; Raise from color - controlled movement
G1 X82 Y1 F500;     ; Movement in paint - controlled movement
G1 Z1 F500;         ; Lower slightly - controlled movement
G1 X71 Y10 Z10 F500;     ; Move in paint - controlled movement
;G1 Z8 F500;         ; Raise brush - controlled movement
G1 F1200;           ; Set feed rate to 1000

; Return to drawing position
G0 X108.821 Y35.226 F1200;  ; Return to position with raised Z
G1 Z0 F500;                       ; Lower Z to drawing position
G0 Z2.8F500
G0 X108.814Y34.723Z2.8F1500
G1 Z0F500
G1 X106.222Y36.928Z0F1200
G1 X103.77Y39.27Z0F1200
G1 X99.234Y44.319Z0F1200
G0 Z2.8F500
G0 X101.142Y43.82Z2.8F1500
G1 Z0F500
G1 X103.544Y41.429Z0F1200
G1 X105.853Y38.944Z0F1200
G1 X108.222Y36.521Z0F1200
G0 Z2.8F500
G0 X109.149Y32.674Z2.8F1500
G1 Z0F500
G1 X106.854Y35.171Z0F1200
G1 X104.379Y37.49Z0F1200
G1 X101.84Y39.747Z0F1200
G1 X99.431Y42.132Z0F1200
G0 Z2.8F500
G0 X99.226Y39.549Z2.8F1500
G1 Z0F500
G1 X101.536Y37.066Z0F1200
G1 X103.858Y34.596Z0F1200
G1 X106.277Y32.22Z0F1200
G1 X108.646Y29.796Z0F1200
G0 Z2.8F500
G0 X108.062Y29.12Z2.8F1500
G1 Z0F500
G1 X108.058Y31.497Z0F1200
G1 X107.98Y33.802Z0F1200
G1 X107.874Y36.078Z0F1200
G1 X107.738Y38.325Z0F1200
G1 X107.8Y40.767Z0F1200
G1 X108.012Y43.357Z0F1200
G1 X108.27Y45.992Z0F1200
G1 X108.523Y48.623Z0F1200
G1 X108.676Y51.155Z0F1200
G0 Z2.8F500
G0 X109.264Y49.453Z2.8F1500
G1 Z0F500
G1 X106.884Y51.867Z0F1200
G1 X104.467Y54.244Z0F1200
G1 X102.084Y56.655Z0F1200
G1 X99.878Y59.239Z0F1200
G0 Z2.8F500
G0 X99.542Y58.809Z2.8F1500
G1 Z0F500
G1 X99.646Y61.292Z0F1200
G1 X99.701Y63.728Z0F1200
G1 X99.812Y66.219Z0F1200
G0 Z2.8F500
G0 X99.851Y66.356Z2.8F1500
G1 Z0F500
G1 X102.056Y63.77Z0F1200
G1 X104.153Y61.077Z0F1200

; Color 1 picking sequence
G1 Z10 F500;         ; Raise brush to safe height
;G0 X2 Y0 F1000;     ; Rapid move to brush cleaning position
;G1 Z0 F500;         ; Lower brush for cleaning - controlled movement
;G1 Z2 F500;         ; Raise brush slightly - controlled movement
;G1 X22 Y0 Z8 F800;     ; Move across cleaning area - controlled movement
;G1 Z8 F500;         ; Maintain brush height - controlled movement
G0 X85 Y0 F1200;    ; Rapid move to color 1 position
G1 Z0 F500;         ; Lower into color - controlled movement
G1 X79 Y1 F500;     ; Small movement in paint - controlled movement
G1 Z7 F500;         ; Raise from color - controlled movement
G1 X82 Y1 F500;     ; Movement in paint - controlled movement
G1 Z1 F500;         ; Lower slightly - controlled movement
G1 X71 Y10 Z10 F500;     ; Move in paint - controlled movement
;G1 Z8 F500;         ; Raise brush - controlled movement
G1 F1200;           ; Set feed rate to 1000

; Return to drawing position
G0 X104.153 Y61.077 F1200;  ; Return to position with raised Z
G1 Z0 F500;                       ; Lower Z to drawing position
G0 Z2.8F500
G0 X103.564Y60.396Z2.8F1500
G1 Z0F500
G1 X103.513Y57.965Z0F1200
G1 X103.187Y55.262Z0F1200
G1 X103.057Y52.753Z0F1200
G1 X103.028Y50.344Z0F1200
G1 X102.977Y47.912Z0F1200
G1 X102.85Y45.406Z0F1200
G1 X102.854Y43.029Z0F1200
G1 X102.821Y40.616Z0F1200
G1 X102.891Y38.304Z0F1200
G1 X102.934Y35.965Z0F1200
G1 X103.127Y33.774Z0F1200
G1 X103.196Y31.462Z0F1200
G1 X103.362Y29.245Z0F1200
G1 X103.51Y27.01Z0F1200
G1 X103.613Y24.731Z0F1200
G0 Z2.8F500
G0 X104.144Y25.354Z2.8F1500
G1 Z0F500
G1 X101.934Y27.935Z0F1200
G1 X99.671Y30.464Z0F1200
G1 X97.297Y32.884Z0F1200
G1 X94.88Y35.261Z0F1200
G0 Z2.8F500
G0 X94.22Y36.99Z2.8F1500
G1 Z0F500
G1 X96.481Y34.459Z0F1200
G1 X98.562Y31.751Z0F1200
G1 X100.476Y28.878Z0F1200
G1 X102.808Y26.416Z0F1200
G0 Z2.8F500
G0 X101.281Y24.909Z2.8F1500
G1 Z0F500
G1 X98.77Y27.194Z0F1200
G1 X96.437Y29.654Z0F1200
G1 X93.982Y31.993Z0F1200
G1 X91.463Y34.27Z0F1200
G0 Z2.8F500
G0 X90.011Y35.119Z2.8F1500
G1 Z0F500
G1 X89.768Y32.499Z0F1200
G1 X89.351Y29.706Z0F1200
G1 X88.821Y26.802Z0F1200
G1 X88.713Y24.314Z0F1200
G0 Z2.8F500
G0 X89.292Y26.076Z2.8F1500
G1 Z0F500
G1 X89.265Y28.43Z0F1200
G1 X89.276Y30.822Z0F1200
G1 X89.144Y33.073Z0F1200
G1 X88.83Y35.145Z0F1200
G1 X88.635Y37.333Z0F1200
G0 Z2.8F500
G0 X86.274Y37.484Z2.8F1500
G1 Z0F500
G1 X87.627Y37.33Z0F1200
G1 X88.999Y37.295Z0F1200
G1 X90.386Y37.274Z0F1200
G1 X91.795Z0F1200
G1 X93.235Y37.209Z0F1200

; Color 1 picking sequence
G1 Z10 F500;         ; Raise brush to safe height
;G0 X2 Y0 F1000;     ; Rapid move to brush cleaning position
;G1 Z0 F500;         ; Lower brush for cleaning - controlled movement
;G1 Z2 F500;         ; Raise brush slightly - controlled movement
;G1 X22 Y0 Z8 F800;     ; Move across cleaning area - controlled movement

; Washing sequence (no color)
G1 Z10 F1000;        ; Raise brush to safe height
G0 X5 Y5 F1200;     ; Rapid move to brush cleaning position
G1 Z-1 F800;         ; Lower brush for cleaning - controlled movement
G1 X10 Y12 Z8 F1200;     ; Rapid move to brush cleaning position
G1 Z-1 F800;         ; Lower brush for cleaning - controlled movement
G1 X25 Y14 Z6 F800;     ; Move across cleaning area - controlled movement
G1 Z8 F800;         ; Maintain brush height - controlled movement
G0 X5 Y5 F1200;     ; Rapid move to brush cleaning position
G1 Z-1 F800;         ; Lower brush for cleaning - controlled movement
G1 X15 Y12 Z8 F1200;     ; Rapid move to brush cleaning position
G1 Z-1 F800;         ; Lower brush for cleaning - controlled movement
G1 X25 Y14 Z6 F800;     ; Move across cleaning area - controlled movement
G1 Z10 F800;         ; Maintain brush height - controlled movement
G1 F1200;           ; Set feed rate to 1000
;G1 Z8 F500;         ; Maintain brush height - controlled movement
G0 X85 Y0 F1200;    ; Rapid move to color 1 position
G1 Z0 F500;         ; Lower into color - controlled movement
G1 X79 Y1 F500;     ; Small movement in paint - controlled movement
G1 Z7 F500;         ; Raise from color - controlled movement
G1 X82 Y1 F500;     ; Movement in paint - controlled movement
G1 Z1 F500;         ; Lower slightly - controlled movement
G1 X71 Y10 Z10 F500;     ; Move in paint - controlled movement
;G1 Z8 F500;         ; Raise brush - controlled movement
G1 F1200;           ; Set feed rate to 1000

; Return to drawing position
G0 X93.235 Y37.209 F1200;  ; Return to position with raised Z
G1 Z0 F500;                       ; Lower Z to drawing position
G0 Z2.8F500
G0 X93.649Y37.518Z2.8F1500
G1 Z0F500
G1 X93.763Y35.249Z0F1200
G1 X93.953Y33.056Z0F1200
G1 X94.321Y31.038Z0F1200
G1 X94.476Y28.81Z0F1200
G1 X94.418Y26.372Z0F1200
G1 X94.396Y23.97Z0F1200
G0 Z2.8F500
G0 X94.802Y23.18Z2.8F1500
G1 Z0F500
G1 X94.875Y25.632Z0F1200
G1 X94.734Y27.874Z0F1200
G1 X94.698Y30.22Z0F1200
G1 X94.96Y32.859Z0F1200
G1 X95.058Y35.337Z0F1200
G1 X95.085Y37.744Z0F1200
G0 Z2.8F500
G0 X96.998Y37.35Z2.8F1500
G1 Z0F500
G1 X99.22Y34.781Z0F1200
G1 X101.599Y32.367Z0F1200
G1 X104.097Y30.07Z0F1200
G1 X106.487Y27.666Z0F1200
G0 Z2.8F500
G0 X106.386Y27.467Z2.8F1500
G1 Z0F500
G1 X106.21Y29.674Z0F1200
G1 X105.994Y31.842Z0F1200
G1 X106.091Y34.319Z0F1200
G1 X106.522Y37.124Z0F1200
G1 X106.96Y39.938Z0F1200
G1 X107.156Y42.512Z0F1200
G1 X107.109Y44.846Z0F1200
G1 X107.171Y47.289Z0F1200
G1 X107.33Y49.826Z0F1200
G1 X107.363Y52.24Z0F1200
G1 X107.369Y54.627Z0F1200
G1 X107.042Y56.685Z0F1200
G0 Z2.8F500
G0 X106.554Y56.303Z2.8F1500
G1 Z0F500
G1 X104.108Y58.652Z0F1200
G1 X101.891Y61.226Z0F1200
G1 X99.649Y63.776Z0F1200
G1 X97.285Y66.204Z0F1200
G1 X94.795Y68.51Z0F1200
G0 Z2.8F500
G0 X95.123Y66.354Z2.8F1500
G1 Z0F500
G1 X94.951Y68.565Z0F1200
G1 X94.906Y70.901Z0F1200
G0 Z2.8F500
G0 X94.044Y71.241Z2.8F1500
G1 Z0F500
G1 X94.227Y69.04Z0F1200
G1 X94.504Y66.933Z0F1200
G1 X94.621Y64.667Z0F1200
G0 Z2.8F500
G0 X92.954Y63.717Z2.8F1500
G1 Z0F500
G1 X94.476Y62.342Z0F1200
G1 X95.791Y60.961Z0F1200
G1 X96.943Y59.518Z0F1200
G1 X97.896Y58.078Z0F1200
G1 X98.407Y56.697Z0F1200
G1 X98.964Y55.361Z0F1200
G1 X99.185Y53.993Z0F1200
G1 X99.477Y52.396Z0F1200
G1 X99.519Y50.949Z0F1200
G1 X99.851Y49.59Z0F1200
G1 X99.988Y48.237Z0F1200
G1 X97.505Y47.473Z0F1200

; Color 1 picking sequence
G1 Z10 F500;         ; Raise brush to safe height
;G0 X2 Y0 F1000;     ; Rapid move to brush cleaning position
;G1 Z0 F500;         ; Lower brush for cleaning - controlled movement
;G1 Z2 F500;         ; Raise brush slightly - controlled movement
;G1 X22 Y0 Z8 F800;     ; Move across cleaning area - controlled movement
;G1 Z8 F500;         ; Maintain brush height - controlled movement
G0 X85 Y0 F1200;    ; Rapid move to color 1 position
G1 Z0 F500;         ; Lower into color - controlled movement
G1 X79 Y1 F500;     ; Small movement in paint - controlled movement
G1 Z7 F500;         ; Raise from color - controlled movement
G1 X82 Y1 F500;     ; Movement in paint - controlled movement
G1 Z1 F500;         ; Lower slightly - controlled movement
G1 X71 Y10 Z10 F500;     ; Move in paint - controlled movement
;G1 Z8 F500;         ; Raise brush - controlled movement
G1 F1200;           ; Set feed rate to 1000

; Return to drawing position
G0 X97.505 Y47.473 F1200;  ; Return to position with raised Z
G1 Z0 F500;                       ; Lower Z to drawing position
G0 Z2.8F500
G0 X97.597Y47.267Z2.8F1500
G1 Z0F500
G1 X96.155Y47.233Z0F1200
G1 X94.664Y47.151Z0F1200
G1 X92.578Y47.077Z0F1200
G1 X91.317Y47.221Z0F1200
G1 X90.006Y47.317Z0F1200
G1 X88.615Y47.333Z0F1200
G1 X87.192Y47.318Z0F1200
G1 X85.774Y47.208Z0F1200
G1 X84.351Y47.094Z0F1200
G1 X82.88Y47.131Z0F1200
G1 X81.432Y46.992Z0F1200
G1 X79.98Y47.046Z0F1200
G1 X78.545Y46.92Z0F1200
G1 X77.047Y46.733Z0F1200
G1 X75.666Y46.659Z0F1200
G1 X77.502Y45.098Z0F1200
G1 X77.948Y43.752Z0F1200
G1 X77.671Y42.388Z0F1200
G0 Z2.8F500
G0 X77.662Y42.577Z2.8F1500
G1 Z0F500
G1 X77.537Y43.445Z0F1200
G1 X77.265Y44.863Z0F1200
G1 X76.605Y45.8Z0F1200
G1 X76.458Y46.746Z0F1200
G1 X77.015Y46.899Z0F1200
G0 Z2.8F500
G0 X75.992Y45.294Z2.8F1500
G1 Z0F500
G1 X75.445Y46.838Z0F1200
G1 X74.038Y46.937Z0F1200
G0 Z2.8F500
G0 X74.392Y47.882Z2.8F1500
G1 Z0F500
G1 X74.131Y48.22Z0F1200
G1 X73.839Y49.717Z0F1200
G1 X73.605Y51.074Z0F1200
G1 X73.252Y52.313Z0F1200
G1 X73.465Y53.317Z0F1200
G1 X73.177Y54.62Z0F1200
G1 X73.157Y55.99Z0F1200
G1 X72.015Y57.342Z0F1200
G1 X70.981Y58.703Z0F1200
G1 X72.242Y57.764Z0F1200
G1 X73.687Y56.611Z0F1200
G1 X75.108Y56.822Z0F1200
G1 X76.537Y56.745Z0F1200
G1 X77.78Y57.078Z0F1200
G1 X79.131Y57.122Z0F1200
G1 X80.569Y57.35Z0F1200
G1 X82.087Y57.559Z0F1200
G1 X83.563Y57.725Z0F1200
G1 X84.976Y57.83Z0F1200
G1 X86.414Y58.058Z0F1200
G1 X89.206Y58.233Z0F1200
G1 X90.568Y58.288Z0F1200
G1 X91.954Y58.365Z0F1200
G1 X93.368Y58.471Z0F1200
G1 X94.65Y58.545Z0F1200
G1 X95.973Y58.462Z0F1200
G1 X97.26Y58.64Z0F1200
G0 Z2.8F500
G0 X96.602Y60.472Z2.8F1500
G1 Z0F500
G1 X95.237Y62.101Z0F1200
G1 X93.884Y63.544Z0F1200
G1 X92.521Y64.678Z0F1200
G1 X91.093Y64.758Z0F1200
G1 X88.189Y64.472Z0F1200
G1 X86.788Y64.28Z0F1200
G1 X85.342Y64.143Z0F1200
G1 X83.933Y63.943Z0F1200
G1 X82.594Y63.812Z0F1200
G1 X81.274Y63.601Z0F1200
G1 X79.925Y63.56Z0F1200
G1 X78.536Y63.38Z0F1200
G1 X77.195Y63.247Z0F1200
G1 X75.776Y63.038Z0F1200
G1 X74.314Y62.785Z0F1200
G1 X72.89Y62.571Z0F1200
G1 X71.538Y62.427Z0F1200
G1 X70.27Y62.268Z0F1200
G1 X68.797Y62.005Z0F1200
G1 X65.984Y61.61Z0F1200
G1 X64.548Y61.582Z0F1200
G1 X63.135Y61.675Z0F1200
G1 X61.671Y62.414Z0F1200
G1 X60.163Y63.01Z0F1200
G1 X58.645Y63.099Z0F1200
G1 X57.237Y63.297Z0F1200
G1 X55.838Y63.504Z0F1200
G1 X54.49Y63.761Z0F1200
G1 X53.179Y64.054Z0F1200
G1 X51.79Y64.271Z0F1200
G1 X50.418Y64.604Z0F1200
G1 X48.989Y64.781Z0F1200
G1 X47.526Y64.925Z0F1200
G1 X46.07Y65.075Z0F1200
G1 X44.697Y65.308Z0F1200
G1 X43.275Y65.493Z0F1200
G1 X41.948Y65.77Z0F1200
G1 X40.548Y66.274Z0F1200
G1 X39.083Y68.995Z0F1200
G1 X37.688Y71.984Z0F1200

; Color 1 picking sequence
G1 Z10 F500;         ; Raise brush to safe height
;G0 X2 Y0 F1000;     ; Rapid move to brush cleaning position
;G1 Z0 F500;         ; Lower brush for cleaning - controlled movement
;G1 Z2 F500;         ; Raise brush slightly - controlled movement
;G1 X22 Y0 Z8 F800;     ; Move across cleaning area - controlled movement
;G1 Z8 F500;         ; Maintain brush height - controlled movement
G0 X85 Y0 F1200;    ; Rapid move to color 1 position
G1 Z0 F500;         ; Lower into color - controlled movement
G1 X79 Y1 F500;     ; Small movement in paint - controlled movement
G1 Z7 F500;         ; Raise from color - controlled movement
G1 X82 Y1 F500;     ; Movement in paint - controlled movement
G1 Z1 F500;         ; Lower slightly - controlled movement
G1 X71 Y10 Z10 F500;     ; Move in paint - controlled movement
;G1 Z8 F500;         ; Raise brush - controlled movement
G1 F1200;           ; Set feed rate to 1000

; Return to drawing position
G0 X37.688 Y71.984 F1200;  ; Return to position with raised Z
G1 Z0 F500;                       ; Lower Z to drawing position
G0 Z2.8F500
G0 X38.677Y71.373Z2.8F1500
G1 Z0F500
G1 X36.376Y73.864Z0F1200
G0 Z2.8F500
G0 X38.018Y73.897Z2.8F1500
G1 Z0F500
G1 X39.387Y75.148Z0F1200
G1 X40.729Y75.481Z0F1200
G1 X42.099Y75.741Z0F1200
G1 X43.493Y75.827Z0F1200
G1 X44.83Y75.856Z0F1200
G1 X46.145Y75.765Z0F1200
G1 X47.42Y75.535Z0F1200
G1 X48.763Y75.372Z0F1200
G1 X50.19Y75.193Z0F1200
G1 X51.634Y75.03Z0F1200
G1 X52.966Y74.658Z0F1200
G1 X54.344Y74.331Z0F1200
G1 X55.781Y73.963Z0F1200
G0 Z2.8F500
G0 X54.892Y74.375Z2.8F1500
G1 Z0F500
G1 X57.614Y72.994Z0F1200
G1 X57.45Y71.642Z0F1200
G1 X58.433Y70.231Z0F1200
G0 Z2.8F500
G0 X59.149Y70.143Z2.8F1500
G1 Z0F500
G1 X59.309Y72.683Z0F1200
G1 X59.718Y75.466Z0F1200
G1 X60.065Y78.19Z0F1200
G0 Z2.8F500
G0 X58.618Y77.952Z2.8F1500
G1 Z0F500
G1 X58.455Y75.411Z0F1200
G1 X58.308Y72.885Z0F1200
G0 Z2.8F500
G0 X58.134Y72.812Z2.8F1500
G1 Z0F500
G1 X55.936Y75.406Z0F1200
G1 X53.792Y78.052Z0F1200
G1 X51.58Y80.631Z0F1200
G0 Z2.8F500
G0 X51.157Y81.305Z2.8F1500
G1 Z0F500
G1 X51.126Y78.893Z0F1200
G0 Z2.8F500
G0 X52.03Y78.695Z2.8F1500
G1 Z0F500
G1 X49.718Y81.175Z0F1200
G0 Z2.8F500
G0 X50.179Y81.53Z2.8F1500
G1 Z0F500
G1 X50.125Y79.097Z0F1200
G0 Z2.8F500
G0 X49.157Y78.241Z2.8F1500
G1 Z0F500
G1 X46.796Y80.673Z0F1200
G0 Z2.8F500
G0 X46.02Y80.999Z2.8F1500
G1 Z0F500
G1 X46.179Y78.775Z0F1200
G0 Z2.8F500
G0 X46.011Y78.609Z2.8F1500
G1 Z0F500
G1 X43.679Y81.07Z0F1200
G0 Z2.8F500
G0 X43.845Y81.233Z2.8F1500
G1 Z0F500
G1 X43.874Y78.881Z0F1200
G0 Z2.8F500
G0 X44.222Y78.034Z2.8F1500
G1 Z0F500
G1 X44.28Y80.472Z0F1200
G0 Z2.8F500
G0 X44.738Y81.024Z2.8F1500
G1 Z0F500
G1 X46.952Y78.446Z0F1200
G0 Z2.8F500
G0 X47.681Y79.066Z2.8F1500
G1 Z0F500
G1 X47.598Y81.365Z0F1200
G0 Z2.8F500
G0 X48.566Y81.13Z2.8F1500
G1 Z0F500
G1 X48.584Y78.767Z0F1200
G0 Z2.8F500
G0 X46.003Y81.477Z2.8F1500
G1 Z0F500
G1 X52.902Y80.15Z0F1200
G1 X57.473Y78.807Z0F1200
G1 X59.792Y77.424Z0F1200
G1 X61.152Y75.989Z0F1200
G1 X61.935Y74.579Z0F1200
G1 X62.122Y73.077Z0F1200
G1 X61.748Y71.518Z0F1200
G1 X60.195Y70.084Z0F1200

; Color 1 picking sequence
G1 Z10 F500;         ; Raise brush to safe height
;G0 X2 Y0 F1000;     ; Rapid move to brush cleaning position
;G1 Z0 F500;         ; Lower brush for cleaning - controlled movement
;G1 Z2 F500;         ; Raise brush slightly - controlled movement
;G1 X22 Y0 Z8 F800;     ; Move across cleaning area - controlled movement
;G1 Z8 F500;         ; Maintain brush height - controlled movement
G0 X85 Y0 F1200;    ; Rapid move to color 1 position
G1 Z0 F500;         ; Lower into color - controlled movement
G1 X79 Y1 F500;     ; Small movement in paint - controlled movement
G1 Z7 F500;         ; Raise from color - controlled movement
G1 X82 Y1 F500;     ; Movement in paint - controlled movement
G1 Z1 F500;         ; Lower slightly - controlled movement
G1 X71 Y10 Z10 F500;     ; Move in paint - controlled movement
;G1 Z8 F500;         ; Raise brush - controlled movement
G1 F1200;           ; Set feed rate to 1000

; Return to drawing position
G0 X60.195 Y70.084 F1200;  ; Return to position with raised Z
G1 Z0 F500;                       ; Lower Z to drawing position
G0 Z2.8F500
G0 X61.447Y71.419Z2.8F1500
G1 Z0F500
G1 X59.933Y69.826Z0F1200
G1 X58.49Y69.592Z0F1200
G1 X57.01Y70.612Z0F1200
G0 Z2.8F500
G0 X57.622Y75.78Z2.8F1500
G1 Z0F500
G1 X57.5Y78.04Z0F1200
G0 Z2.8F500
G0 X58.187Y77.627Z2.8F1500
G1 Z0F500
G1 X60.632Y75.277Z0F1200
G0 Z2.8F500
G0 X60.901Y75.245Z2.8F1500
G1 Z0F500
G1 X59.484Y76.823Z0F1200
G1 X57.94Y77.68Z0F1200
G1 X56.496Y78.339Z0F1200
G1 X55.094Y78.741Z0F1200
G1 X53.691Y79.242Z0F1200
G1 X52.336Y79.691Z0F1200
G1 X50.942Y80.002Z0F1200
G1 X48.073Y80.544Z0F1200
G1 X46.741Y80.916Z0F1200
G1 X45.373Y81.154Z0F1200
G1 X44.064Y81.45Z0F1200
G1 X42.776Y81.766Z0F1200
G1 X41.498Y81.993Z0F1200
G1 X40.112Y82.113Z0F1200
G1 X38.689Y82.099Z0F1200
G1 X37.166Y81.885Z0F1200
G1 X35.66Y81.391Z0F1200
G1 X34.182Y80.628Z0F1200
G1 X32.725Y79.686Z0F1200
G1 X31.217Y78.297Z0F1200
G1 X29.838Y76.738Z0F1200
G1 X30.381Y75.687Z0F1200
G1 X30.311Y74.229Z0F1200
G1 X30.671Y72.897Z0F1200
G1 X30.965Y71.501Z0F1200
G1 X31.298Y70.044Z0F1200
G1 X34.086Y68.529Z0F1200
G1 X34.276Y67.03Z0F1200
G1 X34.187Y65.851Z0F1200
G1 X33.463Y65.137Z0F1200
G1 X33.617Y63.801Z0F1200
G1 X33.759Y62.452Z0F1200
G1 X33.989Y61.092Z0F1200
G1 X33.283Y58.907Z0F1200
G1 X33.768Y58.592Z0F1200
G1 X33.776Y57.112Z0F1200
G1 X33.854Y55.7Z0F1200
G1 X34.003Y54.36Z0F1200
G1 X34.084Y52.951Z0F1200
G1 X34.241Y51.618Z0F1200
G1 X34.331Y50.219Z0F1200
G1 X34.38Y48.879Z0F1200
G1 X34.431Y47.54Z0F1200
G1 X35.007Y46.124Z0F1200
G1 X35.525Y45.941Z0F1200
G1 X35.903Y44.627Z0F1200
G1 X36.203Y43.138Z0F1200
G1 X35.036Y42.383Z0F1200
G1 X35.043Y41.199Z0F1200
G1 X36.251Y40.011Z0F1200
G1 X36.03Y39.793Z0F1200
G1 X35.195Y39.563Z0F1200
G1 X35.958Y38.233Z0F1200
G1 X36.037Y36.823Z0F1200
G1 X35.908Y35.406Z0F1200
G1 X36.166Y33.974Z0F1200
G1 X35.315Y32.837Z0F1200
G1 X35.958Y32.082Z0F1200
G1 X36.257Y30.691Z0F1200
G1 X36.189Y29.235Z0F1200
G1 X34.538Y28.697Z0F1200
G1 X34.963Y28.224Z0F1200
G1 X35.683Y28.141Z0F1200
G1 X36.022Y26.789Z0F1200
G1 X36.189Y25.366Z0F1200
G1 X35.637Y25.119Z0F1200
G1 X35.393Y23.688Z0F1200
G1 X35.711Y22.216Z0F1200
G1 X35.976Y20.791Z0F1200
G1 X37.357Y19.475Z0F1200
G1 X39.11Y19.32Z0F1200
G1 X38.929Y19.042Z0F1200
G1 X37.619Y19.932Z0F1200
G1 X36.252Y21.758Z0F1200

; Color 1 picking sequence
G1 Z10 F500;         ; Raise brush to safe height
;G0 X2 Y0 F1000;     ; Rapid move to brush cleaning position
;G1 Z0 F500;         ; Lower brush for cleaning - controlled movement
;G1 Z2 F500;         ; Raise brush slightly - controlled movement
;G1 X22 Y0 Z8 F800;     ; Move across cleaning area - controlled movement
;G1 Z8 F500;         ; Maintain brush height - controlled movement
G0 X85 Y0 F1200;    ; Rapid move to color 1 position
G1 Z0 F500;         ; Lower into color - controlled movement
G1 X79 Y1 F500;     ; Small movement in paint - controlled movement
G1 Z7 F500;         ; Raise from color - controlled movement
G1 X82 Y1 F500;     ; Movement in paint - controlled movement
G1 Z1 F500;         ; Lower slightly - controlled movement
G1 X71 Y10 Z10 F500;     ; Move in paint - controlled movement
;G1 Z8 F500;         ; Raise brush - controlled movement
G1 F1200;           ; Set feed rate to 1000

; Return to drawing position
G0 X36.252 Y21.758 F1200;  ; Return to position with raised Z
G1 Z0 F500;                       ; Lower Z to drawing position
G0 Z2.8F500
G0 X34.864Y24.455Z2.8F1500
G1 Z0F500
G1 X35.265Y28.324Z0F1200
G1 X34.886Y29.338Z0F1200
G1 X33.636Y29.494Z0F1200
G1 X32.56Y32.797Z0F1200
G1 X33.149Y35.164Z0F1200
G0 Z2.8F500
G0 X34.027Y35.832Z2.8F1500
G1 Z0F500
G1 X33.898Y38.086Z0F1200
G1 X33.847Y40.416Z0F1200
G1 X33.723Y42.675Z0F1200
G1 X33.594Y44.928Z0F1200
G1 X33.602Y47.317Z0F1200
G1 X33.479Y49.577Z0F1200
G1 X33.351Y51.832Z0F1200
G0 Z2.8F500
G0 X31.955Y50.454Z2.8F1500
G1 Z0F500
G1 X31.931Y48.049Z0F1200
G1 X31.772Y45.512Z0F1200
G1 X31.729Y43.088Z0F1200
G0 Z2.8F500
G0 X34.142Y41.005Z2.8F1500
G1 Z0F500
G1 X34.273Y39.647Z0F1200
G1 X34.51Y38.392Z0F1200
G1 X35.303Y38.183Z0F1200
G1 X35.197Y36.689Z0F1200
G1 X35.382Y35.681Z0F1200
G1 X33.422Y34.937Z0F1200
G1 X32.42Y33.651Z0F1200
G1 X33.051Y32.092Z0F1200
G1 X33.668Y30.914Z0F1200
G1 X34.247Y29.502Z0F1200
G1 X34.285Y28.746Z0F1200
G1 X34.396Y27.367Z0F1200
G1 X34.884Y25.963Z0F1200
G1 X35.165Y24.554Z0F1200
G1 X36.429Y26.099Z0F1200
G1 X36.388Y26.951Z0F1200
G0 Z2.8F500
G0 X34.393Y27.463Z2.8F1500
G1 Z0F500
G1 X35.776Y25.752Z0F1200
G1 X34.728Y24.718Z0F1200
G1 X34.235Y26.116Z0F1200
G1 X33.849Y27.422Z0F1200
G1 X33.286Y28.751Z0F1200
G1 X33.048Y30.203Z0F1200
G1 X32.637Y31.583Z0F1200
G1 X32.245Y32.983Z0F1200
G1 X32.033Y34.459Z0F1200
G1 X31.657Y35.874Z0F1200
G1 X31.009Y37.22Z0F1200
G1 X30.45Y38.553Z0F1200
G1 X29.95Y39.944Z0F1200
G1 X29.519Y41.404Z0F1200
G1 X29.019Y42.895Z0F1200
G1 X28.375Y44.243Z0F1200
G1 X28.939Y42.617Z0F1200
G1 X30.285Y38.985Z0F1200
G0 Z2.8F500
G0 X34.726Y36.918Z2.8F1500
G1 Z0F500
G1 X35.104Y35.505Z0F1200
G1 X35.012Y34.026Z0F1200
G1 X34.116Y33.539Z0F1200
G1 X34.352Y32.085Z0F1200
G1 X34.428Y30.672Z0F1200
G1 X35.941Y31.471Z0F1200
G1 X34.554Y30.003Z0F1200
G0 Z2.8F500
G0 X33.251Y27.626Z2.8F1500
G1 Z0F500
G1 X35.708Y27.471Z0F1200
G1 X35.285Y29.633Z0F1200
G1 X35.433Y31.168Z0F1200
G1 X35.018Y31.254Z0F1200
G1 X35.012Y32.737Z0F1200
G1 X34.875Y34.09Z0F1200
G1 X35.68Y34.487Z0F1200
G1 X36.259Y35.653Z0F1200
G1 X36.692Y37.965Z0F1200
G1 X36.012Y39.676Z0F1200
G1 X34.994Y40.358Z0F1200
G1 X34.934Y41.786Z0F1200
G1 X36.159Y42.499Z0F1200
G1 X35.19Y43.924Z0F1200
G1 X35.056Y45.28Z0F1200
G1 X36.375Y44.201Z0F1200
G1 X36.92Y46.623Z0F1200
G1 X38.315Y46.61Z0F1200
G1 X39.729Y46.617Z0F1200
G1 X41.209Y46.688Z0F1200
G1 X42.562Y46.734Z0F1200
G1 X43.899Y46.763Z0F1200
G1 X45.227Y46.685Z0F1200
G1 X46.573Y46.524Z0F1200
G1 X46.59Y46.74Z0F1200
G1 X48.58Y46.223Z0F1200
G1 X49.177Y46.416Z0F1200
G1 X50.632Y46.363Z0F1200
G1 X50.721Y46.748Z0F1200
G1 X52.081Y46.602Z0F1200
G1 X52.691Y46.708Z0F1200
G1 X53.999Y46.411Z0F1200
G1 X55.28Y46.286Z0F1200
G1 X56.545Y46.344Z0F1200
G1 X57.933Y46.225Z0F1200
G1 X59.274Y46.159Z0F1200
G1 X60.227Y47.001Z0F1200
G1 X61.67Y47.135Z0F1200
G1 X62.84Y47.099Z0F1200
G1 X64.219Y47.17Z0F1200

; Color 1 picking sequence
G1 Z10 F500;         ; Raise brush to safe height
;G0 X2 Y0 F1000;     ; Rapid move to brush cleaning position
;G1 Z0 F500;         ; Lower brush for cleaning - controlled movement
;G1 Z2 F500;         ; Raise brush slightly - controlled movement
;G1 X22 Y0 Z8 F800;     ; Move across cleaning area - controlled movement

; Washing sequence (no color)
G1 Z10 F1000;        ; Raise brush to safe height
G0 X5 Y5 F1200;     ; Rapid move to brush cleaning position
G1 Z-1 F800;         ; Lower brush for cleaning - controlled movement
G1 X10 Y12 Z8 F1200;     ; Rapid move to brush cleaning position
G1 Z-1 F800;         ; Lower brush for cleaning - controlled movement
G1 X25 Y14 Z6 F800;     ; Move across cleaning area - controlled movement
G1 Z8 F800;         ; Maintain brush height - controlled movement
G0 X5 Y5 F1200;     ; Rapid move to brush cleaning position
G1 Z-1 F800;         ; Lower brush for cleaning - controlled movement
G1 X15 Y12 Z8 F1200;     ; Rapid move to brush cleaning position
G1 Z-1 F800;         ; Lower brush for cleaning - controlled movement
G1 X25 Y14 Z6 F800;     ; Move across cleaning area - controlled movement
G1 Z10 F800;         ; Maintain brush height - controlled movement
G1 F1200;           ; Set feed rate to 1000
;G1 Z8 F500;         ; Maintain brush height - controlled movement
G0 X85 Y0 F1200;    ; Rapid move to color 1 position
G1 Z0 F500;         ; Lower into color - controlled movement
G1 X79 Y1 F500;     ; Small movement in paint - controlled movement
G1 Z7 F500;         ; Raise from color - controlled movement
G1 X82 Y1 F500;     ; Movement in paint - controlled movement
G1 Z1 F500;         ; Lower slightly - controlled movement
G1 X71 Y10 Z10 F500;     ; Move in paint - controlled movement
;G1 Z8 F500;         ; Raise brush - controlled movement
G1 F1200;           ; Set feed rate to 1000

; Return to drawing position
G0 X64.219 Y47.170 F1200;  ; Return to position with raised Z
G1 Z0 F500;                       ; Lower Z to drawing position
G0 Z2.8F500
G0 X62.458Y47.218Z2.8F1500
G1 Z0F500
G1 X62.577Y44.955Z0F1200
G1 X62.689Y42.684Z0F1200
G1 X62.611Y37.845Z0F1200
G1 X62.482Y35.337Z0F1200
G0 Z2.8F500
G0 X59.057Y34.338Z2.8F1500
G1 Z0F500
G1 X59.112Y36.774Z0F1200
G1 X59.418Y39.457Z0F1200
G1 X59.654Y42.07Z0F1200
G1 X59.75Y44.546Z0F1200
G1 X59.887Y47.062Z0F1200
G0 Z2.8F500
G0 X60.805Y46.877Z2.8F1500
G1 Z0F500
G1 X59.344Y46.725Z0F1200
G1 X57.867Y46.756Z0F1200
G1 X57.051Y46.942Z0F1200
G1 X54.88Y46.486Z0F1200
G1 X53.504Y46.518Z0F1200
G0 Z2.8F500
G0 X53.932Y47.04Z2.8F1500
G1 Z0F500
G1 X55.236Y46.937Z0F1200
G0 Z2.8F500
G0 X54.441Y46.45Z2.8F1500
G1 Z0F500
G1 X54.538Y44.166Z0F1200
G1 X54.756Y41.999Z0F1200
G1 X55.038Y39.897Z0F1200
G1 X55.285Y37.76Z0F1200
G1 X55.376Y35.468Z0F1200
G1 X55.21Y32.924Z0F1200
G0 Z2.8F500
G0 X52.893Y33.018Z2.8F1500
G1 Z0F500
G1 X53.02Y35.525Z0F1200
G1 X53.431Y38.311Z0F1200
G1 X53.693Y40.951Z0F1200
G1 X53.726Y43.364Z0F1200
G1 X53.809Y45.827Z0F1200
G1 X53.751Y48.151Z0F1200
G0 Z2.8F500
G0 X57.349Y46.939Z2.8F1500
G1 Z0F500
G1 X57.401Y44.609Z0F1200
G1 X57.309Y42.138Z0F1200
G1 X57.232Y39.681Z0F1200
G1 Y37.299Z0F1200
G1 X57.341Y35.027Z0F1200
G0 Z2.8F500
G0 X50.772Y30.925Z2.8F1500
G1 Z0F500
G1 X50.748Y33.283Z0F1200
G1 X50.584Y35.503Z0F1200
G1 X50.483Y37.783Z0F1200
G1 X50.524Y40.205Z0F1200
G1 X50.329Y42.393Z0F1200
G1 X50.146Y44.594Z0F1200
G1 X49.845Y46.678Z0F1200
G0 Z2.8F500
G0 X47.937Y47.176Z2.8F1500
G1 Z0F500
G1 X47.788Y44.648Z0F1200
G1 X47.628Y42.109Z0F1200
G1 X47.591Y39.692Z0F1200
G1 X47.701Y37.419Z0F1200
G1 X47.888Y35.223Z0F1200
G1 X48.007Y32.959Z0F1200
G1 X48.01Y30.581Z0F1200
G1 X48.104Y28.294Z0F1200

; Color 1 picking sequence
G1 Z10 F500;         ; Raise brush to safe height
;G0 X2 Y0 F1000;     ; Rapid move to brush cleaning position
;G1 Z0 F500;         ; Lower brush for cleaning - controlled movement
;G1 Z2 F500;         ; Raise brush slightly - controlled movement
;G1 X22 Y0 Z8 F800;     ; Move across cleaning area - controlled movement
;G1 Z8 F500;         ; Maintain brush height - controlled movement
G0 X85 Y0 F1200;    ; Rapid move to color 1 position
G1 Z0 F500;         ; Lower into color - controlled movement
G1 X79 Y1 F500;     ; Small movement in paint - controlled movement
G1 Z7 F500;         ; Raise from color - controlled movement
G1 X82 Y1 F500;     ; Movement in paint - controlled movement
G1 Z1 F500;         ; Lower slightly - controlled movement
G1 X71 Y10 Z10 F500;     ; Move in paint - controlled movement
;G1 Z8 F500;         ; Raise brush - controlled movement
G1 F1200;           ; Set feed rate to 1000

; Return to drawing position
G0 X48.104 Y28.294 F1200;  ; Return to position with raised Z
G1 Z0 F500;                       ; Lower Z to drawing position
G0 Z2.8F500
G0 X50.217Y30.775Z2.8F1500
G1 Z0F500
G1 X48.895Y30.76Z0F1200
G1 X47.532Y30.705Z0F1200
G0 Z2.8F500
G0 X45.584Y28.188Z2.8F1500
G1 Z0F500
G1 X45.688Y30.672Z0F1200
G1 X45.937Y33.298Z0F1200
G1 X45.85Y35.593Z0F1200
G1 X45.474Y37.603Z0F1200
G1 X45.509Y40.019Z0F1200
G1 X45.531Y42.421Z0F1200
G1 X45.478Y44.75Z0F1200
G1 X45.367Y47.022Z0F1200
G0 Z2.8F500
G0 X43.841Y47.897Z2.8F1500
G1 Z0F500
G1 X43.655Y45.332Z0F1200
G1 X43.476Y42.775Z0F1200
G1 X43.336Y40.255Z0F1200
G1 X43.294Y37.832Z0F1200
G1 X43.217Y35.376Z0F1200
G1 Y32.997Z0F1200
G1 X43.227Y30.624Z0F1200
G1 X43.125Y28.142Z0F1200
G1 X42.908Y25.547Z0F1200
G0 Z2.8F500
G0 X40.85Y23.516Z2.8F1500
G1 Z0F500
G1 X40.752Y25.801Z0F1200
G1 X40.645Y28.076Z0F1200
G1 X40.46Y30.274Z0F1200
G1 X40.214Y32.413Z0F1200
G1 X40.187Y34.767Z0F1200
G1 X40.367Y37.326Z0F1200
G1 X40.835Y40.169Z0F1200
G1 X41.156Y42.866Z0F1200
G1 X41.242Y45.331Z0F1200
G1 X41.367Y47.836Z0F1200
G0 Z2.8F500
G0 X37.417Y46.32Z2.8F1500
G1 Z0F500
G1 X37.579Y44.099Z0F1200
G1 X37.957Y42.091Z0F1200
G1 X38.316Y40.064Z0F1200
G1 X38.526Y37.89Z0F1200
G1 X38.523Y35.506Z0F1200
G1 X38.676Y33.276Z0F1200
G1 X38.702Y30.921Z0F1200
G1 X38.731Y28.569Z0F1200
G1 X38.741Y26.198Z0F1200
G1 X38.745Y23.82Z0F1200
G0 Z2.8F500
G0 X37.587Y26.25Z2.8F1500
G1 Z0F500
G1 Y28.63Z0F1200
G1 X37.748Y31.17Z0F1200
G1 X37.739Y33.542Z0F1200
G1 X37.588Y35.774Z0F1200
G1 X37.564Y38.131Z0F1200
G1 X37.499Y40.448Z0F1200

; Color 1 picking sequence
G1 Z10 F500;         ; Raise brush to safe height
;G0 X2 Y0 F1000;     ; Rapid move to brush cleaning position
;G1 Z0 F500;         ; Lower brush for cleaning - controlled movement
;G1 Z2 F500;         ; Raise brush slightly - controlled movement
;G1 X22 Y0 Z8 F800;     ; Move across cleaning area - controlled movement
;G1 Z8 F500;         ; Maintain brush height - controlled movement
G0 X85 Y0 F1200;    ; Rapid move to color 1 position
G1 Z0 F500;         ; Lower into color - controlled movement
G1 X79 Y1 F500;     ; Small movement in paint - controlled movement
G1 Z7 F500;         ; Raise from color - controlled movement
G1 X82 Y1 F500;     ; Movement in paint - controlled movement
G1 Z1 F500;         ; Lower slightly - controlled movement
G1 X71 Y10 Z10 F500;     ; Move in paint - controlled movement
;G1 Z8 F500;         ; Raise brush - controlled movement
G1 F1200;           ; Set feed rate to 1000

; Return to drawing position
G0 X37.499 Y40.448 F1200;  ; Return to position with raised Z
G1 Z0 F500;                       ; Lower Z to drawing position
G0 Z2.8F500
G0 X37.263Y41.306Z2.8F1500
G1 Z0F500
G1 X36.04Y42.183Z0F1200
G0 Z2.8F500
G0 X35.265Y46.677Z2.8F1500
G1 Z0F500
G1 X35.218Y47.722Z0F1200
G1 X35.337Y49.128Z0F1200
G1 X35.356Y50.536Z0F1200
G1 X35.212Y51.882Z0F1200
G1 X35.065Y53.226Z0F1200
G1 X35.334Y55.077Z0F1200
G1 X35.433Y57.16Z0F1200
G1 X35.481Y60.183Z0F1200
G1 X36.77Y59.867Z0F1200
G1 X38.129Y59.721Z0F1200
G1 X39.601Y59.685Z0F1200
G1 X41.056Y59.632Z0F1200
G1 X42.493Y59.463Z0F1200
G1 X43.96Y59.423Z0F1200
G1 X45.452Y59.407Z0F1200
G1 X46.825Y59.174Z0F1200
G1 X48.145Y58.988Z0F1200
G1 X49.512Y58.552Z0F1200
G1 X50.314Y58.747Z0F1200
G1 X51.779Y58.705Z0F1200
G1 X53.191Y58.61Z0F1200
G1 X53.681Y58.598Z0F1200
G1 X54.674Y58.486Z0F1200
G1 X56.08Y57.988Z0F1200
G1 X56.735Y57.94Z0F1200
G1 X57.291Y57.992Z0F1200
G1 X57.872Y57.872Z0F1200
G1 X59.154Y57.549Z0F1200
G1 X59.969Y57.56Z0F1200
G1 X61.34Y57.325Z0F1200
G1 X62.784Y57.163Z0F1200
G1 X64.046Y56.126Z0F1200
G0 Z2.8F500
G0 X65.348Y53.442Z2.8F1500
G1 Z0F500
G1 X64.882Y54.372Z0F1200
G1 X64.504Y55.09Z0F1200
G1 X64.741Y55.523Z0F1200
G1 X64.224Y55.905Z0F1200
G1 X63.374Y57.249Z0F1200
G1 X63.394Y58.36Z0F1200
G1 X64.872Y60.81Z0F1200
G1 X60.787Y62.236Z0F1200
G1 X52.524Y63.706Z0F1200
G1 X43.213Y65.133Z0F1200
G0 Z2.8F500
G0 X44.196Y67.294Z2.8F1500
G1 Z0F500
G1 X44.199Y64.916Z0F1200
G1 X44.156Y62.493Z0F1200
G0 Z2.8F500
G0 X45.204Y63.527Z2.8F1500
G1 Z0F500
G1 X45.32Y61.26Z0F1200
G0 Z2.8F500
G0 X48.137Y61.659Z2.8F1500
G1 Z0F500
G1 X48.303Y64.204Z0F1200
G0 Z2.8F500
G0 X50.958Y64.442Z2.8F1500
G1 Z0F500
G1 X51.299Y62.398Z0F1200
G0 Z2.8F500
G0 X52.325Y63.411Z2.8F1500
G1 Z0F500
G1 X52.347Y61.052Z0F1200
G0 Z2.8F500
G0 X51.79Y58.319Z2.8F1500
G1 Z0F500
G1 X50.435Y58.47Z0F1200
G0 Z2.8F500
G0 X52.192Y53.855Z2.8F1500
G1 Z0F500
G1 X49.488Y52.972Z0F1200
G1 X49.593Y51.786Z0F1200
G1 X50.457Y52.143Z0F1200
G0 Z2.8F500
G0 X50.38Y52.761Z2.8F1500
G1 Z0F500
G1 X51Y52.777Z0F1200
G1 X50.325Y52.906Z0F1200
G1 X50.12Y51.314Z0F1200
G0 Z2.8F500
G0 X55.189Y59.093Z2.8F1500
G1 Z0F500
G1 X55.102Y61.389Z0F1200
G1 X54.899Y63.569Z0F1200

; Color 1 picking sequence
G1 Z10 F500;         ; Raise brush to safe height
;G0 X2 Y0 F1000;     ; Rapid move to brush cleaning position
;G1 Z0 F500;         ; Lower brush for cleaning - controlled movement
;G1 Z2 F500;         ; Raise brush slightly - controlled movement
;G1 X22 Y0 Z8 F800;     ; Move across cleaning area - controlled movement
;G1 Z8 F500;         ; Maintain brush height - controlled movement
G0 X85 Y0 F1200;    ; Rapid move to color 1 position
G1 Z0 F500;         ; Lower into color - controlled movement
G1 X79 Y1 F500;     ; Small movement in paint - controlled movement
G1 Z7 F500;         ; Raise from color - controlled movement
G1 X82 Y1 F500;     ; Movement in paint - controlled movement
G1 Z1 F500;         ; Lower slightly - controlled movement
G1 X71 Y10 Z10 F500;     ; Move in paint - controlled movement
;G1 Z8 F500;         ; Raise brush - controlled movement
G1 F1200;           ; Set feed rate to 1000

; Return to drawing position
G0 X54.899 Y63.569 F1200;  ; Return to position with raised Z
G1 Z0 F500;                       ; Lower Z to drawing position
G0 Z2.8F500
G0 X57.378Y63.634Z2.8F1500
G1 Z0F500
G1 X57.222Y61.1Z0F1200
G0 Z2.8F500
G0 X65.033Y59.283Z2.8F1500
G1 Z0F500
G1 X64.965Y61.596Z0F1200
G0 Z2.8F500
G0 X68.779Y58.217Z2.8F1500
G1 Z0F500
G1 X68.742Y60.561Z0F1200
G0 Z2.8F500
G0 X69.448Y58.48Z2.8F1500
G1 Z0F500
G1 X70.839Y56.479Z0F1200
G0 Z2.8F500
G0 X69.409Y55.366Z2.8F1500
G1 Z0F500
G1 X67.957Y55.521Z0F1200
G0 Z2.8F500
G0 X70.034Y53.503Z2.8F1500
G1 Z0F500
G1 X69.629Y53.401Z0F1200
G1 X70.996Y52.369Z0F1200
G1 X72.378Y52.344Z0F1200
G1 X72.624Y50.9Z0F1200
G1 X74.037Y49.417Z0F1200
G1 X72.305Y48.402Z0F1200
G1 X72.13Y47.535Z0F1200
G1 X72.298Y46.114Z0F1200
G1 X72.199Y44.627Z0F1200
G1 X72.042Y43.183Z0F1200
G1 X71.558Y40.919Z0F1200
G1 X71.145Y39.619Z0F1200
G1 X70.5Y38.09Z0F1200
G1 X69.818Y36.623Z0F1200
G1 X70.03Y36.237Z0F1200
G1 X67.816Y34.946Z0F1200
G0 Z2.8F500
G0 X68.188Y35.114Z2.8F1500
G1 Z0F500
G1 X69.62Y35.931Z0F1200
G1 X70.957Y37.846Z0F1200
G1 X72.357Y38.434Z0F1200
G1 X72.516Y39.881Z0F1200
G1 X72.809Y41.36Z0F1200
G1 X73.064Y42.802Z0F1200
G1 X73.523Y44.247Z0F1200
G0 Z2.8F500
G0 X74.129Y44.448Z2.8F1500
G1 Z0F500
G1 X74.097Y46.797Z0F1200
G1 X74.229Y49.309Z0F1200
G0 Z2.8F500
G0 X72.574Y50.057Z2.8F1500
G1 Z0F500
G1 X72.17Y47.277Z0F1200
G1 X71.772Y44.504Z0F1200
G1 X71.503Y41.857Z0F1200
G1 X71.38Y39.355Z0F1200
G1 X71.151Y36.748Z0F1200
G0 Z2.8F500
G0 X68.906Y36.914Z2.8F1500
G1 Z0F500
G1 X68.769Y39.16Z0F1200
G1 X68.753Y41.525Z0F1200
G0 Z2.8F500
G0 X66.904Y42.082Z2.8F1500
G1 Z0F500
G1 X66.839Y39.636Z0F1200
G1 X66.69Y37.108Z0F1200
G0 Z2.8F500
G0 X66.465Y37.978Z2.8F1500
G1 Z0F500
G1 X64.965Y37.787Z0F1200
G0 Z2.8F500
G0 X64.867Y37.988Z2.8F1500
G1 Z0F500
G1 X66.31Y37.725Z0F1200
G1 X64.408Y37.833Z0F1200
G1 X64.775Y39.286Z0F1200
G1 X64.857Y40.756Z0F1200
G1 X67.088Y39.782Z0F1200
G1 X67.152Y40.143Z0F1200
G1 X66.83Y39.925Z0F1200
G0 Z2.8F500
G0 X65.556Y38.37Z2.8F1500
G1 Z0F500
G1 X65.482Y40.678Z0F1200
G1 X65.357Y42.936Z0F1200
G1 X65.301Y45.261Z0F1200
G0 Z2.8F500
G0 X65.277Y45.337Z2.8F1500
G1 Z0F500
G1 X65.371Y46.819Z0F1200
G1 X66.411Y47.746Z0F1200
G1 X65.511Y49.04Z0F1200
G0 Z2.8F500
G0 X67.022Y49.34Z2.8F1500
G1 Z0F500
G1 X67.092Y47.029Z0F1200
G0 Z2.8F500
G0 X67.555Y47.982Z2.8F1500
G1 Z0F500
G1 X68.909Y46.837Z0F1200
G1 X70.21Y45.938Z0F1200
G1 X69.569Y45.901Z0F1200
G1 X67.399Y46.537Z0F1200
G1 X67.23Y47.959Z0F1200
G1 X65.34Y49.07Z0F1200
G1 X65.199Y50.915Z0F1200

; Color 1 picking sequence
G1 Z10 F500;         ; Raise brush to safe height
;G0 X2 Y0 F1000;     ; Rapid move to brush cleaning position
;G1 Z0 F500;         ; Lower brush for cleaning - controlled movement
;G1 Z2 F500;         ; Raise brush slightly - controlled movement
;G1 X22 Y0 Z8 F800;     ; Move across cleaning area - controlled movement
;G1 Z8 F500;         ; Maintain brush height - controlled movement
G0 X85 Y0 F1200;    ; Rapid move to color 1 position
G1 Z0 F500;         ; Lower into color - controlled movement
G1 X79 Y1 F500;     ; Small movement in paint - controlled movement
G1 Z7 F500;         ; Raise from color - controlled movement
G1 X82 Y1 F500;     ; Movement in paint - controlled movement
G1 Z1 F500;         ; Lower slightly - controlled movement
G1 X71 Y10 Z10 F500;     ; Move in paint - controlled movement
;G1 Z8 F500;         ; Raise brush - controlled movement
G1 F1200;           ; Set feed rate to 1000

; Return to drawing position
G0 X65.199 Y50.915 F1200;  ; Return to position with raised Z
G1 Z0 F500;                       ; Lower Z to drawing position
G0 Z2.8F500
G0 X67.197Y52.688Z2.8F1500
G1 Z0F500
G1 X68.578Y53.158Z0F1200
G1 X68.322Y52.31Z0F1200
G1 X68.653Y50.752Z0F1200
G1 X69.845Y50.34Z0F1200
G0 Z2.8F500
G0 X68.838Y48.751Z2.8F1500
G1 Z0F500
G1 X68.774Y46.308Z0F1200
G0 Z2.8F500
G0 X69.64Y45.872Z2.8F1500
G1 Z0F500
G1 X68.134Y46.568Z0F1200
G1 X67.317Y47.746Z0F1200
G1 X69.002Y46.433Z0F1200
G1 X70.766Y45.098Z0F1200
G0 Z2.8F500
G0 X71.911Y39.78Z2.8F1500
G1 Z0F500
G1 X70.407Y37.502Z0F1200
G1 X72.088Y39.557Z0F1200
G1 X72.193Y40.852Z0F1200
G1 X72.356Y42.104Z0F1200
G1 X72.581Y43.417Z0F1200
G1 X72.768Y44.891Z0F1200
G1 X72.816Y46.327Z0F1200
G1 X72.81Y47.711Z0F1200
G1 X72.739Y49.029Z0F1200
G1 X71.725Y49.418Z0F1200
G1 X72.103Y50.386Z0F1200
G1 X71.999Y51.871Z0F1200
G1 X69.972Y53.243Z0F1200
G1 X72.006Y53.961Z0F1200
G1 X71.26Y55.308Z0F1200
G1 X70.937Y56.279Z0F1200
G1 X70.366Y57.699Z0F1200
G1 X70.615Y58.044Z0F1200
G1 X70.893Y59.31Z0F1200
G1 X72.365Y57.39Z0F1200
G1 X72.946Y57.467Z0F1200
G0 Z2.8F500
G0 X74.44Y59.041Z2.8F1500
G1 Z0F500
G1 X74.368Y61.35Z0F1200
G0 Z2.8F500
G0 X75.965Y60.546Z2.8F1500
G1 Z0F500
G1 X75.934Y58.134Z0F1200
G0 Z2.8F500
G0 X78.763Y60.926Z2.8F1500
G1 Z0F500
G1 X78.804Y63.347Z0F1200
G0 Z2.8F500
G0 X81.61Y63.735Z2.8F1500
G1 Z0F500
G1 X81.524Y61.269Z0F1200
G1 X81.323Y58.689Z0F1200
G0 Z2.8F500
G0 X83.952Y58.902Z2.8F1500
G1 Z0F500
G1 X83.851Y61.184Z0F1200
G1 X83.814Y63.528Z0F1200
G0 Z2.8F500
G0 X82.727Y64.439Z2.8F1500
G1 Z0F500
G1 X84.103Y65.996Z0F1200
G1 X85.404Y67.081Z0F1200
G1 X86.59Y68.152Z0F1200
G1 X87.894Y68.843Z0F1200
G1 X89.263Y69.5Z0F1200
G1 X90.571Y69.799Z0F1200
G1 X91.93Y70.147Z0F1200
G1 X93.267Y70.276Z0F1200
G1 X94.6Y70.103Z0F1200
G1 X95.825Y69.725Z0F1200
G1 X97.233Y69.328Z0F1200
G1 X99.079Y68.769Z0F1200
G0 Z2.8F500
G0 X99.18Y66.586Z2.8F1500
G1 Z0F500
G1 X100.552Y65.461Z0F1200
G1 X102.187Y63.502Z0F1200
G1 X104.393Y62.306Z0F1200
G1 X105.774Y60.295Z0F1200
G1 X107.191Y57.427Z0F1200
G0 Z2.8F500
G0 X107.257Y58.088Z2.8F1500
G1 Z0F500
G1 X107.271Y55.721Z0F1200
G1 X107.394Y53.461Z0F1200
G1 X107.565Y51.249Z0F1200
G1 X107.429Y48.734Z0F1200
G1 X107.256Y46.183Z0F1200
G1 X107.158Y43.705Z0F1200
G1 X107.209Y41.374Z0F1200
G1 X107.228Y39.012Z0F1200
G1 X107.381Y36.782Z0F1200
G1 X107.449Y34.468Z0F1200
G1 X107.579Y32.216Z0F1200
G1 X107.748Y30.001Z0F1200
G1 X107.845Y27.716Z0F1200

; Color 1 picking sequence
G1 Z10 F500;         ; Raise brush to safe height
;G0 X2 Y0 F1000;     ; Rapid move to brush cleaning position
;G1 Z0 F500;         ; Lower brush for cleaning - controlled movement
;G1 Z2 F500;         ; Raise brush slightly - controlled movement
;G1 X22 Y0 Z8 F800;     ; Move across cleaning area - controlled movement

; Washing sequence (no color)
G1 Z10 F1000;        ; Raise brush to safe height
G0 X5 Y5 F1200;     ; Rapid move to brush cleaning position
G1 Z-1 F800;         ; Lower brush for cleaning - controlled movement
G1 X10 Y12 Z8 F1200;     ; Rapid move to brush cleaning position
G1 Z-1 F800;         ; Lower brush for cleaning - controlled movement
G1 X25 Y14 Z6 F800;     ; Move across cleaning area - controlled movement
G1 Z8 F800;         ; Maintain brush height - controlled movement
G0 X5 Y5 F1200;     ; Rapid move to brush cleaning position
G1 Z-1 F800;         ; Lower brush for cleaning - controlled movement
G1 X15 Y12 Z8 F1200;     ; Rapid move to brush cleaning position
G1 Z-1 F800;         ; Lower brush for cleaning - controlled movement
G1 X25 Y14 Z6 F800;     ; Move across cleaning area - controlled movement
G1 Z10 F800;         ; Maintain brush height - controlled movement
G1 F1200;           ; Set feed rate to 1000
;G1 Z8 F500;         ; Maintain brush height - controlled movement
G0 X85 Y0 F1200;    ; Rapid move to color 1 position
G1 Z0 F500;         ; Lower into color - controlled movement
G1 X79 Y1 F500;     ; Small movement in paint - controlled movement
G1 Z7 F500;         ; Raise from color - controlled movement
G1 X82 Y1 F500;     ; Movement in paint - controlled movement
G1 Z1 F500;         ; Lower slightly - controlled movement
G1 X71 Y10 Z10 F500;     ; Move in paint - controlled movement
;G1 Z8 F500;         ; Raise brush - controlled movement
G1 F1200;           ; Set feed rate to 1000

; Return to drawing position
G0 X107.845 Y27.716 F1200;  ; Return to position with raised Z
G1 Z0 F500;                       ; Lower Z to drawing position
G0 Z2.8F500
G0 X107.368Y25.856Z2.8F1500
G1 Z0F500
G1 X105.991Y24.2Z0F1200
G1 X103.137Y21.385Z0F1200
G1 X101.72Y20.581Z0F1200
G1 X100.875Y20.144Z0F1200
G1 X100.439Y20.111Z0F1200
G1 X99.15Y19.93Z0F1200
G1 X97.832Y19.82Z0F1200
G1 X96.686Y19.682Z0F1200
G1 X95.253Y19.855Z0F1200
G1 X93.827Y20.135Z0F1200
G1 X92.422Y20.732Z0F1200
G1 X90.981Y21.195Z0F1200
G1 X89.525Y21.842Z0F1200
G1 X88.11Y22.629Z0F1200
G1 X86.54Y23.559Z0F1200
G1 X85.043Y24.662Z0F1200
G1 X83.602Y26.017Z0F1200
G1 X82.203Y27.812Z0F1200
G1 X80.877Y29.877Z0F1200
G1 X79.457Y32.543Z0F1200
G1 X78.03Y33.516Z0F1200
G1 X76.657Y33.649Z0F1200
G1 X75.32Y33.818Z0F1200
G1 X73.897Y33.902Z0F1200
G1 X72.529Y34.04Z0F1200
G1 X71.112Y34.13Z0F1200
G1 X69.702Y34.227Z0F1200
G1 X68.311Y34.541Z0F1200
G1 X66.965Y34.998Z0F1200
G1 X65.548Y34.89Z0F1200
G1 X64.149Y34.898Z0F1200
G1 X62.706Y34.665Z0F1200
G1 X61.243Y33.122Z0F1200
G1 X59.886Y32.677Z0F1200
G1 X58.448Y32.349Z0F1200
G1 X57.052Y32.063Z0F1200
G1 X55.635Y31.756Z0F1200
G1 X54.184Y31.316Z0F1200
G1 X52.802Y31.043Z0F1200
G1 X51.46Y30.314Z0F1200
G1 X48.767Y28.054Z0F1200
G1 X46.018Y25.938Z0F1200
G1 X44.701Y25.035Z0F1200
G1 X43.369Y24.018Z0F1200
G1 X41.979Y22.945Z0F1200
G1 X40.554Y21.836Z0F1200
G1 X39.176Y19.683Z0F1200
G0 Z2.8F500
G0 X39.653Y20.352Z2.8F1500
G1 Z0F500
G1 X40.576Y21.759Z0F1200
G1 X42.226Y23.089Z0F1200
G1 X43.991Y24.433Z0F1200
G1 X45.863Y25.785Z0F1200
G1 X49.406Y28.487Z0F1200
G1 X51.05Y29.811Z0F1200
G1 X50.2Y30.56Z0F1200
G1 X55.238Y31.761Z0F1200
G1 X59.23Y32.624Z0F1200
G1 X62.193Y33.961Z0F1200
G1 X63.514Y35.958Z0F1200
G1 X63.769Y37.996Z0F1200
G1 X64.169Y39.382Z0F1200
G1 X64.665Y40.765Z0F1200
G1 X65.197Y40.893Z0F1200
G1 X64.743Y41.833Z0F1200
G1 X64.897Y42.481Z0F1200
G1 X65.027Y42.709Z0F1200
G1 X64.982Y44.153Z0F1200
G1 X65.195Y44.958Z0F1200
G1 X65.189Y46.342Z0F1200
G1 X65.067Y47.014Z0F1200
G1 X64.813Y48.55Z0F1200
G1 X64.927Y49.952Z0F1200
G1 X64.997Y51.41Z0F1200
G1 X64.816Y52.819Z0F1200
G1 X63.366Y52.975Z0F1200

; Color 1 picking sequence
G1 Z10 F500;         ; Raise brush to safe height
;G0 X2 Y0 F1000;     ; Rapid move to brush cleaning position
;G1 Z0 F500;         ; Lower brush for cleaning - controlled movement
;G1 Z2 F500;         ; Raise brush slightly - controlled movement
;G1 X22 Y0 Z8 F800;     ; Move across cleaning area - controlled movement
;G1 Z8 F500;         ; Maintain brush height - controlled movement
G0 X85 Y0 F1200;    ; Rapid move to color 1 position
G1 Z0 F500;         ; Lower into color - controlled movement
G1 X79 Y1 F500;     ; Small movement in paint - controlled movement
G1 Z7 F500;         ; Raise from color - controlled movement
G1 X82 Y1 F500;     ; Movement in paint - controlled movement
G1 Z1 F500;         ; Lower slightly - controlled movement
G1 X71 Y10 Z10 F500;     ; Move in paint - controlled movement
;G1 Z8 F500;         ; Raise brush - controlled movement
G1 F1200;           ; Set feed rate to 1000

; Return to drawing position
G0 X63.366 Y52.975 F1200;  ; Return to position with raised Z
G1 Z0 F500;                       ; Lower Z to drawing position
G0 Z2.8F500
G0 X72.852Y38.129Z2.8F1500
G1 Z0F500
G1 X74.24Y37.911Z0F1200
G1 X75.741Y38.003Z0F1200
G1 X77.17Y38.024Z0F1200
G0 Z2.8F500
G0 X75.137Y38.3Z2.8F1500
G1 Z0F500
G1 X75.053Y35.836Z0F1200
G0 Z2.8F500
G0 X79.003Y34.972Z2.8F1500
G1 Z0F500
G1 X78.998Y37.348Z0F1200
G1 X79.259Y39.986Z0F1200
G1 X79.351Y42.458Z0F1200
G0 Z2.8F500
G0 X81.311Y46.773Z2.8F1500
G1 Z0F500
G1 X81.516Y44.594Z0F1200
G1 X81.579Y42.275Z0F1200
G1 X81.803Y40.115Z0F1200
G1 X82.076Y38.004Z0F1200
G1 X82.314Y35.857Z0F1200
G1 X82.375Y33.537Z0F1200
G0 Z2.8F500
G0 X84.364Y31.928Z2.8F1500
G1 Z0F500
G1 X84.315Y29.499Z0F1200
G1 X84.443Y27.244Z0F1200
G0 Z2.8F500
G0 X86.162Y27.75Z2.8F1500
G1 Z0F500
G1 X86.022Y29.993Z0F1200
G1 X85.995Y32.347Z0F1200
G1 X86.111Y34.842Z0F1200
G1 X86.213Y37.324Z0F1200
G0 Z2.8F500
G0 X83.71Y37.235Z2.8F1500
G1 Z0F500
G1 X83.597Y34.743Z0F1200
G1 X83.446Y32.212Z0F1200
G1 X83.249Y29.637Z0F1200
G0 Z2.8F500
G0 X84.351Y30.724Z2.8F1500
G1 Z0F500
G1 X86.823Y28.402Z0F1200
G1 X89.361Y26.145Z0F1200
G0 Z2.8F500
G0 X86.839Y24.846Z2.8F1500
G1 Z0F500
G1 X87.06Y27.445Z0F1200
G1 X87.211Y29.975Z0F1200
G1 X87.39Y32.533Z0F1200
G0 Z2.8F500
G0 X87.706Y31.655Z2.8F1500
G1 Z0F500
G1 X90.161Y29.314Z0F1200
G1 X92.665Y27.023Z0F1200
G1 X95.141Y24.705Z0F1200
G1 X97.689Y22.457Z0F1200
G0 Z2.8F500
G0 X97.57Y22.34Z2.8F1500
G1 Z0F500
G1 X97.514Y24.665Z0F1200
G1 X97.758Y27.287Z0F1200
G1 X98.027Y29.934Z0F1200
G1 X98.232Y32.517Z0F1200
G1 X98.497Y35.159Z0F1200
G1 X98.607Y37.649Z0F1200
G1 X98.816Y40.235Z0F1200
G1 X99.037Y42.834Z0F1200
G1 X99.237Y45.412Z0F1200
G1 X99.258Y47.814Z0F1200

; Color 1 picking sequence
G1 Z10 F500;         ; Raise brush to safe height
;G0 X2 Y0 F1000;     ; Rapid move to brush cleaning position
;G1 Z0 F500;         ; Lower brush for cleaning - controlled movement
;G1 Z2 F500;         ; Raise brush slightly - controlled movement
;G1 X22 Y0 Z8 F800;     ; Move across cleaning area - controlled movement
;G1 Z8 F500;         ; Maintain brush height - controlled movement
G0 X85 Y0 F1200;    ; Rapid move to color 1 position
G1 Z0 F500;         ; Lower into color - controlled movement
G1 X79 Y1 F500;     ; Small movement in paint - controlled movement
G1 Z7 F500;         ; Raise from color - controlled movement
G1 X82 Y1 F500;     ; Movement in paint - controlled movement
G1 Z1 F500;         ; Lower slightly - controlled movement
G1 X71 Y10 Z10 F500;     ; Move in paint - controlled movement
;G1 Z8 F500;         ; Raise brush - controlled movement
G1 F1200;           ; Set feed rate to 1000

; Return to drawing position
G0 X99.258 Y47.814 F1200;  ; Return to position with raised Z
G1 Z0 F500;                       ; Lower Z to drawing position
G0 Z2.8F500
G0 X99.417Y46.78Z2.8F1500
G1 Z0F500
G1 Y44.4Z0F1200
G1 X99.478Y42.079Z0F1200
G1 X99.447Y39.667Z0F1200
G1 X99.278Y37.12Z0F1200
G1 X99.137Y34.6Z0F1200
G1 X99.171Y32.252Z0F1200
G1 Y29.871Z0F1200
G1 X99.126Y27.447Z0F1200
G1 X99.024Y24.964Z0F1200
G1 X98.958Y22.518Z0F1200
G0 Z2.8F500
G0 X98.756Y20.832Z2.8F1500
G1 Z0F500
G1 X102.374Y22.417Z0F1200
G1 X104.141Y23.863Z0F1200
G1 X105.554Y25.654Z0F1200
G1 X106.796Y26.383Z0F1200
G1 X107.94Y27.909Z0F1200
G1 X108.929Y28.091Z0F1200
G1 X109.383Y28.837Z0F1200
G1 X110.108Y30.147Z0F1200
G1 X110.322Y31.35Z0F1200
G1 X110.721Y32.736Z0F1200
G1 X111.508Y34.108Z0F1200
G1 X111.744Y35.433Z0F1200
G1 X111.541Y36.72Z0F1200
G1 X110.829Y37.01Z0F1200
G1 X111.931Y37.898Z0F1200
G1 X112.416Y38.675Z0F1200
G1 X111.777Y40.326Z0F1200
G1 X112.256Y41.691Z0F1200
G1 X111.86Y43.086Z0F1200
G1 X112.089Y43.708Z0F1200
G1 X111.725Y44.937Z0F1200
G1 X111.653Y45.164Z0F1200
G1 X111.66Y46.46Z0F1200
G1 X112.311Y46.805Z0F1200
G1 X110.706Y48.297Z0F1200
G1 X111.849Y48.035Z0F1200
G1 X111.11Y49.489Z0F1200
G1 X110.632Y50.902Z0F1200
G1 X110.367Y52.129Z0F1200
G1 X111.412Y52.763Z0F1200
G1 X110.625Y54.07Z0F1200
G1 X110.87Y54.609Z0F1200
G1 X110.378Y56.009Z0F1200
G1 X110.249Y54.592Z0F1200
G0 Z2.8F500
G0 X109.232Y52.894Z2.8F1500
G1 Z0F500
G1 X109.292Y50.572Z0F1200
G1 X109.473Y48.37Z0F1200
G1 X109.815Y46.326Z0F1200
G1 X110.329Y44.452Z0F1200
G1 X110.385Y42.127Z0F1200
G1 X110.444Y39.805Z0F1200
G1 X110.457Y37.436Z0F1200
G1 X110.31Y34.91Z0F1200
G1 X109.927Y32.151Z0F1200
G1 X109.601Y29.449Z0F1200
G0 Z2.8F500
G0 X106.105Y29.67Z2.8F1500
G1 Z0F500
G1 X103.628Y31.987Z0F1200
G1 X101.228Y34.381Z0F1200
G1 X98.934Y36.88Z0F1200

; Color 1 picking sequence
G1 Z10 F500;         ; Raise brush to safe height
;G0 X2 Y0 F1000;     ; Rapid move to brush cleaning position
;G1 Z0 F500;         ; Lower brush for cleaning - controlled movement
;G1 Z2 F500;         ; Raise brush slightly - controlled movement
;G1 X22 Y0 Z8 F800;     ; Move across cleaning area - controlled movement
;G1 Z8 F500;         ; Maintain brush height - controlled movement
G0 X85 Y0 F1200;    ; Rapid move to color 1 position
G1 Z0 F500;         ; Lower into color - controlled movement
G1 X79 Y1 F500;     ; Small movement in paint - controlled movement
G1 Z7 F500;         ; Raise from color - controlled movement
G1 X82 Y1 F500;     ; Movement in paint - controlled movement
G1 Z1 F500;         ; Lower slightly - controlled movement
G1 X71 Y10 Z10 F500;     ; Move in paint - controlled movement
;G1 Z8 F500;         ; Raise brush - controlled movement
G1 F1200;           ; Set feed rate to 1000

; Return to drawing position
G0 X98.934 Y36.880 F1200;  ; Return to position with raised Z
G1 Z0 F500;                       ; Lower Z to drawing position
G0 Z2.8F500
G0 X91.738Y36.823Z2.8F1500
G1 Z0F500
G1 X91.722Y34.426Z0F1200
G1 X91.639Y31.964Z0F1200
G1 X91.374Y29.321Z0F1200
G1 X91.26Y26.828Z0F1200
G1 X91.317Y24.503Z0F1200
G1 X91.205Y22.012Z0F1200
G0 Z2.8F500
G0 X91.282Y21.194Z2.8F1500
G1 Z0F500
G1 X88.58Y22.596Z0F1200
G1 X86.565Y23.881Z0F1200
G1 X84.96Y25.174Z0F1200
G1 X83.548Y26.46Z0F1200
G1 X82.428Y27.835Z0F1200
G1 X81.367Y29.169Z0F1200
G1 X80.58Y30.576Z0F1200
G1 X79.814Y32.002Z0F1200
G1 X80.053Y33.528Z0F1200
G1 X80.739Y33.411Z0F1200
G1 X82.213Y33.377Z0F1200
G1 X83.665Y33.322Z0F1200
G1 X85.051Y33.3Z0F1200
G1 X86.43Y33.173Z0F1200
G0 Z2.8F500
G0 X86.308Y32.656Z2.8F1500
G1 Z0F500
G1 X88.716Y30.27Z0F1200
G1 X91.27Y28.028Z0F1200
G1 X93.994Y25.954Z0F1200
G1 X96.385Y23.551Z0F1200
G0 Z2.8F500
G0 X96.886Y22.856Z2.8F1500
G1 Z0F500
G1 X97.034Y25.382Z0F1200
G1 X97.165Y27.892Z0F1200
G1 X96.959Y30.07Z0F1200
G1 X96.47Y31.968Z0F1200
G1 X96.105Y33.989Z0F1200
G1 X96.159Y36.424Z0F1200
G1 X96.371Y39.014Z0F1200
G1 X96.376Y41.4Z0F1200
G1 X96.248Y43.654Z0F1200
G0 Z2.8F500
G0 X96.771Y45.36Z2.8F1500
G1 Z0F500
G1 X96.682Y42.892Z0F1200
G1 X96.574Y40.404Z0F1200
G1 X96.37Y37.823Z0F1200
G1 X96.139Y35.213Z0F1200
G1 X96.054Y32.748Z0F1200
G1 X95.784Y30.101Z0F1200
G1 X95.582Y27.521Z0F1200
G1 X95.561Y25.119Z0F1200
G1 X95.577Y22.753Z0F1200
G0 Z2.8F500
G0 X93.051Y20.658Z2.8F1500
G1 Z0F500
G1 X94.333Y20.336Z0F1200
G1 X95.675Y20.271Z0F1200
G1 X97.078Y20.365Z0F1200
G1 X98.513Y20.69Z0F1200
G1 X99.979Y21.244Z0F1200
G1 X101.791Y22.14Z0F1200
G1 X103.211Y23.144Z0F1200
G1 X104.897Y24.708Z0F1200
G1 X106.4Y26.29Z0F1200

; Color 1 picking sequence
G1 Z10 F500;         ; Raise brush to safe height
;G0 X2 Y0 F1000;     ; Rapid move to brush cleaning position
;G1 Z0 F500;         ; Lower brush for cleaning - controlled movement
;G1 Z2 F500;         ; Raise brush slightly - controlled movement
;G1 X22 Y0 Z8 F800;     ; Move across cleaning area - controlled movement
;G1 Z8 F500;         ; Maintain brush height - controlled movement
G0 X85 Y0 F1200;    ; Rapid move to color 1 position
G1 Z0 F500;         ; Lower into color - controlled movement
G1 X79 Y1 F500;     ; Small movement in paint - controlled movement
G1 Z7 F500;         ; Raise from color - controlled movement
G1 X82 Y1 F500;     ; Movement in paint - controlled movement
G1 Z1 F500;         ; Lower slightly - controlled movement
G1 X71 Y10 Z10 F500;     ; Move in paint - controlled movement
;G1 Z8 F500;         ; Raise brush - controlled movement
G1 F1200;           ; Set feed rate to 1000

; Return to drawing position
G0 X106.400 Y26.290 F1200;  ; Return to position with raised Z
G1 Z0 F500;                       ; Lower Z to drawing position
G0 Z2.8F500
G0 X105.329Y25.234Z2.8F1500
G1 Z0F500
G1 X105.438Y27.722Z0F1200
G1 X105.31Y29.977Z0F1200
G1 X105.186Y32.235Z0F1200
G1 X105.231Y34.66Z0F1200
G1 X105.144Y36.956Z0F1200
G1 X105.226Y39.417Z0F1200
G1 X105.192Y41.765Z0F1200
G1 X105.276Y44.228Z0F1200
G1 X105.309Y46.642Z0F1200
G1 X105.425Y49.137Z0F1200
G1 X105.37Y51.464Z0F1200
G1 X105.533Y54.006Z0F1200
G1 X105.496Y56.35Z0F1200
G1 X105.389Y58.626Z0F1200
G1 X105.342Y60.96Z0F1200
G1 X105.483Y63.48Z0F1200
G1 X105.359Y65.739Z0F1200
G0 Z2.8F500
G0 X104.528Y66.507Z2.8F1500
G1 Z0F500
G1 X102.001Y68.08Z0F1200
G1 X102.545Y68.319Z0F1200
G1 X103.488Y67.266Z0F1200
G0 Z2.8F500
G0 X105.049Y56.703Z2.8F1500
G1 Z0F500
G1 X103.696Y59.534Z0F1200
G1 X101.717Y62.84Z0F1200
G1 X102.669Y61.696Z0F1200
G1 X103.657Y60.092Z0F1200
G1 X104.496Y58.737Z0F1200
G1 X105.176Y57.324Z0F1200
G1 X105.591Y55.849Z0F1200
G1 X106.051Y54.418Z0F1200
G1 X106.549Y53.025Z0F1200
G1 X106.403Y52.98Z0F1200
G0 Z2.8F500
G0 X106.937Y54.3Z2.8F1500
G1 Z0F500
G1 X104.444Y56.602Z0F1200
G1 X101.849Y58.804Z0F1200
G1 X99.444Y61.193Z0F1200
G1 X97.192Y63.732Z0F1200
G1 X94.611Y65.948Z0F1200
G1 X92.169Y68.3Z0F1200
G0 Z2.8F500
G0 X90.677Y67.919Z2.8F1500
G1 Z0F500
G1 X90.51Y65.373Z0F1200
G1 X90.505Y62.987Z0F1200
G0 Z2.8F500
G0 X89.831Y65.894Z2.8F1500
G1 Z0F500
G1 X89.769Y68.213Z0F1200
G0 Z2.8F500
G0 X90.238Y68.775Z2.8F1500
G1 Z0F500
G1 X92.64Y66.383Z0F1200
G0 Z2.8F500
G0 X92.938Y66.578Z2.8F1500
G1 Z0F500
G1 X92.887Y68.909Z0F1200
G1 X92.67Y71.076Z0F1200
G0 Z2.8F500
G0 X96.05Y70.84Z2.8F1500
G1 Z0F500
G1 X95.821Y68.233Z0F1200
G1 X95.525Y65.559Z0F1200
G1 X95.191Y62.849Z0F1200
G1 X94.919Y60.2Z0F1200

; Color 1 picking sequence
G1 Z10 F500;         ; Raise brush to safe height
;G0 X2 Y0 F1000;     ; Rapid move to brush cleaning position
;G1 Z0 F500;         ; Lower brush for cleaning - controlled movement
;G1 Z2 F500;         ; Raise brush slightly - controlled movement
;G1 X22 Y0 Z8 F800;     ; Move across cleaning area - controlled movement

; Washing sequence (no color)
G1 Z10 F1000;        ; Raise brush to safe height
G0 X5 Y5 F1200;     ; Rapid move to brush cleaning position
G1 Z-1 F800;         ; Lower brush for cleaning - controlled movement
G1 X10 Y12 Z8 F1200;     ; Rapid move to brush cleaning position
G1 Z-1 F800;         ; Lower brush for cleaning - controlled movement
G1 X25 Y14 Z6 F800;     ; Move across cleaning area - controlled movement
G1 Z8 F800;         ; Maintain brush height - controlled movement
G0 X5 Y5 F1200;     ; Rapid move to brush cleaning position
G1 Z-1 F800;         ; Lower brush for cleaning - controlled movement
G1 X15 Y12 Z8 F1200;     ; Rapid move to brush cleaning position
G1 Z-1 F800;         ; Lower brush for cleaning - controlled movement
G1 X25 Y14 Z6 F800;     ; Move across cleaning area - controlled movement
G1 Z10 F800;         ; Maintain brush height - controlled movement
G1 F1200;           ; Set feed rate to 1000
;G1 Z8 F500;         ; Maintain brush height - controlled movement
G0 X85 Y0 F1200;    ; Rapid move to color 1 position
G1 Z0 F500;         ; Lower into color - controlled movement
G1 X79 Y1 F500;     ; Small movement in paint - controlled movement
G1 Z7 F500;         ; Raise from color - controlled movement
G1 X82 Y1 F500;     ; Movement in paint - controlled movement
G1 Z1 F500;         ; Lower slightly - controlled movement
G1 X71 Y10 Z10 F500;     ; Move in paint - controlled movement
;G1 Z8 F500;         ; Raise brush - controlled movement
G1 F1200;           ; Set feed rate to 1000

; Return to drawing position
G0 X94.919 Y60.200 F1200;  ; Return to position with raised Z
G1 Z0 F500;                       ; Lower Z to drawing position
G0 Z2.8F500
G0 X94.902Y60.779Z2.8F1500
G1 Z0F500
G1 X93.516Y61.295Z0F1200
G0 Z2.8F500
G0 X96.524Y60.593Z2.8F1500
G1 Z0F500
G1 X96.426Y62.878Z0F1200
G1 X96.489Y65.32Z0F1200
G1 X96.534Y67.746Z0F1200
G1 X96.47Y70.063Z0F1200
G0 Z2.8F500
G0 X98.599Y70.973Z2.8F1500
G1 Z0F500
G1 X98.328Y68.326Z0F1200
G1 X98.255Y65.872Z0F1200
G1 X98.2Y63.437Z0F1200
G1 X98.32Y61.174Z0F1200
G1 X98.363Y58.836Z0F1200
G1 X98.279Y56.373Z0F1200
G1 X98.339Y54.05Z0F1200
G0 Z2.8F500
G0 X101.81Y54.003Z2.8F1500
G1 Z0F500
G1 X104.051Y51.452Z0F1200
G1 X106.468Y49.075Z0F1200
G0 Z2.8F500
G0 X107.233Y47.449Z2.8F1500
G1 Z0F500
G1 X104.903Y49.913Z0F1200
G1 X102.47Y52.274Z0F1200
G0 Z2.8F500
G0 X112.092Y51.946Z2.8F1500
G1 Z0F500
G1 X111.585Y50.553Z0F1200
G1 X112.7Y50.364Z0F1200
G0 Z2.8F500
G0 X114.157Y87.317Z2.8F1500
G1 Z0F500
G1 X112.703Y87.271Z0F1200
G1 X111.294Z0F1200
G1 X109.901Y87.284Z0F1200
G1 X108.511Y87.302Z0F1200
G1 X107.099Y87.297Z0F1200
G1 X105.633Y87.239Z0F1200
G1 X104.234Y87.248Z0F1200
G1 X102.864Y87.285Z0F1200
G1 X101.543Y87.37Z0F1200
G1 X100.169Y87.404Z0F1200
G1 X98.671Y86.521Z0F1200
G1 X97.197Y85.562Z0F1200
G1 X95.753Y84.733Z0F1200
G1 X94.293Y84.086Z0F1200
G1 X92.818Y83.523Z0F1200
G0 Z2.8F500
G0 X93.134Y84.431Z2.8F1500
G1 Z0F500
G1 X94.987Y84.87Z0F1200
G1 X97.27Y86.131Z0F1200
G0 Z2.8F500
G0 X94.908Y86.379Z2.8F1500
G1 Z0F500
G1 X94.828Y88.681Z0F1200
G0 Z2.8F500
G0 X93.004Y88.072Z2.8F1500
G1 Z0F500
G1 X92.969Y85.656Z0F1200
G0 Z2.8F500
G0 X91.383Y85.282Z2.8F1500
G1 Z0F500
G1 X91.535Y87.813Z0F1200
G0 Z2.8F500
G0 X90.446Y87.929Z2.8F1500
G1 Z0F500
G1 X90.343Y85.446Z0F1200
G0 Z2.8F500
G0 X90.376Y85.579Z2.8F1500
G1 Z0F500
G1 X87.867Y87.864Z0F1200
G0 Z2.8F500
G0 X86.645Y87.75Z2.8F1500
G1 Z0F500
G1 X86.517Y85.243Z0F1200
G0 Z2.8F500
G0 X86.528Y86.444Z2.8F1500
G1 Z0F500
G1 X86.421Y83.957Z0F1200
G0 Z2.8F500
G0 X84.347Y84.094Z2.8F1500
G1 Z0F500
G1 X85.818Y83.561Z0F1200
G1 X87.244Y83.282Z0F1200
G1 X88.663Y83.094Z0F1200
G1 X90.082Y83.205Z0F1200
G1 X91.438Y83.352Z0F1200
G1 X92.864Y83.371Z0F1200
G1 X94.797Y84.286Z0F1200
G1 X97.5Y85.663Z0F1200
G1 X99.622Y87.063Z0F1200

; Color 1 picking sequence
G1 Z10 F500;         ; Raise brush to safe height
;G0 X2 Y0 F1000;     ; Rapid move to brush cleaning position
;G1 Z0 F500;         ; Lower brush for cleaning - controlled movement
;G1 Z2 F500;         ; Raise brush slightly - controlled movement
;G1 X22 Y0 Z8 F800;     ; Move across cleaning area - controlled movement
;G1 Z8 F500;         ; Maintain brush height - controlled movement
G0 X85 Y0 F1200;    ; Rapid move to color 1 position
G1 Z0 F500;         ; Lower into color - controlled movement
G1 X79 Y1 F500;     ; Small movement in paint - controlled movement
G1 Z7 F500;         ; Raise from color - controlled movement
G1 X82 Y1 F500;     ; Movement in paint - controlled movement
G1 Z1 F500;         ; Lower slightly - controlled movement
G1 X71 Y10 Z10 F500;     ; Move in paint - controlled movement
;G1 Z8 F500;         ; Raise brush - controlled movement
G1 F1200;           ; Set feed rate to 1000

; Return to drawing position
G0 X99.622 Y87.063 F1200;  ; Return to position with raised Z
G1 Z0 F500;                       ; Lower Z to drawing position
G0 Z2.8F500
G0 X98.412Y86.86Z2.8F1500
G1 Z0F500
G1 X96.967Y86.03Z0F1200
G1 X95.681Y85.158Z0F1200
G1 X94.344Y84.731Z0F1200
G0 Z2.8F500
G0 X89.38Y88.068Z2.8F1500
G1 Z0F500
G1 X89.348Y85.655Z0F1200
G0 Z2.8F500
G0 X82.386Y85.631Z2.8F1500
G1 Z0F500
G1 X85.432Y84.271Z0F1200
G1 X84.011Y84.258Z0F1200
G1 X82.634Y85.28Z0F1200
G1 X81.249Y86.791Z0F1200
G1 X79.867Y87.114Z0F1200
G1 X78.499Y87.153Z0F1200
G1 X77.159Y87.219Z0F1200
G1 X75.744Y87.213Z0F1200
G1 X74.37Y87.246Z0F1200
G1 X73.011Y87.293Z0F1200
G1 X71.69Y87.379Z0F1200
G1 X70.32Y87.416Z0F1200
G1 X68.924Y87.427Z0F1200
G1 X67.55Y87.46Z0F1200
G1 X66.233Y87.55Z0F1200
G1 X64.878Y87.602Z0F1200
G1 X63.466Y87.597Z0F1200
G1 X62.14Y87.678Z0F1200
G1 X60.802Y87.747Z0F1200
G1 X59.454Y87.805Z0F1200
G1 X58.126Y87.884Z0F1200
G1 X56.743Y87.908Z0F1200
G1 X55.277Y87.851Z0F1200
G1 X53.826Y87.808Z0F1200
G1 X52.394Y87.783Z0F1200
G1 X50.9Y87.699Z0F1200
G1 X49.483Y87.689Z0F1200
G1 X48.125Y87.738Z0F1200
G1 X46.694Y87.715Z0F1200
G1 X45.19Y87.62Z0F1200
G1 X43.768Y87.606Z0F1200
G1 X42.353Y87.599Z0F1200
G1 X41.012Y87.664Z0F1200
G1 X39.639Y87.698Z0F1200
G1 X38.212Y87.68Z0F1200
G1 X36.845Y87.72Z0F1200
G1 X35.425Y87.707Z0F1200
G1 X33.937Y87.627Z0F1200
G1 X32.491Y87.59Z0F1200
G1 X31.084Z0F1200
G1 X29.625Y87.539Z0F1200
G1 X28.222Y87.545Z0F1200
G1 X26.688Y87.419Z0F1200
G1 X25.216Y87.356Z0F1200
G1 X23.833Y87.38Z0F1200
G1 X22.427Z0F1200
G1 X20.984Y87.347Z0F1200
G1 X19.657Y87.426Z0F1200
G1 X18.309Y87.485Z0F1200
G1 X16.972Y87.555Z0F1200
G1 X15.643Y87.633Z0F1200
G1 X14.257Y87.654Z0F1200
G1 X12.868Y87.673Z0F1200
G1 X11.528Y87.74Z0F1200
G1 X10.222Y87.839Z0F1200
G1 X8.866Y87.89Z0F1200
G0 Z2.8F500
G0 X29.252Y73.978Z2.8F1500
G1 Z0F500
G1 X29.691Y72.327Z0F1200
G1 X30.099Y70.944Z0F1200
G1 X30.55Y69.604Z0F1200
G1 X33.194Y67.748Z0F1200
G1 X32.557Y68.211Z0F1200
G1 X34.273Y66.432Z0F1200
G1 X34.497Y65.264Z0F1200
G1 X34.775Y63.951Z0F1200
G1 X34.939Y62.624Z0F1200
G1 X35.145Y61.241Z0F1200
G1 X35.116Y59.923Z0F1200
G1 X35.342Y58.558Z0F1200
G1 X35.407Y57.729Z0F1200
G1 X35.601Y56.433Z0F1200
G1 X35.688Y55.328Z0F1200
G1 X35.92Y54.664Z0F1200
G1 X35.85Y53.206Z0F1200
G1 X35.967Y51.833Z0F1200
G1 Y50.444Z0F1200
G1 X36.261Y49.048Z0F1200
G1 X36.063Y48.158Z0F1200
G1 X37.143Y47.042Z0F1200

; Color 1 picking sequence
G1 Z10 F500;         ; Raise brush to safe height
;G0 X2 Y0 F1000;     ; Rapid move to brush cleaning position
;G1 Z0 F500;         ; Lower brush for cleaning - controlled movement
;G1 Z2 F500;         ; Raise brush slightly - controlled movement
;G1 X22 Y0 Z8 F800;     ; Move across cleaning area - controlled movement
;G1 Z8 F500;         ; Maintain brush height - controlled movement
G0 X85 Y0 F1200;    ; Rapid move to color 1 position
G1 Z0 F500;         ; Lower into color - controlled movement
G1 X79 Y1 F500;     ; Small movement in paint - controlled movement
G1 Z7 F500;         ; Raise from color - controlled movement
G1 X82 Y1 F500;     ; Movement in paint - controlled movement
G1 Z1 F500;         ; Lower slightly - controlled movement
G1 X71 Y10 Z10 F500;     ; Move in paint - controlled movement
;G1 Z8 F500;         ; Raise brush - controlled movement
G1 F1200;           ; Set feed rate to 1000

; Return to drawing position
G0 X37.143 Y47.042 F1200;  ; Return to position with raised Z
G1 Z0 F500;                       ; Lower Z to drawing position
G0 Z2.8F500
G0 X35.848Y47.152Z2.8F1500
G1 Z0F500
G1 X35.963Y44.885Z0F1200
G1 X35.783Y42.327Z0F1200
G1 X35.74Y39.903Z0F1200
G1 X35.707Y37.49Z0F1200
G1 X35.716Y35.118Z0F1200
G0 Z2.8F500
G0 X36.141Y32.56Z2.8F1500
G1 Z0F500
G1 X37.561Y33.069Z0F1200
G1 X38.986Y33.284Z0F1200
G0 Z2.8F500
G0 X39.998Y33.39Z2.8F1500
G1 Z0F500
G1 X39.864Y30.877Z0F1200
G0 Z2.8F500
G0 X47.119Y34.563Z2.8F1500
G1 Z0F500
G1 X48.573Y34.808Z0F1200
G0 Z2.8F500
G0 X31.072Y48.393Z2.8F1500
G1 Z0F500
G1 X31.107Y50.808Z0F1200
G0 Z2.8F500
G0 X29.47Y50.383Z2.8F1500
G1 Z0F500
G1 X29.417Y47.95Z0F1200
G0 Z2.8F500
G0 X28.224Y47.963Z2.8F1500
G1 Z0F500
G1 X28.389Y50.507Z0F1200
G0 Z2.8F500
G0 X29.261Y49.78Z2.8F1500
G1 Z0F500
G1 X28.411Y50.33Z0F1200
G1 X28.834Y51.739Z0F1200
G1 X29.37Y53.162Z0F1200
G1 X29.805Y54.583Z0F1200
G1 X30.194Y55.959Z0F1200
G1 X30.773Y57.423Z0F1200
G1 X31.243Y58.879Z0F1200
G1 X31.557Y60.28Z0F1200
G1 X31.276Y61.689Z0F1200
G1 X31.071Y63.074Z0F1200
G1 X32.038Y63.73Z0F1200
G1 X30.674Y65.261Z0F1200
G1 X30.661Y65.844Z0F1200
G1 X30.705Y67.277Z0F1200
G1 X31.473Y67.439Z0F1200
G1 X30.612Y68.97Z0F1200
G1 X30.274Y70.422Z0F1200
G1 X30.001Y71.938Z0F1200
G1 X29.855Y73.481Z0F1200
G1 X29.872Y74.887Z0F1200
G1 X30.063Y76.266Z0F1200
G1 X30.87Y77.657Z0F1200
G1 X32.015Y78.986Z0F1200
G1 X33.586Y80.237Z0F1200
G1 X36.103Y81.531Z0F1200
G0 Z2.8F500
G0 X35.195Y81.032Z2.8F1500
G1 Z0F500
G1 X35.049Y78.507Z0F1200
G1 X34.875Y75.954Z0F1200
G1 X34.76Y73.459Z0F1200
G1 X34.639Y70.959Z0F1200
G1 X34.699Y68.638Z0F1200
G0 Z2.8F500
G0 X33.84Y68.98Z2.8F1500
G1 Z0F500
G1 X33.728Y71.251Z0F1200
G1 X33.611Y73.517Z0F1200
G1 X33.651Y75.937Z0F1200
G1 X33.671Y78.337Z0F1200
G0 Z2.8F500
G0 X32.082Y77.96Z2.8F1500
G1 Z0F500
G1 X32.016Y75.514Z0F1200
G1 X31.972Y73.089Z0F1200
G1 X31.968Y70.705Z0F1200
G1 X32.069Y68.424Z0F1200
G0 Z2.8F500
G0 X31.289Y68.448Z2.8F1500
G1 Z0F500
G1 X32.701Y67.956Z0F1200
G0 Z2.8F500
G0 X34.019Y69.454Z2.8F1500
G1 Z0F500
G1 X32.515Y69.856Z0F1200
G1 X31.067Y71.006Z0F1200

; Color 1 picking sequence
G1 Z10 F500;         ; Raise brush to safe height
;G0 X2 Y0 F1000;     ; Rapid move to brush cleaning position
;G1 Z0 F500;         ; Lower brush for cleaning - controlled movement
;G1 Z2 F500;         ; Raise brush slightly - controlled movement
;G1 X22 Y0 Z8 F800;     ; Move across cleaning area - controlled movement
;G1 Z8 F500;         ; Maintain brush height - controlled movement
G0 X85 Y0 F1200;    ; Rapid move to color 1 position
G1 Z0 F500;         ; Lower into color - controlled movement
G1 X79 Y1 F500;     ; Small movement in paint - controlled movement
G1 Z7 F500;         ; Raise from color - controlled movement
G1 X82 Y1 F500;     ; Movement in paint - controlled movement
G1 Z1 F500;         ; Lower slightly - controlled movement
G1 X71 Y10 Z10 F500;     ; Move in paint - controlled movement
;G1 Z8 F500;         ; Raise brush - controlled movement
G1 F1200;           ; Set feed rate to 1000

; Return to drawing position
G0 X31.067 Y71.006 F1200;  ; Return to position with raised Z
G1 Z0 F500;                       ; Lower Z to drawing position
G0 Z2.8F500
G0 X31.952Y71.879Z2.8F1500
G1 Z0F500
G1 X31.932Y74.241Z0F1200
G1 X31.645Y76.338Z0F1200
G0 Z2.8F500
G0 X35.236Y70.358Z2.8F1500
G1 Z0F500
G1 X37.506Y67.836Z0F1200
G0 Z2.8F500
G0 X37.644Y69.163Z2.8F1500
G1 Z0F500
G1 X37.583Y71.483Z0F1200
G1 X37.615Y73.896Z0F1200
G1 X37.693Y76.354Z0F1200
G1 X37.811Y78.851Z0F1200
G1 X37.958Y81.378Z0F1200
G0 Z2.8F500
G0 X38.504Y80.726Z2.8F1500
G1 Z0F500
G1 X40.844Y78.272Z0F1200
G0 Z2.8F500
G0 X40.615Y78.046Z2.8F1500
G1 Z0F500
G1 X40.45Y80.264Z0F1200
G0 Z2.8F500
G0 X40.442Y80.256Z2.8F1500
G1 Z0F500
G1 X42.657Y77.68Z0F1200
G0 Z2.8F500
G0 X41.549Y77.777Z2.8F1500
G1 Z0F500
G1 X41.684Y80.292Z0F1200
G0 Z2.8F500
G0 X40.422Y81.427Z2.8F1500
G1 Z0F500
G1 X40.966Y79.583Z0F1200
G1 X40.977Y77.213Z0F1200
G0 Z2.8F500
G0 X39.116Y76.567Z2.8F1500
G1 Z0F500
G1 X39.06Y78.893Z0F1200
G1 X39.022Y81.237Z0F1200
G0 Z2.8F500
G0 X38.533Y75.992Z2.8F1500
G1 Z0F500
G1 X36.05Y78.304Z0F1200
G0 Z2.8F500
G0 X35.502Y80.145Z2.8F1500
G1 Z0F500
G1 X35.606Y77.866Z0F1200
G1 X35.87Y75.746Z0F1200
G1 X36.295Y71.403Z0F1200
G1 X36.316Y69.043Z0F1200
G1 Y66.661Z0F1200
G1 X36.381Y64.345Z0F1200
G1 X36.32Y61.904Z0F1200
G0 Z2.8F500
G0 X39.503Y62.664Z2.8F1500
G1 Z0F500
G1 X39.39Y64.933Z0F1200
G1 X39.258Y67.183Z0F1200
G1 X39.177Y69.485Z0F1200
G1 X39.288Y71.975Z0F1200
G0 Z2.8F500
G0 X39.844Y74.805Z2.8F1500
G1 Z0F500
G1 X37.669Y73.553Z0F1200
G1 X37.549Y73.037Z0F1200
G1 X37.827Y71.724Z0F1200
G1 X38.506Y70.31Z0F1200
G1 X39.245Y68.956Z0F1200
G1 X39.91Y67.628Z0F1200
G1 X40.616Y66.241Z0F1200
G0 Z2.8F500
G0 X40.159Y65.692Z2.8F1500
G1 Z0F500
G1 X40.28Y63.43Z0F1200
G1 X40.339Y61.108Z0F1200
G0 Z2.8F500
G0 X39.787Y65.623Z2.8F1500
G1 Z0F500
G1 X38.389Y65.83Z0F1200
G1 X37.005Y66.052Z0F1200
G1 X35.672Y66.323Z0F1200
G1 X34.116Y66.673Z0F1200
G1 X32.604Y66.769Z0F1200
G1 X31.277Y67.146Z0F1200
G1 X33.5Y66.165Z0F1200
G1 X33.214Y64.792Z0F1200
G1 X32.757Y64.341Z0F1200
G1 X32.515Y62.713Z0F1200
G1 X31.645Y62.252Z0F1200
G1 X32.175Y61.981Z0F1200
G1 X31.804Y60.523Z0F1200

; Color 1 picking sequence
G1 Z10 F500;         ; Raise brush to safe height
;G0 X2 Y0 F1000;     ; Rapid move to brush cleaning position
;G1 Z0 F500;         ; Lower brush for cleaning - controlled movement
;G1 Z2 F500;         ; Raise brush slightly - controlled movement
;G1 X22 Y0 Z8 F800;     ; Move across cleaning area - controlled movement
;G1 Z8 F500;         ; Maintain brush height - controlled movement
G0 X85 Y0 F1200;    ; Rapid move to color 1 position
G1 Z0 F500;         ; Lower into color - controlled movement
G1 X79 Y1 F500;     ; Small movement in paint - controlled movement
G1 Z7 F500;         ; Raise from color - controlled movement
G1 X82 Y1 F500;     ; Movement in paint - controlled movement
G1 Z1 F500;         ; Lower slightly - controlled movement
G1 X71 Y10 Z10 F500;     ; Move in paint - controlled movement
;G1 Z8 F500;         ; Raise brush - controlled movement
G1 F1200;           ; Set feed rate to 1000

; Return to drawing position
G0 X31.804 Y60.523 F1200;  ; Return to position with raised Z
G1 Z0 F500;                       ; Lower Z to drawing position
G0 Z2.8F500
G0 X31.245Y63.94Z2.8F1500
G1 Z0F500
G1 X32.589Y64.274Z0F1200
G0 Z2.8F500
G0 X52.195Y77.568Z2.8F1500
G1 Z0F500
G1 X52.44Y80.19Z0F1200
G0 Z2.8F500
G0 X52.487Y79.046Z2.8F1500
G1 Z0F500
G1 X52.493Y81.433Z0F1200
G0 Z2.8F500
G0 X55.067Y81.592Z2.8F1500
G1 Z0F500
G1 X55.211Y79.354Z0F1200
G1 X55.11Y76.872Z0F1200
G0 Z2.8F500
G0 X55.195Y75.766Z2.8F1500
G1 Z0F500
G1 X55.162Y78.114Z0F1200
G0 Z2.8F500
G0 X56.961Y78.699Z2.8F1500
G1 Z0F500
G1 X56.716Y76.076Z0F1200
G0 Z2.8F500
G0 X57.079Y78.915Z2.8F1500
G1 Z0F500
G1 X59.411Y76.453Z0F1200
G1 X61.52Y73.772Z0F1200
G0 Z2.8F500
G0 X61.724Y73.875Z2.8F1500
G1 Z0F500
G1 X61.454Y75.989Z0F1200
G0 Z2.8F500
G0 X66.718Y77.016Z2.8F1500
G1 Z0F500
G1 X66.822Y78.508Z0F1200
G1 X66.87Y80.043Z0F1200
G1 X66.762Y81.425Z0F1200
G1 X66.706Y82.263Z0F1200
G0 Z2.8F500
G0 X72.934Y78.587Z2.8F1500
G1 Z0F500
G1 X73.245Y77.206Z0F1200
G1 X73.287Y75.859Z0F1200
G1 X73.341Y74.523Z0F1200
G1 X73.41Y73.202Z0F1200
G1 X73.283Y71.887Z0F1200
G1 X73.559Y70.572Z0F1200
G1 X73.678Y69.301Z0F1200
G1 X74.123Y69.045Z0F1200
G0 Z2.8F500
G0 X73.924Y70.437Z2.8F1500
G1 Z0F500
G1 X74.071Y72.962Z0F1200
G1 X74.189Y75.459Z0F1200
G1 X74.18Y77.831Z0F1200
G1 X74.106Y80.14Z0F1200
G0 Z2.8F500
G0 X73.571Y72.271Z2.8F1500
G1 Z0F500
G1 X73.577Y70.887Z0F1200
G0 Z2.8F500
G0 X82.299Y63.819Z2.8F1500
G1 Z0F500
G1 X83.493Y65.195Z0F1200
G1 X84.937Y66.521Z0F1200
G1 X86.466Y67.831Z0F1200
G1 X88.85Y69.092Z0F1200
G0 Z2.8F500
G0 X89.031Y68.676Z2.8F1500
G1 Z0F500
G1 X88.835Y66.101Z0F1200
G0 Z2.8F500
G0 X87.239Y65.717Z2.8F1500
G1 Z0F500
G1 X87.404Y68.261Z0F1200
G0 Z2.8F500
G0 X85.684Y65.373Z2.8F1500
G1 Z0F500
G1 X85.547Y62.858Z0F1200
G1 X85.577Y60.505Z0F1200
G0 Z2.8F500
G0 X91.324Y37.605Z2.8F1500
G1 Z0F500
G1 X90.859Y34.765Z0F1200
G1 X90.894Y32.419Z0F1200
G1 X90.954Y30.097Z0F1200
G1 X91.056Y27.817Z0F1200
G1 X91.197Y25.575Z0F1200
G1 X91.162Y23.16Z0F1200
G0 Z2.8F500
G0 X92.015Y21.62Z2.8F1500
G1 Z0F500
G1 X89.669Y24.067Z0F1200
G1 X87.301Y26.493Z0F1200
G1 X85.034Y29.018Z0F1200
G1 X82.964Y31.737Z0F1200
G0 Z2.8F500
G0 X77.286Y21.373Z2.8F1500
G1 Z0F500
G1 X79.8Y19.092Z0F1200
G1 X82.27Y16.766Z0F1200
G1 X84.771Y14.473Z0F1200

; Color 1 picking sequence
G1 Z10 F500;         ; Raise brush to safe height
;G0 X2 Y0 F1000;     ; Rapid move to brush cleaning position
;G1 Z0 F500;         ; Lower brush for cleaning - controlled movement
;G1 Z2 F500;         ; Raise brush slightly - controlled movement
;G1 X22 Y0 Z8 F800;     ; Move across cleaning area - controlled movement

; Washing sequence (no color)
G1 Z10 F1000;        ; Raise brush to safe height
G0 X5 Y5 F1200;     ; Rapid move to brush cleaning position
G1 Z-1 F800;         ; Lower brush for cleaning - controlled movement
G1 X10 Y12 Z8 F1200;     ; Rapid move to brush cleaning position
G1 Z-1 F800;         ; Lower brush for cleaning - controlled movement
G1 X25 Y14 Z6 F800;     ; Move across cleaning area - controlled movement
G1 Z8 F800;         ; Maintain brush height - controlled movement
G0 X5 Y5 F1200;     ; Rapid move to brush cleaning position
G1 Z-1 F800;         ; Lower brush for cleaning - controlled movement
G1 X15 Y12 Z8 F1200;     ; Rapid move to brush cleaning position
G1 Z-1 F800;         ; Lower brush for cleaning - controlled movement
G1 X25 Y14 Z6 F800;     ; Move across cleaning area - controlled movement
G1 Z10 F800;         ; Maintain brush height - controlled movement
G1 F1200;           ; Set feed rate to 1000
;G1 Z8 F500;         ; Maintain brush height - controlled movement
G0 X85 Y0 F1200;    ; Rapid move to color 1 position
G1 Z0 F500;         ; Lower into color - controlled movement
G1 X79 Y1 F500;     ; Small movement in paint - controlled movement
G1 Z7 F500;         ; Raise from color - controlled movement
G1 X82 Y1 F500;     ; Movement in paint - controlled movement
G1 Z1 F500;         ; Lower slightly - controlled movement
G1 X71 Y10 Z10 F500;     ; Move in paint - controlled movement
;G1 Z8 F500;         ; Raise brush - controlled movement
G1 F1200;           ; Set feed rate to 1000

; Return to drawing position
G0 X84.771 Y14.473 F1200;  ; Return to position with raised Z
G1 Z0 F500;                       ; Lower Z to drawing position
G0 Z2.8F500
G0 X85.394Y13.897Z2.8F1500
G1 Z0F500
G1 X85.205Y11.33Z0F1200
G1 X85.099Y8.844Z0F1200
G0 Z2.8F500
G0 X85.22Y7.772Z2.8F1500
G1 Z0F500
G1 X82.998Y10.342Z0F1200
G1 X80.795Y12.93Z0F1200
G1 X78.567Y15.494Z0F1200
G1 X76.227Y17.947Z0F1200
G1 X73.739Y20.254Z0F1200
G1 X71.082Y22.394Z0F1200
G1 X68.476Y24.585Z0F1200
G0 Z2.8F500
G0 X69.623Y24.327Z2.8F1500
G1 Z0F500
G1 X71.194Y22.902Z0F1200
G1 X73.013Y21.521Z0F1200
G1 X74.821Y20.131Z0F1200
G1 X78.507Y17.419Z0F1200
G1 X80.298Y16.012Z0F1200
G1 X82.03Y14.546Z0F1200
G1 X83.828Y13.146Z0F1200
G1 X85.629Y11.747Z0F1200
G1 X87.433Y10.353Z0F1200
G1 X89.39Y9.011Z0F1200
G1 X91.362Y7.682Z0F1200
G0 Z2.8F500
G0 X90.692Y7.319Z2.8F1500
G1 Z0F500
G1 X89.325Y8.252Z0F1200
G1 X87.98Y9.306Z0F1200
G1 X86.691Y10.514Z0F1200
G1 X85.44Y11.76Z0F1200
G1 X84.107Y12.825Z0F1200
G1 X82.784Y14.001Z0F1200
G1 X81.398Y15.112Z0F1200
G1 X79.965Y16.179Z0F1200
G1 X78.525Y17.238Z0F1200
G1 X77.154Y18.366Z0F1200
G1 X75.721Y19.432Z0F1200
G1 X74.372Y20.581Z0F1200
G1 X72.943Y21.651Z0F1200
G1 X71.427Y22.636Z0F1200
G1 X69.981Y23.689Z0F1200
G1 X68.622Y25.324Z0F1200
G1 X68.686Y25.685Z0F1200
G1 X67.795Y24.31Z0F1200
G1 X67.648Y22.875Z0F1200
G1 X67.644Y21.383Z0F1200
G1 X67.692Y20.041Z0F1200
G1 X67.673Y18.634Z0F1200
G1 X67.738Y17.309Z0F1200
G1 X68.014Y16.093Z0F1200
G1 X68.146Y14.835Z0F1200
G1 X68.19Y13.489Z0F1200
G1 X68.239Y12.05Z0F1200
G1 X68.242Y10.663Z0F1200
G1 X68.265Y9.297Z0F1200
G1 X68.35Y7.893Z0F1200

; Color 1 picking sequence
G1 Z10 F500;         ; Raise brush to safe height
;G0 X2 Y0 F1000;     ; Rapid move to brush cleaning position
;G1 Z0 F500;         ; Lower brush for cleaning - controlled movement
;G1 Z2 F500;         ; Raise brush slightly - controlled movement
;G1 X22 Y0 Z8 F800;     ; Move across cleaning area - controlled movement
;G1 Z8 F500;         ; Maintain brush height - controlled movement
G0 X85 Y0 F1200;    ; Rapid move to color 1 position
G1 Z0 F500;         ; Lower into color - controlled movement
G1 X79 Y1 F500;     ; Small movement in paint - controlled movement
G1 Z7 F500;         ; Raise from color - controlled movement
G1 X82 Y1 F500;     ; Movement in paint - controlled movement
G1 Z1 F500;         ; Lower slightly - controlled movement
G1 X71 Y10 Z10 F500;     ; Move in paint - controlled movement
;G1 Z8 F500;         ; Raise brush - controlled movement
G1 F1200;           ; Set feed rate to 1000

; Return to drawing position
G0 X68.350 Y7.893 F1200;  ; Return to position with raised Z
G1 Z0 F500;                       ; Lower Z to drawing position
G0 Z2.8F500
G0 X69.521Y8.949Z2.8F1500
G1 Z0F500
G1 X69.435Y11.246Z0F1200
G1 X69.03Y13.227Z0F1200
G1 X68.914Y15.494Z0F1200
G1 X69.101Y18.059Z0F1200
G1 X69.271Y20.608Z0F1200
G1 X69.378Y23.094Z0F1200
G1 X69.734Y25.826Z0F1200
G0 Z2.8F500
G0 X70.404Y25.297Z2.8F1500
G1 Z0F500
G1 X70.11Y22.625Z0F1200
G1 X69.888Y20.025Z0F1200
G1 X69.798Y17.556Z0F1200
G1 X69.818Y15.195Z0F1200
G1 X69.832Y12.828Z0F1200
G1 X69.955Y10.568Z0F1200
G1 X70.126Y8.356Z0F1200
G0 Z2.8F500
G0 X71.384Y8.406Z2.8F1500
G1 Z0F500
G1 X71.175Y10.581Z0F1200
G1 X71.138Y12.926Z0F1200
G1 X71.087Y15.256Z0F1200
G1 X70.967Y17.519Z0F1200
G1 X70.876Y19.81Z0F1200
G1 X71.224Y22.534Z0F1200
G0 Z2.8F500
G0 X71.747Y21.86Z2.8F1500
G1 Z0F500
G1 X71.753Y19.484Z0F1200
G1 X71.806Y17.156Z0F1200
G1 X72.116Y15.081Z0F1200
G1 X72.291Y12.872Z0F1200
G1 X72.285Y10.486Z0F1200
G1 X72.255Y8.076Z0F1200
G0 Z2.8F500
G0 X74.045Y8.651Z2.8F1500
G1 Z0F500
G1 X74.174Y11.159Z0F1200
G1 X74.419Y13.782Z0F1200
G1 X74.576Y16.318Z0F1200
G1 X74.766Y18.886Z0F1200
G1 X74.878Y21.378Z0F1200
G0 Z2.8F500
G0 X75.991Y20.095Z2.8F1500
G1 Z0F500
G1 X75.965Y17.689Z0F1200
G1 X75.62Y14.967Z0F1200
G1 X75.427Y12.396Z0F1200
G1 X75.449Y10.037Z0F1200
G1 X75.413Y7.62Z0F1200
G0 Z2.8F500
G0 X75.008Y8.411Z2.8F1500
G1 Z0F500
G1 X75.021Y10.805Z0F1200
G1 X74.882Y13.049Z0F1200
G1 X74.639Y15.19Z0F1200
G1 X74.299Y17.235Z0F1200
G1 X74.113Y19.433Z0F1200
G0 Z2.8F500
G0 X76.943Y17.463Z2.8F1500
G1 Z0F500
G1 X76.892Y15.032Z0F1200
G1 X76.844Y12.603Z0F1200
G1 X76.898Y10.276Z0F1200
G1 X76.768Y7.767Z0F1200

; Color 1 picking sequence
G1 Z10 F500;         ; Raise brush to safe height
;G0 X2 Y0 F1000;     ; Rapid move to brush cleaning position
;G1 Z0 F500;         ; Lower brush for cleaning - controlled movement
;G1 Z2 F500;         ; Raise brush slightly - controlled movement
;G1 X22 Y0 Z8 F800;     ; Move across cleaning area - controlled movement
;G1 Z8 F500;         ; Maintain brush height - controlled movement
G0 X85 Y0 F1200;    ; Rapid move to color 1 position
G1 Z0 F500;         ; Lower into color - controlled movement
G1 X79 Y1 F500;     ; Small movement in paint - controlled movement
G1 Z7 F500;         ; Raise from color - controlled movement
G1 X82 Y1 F500;     ; Movement in paint - controlled movement
G1 Z1 F500;         ; Lower slightly - controlled movement
G1 X71 Y10 Z10 F500;     ; Move in paint - controlled movement
;G1 Z8 F500;         ; Raise brush - controlled movement
G1 F1200;           ; Set feed rate to 1000

; Return to drawing position
G0 X76.768 Y7.767 F1200;  ; Return to position with raised Z
G1 Z0 F500;                       ; Lower Z to drawing position
G0 Z2.8F500
G0 X76.851Y9.039Z2.8F1500
G1 Z0F500
G1 X74.406Y11.388Z0F1200
G1 X71.909Y13.687Z0F1200
G1 X69.498Y16.069Z0F1200
G0 Z2.8F500
G0 X69.558Y18.509Z2.8F1500
G1 Z0F500
G1 X72.006Y16.163Z0F1200
G1 X74.381Y13.744Z0F1200
G1 X76.715Y11.286Z0F1200
G1 X78.89Y8.67Z0F1200
G0 Z2.8F500
G0 X79.421Y9.193Z2.8F1500
G1 Z0F500
G1 X79.461Y11.614Z0F1200
G1 X79.4Y13.935Z0F1200
G1 X79.167Y16.086Z0F1200
G1 X78.834Y18.139Z0F1200
G0 Z2.8F500
G0 X79.223Y14.951Z2.8F1500
G1 Z0F500
G1 X79.346Y12.691Z0F1200
G1 X79.477Y10.439Z0F1200
G1 X79.427Y8.009Z0F1200
G0 Z2.8F500
G0 X81.43Y8.795Z2.8F1500
G1 Z0F500
G1 X81.613Y11.357Z0F1200
G1 X81.913Y14.033Z0F1200
G1 X82.01Y16.511Z0F1200
G0 Z2.8F500
G0 X83.124Y16.419Z2.8F1500
G1 Z0F500
G1 X82.935Y13.852Z0F1200
G1 X82.837Y11.374Z0F1200
G1 Y8.991Z0F1200
G0 Z2.8F500
G0 X83.436Y8.394Z2.8F1500
G1 Z0F500
G1 X80.998Y10.75Z0F1200
G1 X78.6Y13.146Z0F1200
G1 X76.147Y15.487Z0F1200
G1 X73.68Y17.815Z0F1200
G1 X71.201Y20.13Z0F1200
G1 X68.742Y22.467Z0F1200
G0 Z2.8F500
G0 X69.137Y20.475Z2.8F1500
G1 Z0F500
G1 X71.661Y18.204Z0F1200
G1 X74.107Y15.855Z0F1200
G1 X76.677Y13.629Z0F1200
G1 X79.36Y11.515Z0F1200
G1 X81.78Y9.141Z0F1200
G0 Z2.8F500
G0 X83.967Y8.917Z2.8F1500
G1 Z0F500
G1 X83.874Y11.207Z0F1200
G1 X83.828Y13.542Z0F1200
G0 Z2.8F500
G0 X86.392Y13.691Z2.8F1500
G1 Z0F500
G1 X86.581Y11.496Z0F1200
G1 Y9.117Z0F1200
G0 Z2.8F500
G0 X87Y8.339Z2.8F1500
G1 Z0F500
G1 X87.045Y10.764Z0F1200
G0 Z2.8F500
G0 X88.932Y11.436Z2.8F1500
G1 Z0F500
G1 X91.07Y8.783Z0F1200
G0 Z2.8F500
G0 X89.007Y9.128Z2.8F1500
G1 Z0F500
G1 X89.013Y11.515Z0F1200
G0 Z2.8F500
G0 X74.566Y9.165Z2.8F1500
G1 Z0F500
G1 X72.075Y11.47Z0F1200
G0 Z2.8F500
G0 X67.009Y13.614Z2.8F1500
G1 Z0F500
G1 X67.075Y11.297Z0F1200
G1 X67.123Y8.964Z0F1200

; Color 1 picking sequence
G1 Z10 F500;         ; Raise brush to safe height
;G0 X2 Y0 F1000;     ; Rapid move to brush cleaning position
;G1 Z0 F500;         ; Lower brush for cleaning - controlled movement
;G1 Z2 F500;         ; Raise brush slightly - controlled movement
;G1 X22 Y0 Z8 F800;     ; Move across cleaning area - controlled movement
;G1 Z8 F500;         ; Maintain brush height - controlled movement
G0 X85 Y0 F1200;    ; Rapid move to color 1 position
G1 Z0 F500;         ; Lower into color - controlled movement
G1 X79 Y1 F500;     ; Small movement in paint - controlled movement
G1 Z7 F500;         ; Raise from color - controlled movement
G1 X82 Y1 F500;     ; Movement in paint - controlled movement
G1 Z1 F500;         ; Lower slightly - controlled movement
G1 X71 Y10 Z10 F500;     ; Move in paint - controlled movement
;G1 Z8 F500;         ; Raise brush - controlled movement
G1 F1200;           ; Set feed rate to 1000

; Return to drawing position
G0 X67.123 Y8.964 F1200;  ; Return to position with raised Z
G1 Z0 F500;                       ; Lower Z to drawing position
G0 Z2.8F500
G0 X64.598Y8.853Z2.8F1500
G1 Z0F500
G1 X64.653Y11.289Z0F1200
G1 X64.876Y13.89Z0F1200
G0 Z2.8F500
G0 X65.571Y12.691Z2.8F1500
G1 Z0F500
G1 X64.201Y12.43Z0F1200
G0 Z2.8F500
G0 X65.184Y11.912Z2.8F1500
G1 Z0F500
G1 X63.434Y11.673Z0F1200
G1 X61.528Y11.976Z0F1200
G1 X59.754Y11.614Z0F1200
G1 X57.424Y11.1Z0F1200
G1 X55.432Y10.722Z0F1200
G1 X53.986Y10.486Z0F1200
G1 X52.201Y10.114Z0F1200
G1 X50.693Y9.816Z0F1200
G1 X49.255Y9.488Z0F1200
G1 X47.91Y9.253Z0F1200
G1 X46.542Y9.093Z0F1200
G1 X45.125Y8.787Z0F1200
G1 X43.807Y8.577Z0F1200
G1 X42.448Y8.427Z0F1200
G1 X41.083Y8.171Z0F1200
G1 X39.71Y8.106Z0F1200
G0 Z2.8F500
G0 X26.954Y43.833Z2.8F1500
G1 Z0F500
G1 X25.63Y43.618Z0F1200
G1 X24.28Y43.477Z0F1200
G1 X22.899Y43.304Z0F1200
G1 X21.51Y42.926Z0F1200
G1 X20.055Y42.482Z0F1200
G1 X18.589Y43.714Z0F1200
G0 Z2.8F500
G0 X19.767Y42.893Z2.8F1500
G1 Z0F500
G1 X18.731Y44.251Z0F1200
G1 X18.389Y45.6Z0F1200
G1 X18.115Y46.917Z0F1200
G1 X18.409Y47.307Z0F1200
G1 X18.401Y48.687Z0F1200
G1 X18.877Y50.149Z0F1200
G0 Z2.8F500
G0 X18.764Y49.839Z2.8F1500
G1 Z0F500
G1 X20.115Y50.676Z0F1200
G1 X21.506Y50.461Z0F1200
G1 X22.928Y50.178Z0F1200
G1 X24.355Y49.999Z0F1200
G1 X25.726Y49.962Z0F1200
G1 X27.107Y49.639Z0F1200
G1 X28.605Y49.431Z0F1200
G0 Z2.8F500
G0 X26.809Y50.138Z2.8F1500
G1 Z0F500
G1 X27.02Y47.965Z0F1200
G1 X26.953Y45.519Z0F1200
G0 Z2.8F500
G0 X26.602Y45.173Z2.8F1500
G1 Z0F500
G1 X24.078Y47.444Z0F1200
G1 X21.641Y49.801Z0F1200
G0 Z2.8F500
G0 X21.982Y50.137Z2.8F1500
G1 Z0F500
G1 X22.041Y47.815Z0F1200
G1 X22.014Y45.407Z0F1200
G0 Z2.8F500
G0 X22.892Y45.083Z2.8F1500
G1 Z0F500
G1 X22.941Y47.512Z0F1200
G1 X22.936Y49.888Z0F1200
G0 Z2.8F500
G0 X23.673Y49.425Z2.8F1500
G1 Z0F500
G1 X25.888Y46.848Z0F1200
G0 Z2.8F500
G0 X24.551Y45.529Z2.8F1500
G1 Z0F500
G1 X22.258Y48.029Z0F1200
G0 Z2.8F500
G0 X23.94Y49.689Z2.8F1500
G1 Z0F500
G1 X24.09Y47.456Z0F1200
G1 X24.275Y45.257Z0F1200
G0 Z2.8F500
G0 X25.251Y45.03Z2.8F1500
G1 Z0F500
G1 X25.293Y47.453Z0F1200
G1 X25.133Y49.675Z0F1200
G0 Z2.8F500
G0 X20.307Z2.8F1500
G1 Z0F500
G1 X20.582Y47.566Z0F1200
G1 X20.566Y45.169Z0F1200

; Color 1 picking sequence
G1 Z10 F500;         ; Raise brush to safe height
;G0 X2 Y0 F1000;     ; Rapid move to brush cleaning position
;G1 Z0 F500;         ; Lower brush for cleaning - controlled movement
;G1 Z2 F500;         ; Raise brush slightly - controlled movement
;G1 X22 Y0 Z8 F800;     ; Move across cleaning area - controlled movement
;G1 Z8 F500;         ; Maintain brush height - controlled movement
G0 X85 Y0 F1200;    ; Rapid move to color 1 position
G1 Z0 F500;         ; Lower into color - controlled movement
G1 X79 Y1 F500;     ; Small movement in paint - controlled movement
G1 Z7 F500;         ; Raise from color - controlled movement
G1 X82 Y1 F500;     ; Movement in paint - controlled movement
G1 Z1 F500;         ; Lower slightly - controlled movement
G1 X71 Y10 Z10 F500;     ; Move in paint - controlled movement
;G1 Z8 F500;         ; Raise brush - controlled movement
G1 F1200;           ; Set feed rate to 1000

; Return to drawing position
G0 X20.566 Y45.169 F1200;  ; Return to position with raised Z
G1 Z0 F500;                       ; Lower Z to drawing position
G0 Z2.8F500
G0 X16.706Y47.015Z2.8F1500
G1 Z0F500
G1 X15.355Y47.071Z0F1200
G1 X14.053Y47.075Z0F1200
G1 X12.779Y47.208Z0F1200
G1 X11.49Y47.225Z0F1200
G1 X10.136Y47.278Z0F1200
G1 X8.676Y47.127Z0F1200
G0 Z2.8F500
G0 X8.374Y47.92Z2.8F1500
G1 Z0F500
G1 X9.741Y47.781Z0F1200
G1 X11.157Y47.889Z0F1200
G1 X12.597Y47.921Z0F1200
G1 X14.052Y48.067Z0F1200
G1 X15.536Y48.142Z0F1200
G1 X16.91Y48.209Z0F1200
G0 Z2.8F500
G0 X16.622Y47.626Z2.8F1500
G1 Z0F500
G1 X15.245Y47.657Z0F1200
M9
M5
G1 Z10 F500
G90
G1 Z10 F500

; Return to 2,0 wash and park
G1 Z10 F500;         ; Raise brush to safe height
G0 X2 Y0 F1000;     ; Return to cleaning position
G1 Z0 F500;         ; Lower brush for cleaning
G1 Z2 F500;         ; Raise brush slightly
G1 X22 Y0 Z8 F500;     ; Move across cleaning area
G1 Z10 F500;         ; Raise brush to safe height
G0 X2 Y0 F1000;     ; Return to wash position
G1 Z0 F500;         ; Lower brush for cleaning
G1 Z2 F500;         ; Raise brush slightly
G1 X22 Y0 Z8 F500;     ; Move across cleaning area
G1 Z10 F500;         ; Raise brush completely
G0 X20 Y120 Z10 F500;; Move to parking position with Z at safe height
M2;                 ; End program


; Return to 2,0 wash and park
G1 Z10 F1000;        ; Raise brush to safe height
G0 X5 Y5 F1200;     ; Rapid move to brush cleaning position
G1 Z-1 F800;         ; Lower brush for cleaning - controlled movement
G1 X10 Y12 Z8 F1200;     ; Rapid move to brush cleaning position
G1 Z-1 F800;         ; Lower brush for cleaning - controlled movement
G1 X25 Y14 Z6 F800;     ; Move across cleaning area - controlled movement
G0 X5 Y5 F1200;     ; Rapid move to brush cleaning position
G1 Z-1 F800;         ; Lower brush for cleaning - controlled movement
G1 X15 Y12 Z8 F1200;     ; Rapid move to brush cleaning position
G1 Z-1 F800;         ; Lower brush for cleaning - controlled movement
G1 X25 Y14 Z6 F800;     ; Move across cleaning area - controlled movement
G1 Z10 F800;         ; Maintain brush height - controlled movement
G0 X20 Y130 Z10 F500;; Move to parking position with Z at safe height
M2;                 ; End program
