
G0 Z10 F500;      ; Move to clearance level
; G0 X-10 Y-10 F1200; Homing
; G0 X-5 Y-5 F1200; go in
; G10 P0 L20 X0 Y0; set to zero
G1 F1200;           ; Set feed rate
G90 ; Force absolute mode
;LightBurn 1.6.04
;Custom GCode device profile, absolute coords
;Bounds: X26.3 Y27.83 to X123.72 Y62.17
G00 G17 G40 G21 G54
M3
G1 Z10 F1555

; Color picking sequence
G1 Z10 F1000;         ; Raise brush
G0 X41 Y5 F1200;    ; Rapid move to color 1
G1 Z10 F1000;         ; Raise brush
G0 X41 Y5 F1200;    ; Rapid move to color 1
G1 Z0 F1000;         ; Lower into color
G1 X40.102 Y7.295 Z0 S800 F1200
G1 X40.026 Y7.642 Z0 F1200
G1 X40 Y8 Z0 F1200
G1 X40.026 Y8.358 Z0 F1200
G1 X40.102 Y8.705 Z0 F1200
G1 X40.225 Y9.041 Z0 F1200
G1 X40.393 Y9.362 Z0 F1200
G1 X40.603 Y9.668 Z0 F1200
G1 X40.854 Y9.957 Z0 F1200
G1 X41.142 Y10.226 Z0 F1200
G1 X41.464 Y10.475 Z0 F1200
G1 X41.82 Y10.701 Z0 F1200
G1 X42.204 Y10.902 Z0 F1200
G1 X42.617 Y11.078 Z0 F1200
G1 X43.054 Y11.225 Z0 F1200
G1 X43.513 Y11.343 Z0 F1200
G1 X43.992 Y11.429 Z0 F1200
G1 X44.489 Y11.482 Z0 F1200
G1 X45 Y11.5 Z0 F1200
G1 X45.511 Y11.482 Z0 F1200
G1 X46.008 Y11.429 Z0 F1200
G1 X46.487 Y11.343 Z0 F1200
G1 X46.946 Y11.225 Z0 F1200
G1 X47.383 Y11.078 Z0 F1200
G1 X47.796 Y10.902 Z0 F1200
G1 X48.18 Y10.701 Z0 F1200
G1 X48.536 Y10.475 Z0 F1200
G1 X48.858 Y10.226 Z0 F1200
G1 X49.146 Y9.957 Z0 F1200
G1 X49.397 Y9.668 Z0 F1200
G1 X49.607 Y9.362 Z0 F1200
G1 X49.775 Y9.041 Z0 F1200
G1 X49.898 Y8.705 Z0 F1200
G1 X49.974 Y8.358 Z0 F1200
G1 X50 Y8 Z0 F1200
G1 X49.974 Y7.642 Z0 F1200
G1 X49.898 Y7.295 Z0 F1200
G1 X49.775 Y6.959 Z0 F1200
G1 X49.607 Y6.638 Z0 F1200
G1 X49.397 Y6.332 Z0 F1200
G1 X49.146 Y6.043 Z0 F1200
G1 X48.858 Y5.774 Z0 F1200
G1 X48.536 Y5.525 Z0 F1200
G1 X48.18 Y5.299 Z0 F1200
G1 X47.796 Y5.098 Z0 F1200
G1 X47.383 Y4.922 Z0 F1200
G1 X46.946 Y4.775 Z0 F1200
G1 X46.487 Y4.657 Z0 F1200
G1 X46.008 Y4.571 Z0 F1200
G1 X45.511 Y4.518 Z0 F1200
G1 X45 Y4.5 Z0 F1200
G1 X44.489 Y4.518 Z0 F1200
G1 X43.992 Y4.571 Z0 F1200
G1 X43.513 Y4.657 Z0 F1200
G1 X43.054 Y4.775 Z0 F1200
G1 X42.617 Y4.922 Z0 F1200
G1 X42.204 Y5.098 Z0 F1200
G1 X41.82 Y5.299 Z0 F1200
G1 X41.464 Y5.525 Z0 F1200
G1 X41.142 Y5.774 Z0 F1200
G1 X40.854 Y6.043 Z0 F1200
G1 X40.603 Y6.332 Z0 F1200
G1 X40.393 Y6.638 Z0 F1200
G1 X40.225 Y6.959 Z0 F1200
G1 Z7 F800;         ; Raise from color
G1 X34 Y8 Z1 F1200;     ; Movement in paint
G1 X24 Y18 Z8 F500;     ; Move in paint
G1 F1200;           ; Set feed rate
G0 Z2.5 F1000 ; Safety Lift
;Scan @ 1555 mm/min, 80% power

M8
G0 Z4.8 F1555
G0 X26.303 Y37.389 Z4.8 F1555
G1 Z0 F1555
;Layer C1
G1 Z2.5 F800 ; Lift S=0
G1 X26.951 F1555
G1 Z0 F800 ; Drop S>0
G1 X27.126 F1555
G1 Z2.5 F800 ; Lift S=0
G1 X28.532 F1555
G1 Z0 F800 ; Drop S>0
G1 X29.821 F1555
G1 Z2.5 F800 ; Lift S=0
G1 X39.216 F1555
G1 Z0 F800 ; Drop S>0
G1 X39.941 F1555
G1 Z2.5 F800 ; Lift S=0
G1 X46.219 F1555
G1 Z0 F800 ; Drop S>0
G1 X49.08 F1555
G1 Z2.5 F800 ; Lift S=0
G1 X51.599 F1555
G1 Z0 F800 ; Drop S>0
G1 X53.82 F1555
G1 Z2.5 F800 ; Lift S=0
G1 X56.592 F1555
G1 Z0 F800 ; Drop S>0
G1 X59.516 F1555
G1 Z2.5 F800 ; Lift S=0
G1 X64.401 F1555
G1 Z0 F800 ; Drop S>0
G1 X67.587 F1555
G1 Z2.5 F800 ; Lift S=0
G1 X69.833 F1555
G1 Z0 F800 ; Drop S>0
G1 X72.37 F1555
G1 Z2.5 F800 ; Lift S=0
G1 X94.232 F1555
G1 Z0 F800 ; Drop S>0
G1 X95.616 F1555
G1 Z2.5 F800 ; Lift S=0
G1 X103.252 F1555
G1 Z0 F800 ; Drop S>0
G1 X105.247 F1555
G1 Z2.5 F800 ; Lift S=0
G1 X113.692 F1555
G1 Z0 F800 ; Drop S>0
G1 X116.905 F1555
G1 Z2.5 F800 ; Lift S=0
G1 X117.553 F1555
G1 X119.664 Y38.289 Z2.5 F1555
; --- FIX X Backlash ---
G0 X118.864 Y38.289 F1200
G1 X118.216 Z2.5 F1555
G1 Z0 F800 ; Drop S>0
G1 X110.46 F1555
G1 Z2.5 F800 ; Lift S=0
G1 X105.281 F1555
G1 Z0 F800 ; Drop S>0
G1 X101.802 F1555
G1 Z2.5 F800 ; Lift S=0
G1 X96.043 F1555
G1 Z0 F800 ; Drop S>0
G1 X92.738 F1555
G1 Z2.5 F800 ; Lift S=0
G1 X72.388 F1555
G1 Z0 F800 ; Drop S>0
G1 X68.715 F1555
G1 Z2.5 F800 ; Lift S=0
G1 X67.942 F1555
G1 Z0 F800 ; Drop S>0
G1 X62.533 F1555
G1 Z2.5 F800 ; Lift S=0
G1 X59.294 F1555
G1 Z0 F800 ; Drop S>0
G1 X55.939 F1555
G1 Z2.5 F800 ; Lift S=0
G1 X53.898 F1555
G1 Z0 F800 ; Drop S>0
G1 X50.611 F1555
G1 Z2.5 F800 ; Lift S=0
G1 X49.785 F1555
G1 Z0 F800 ; Drop S>0
G1 X44.222 F1555
G1 Z2.5 F800 ; Lift S=0
G1 X41.178 F1555
G1 Z0 F800 ; Drop S>0
G1 X37.893 F1555
G1 Z2.5 F800 ; Lift S=0
G1 X29.54 F1555
G1 Z0 F800 ; Drop S>0
G1 X26.242 F1555
G1 Z2.5 F800 ; Lift S=0
G1 X25.594 F1555
; --- FIX X Backlash ---
G0 X26.394 Y38.289 F1200
G1 X26.536 Y39.189 Z2.5 F1555
G1 X27.184 Z2.5 F1555
G1 Z0 F800 ; Drop S>0
G1 X30.435 F1555
G1 Z2.5 F800 ; Lift S=0
G1 X38.834 F1555
G1 Z0 F800 ; Drop S>0
G1 X42.108 F1555
G1 Z2.5 F800 ; Lift S=0
G1 X44.625 F1555
G1 Z0 F800 ; Drop S>0
G1 X55.015 F1555
G1 Z2.5 F800 ; Lift S=0
G1 X56.886 F1555
G1 Z0 F800 ; Drop S>0
G1 X60.375 F1555
G1 Z2.5 F800 ; Lift S=0
G1 X62.751 F1555
G1 Z0 F800 ; Drop S>0
G1 X73.273 F1555
G1 Z2.5 F800 ; Lift S=0
G1 X93.542 F1555
G1 Z0 F800 ; Drop S>0
G1 X97.239 F1555
G1 Z2.5 F800 ; Lift S=0
G1 X102.133 F1555
G1 Z0 F800 ; Drop S>0
G1 X106.356 F1555
G1 Z2.5 F800 ; Lift S=0

; Color picking sequence
G1 Z10 F1000;         ; Raise brush
G0 X41 Y5 F1200;    ; Rapid move to color 1
G1 Z10 F1000;         ; Raise brush
G0 X41 Y5 F1200;    ; Rapid move to color 1
G1 Z0 F1000;         ; Lower into color
G1 X40.102 Y7.295 Z0 S800 F1200
G1 X40.026 Y7.642 Z0 F1200
G1 X40 Y8 Z0 F1200
G1 X40.026 Y8.358 Z0 F1200
G1 X40.102 Y8.705 Z0 F1200
G1 X40.225 Y9.041 Z0 F1200
G1 X40.393 Y9.362 Z0 F1200
G1 X40.603 Y9.668 Z0 F1200
G1 X40.854 Y9.957 Z0 F1200
G1 X41.142 Y10.226 Z0 F1200
G1 X41.464 Y10.475 Z0 F1200
G1 X41.82 Y10.701 Z0 F1200
G1 X42.204 Y10.902 Z0 F1200
G1 X42.617 Y11.078 Z0 F1200
G1 X43.054 Y11.225 Z0 F1200
G1 X43.513 Y11.343 Z0 F1200
G1 X43.992 Y11.429 Z0 F1200
G1 X44.489 Y11.482 Z0 F1200
G1 X45 Y11.5 Z0 F1200
G1 X45.511 Y11.482 Z0 F1200
G1 X46.008 Y11.429 Z0 F1200
G1 X46.487 Y11.343 Z0 F1200
G1 X46.946 Y11.225 Z0 F1200
G1 X47.383 Y11.078 Z0 F1200
G1 X47.796 Y10.902 Z0 F1200
G1 X48.18 Y10.701 Z0 F1200
G1 X48.536 Y10.475 Z0 F1200
G1 X48.858 Y10.226 Z0 F1200
G1 X49.146 Y9.957 Z0 F1200
G1 X49.397 Y9.668 Z0 F1200
G1 X49.607 Y9.362 Z0 F1200
G1 X49.775 Y9.041 Z0 F1200
G1 X49.898 Y8.705 Z0 F1200
G1 X49.974 Y8.358 Z0 F1200
G1 X50 Y8 Z0 F1200
G1 X49.974 Y7.642 Z0 F1200
G1 X49.898 Y7.295 Z0 F1200
G1 X49.775 Y6.959 Z0 F1200
G1 X49.607 Y6.638 Z0 F1200
G1 X49.397 Y6.332 Z0 F1200
G1 X49.146 Y6.043 Z0 F1200
G1 X48.858 Y5.774 Z0 F1200
G1 X48.536 Y5.525 Z0 F1200
G1 X48.18 Y5.299 Z0 F1200
G1 X47.796 Y5.098 Z0 F1200
G1 X47.383 Y4.922 Z0 F1200
G1 X46.946 Y4.775 Z0 F1200
G1 X46.487 Y4.657 Z0 F1200
G1 X46.008 Y4.571 Z0 F1200
G1 X45.511 Y4.518 Z0 F1200
G1 X45 Y4.5 Z0 F1200
G1 X44.489 Y4.518 Z0 F1200
G1 X43.992 Y4.571 Z0 F1200
G1 X43.513 Y4.657 Z0 F1200
G1 X43.054 Y4.775 Z0 F1200
G1 X42.617 Y4.922 Z0 F1200
G1 X42.204 Y5.098 Z0 F1200
G1 X41.82 Y5.299 Z0 F1200
G1 X41.464 Y5.525 Z0 F1200
G1 X41.142 Y5.774 Z0 F1200
G1 X40.854 Y6.043 Z0 F1200
G1 X40.603 Y6.332 Z0 F1200
G1 X40.393 Y6.638 Z0 F1200
G1 X40.225 Y6.959 Z0 F1200
G1 Z7 F800;         ; Raise from color
G1 X34 Y8 Z1 F1200;     ; Movement in paint
G1 X24 Y18 Z8 F500;     ; Move in paint
G1 F1200;           ; Set feed rate
G0 Z2.5 F1000 ; Safety Lift
G0 X106.356 Y39.189 F1200 ; Return to pos
G1 X110.313 F1555
G1 Z0 F800 ; Drop S>0
G1 X120.204 F1555
G1 Z2.5 F800 ; Lift S=0
G1 X120.852 F1555
G1 X121.712 Y40.089 Z2.5 F1555
; --- FIX X Backlash ---
G0 X120.912 Y40.089 F1200
G1 X120.264 Z2.5 F1555
G1 Z0 F800 ; Drop S>0
G1 X108.913 F1555
G1 Z2.5 F800 ; Lift S=0
G1 X105.698 F1555
G1 Z0 F800 ; Drop S>0
G1 X100.867 F1555
G1 Z2.5 F800 ; Lift S=0
G1 X96.638 F1555
G1 Z0 F800 ; Drop S>0
G1 X92.906 F1555
G1 Z2.5 F800 ; Lift S=0
G1 X72.485 F1555
G1 Z0 F800 ; Drop S>0
G1 X68.113 F1555
G1 Z2.5 F800 ; Lift S=0
G1 X66.011 F1555
G1 Z0 F800 ; Drop S>0
G1 X61.614 F1555
G1 Z2.5 F800 ; Lift S=0
G1 X59.745 F1555
G1 Z0 F800 ; Drop S>0
G1 X56.233 F1555
G1 Z2.5 F800 ; Lift S=0
G1 X54.364 F1555
G1 Z0 F800 ; Drop S>0
G1 X49.642 F1555
G1 Z2.5 F800 ; Lift S=0
G1 X48.161 F1555
G1 Z0 F800 ; Drop S>0
G1 X43.707 F1555
G1 Z2.5 F800 ; Lift S=0
G1 X41.438 F1555
G1 Z0 F800 ; Drop S>0
G1 X38.175 F1555
G1 Z2.5 F800 ; Lift S=0
G1 X29.727 F1555
G1 Z0 F800 ; Drop S>0
G1 X26.526 F1555
G1 Z2.5 F800 ; Lift S=0
G1 X25.878 F1555
; --- FIX X Backlash ---
G0 X26.678 Y40.089 F1200
G1 X26.82 Y40.989 Z2.5 F1555
G1 X27.468 Z2.5 F1555
G1 Z0 F800 ; Drop S>0
G1 X30.664 F1555
G1 Z2.5 F800 ; Lift S=0
G1 X39.116 F1555
G1 Z0 F800 ; Drop S>0
G1 X42.378 F1555
G1 Z2.5 F800 ; Lift S=0
G1 X44.488 F1555
G1 Z0 F800 ; Drop S>0
G1 X48.068 F1555
G1 Z2.5 F800 ; Lift S=0
G1 X51.583 F1555
G1 Z0 F800 ; Drop S>0
G1 X55.24 F1555
G1 Z2.5 F800 ; Lift S=0
G1 X57.181 F1555
G1 Z0 F800 ; Drop S>0
G1 X60.67 F1555
G1 Z2.5 F800 ; Lift S=0
G1 X62.314 F1555
G1 Z0 F800 ; Drop S>0
G1 X66.002 F1555
G1 Z2.5 F800 ; Lift S=0
G1 X69.645 F1555
G1 Z0 F800 ; Drop S>0
G1 X73.407 F1555
G1 Z2.5 F800 ; Lift S=0
G1 X93.909 F1555
G1 Z0 F800 ; Drop S>0
G1 X97.55 F1555
G1 Z2.5 F800 ; Lift S=0
G1 X101.209 F1555
G1 Z0 F800 ; Drop S>0
G1 X106.64 F1555
G1 Z2.5 F800 ; Lift S=0
G1 X109.326 F1555
G1 Z0 F800 ; Drop S>0
G1 X113.359 F1555
G1 Z2.5 F800 ; Lift S=0
G1 X117.487 F1555
G1 Z0 F800 ; Drop S>0
G1 X121.691 F1555
G1 Z2.5 F800 ; Lift S=0
G1 X122.339 F1555
G1 X122.688 Y41.889 Z2.5 F1555
; --- FIX X Backlash ---
G0 X121.888 Y41.889 F1200
G1 X121.24 Z2.5 F1555
G1 Z0 F800 ; Drop S>0
G1 X117.797 F1555
G1 Z2.5 F800 ; Lift S=0

; Color picking sequence
G1 Z10 F1000;         ; Raise brush
G0 X41 Y5 F1200;    ; Rapid move to color 1
G1 Z10 F1000;         ; Raise brush
G0 X41 Y5 F1200;    ; Rapid move to color 1
G1 Z0 F1000;         ; Lower into color
G1 X40.102 Y7.295 Z0 S800 F1200
G1 X40.026 Y7.642 Z0 F1200
G1 X40 Y8 Z0 F1200
G1 X40.026 Y8.358 Z0 F1200
G1 X40.102 Y8.705 Z0 F1200
G1 X40.225 Y9.041 Z0 F1200
G1 X40.393 Y9.362 Z0 F1200
G1 X40.603 Y9.668 Z0 F1200
G1 X40.854 Y9.957 Z0 F1200
G1 X41.142 Y10.226 Z0 F1200
G1 X41.464 Y10.475 Z0 F1200
G1 X41.82 Y10.701 Z0 F1200
G1 X42.204 Y10.902 Z0 F1200
G1 X42.617 Y11.078 Z0 F1200
G1 X43.054 Y11.225 Z0 F1200
G1 X43.513 Y11.343 Z0 F1200
G1 X43.992 Y11.429 Z0 F1200
G1 X44.489 Y11.482 Z0 F1200
G1 X45 Y11.5 Z0 F1200
G1 X45.511 Y11.482 Z0 F1200
G1 X46.008 Y11.429 Z0 F1200
G1 X46.487 Y11.343 Z0 F1200
G1 X46.946 Y11.225 Z0 F1200
G1 X47.383 Y11.078 Z0 F1200
G1 X47.796 Y10.902 Z0 F1200
G1 X48.18 Y10.701 Z0 F1200
G1 X48.536 Y10.475 Z0 F1200
G1 X48.858 Y10.226 Z0 F1200
G1 X49.146 Y9.957 Z0 F1200
G1 X49.397 Y9.668 Z0 F1200
G1 X49.607 Y9.362 Z0 F1200
G1 X49.775 Y9.041 Z0 F1200
G1 X49.898 Y8.705 Z0 F1200
G1 X49.974 Y8.358 Z0 F1200
G1 X50 Y8 Z0 F1200
G1 X49.974 Y7.642 Z0 F1200
G1 X49.898 Y7.295 Z0 F1200
G1 X49.775 Y6.959 Z0 F1200
G1 X49.607 Y6.638 Z0 F1200
G1 X49.397 Y6.332 Z0 F1200
G1 X49.146 Y6.043 Z0 F1200
G1 X48.858 Y5.774 Z0 F1200
G1 X48.536 Y5.525 Z0 F1200
G1 X48.18 Y5.299 Z0 F1200
G1 X47.796 Y5.098 Z0 F1200
G1 X47.383 Y4.922 Z0 F1200
G1 X46.946 Y4.775 Z0 F1200
G1 X46.487 Y4.657 Z0 F1200
G1 X46.008 Y4.571 Z0 F1200
G1 X45.511 Y4.518 Z0 F1200
G1 X45 Y4.5 Z0 F1200
G1 X44.489 Y4.518 Z0 F1200
G1 X43.992 Y4.571 Z0 F1200
G1 X43.513 Y4.657 Z0 F1200
G1 X43.054 Y4.775 Z0 F1200
G1 X42.617 Y4.922 Z0 F1200
G1 X42.204 Y5.098 Z0 F1200
G1 X41.82 Y5.299 Z0 F1200
G1 X41.464 Y5.525 Z0 F1200
G1 X41.142 Y5.774 Z0 F1200
G1 X40.854 Y6.043 Z0 F1200
G1 X40.603 Y6.332 Z0 F1200
G1 X40.393 Y6.638 Z0 F1200
G1 X40.225 Y6.959 Z0 F1200
G1 Z7 F800;         ; Raise from color
G1 X34 Y8 Z1 F1200;     ; Movement in paint
G1 X24 Y18 Z8 F500;     ; Move in paint
G1 F1200;           ; Set feed rate
G0 Z2.5 F1000 ; Safety Lift
G0 X117.797 Y41.889 F1200 ; Return to pos
G1 X111.96 F1555
G1 Z0 F800 ; Drop S>0
G1 X108.303 F1555
G1 Z2.5 F800 ; Lift S=0
G1 X105.965 F1555
G1 Z0 F800 ; Drop S>0
G1 X99.971 F1555
G1 Z2.5 F800 ; Lift S=0
G1 X96.822 F1555
G1 Z0 F800 ; Drop S>0
G1 X93.333 F1555
G1 Z2.5 F800 ; Lift S=0
G1 X72.734 F1555
G1 Z0 F800 ; Drop S>0
G1 X69.302 F1555
G1 Z2.5 F800 ; Lift S=0
G1 X65.064 F1555
G1 Z0 F800 ; Drop S>0
G1 X61.544 F1555
G1 Z2.5 F800 ; Lift S=0
G1 X59.992 F1555
G1 Z0 F800 ; Drop S>0
G1 X56.528 F1555
G1 Z2.5 F800 ; Lift S=0
G1 X54.506 F1555
G1 Z0 F800 ; Drop S>0
G1 X51.049 F1555
G1 Z2.5 F800 ; Lift S=0
G1 X47.28 F1555
G1 Z0 F800 ; Drop S>0
G1 X43.755 F1555
G1 Z2.5 F800 ; Lift S=0
G1 X41.724 F1555
G1 Z0 F800 ; Drop S>0
G1 X38.461 F1555
G1 Z2.5 F800 ; Lift S=0
G1 X30.089 F1555
G1 Z0 F800 ; Drop S>0
G1 X26.81 F1555
G1 Z2.5 F800 ; Lift S=0
G1 X26.162 F1555
; --- FIX X Backlash ---
G0 X26.962 Y41.889 F1200
G1 X27.104 Y42.789 Z2.5 F1555
G1 X27.752 Z2.5 F1555
G1 Z0 F800 ; Drop S>0
G1 X31.314 F1555
G1 Z2.5 F800 ; Lift S=0
G1 X39.41 F1555
G1 Z0 F800 ; Drop S>0
G1 X42.669 F1555
G1 Z2.5 F800 ; Lift S=0
G1 X44.669 F1555
G1 Z0 F800 ; Drop S>0
G1 X48.13 F1555
G1 Z2.5 F800 ; Lift S=0
G1 X52.096 F1555
G1 Z0 F800 ; Drop S>0
G1 X55.375 F1555
G1 Z2.5 F800 ; Lift S=0
G1 X57.475 F1555
G1 Z0 F800 ; Drop S>0
G1 X60.776 F1555
G1 Z2.5 F800 ; Lift S=0
G1 X62.448 F1555
G1 Z0 F800 ; Drop S>0
G1 X66.084 F1555
G1 Z2.5 F800 ; Lift S=0
G1 X70.345 F1555
G1 Z0 F800 ; Drop S>0
G1 X73.695 F1555
G1 Z2.5 F800 ; Lift S=0
G1 X94.315 F1555
G1 Z0 F800 ; Drop S>0
G1 X97.691 F1555
G1 Z2.5 F800 ; Lift S=0
G1 X100.187 F1555
G1 Z0 F800 ; Drop S>0
G1 X106.889 F1555
G1 Z2.5 F800 ; Lift S=0
G1 X109.013 F1555
G1 Z0 F800 ; Drop S>0
G1 X112.468 F1555
G1 Z2.5 F800 ; Lift S=0
G1 X120.152 F1555
G1 Z0 F800 ; Drop S>0
G1 X121.302 F1555
G1 Z2.5 F800 ; Lift S=0
G1 X121.95 F1555
; --- FIX X Backlash ---
G0 X121.15 Y42.789 F1200
G1 X112.255 Y43.689 Z2.5 F1555
G1 X111.608 Z2.5 F1555
G1 Z0 F800 ; Drop S>0
G1 X108.198 F1555
G1 Z2.5 F800 ; Lift S=0
G1 X106.232 F1555
G1 Z0 F800 ; Drop S>0
G1 X98.969 F1555
G1 Z2.5 F800 ; Lift S=0
G1 X96.976 F1555
G1 Z0 F800 ; Drop S>0
G1 X93.589 F1555
G1 Z2.5 F800 ; Lift S=0
G1 X73.056 F1555
G1 Z0 F800 ; Drop S>0
G1 X69.623 F1555
G1 Z2.5 F800 ; Lift S=0
G1 X65.421 F1555
G1 Z0 F800 ; Drop S>0
G1 X61.838 F1555
G1 Z2.5 F800 ; Lift S=0
G1 X60.127 F1555
G1 Z0 F800 ; Drop S>0
G1 X56.827 F1555
G1 Z2.5 F800 ; Lift S=0
G1 X54.699 F1555
G1 Z0 F800 ; Drop S>0
G1 X51.423 F1555
G1 Z2.5 F800 ; Lift S=0

; Color picking sequence
G1 Z10 F1000;         ; Raise brush
G0 X41 Y5 F1200;    ; Rapid move to color 1
G1 Z10 F1000;         ; Raise brush
G0 X41 Y5 F1200;    ; Rapid move to color 1
G1 Z0 F1000;         ; Lower into color
G1 X40.102 Y7.295 Z0 S800 F1200
G1 X40.026 Y7.642 Z0 F1200
G1 X40 Y8 Z0 F1200
G1 X40.026 Y8.358 Z0 F1200
G1 X40.102 Y8.705 Z0 F1200
G1 X40.225 Y9.041 Z0 F1200
G1 X40.393 Y9.362 Z0 F1200
G1 X40.603 Y9.668 Z0 F1200
G1 X40.854 Y9.957 Z0 F1200
G1 X41.142 Y10.226 Z0 F1200
G1 X41.464 Y10.475 Z0 F1200
G1 X41.82 Y10.701 Z0 F1200
G1 X42.204 Y10.902 Z0 F1200
G1 X42.617 Y11.078 Z0 F1200
G1 X43.054 Y11.225 Z0 F1200
G1 X43.513 Y11.343 Z0 F1200
G1 X43.992 Y11.429 Z0 F1200
G1 X44.489 Y11.482 Z0 F1200
G1 X45 Y11.5 Z0 F1200
G1 X45.511 Y11.482 Z0 F1200
G1 X46.008 Y11.429 Z0 F1200
G1 X46.487 Y11.343 Z0 F1200
G1 X46.946 Y11.225 Z0 F1200
G1 X47.383 Y11.078 Z0 F1200
G1 X47.796 Y10.902 Z0 F1200
G1 X48.18 Y10.701 Z0 F1200
G1 X48.536 Y10.475 Z0 F1200
G1 X48.858 Y10.226 Z0 F1200
G1 X49.146 Y9.957 Z0 F1200
G1 X49.397 Y9.668 Z0 F1200
G1 X49.607 Y9.362 Z0 F1200
G1 X49.775 Y9.041 Z0 F1200
G1 X49.898 Y8.705 Z0 F1200
G1 X49.974 Y8.358 Z0 F1200
G1 X50 Y8 Z0 F1200
G1 X49.974 Y7.642 Z0 F1200
G1 X49.898 Y7.295 Z0 F1200
G1 X49.775 Y6.959 Z0 F1200
G1 X49.607 Y6.638 Z0 F1200
G1 X49.397 Y6.332 Z0 F1200
G1 X49.146 Y6.043 Z0 F1200
G1 X48.858 Y5.774 Z0 F1200
G1 X48.536 Y5.525 Z0 F1200
G1 X48.18 Y5.299 Z0 F1200
G1 X47.796 Y5.098 Z0 F1200
G1 X47.383 Y4.922 Z0 F1200
G1 X46.946 Y4.775 Z0 F1200
G1 X46.487 Y4.657 Z0 F1200
G1 X46.008 Y4.571 Z0 F1200
G1 X45.511 Y4.518 Z0 F1200
G1 X45 Y4.5 Z0 F1200
G1 X44.489 Y4.518 Z0 F1200
G1 X43.992 Y4.571 Z0 F1200
G1 X43.513 Y4.657 Z0 F1200
G1 X43.054 Y4.775 Z0 F1200
G1 X42.617 Y4.922 Z0 F1200
G1 X42.204 Y5.098 Z0 F1200
G1 X41.82 Y5.299 Z0 F1200
G1 X41.464 Y5.525 Z0 F1200
G1 X41.142 Y5.774 Z0 F1200
G1 X40.854 Y6.043 Z0 F1200
G1 X40.603 Y6.332 Z0 F1200
G1 X40.393 Y6.638 Z0 F1200
G1 X40.225 Y6.959 Z0 F1200
G1 Z7 F800;         ; Raise from color
G1 X34 Y8 Z1 F1200;     ; Movement in paint
G1 X24 Y18 Z8 F500;     ; Move in paint
G1 F1200;           ; Set feed rate
G0 Z2.5 F1000 ; Safety Lift
G0 X51.423 Y43.689 F1200 ; Return to pos
G1 X47.467 F1555
G1 Z0 F800 ; Drop S>0
G1 X44.025 F1555
G1 Z2.5 F800 ; Lift S=0
G1 X42.017 F1555
G1 Z0 F800 ; Drop S>0
G1 X38.759 F1555
G1 Z2.5 F800 ; Lift S=0
G1 X36.256 F1555
G1 Z0 F800 ; Drop S>0
G1 X32.677 F1555
G1 Z2.5 F800 ; Lift S=0
G1 X31.939 F1555
G1 Z0 F800 ; Drop S>0
G1 X27.094 F1555
G1 Z2.5 F800 ; Lift S=0
G1 X26.446 F1555
; --- FIX X Backlash ---
G0 X27.246 Y43.689 F1200
G1 X27.388 Y44.589 Z2.5 F1555
G1 X28.036 Z2.5 F1555
G1 Z0 F800 ; Drop S>0
G1 X37.51 F1555
G1 Z2.5 F800 ; Lift S=0
G1 X39.708 F1555
G1 Z0 F800 ; Drop S>0
G1 X42.968 F1555
G1 Z2.5 F800 ; Lift S=0
G1 X45.016 F1555
G1 Z0 F800 ; Drop S>0
G1 X48.48 F1555
G1 Z2.5 F800 ; Lift S=0
G1 X52.308 F1555
G1 Z0 F800 ; Drop S>0
G1 X55.758 F1555
G1 Z2.5 F800 ; Lift S=0
G1 X57.779 F1555
G1 Z0 F800 ; Drop S>0
G1 X61.174 F1555
G1 Z2.5 F800 ; Lift S=0
G1 X62.927 F1555
G1 Z0 F800 ; Drop S>0
G1 X66.604 F1555
G1 Z2.5 F800 ; Lift S=0
G1 X70.297 F1555
G1 Z0 F800 ; Drop S>0
G1 X74.018 F1555
G1 Z2.5 F800 ; Lift S=0
G1 X94.474 F1555
G1 Z0 F800 ; Drop S>0
G1 X97.932 F1555
G1 Z2.5 F800 ; Lift S=0
G1 X99.375 F1555
G1 Z0 F800 ; Drop S>0
G1 X102.767 F1555
G1 Z2.5 F800 ; Lift S=0
G1 X103.717 F1555
G1 Z0 F800 ; Drop S>0
G1 X107.192 F1555
G1 Z2.5 F800 ; Lift S=0
G1 X109.064 F1555
G1 Z0 F800 ; Drop S>0
G1 X112.589 F1555
G1 Z2.5 F800 ; Lift S=0
G1 X113.237 F1555
G1 X113.431 Y45.489 Z2.5 F1555
; --- FIX X Backlash ---
G0 X112.631 Y45.489 F1200
G1 X111.983 Z2.5 F1555
G1 Z0 F800 ; Drop S>0
G1 X108.411 F1555
G1 Z2.5 F800 ; Lift S=0
G1 X106.553 F1555
G1 Z0 F800 ; Drop S>0
G1 X103.136 F1555
G1 Z2.5 F800 ; Lift S=0
G1 X101.61 F1555
G1 Z0 F800 ; Drop S>0
G1 X98.1 F1555
G1 Z2.5 F800 ; Lift S=0
G1 X97.418 F1555
G1 Z0 F800 ; Drop S>0
G1 X93.851 F1555
G1 Z2.5 F800 ; Lift S=0
G1 X73.38 F1555
G1 Z0 F800 ; Drop S>0
G1 X68.953 F1555
G1 Z2.5 F800 ; Lift S=0
G1 X66.559 F1555
G1 Z0 F800 ; Drop S>0
G1 X62.533 F1555
G1 Z2.5 F800 ; Lift S=0
G1 X60.634 F1555
G1 Z0 F800 ; Drop S>0
G1 X57.13 F1555
G1 Z2.5 F800 ; Lift S=0
G1 X55.245 F1555
G1 Z0 F800 ; Drop S>0
G1 X51.584 F1555
G1 Z2.5 F800 ; Lift S=0
G1 X47.906 F1555
G1 Z0 F800 ; Drop S>0
G1 X44.415 F1555
G1 Z2.5 F800 ; Lift S=0
G1 X42.319 F1555
G1 Z0 F800 ; Drop S>0
G1 X39.055 F1555
G1 Z2.5 F800 ; Lift S=0
G1 X36.615 F1555
G1 Z0 F800 ; Drop S>0
G1 X27.382 F1555
G1 Z2.5 F800 ; Lift S=0

; Color picking sequence
G1 Z10 F1000;         ; Raise brush
G0 X41 Y5 F1200;    ; Rapid move to color 1
G1 Z10 F1000;         ; Raise brush
G0 X41 Y5 F1200;    ; Rapid move to color 1
G1 Z0 F1000;         ; Lower into color
G1 X40.102 Y7.295 Z0 S800 F1200
G1 X40.026 Y7.642 Z0 F1200
G1 X40 Y8 Z0 F1200
G1 X40.026 Y8.358 Z0 F1200
G1 X40.102 Y8.705 Z0 F1200
G1 X40.225 Y9.041 Z0 F1200
G1 X40.393 Y9.362 Z0 F1200
G1 X40.603 Y9.668 Z0 F1200
G1 X40.854 Y9.957 Z0 F1200
G1 X41.142 Y10.226 Z0 F1200
G1 X41.464 Y10.475 Z0 F1200
G1 X41.82 Y10.701 Z0 F1200
G1 X42.204 Y10.902 Z0 F1200
G1 X42.617 Y11.078 Z0 F1200
G1 X43.054 Y11.225 Z0 F1200
G1 X43.513 Y11.343 Z0 F1200
G1 X43.992 Y11.429 Z0 F1200
G1 X44.489 Y11.482 Z0 F1200
G1 X45 Y11.5 Z0 F1200
G1 X45.511 Y11.482 Z0 F1200
G1 X46.008 Y11.429 Z0 F1200
G1 X46.487 Y11.343 Z0 F1200
G1 X46.946 Y11.225 Z0 F1200
G1 X47.383 Y11.078 Z0 F1200
G1 X47.796 Y10.902 Z0 F1200
G1 X48.18 Y10.701 Z0 F1200
G1 X48.536 Y10.475 Z0 F1200
G1 X48.858 Y10.226 Z0 F1200
G1 X49.146 Y9.957 Z0 F1200
G1 X49.397 Y9.668 Z0 F1200
G1 X49.607 Y9.362 Z0 F1200
G1 X49.775 Y9.041 Z0 F1200
G1 X49.898 Y8.705 Z0 F1200
G1 X49.974 Y8.358 Z0 F1200
G1 X50 Y8 Z0 F1200
G1 X49.974 Y7.642 Z0 F1200
G1 X49.898 Y7.295 Z0 F1200
G1 X49.775 Y6.959 Z0 F1200
G1 X49.607 Y6.638 Z0 F1200
G1 X49.397 Y6.332 Z0 F1200
G1 X49.146 Y6.043 Z0 F1200
G1 X48.858 Y5.774 Z0 F1200
G1 X48.536 Y5.525 Z0 F1200
G1 X48.18 Y5.299 Z0 F1200
G1 X47.796 Y5.098 Z0 F1200
G1 X47.383 Y4.922 Z0 F1200
G1 X46.946 Y4.775 Z0 F1200
G1 X46.487 Y4.657 Z0 F1200
G1 X46.008 Y4.571 Z0 F1200
G1 X45.511 Y4.518 Z0 F1200
G1 X45 Y4.5 Z0 F1200
G1 X44.489 Y4.518 Z0 F1200
G1 X43.992 Y4.571 Z0 F1200
G1 X43.513 Y4.657 Z0 F1200
G1 X43.054 Y4.775 Z0 F1200
G1 X42.617 Y4.922 Z0 F1200
G1 X42.204 Y5.098 Z0 F1200
G1 X41.82 Y5.299 Z0 F1200
G1 X41.464 Y5.525 Z0 F1200
G1 X41.142 Y5.774 Z0 F1200
G1 X40.854 Y6.043 Z0 F1200
G1 X40.603 Y6.332 Z0 F1200
G1 X40.393 Y6.638 Z0 F1200
G1 X40.225 Y6.959 Z0 F1200
G1 Z7 F800;         ; Raise from color
G1 X34 Y8 Z1 F1200;     ; Movement in paint
G1 X24 Y18 Z8 F500;     ; Move in paint
G1 F1200;           ; Set feed rate
G0 Z2.5 F1000 ; Safety Lift
G0 X27.382 Y45.489 F1200 ; Return to pos
G1 X26.734 F1555
; --- FIX X Backlash ---
G0 X27.534 Y45.489 F1200
G1 X27.683 Y46.389 Z2.5 F1555
G1 X28.331 Z2.5 F1555
G1 Z0 F800 ; Drop S>0
G1 X31.947 F1555
G1 Z2.5 F800 ; Lift S=0
G1 X40.001 F1555
G1 Z0 F800 ; Drop S>0
G1 X43.269 F1555
G1 Z2.5 F800 ; Lift S=0
G1 X45.408 F1555
G1 Z0 F800 ; Drop S>0
G1 X48.893 F1555
G1 Z2.5 F800 ; Lift S=0
G1 X52.501 F1555
G1 Z0 F800 ; Drop S>0
G1 X56.243 F1555
G1 Z2.5 F800 ; Lift S=0
G1 X58.082 F1555
G1 Z0 F800 ; Drop S>0
G1 X61.666 F1555
G1 Z2.5 F800 ; Lift S=0
G1 X63.902 F1555
G1 Z0 F800 ; Drop S>0
G1 X74.333 F1555
G1 Z2.5 F800 ; Lift S=0
G1 X94.819 F1555
G1 Z0 F800 ; Drop S>0
G1 X101.943 F1555
G1 Z2.5 F800 ; Lift S=0
G1 X104.076 F1555
G1 Z0 F800 ; Drop S>0
G1 X107.514 F1555
G1 Z2.5 F800 ; Lift S=0
G1 X109.439 F1555
G1 Z0 F800 ; Drop S>0
G1 X113.059 F1555
G1 Z2.5 F800 ; Lift S=0
G1 X113.707 F1555
G1 X123.393 Y47.289 Z2.5 F1555
; --- FIX X Backlash ---
G0 X122.593 Y47.289 F1200
G1 X121.945 Z2.5 F1555
G1 Z0 F800 ; Drop S>0
G1 X119.229 F1555
G1 Z2.5 F800 ; Lift S=0
G1 X112.713 F1555
G1 Z0 F800 ; Drop S>0
G1 X108.959 F1555
G1 Z2.5 F800 ; Lift S=0
G1 X106.875 F1555
G1 Z0 F800 ; Drop S>0
G1 X103.389 F1555
G1 Z2.5 F800 ; Lift S=0
G1 X100.639 F1555
G1 Z0 F800 ; Drop S>0
G1 X94.173 F1555
G1 Z2.5 F800 ; Lift S=0
G1 X73.664 F1555
G1 Z0 F800 ; Drop S>0
G1 X70.192 F1555
G1 Z2.5 F800 ; Lift S=0
G1 X69.564 F1555
G1 Z0 F800 ; Drop S>0
G1 X63.934 F1555
G1 Z2.5 F800 ; Lift S=0
G1 X60.963 F1555
G1 Z0 F800 ; Drop S>0
G1 X57.434 F1555
G1 Z2.5 F800 ; Lift S=0
G1 X55.482 F1555
G1 Z0 F800 ; Drop S>0
G1 X51.932 F1555
G1 Z2.5 F800 ; Lift S=0
G1 X48.183 F1555
G1 Z0 F800 ; Drop S>0
G1 X44.783 F1555
G1 Z2.5 F800 ; Lift S=0
G1 X42.614 F1555
G1 Z0 F800 ; Drop S>0
G1 X39.347 F1555
G1 Z2.5 F800 ; Lift S=0
G1 X31.001 F1555
G1 Z0 F800 ; Drop S>0
G1 X27.68 F1555
G1 Z2.5 F800 ; Lift S=0
G1 X27.032 F1555
; --- FIX X Backlash ---
G0 X27.832 Y47.289 F1200
G1 X27.981 Y48.189 Z2.5 F1555
G1 X28.629 Z2.5 F1555
G1 Z0 F800 ; Drop S>0
G1 X31.878 F1555
G1 Z2.5 F800 ; Lift S=0
G1 X40.293 F1555
G1 Z0 F800 ; Drop S>0
G1 X43.56 F1555
G1 Z2.5 F800 ; Lift S=0
G1 X45.717 F1555
G1 Z0 F800 ; Drop S>0
G1 X48.743 F1555
G1 Z2.5 F800 ; Lift S=0
G1 X53.272 F1555
G1 Z0 F800 ; Drop S>0
G1 X55.962 F1555
G1 Z2.5 F800 ; Lift S=0
G1 X58.386 F1555
G1 Z0 F800 ; Drop S>0
G1 X61.368 F1555
G1 Z2.5 F800 ; Lift S=0

; Color picking sequence
G1 Z10 F1000;         ; Raise brush
G0 X41 Y5 F1200;    ; Rapid move to color 1
G1 Z10 F1000;         ; Raise brush
G0 X41 Y5 F1200;    ; Rapid move to color 1
G1 Z0 F1000;         ; Lower into color
G1 X40.102 Y7.295 Z0 S800 F1200
G1 X40.026 Y7.642 Z0 F1200
G1 X40 Y8 Z0 F1200
G1 X40.026 Y8.358 Z0 F1200
G1 X40.102 Y8.705 Z0 F1200
G1 X40.225 Y9.041 Z0 F1200
G1 X40.393 Y9.362 Z0 F1200
G1 X40.603 Y9.668 Z0 F1200
G1 X40.854 Y9.957 Z0 F1200
G1 X41.142 Y10.226 Z0 F1200
G1 X41.464 Y10.475 Z0 F1200
G1 X41.82 Y10.701 Z0 F1200
G1 X42.204 Y10.902 Z0 F1200
G1 X42.617 Y11.078 Z0 F1200
G1 X43.054 Y11.225 Z0 F1200
G1 X43.513 Y11.343 Z0 F1200
G1 X43.992 Y11.429 Z0 F1200
G1 X44.489 Y11.482 Z0 F1200
G1 X45 Y11.5 Z0 F1200
G1 X45.511 Y11.482 Z0 F1200
G1 X46.008 Y11.429 Z0 F1200
G1 X46.487 Y11.343 Z0 F1200
G1 X46.946 Y11.225 Z0 F1200
G1 X47.383 Y11.078 Z0 F1200
G1 X47.796 Y10.902 Z0 F1200
G1 X48.18 Y10.701 Z0 F1200
G1 X48.536 Y10.475 Z0 F1200
G1 X48.858 Y10.226 Z0 F1200
G1 X49.146 Y9.957 Z0 F1200
G1 X49.397 Y9.668 Z0 F1200
G1 X49.607 Y9.362 Z0 F1200
G1 X49.775 Y9.041 Z0 F1200
G1 X49.898 Y8.705 Z0 F1200
G1 X49.974 Y8.358 Z0 F1200
G1 X50 Y8 Z0 F1200
G1 X49.974 Y7.642 Z0 F1200
G1 X49.898 Y7.295 Z0 F1200
G1 X49.775 Y6.959 Z0 F1200
G1 X49.607 Y6.638 Z0 F1200
G1 X49.397 Y6.332 Z0 F1200
G1 X49.146 Y6.043 Z0 F1200
G1 X48.858 Y5.774 Z0 F1200
G1 X48.536 Y5.525 Z0 F1200
G1 X48.18 Y5.299 Z0 F1200
G1 X47.796 Y5.098 Z0 F1200
G1 X47.383 Y4.922 Z0 F1200
G1 X46.946 Y4.775 Z0 F1200
G1 X46.487 Y4.657 Z0 F1200
G1 X46.008 Y4.571 Z0 F1200
G1 X45.511 Y4.518 Z0 F1200
G1 X45 Y4.5 Z0 F1200
G1 X44.489 Y4.518 Z0 F1200
G1 X43.992 Y4.571 Z0 F1200
G1 X43.513 Y4.657 Z0 F1200
G1 X43.054 Y4.775 Z0 F1200
G1 X42.617 Y4.922 Z0 F1200
G1 X42.204 Y5.098 Z0 F1200
G1 X41.82 Y5.299 Z0 F1200
G1 X41.464 Y5.525 Z0 F1200
G1 X41.142 Y5.774 Z0 F1200
G1 X40.854 Y6.043 Z0 F1200
G1 X40.603 Y6.332 Z0 F1200
G1 X40.393 Y6.638 Z0 F1200
G1 X40.225 Y6.959 Z0 F1200
G1 Z7 F800;         ; Raise from color
G1 X34 Y8 Z1 F1200;     ; Movement in paint
G1 X24 Y18 Z8 F500;     ; Move in paint
G1 F1200;           ; Set feed rate
G0 Z2.5 F1000 ; Safety Lift
G0 X61.368 Y48.189 F1200 ; Return to pos
G1 X66.087 F1555
G1 Z0 F800 ; Drop S>0
G1 X69.425 F1555
G1 Z2.5 F800 ; Lift S=0
G1 X71.2 F1555
G1 Z0 F800 ; Drop S>0
G1 X74.573 F1555
G1 Z2.5 F800 ; Lift S=0
G1 X95.125 F1555
G1 Z0 F800 ; Drop S>0
G1 X100.985 F1555
G1 Z2.5 F800 ; Lift S=0
G1 X104.288 F1555
G1 Z0 F800 ; Drop S>0
G1 X107.834 F1555
G1 Z2.5 F800 ; Lift S=0
G1 X110.191 F1555
G1 Z0 F800 ; Drop S>0
G1 X114.199 F1555
G1 Z2.5 F800 ; Lift S=0
G1 X119.39 F1555
G1 Z0 F800 ; Drop S>0
G1 X123.075 F1555
G1 Z2.5 F800 ; Lift S=0
G1 X123.723 F1555
; --- FIX X Backlash ---
G0 X122.923 Y48.189 F1200
G1 X122.785 Y49.089 Z2.5 F1555
G1 X122.137 Z2.5 F1555
G1 Z0 F800 ; Drop S>0
G1 X117.85 F1555
G1 Z2.5 F800 ; Lift S=0
G1 X114.545 F1555
G1 Z0 F800 ; Drop S>0
G1 X109.905 F1555
G1 Z2.5 F800 ; Lift S=0
G1 X107.192 F1555
G1 Z0 F800 ; Drop S>0
G1 X103.599 F1555
G1 Z2.5 F800 ; Lift S=0
G1 X99.733 F1555
G1 Z0 F800 ; Drop S>0
G1 X94.46 F1555
G1 Z2.5 F800 ; Lift S=0
G1 X73.95 F1555
G1 Z0 F800 ; Drop S>0
G1 X70.51 F1555
G1 Z2.5 F800 ; Lift S=0
G1 X42.906 F1555
G1 Z0 F800 ; Drop S>0
G1 X39.627 F1555
G1 Z2.5 F800 ; Lift S=0
G1 X31.627 F1555
G1 Z0 F800 ; Drop S>0
G1 X27.988 F1555
G1 Z2.5 F800 ; Lift S=0
G1 X27.34 F1555
; --- FIX X Backlash ---
G0 X28.14 Y49.089 F1200
G1 X28.304 Y49.989 Z2.5 F1555
G1 X28.952 Z2.5 F1555
G1 Z0 F800 ; Drop S>0
G1 X38.881 F1555
G1 Z2.5 F800 ; Lift S=0
G1 X40.56 F1555
G1 Z0 F800 ; Drop S>0
G1 X44.082 F1555
G1 Z2.5 F800 ; Lift S=0
G1 X59.976 F1555
G1 Z0 F800 ; Drop S>0
G1 X61.172 F1555
G1 Z2.5 F800 ; Lift S=0
G1 X71.403 F1555
G1 Z0 F800 ; Drop S>0
G1 X74.997 F1555
G1 Z2.5 F800 ; Lift S=0
G1 X95.394 F1555
G1 Z0 F800 ; Drop S>0
G1 X100.085 F1555
G1 Z2.5 F800 ; Lift S=0
G1 X104.362 F1555
G1 Z0 F800 ; Drop S>0
G1 X108.151 F1555
G1 Z2.5 F800 ; Lift S=0
G1 X111.376 F1555
G1 Z0 F800 ; Drop S>0
G1 X122.544 F1555
G1 Z2.5 F800 ; Lift S=0
G1 X123.192 F1555
; --- FIX X Backlash ---
G0 X122.392 Y49.989 F1200
G1 X121.748 Y50.889 Z2.5 F1555
G1 X121.1 Z2.5 F1555
G1 Z0 F800 ; Drop S>0
G1 X111.535 F1555
G1 Z2.5 F800 ; Lift S=0
G1 X107.509 F1555
G1 Z0 F800 ; Drop S>0
G1 X103.752 F1555
G1 Z2.5 F800 ; Lift S=0

; Color picking sequence
G1 Z10 F1000;         ; Raise brush
G0 X41 Y5 F1200;    ; Rapid move to color 1
G1 Z10 F1000;         ; Raise brush
G0 X41 Y5 F1200;    ; Rapid move to color 1
G1 Z0 F1000;         ; Lower into color
G1 X40.102 Y7.295 Z0 S800 F1200
G1 X40.026 Y7.642 Z0 F1200
G1 X40 Y8 Z0 F1200
G1 X40.026 Y8.358 Z0 F1200
G1 X40.102 Y8.705 Z0 F1200
G1 X40.225 Y9.041 Z0 F1200
G1 X40.393 Y9.362 Z0 F1200
G1 X40.603 Y9.668 Z0 F1200
G1 X40.854 Y9.957 Z0 F1200
G1 X41.142 Y10.226 Z0 F1200
G1 X41.464 Y10.475 Z0 F1200
G1 X41.82 Y10.701 Z0 F1200
G1 X42.204 Y10.902 Z0 F1200
G1 X42.617 Y11.078 Z0 F1200
G1 X43.054 Y11.225 Z0 F1200
G1 X43.513 Y11.343 Z0 F1200
G1 X43.992 Y11.429 Z0 F1200
G1 X44.489 Y11.482 Z0 F1200
G1 X45 Y11.5 Z0 F1200
G1 X45.511 Y11.482 Z0 F1200
G1 X46.008 Y11.429 Z0 F1200
G1 X46.487 Y11.343 Z0 F1200
G1 X46.946 Y11.225 Z0 F1200
G1 X47.383 Y11.078 Z0 F1200
G1 X47.796 Y10.902 Z0 F1200
G1 X48.18 Y10.701 Z0 F1200
G1 X48.536 Y10.475 Z0 F1200
G1 X48.858 Y10.226 Z0 F1200
G1 X49.146 Y9.957 Z0 F1200
G1 X49.397 Y9.668 Z0 F1200
G1 X49.607 Y9.362 Z0 F1200
G1 X49.775 Y9.041 Z0 F1200
G1 X49.898 Y8.705 Z0 F1200
G1 X49.974 Y8.358 Z0 F1200
G1 X50 Y8 Z0 F1200
G1 X49.974 Y7.642 Z0 F1200
G1 X49.898 Y7.295 Z0 F1200
G1 X49.775 Y6.959 Z0 F1200
G1 X49.607 Y6.638 Z0 F1200
G1 X49.397 Y6.332 Z0 F1200
G1 X49.146 Y6.043 Z0 F1200
G1 X48.858 Y5.774 Z0 F1200
G1 X48.536 Y5.525 Z0 F1200
G1 X48.18 Y5.299 Z0 F1200
G1 X47.796 Y5.098 Z0 F1200
G1 X47.383 Y4.922 Z0 F1200
G1 X46.946 Y4.775 Z0 F1200
G1 X46.487 Y4.657 Z0 F1200
G1 X46.008 Y4.571 Z0 F1200
G1 X45.511 Y4.518 Z0 F1200
G1 X45 Y4.5 Z0 F1200
G1 X44.489 Y4.518 Z0 F1200
G1 X43.992 Y4.571 Z0 F1200
G1 X43.513 Y4.657 Z0 F1200
G1 X43.054 Y4.775 Z0 F1200
G1 X42.617 Y4.922 Z0 F1200
G1 X42.204 Y5.098 Z0 F1200
G1 X41.82 Y5.299 Z0 F1200
G1 X41.464 Y5.525 Z0 F1200
G1 X41.142 Y5.774 Z0 F1200
G1 X40.854 Y6.043 Z0 F1200
G1 X40.603 Y6.332 Z0 F1200
G1 X40.393 Y6.638 Z0 F1200
G1 X40.225 Y6.959 Z0 F1200
G1 Z7 F800;         ; Raise from color
G1 X34 Y8 Z1 F1200;     ; Movement in paint
G1 X24 Y18 Z8 F500;     ; Move in paint
G1 F1200;           ; Set feed rate
G0 Z2.5 F1000 ; Safety Lift
G0 X103.752 Y50.889 F1200 ; Return to pos
G1 X98.823 F1555
G1 Z0 F800 ; Drop S>0
G1 X94.716 F1555
G1 Z2.5 F800 ; Lift S=0
G1 X74.34 F1555
G1 Z0 F800 ; Drop S>0
G1 X70.712 F1555
G1 Z2.5 F800 ; Lift S=0
G1 X61.357 F1555
G1 Z0 F800 ; Drop S>0
G1 X58.386 F1555
G1 Z2.5 F800 ; Lift S=0
G1 X43.415 F1555
G1 Z0 F800 ; Drop S>0
G1 X39.893 F1555
G1 Z2.5 F800 ; Lift S=0
G1 X38.447 F1555
G1 Z0 F800 ; Drop S>0
G1 X28.316 F1555
G1 Z2.5 F800 ; Lift S=0
G1 X27.668 F1555
; --- FIX X Backlash ---
G0 X28.468 Y50.889 F1200
G1 X28.632 Y51.789 Z2.5 F1555
G1 X29.279 Z2.5 F1555
G1 Z0 F800 ; Drop S>0
G1 X39.23 F1555
G1 Z2.5 F800 ; Lift S=0
G1 X41.01 F1555
G1 Z0 F800 ; Drop S>0
G1 X43.897 F1555
G1 Z2.5 F800 ; Lift S=0
G1 X59.03 F1555
G1 Z0 F800 ; Drop S>0
G1 X62.385 F1555
G1 Z2.5 F800 ; Lift S=0
G1 X71.69 F1555
G1 Z0 F800 ; Drop S>0
G1 X75.011 F1555
G1 Z2.5 F800 ; Lift S=0
G1 X95.635 F1555
G1 Z0 F800 ; Drop S>0
G1 X99.135 F1555
G1 Z2.5 F800 ; Lift S=0
G1 X105.113 F1555
G1 Z0 F800 ; Drop S>0
G1 X108.468 F1555
G1 Z2.5 F800 ; Lift S=0
G1 X113.784 F1555
G1 Z0 F800 ; Drop S>0
G1 X120.809 F1555
G1 Z2.5 F800 ; Lift S=0
G1 X121.457 F1555
; --- FIX X Backlash ---
G0 X120.657 Y51.789 F1200
G1 X61.913 Y52.689 Z2.5 F1555
G1 X61.265 Z2.5 F1555
G1 Z0 F800 ; Drop S>0
G1 X58.599 F1555
G1 Z2.5 F800 ; Lift S=0
G1 X57.951 F1555

; Washing sequence (no color)
G1 Z10 F1000;        ; Raise brush
G0 X5 Y5 F1200;     ; Rapid move to clean
G1 Z0 F800;         ; Lower brush
G1 X10 Y12 Z8 F1200;     ; Move
G1 Z0 F800;         ; Lower
G1 X25 Y14 Z6 F800;     ; Move
G1 Z8 F800;         ; Maintain
G0 X5 Y5 F1200;     ; Rapid
G1 Z0 F800;         ; Lower
G1 X15 Y12 Z8 F1200;     ; Move
G1 Z0 F800;         ; Lower
G1 X25 Y14 Z6 F800;     ; Move
G1 Z10 F800;         ; Maintain
G1 F1200;           ; Set feed
G0 Z2.5 F1000 ; Safety Lift

; Color picking sequence
G1 Z10 F1000;         ; Raise brush
G0 X131 Y5 F1200;    ; Rapid move to color 1
G1 Z10 F1000;         ; Raise brush
G0 X131 Y5 F1200;    ; Rapid move to color 1
G1 Z0 F1000;         ; Lower into color
G1 X130.102 Y7.295 Z0 S800 F1200
G1 X130.026 Y7.642 Z0 F1200
G1 X130 Y8 Z0 F1200
G1 X130.026 Y8.358 Z0 F1200
G1 X130.102 Y8.705 Z0 F1200
G1 X130.225 Y9.041 Z0 F1200
G1 X130.393 Y9.362 Z0 F1200
G1 X130.603 Y9.668 Z0 F1200
G1 X130.854 Y9.957 Z0 F1200
G1 X131.142 Y10.226 Z0 F1200
G1 X131.464 Y10.475 Z0 F1200
G1 X131.82 Y10.701 Z0 F1200
G1 X132.204 Y10.902 Z0 F1200
G1 X132.617 Y11.078 Z0 F1200
G1 X133.054 Y11.225 Z0 F1200
G1 X133.513 Y11.343 Z0 F1200
G1 X133.992 Y11.429 Z0 F1200
G1 X134.489 Y11.482 Z0 F1200
G1 X135 Y11.5 Z0 F1200
G1 X135.511 Y11.482 Z0 F1200
G1 X136.008 Y11.429 Z0 F1200
G1 X136.487 Y11.343 Z0 F1200
G1 X136.946 Y11.225 Z0 F1200
G1 X137.383 Y11.078 Z0 F1200
G1 X137.796 Y10.902 Z0 F1200
G1 X138.18 Y10.701 Z0 F1200
G1 X138.536 Y10.475 Z0 F1200
G1 X138.858 Y10.226 Z0 F1200
G1 X139.146 Y9.957 Z0 F1200
G1 X139.397 Y9.668 Z0 F1200
G1 X139.607 Y9.362 Z0 F1200
G1 X139.775 Y9.041 Z0 F1200
G1 X139.898 Y8.705 Z0 F1200
G1 X139.974 Y8.358 Z0 F1200
G1 X140 Y8 Z0 F1200
G1 X139.974 Y7.642 Z0 F1200
G1 X139.898 Y7.295 Z0 F1200
G1 X139.775 Y6.959 Z0 F1200
G1 X139.607 Y6.638 Z0 F1200
G1 X139.397 Y6.332 Z0 F1200
G1 X139.146 Y6.043 Z0 F1200
G1 X138.858 Y5.774 Z0 F1200
G1 X138.536 Y5.525 Z0 F1200
G1 X138.18 Y5.299 Z0 F1200
G1 X137.796 Y5.098 Z0 F1200
G1 X137.383 Y4.922 Z0 F1200
G1 X136.946 Y4.775 Z0 F1200
G1 X136.487 Y4.657 Z0 F1200
G1 X136.008 Y4.571 Z0 F1200
G1 X135.511 Y4.518 Z0 F1200
G1 X135 Y4.5 Z0 F1200
G1 X134.489 Y4.518 Z0 F1200
G1 X133.992 Y4.571 Z0 F1200
G1 X133.513 Y4.657 Z0 F1200
G1 X133.054 Y4.775 Z0 F1200
G1 X132.617 Y4.922 Z0 F1200
G1 X132.204 Y5.098 Z0 F1200
G1 X131.82 Y5.299 Z0 F1200
G1 X131.464 Y5.525 Z0 F1200
G1 X131.142 Y5.774 Z0 F1200
G1 X130.854 Y6.043 Z0 F1200
G1 X130.603 Y6.332 Z0 F1200
G1 X130.393 Y6.638 Z0 F1200
G1 X130.225 Y6.959 Z0 F1200
G1 Z7 F800;         ; Raise from color
G1 X124 Y8 Z1 F1200;     ; Movement in paint
G1 X114 Y18 Z8 F500;     ; Move in paint
G1 F1200;           ; Set feed rate
G0 Z2.5 F1000 ; Safety Lift
;Cut @ 1432 mm/min, 80% power

M8
G0 Z4.8 F1555
; --- FIX X Backlash ---
G0 X58.751 Y52.689 F1200
; --- FIX Y Backlash ---
G0 X58.751 Y51.889 F1200
G0 X79.343 Y50.951 Z4.8 F1555
G1 Z0 F1555
;Layer C3
G1 Y49.963 Z0 F1432
G1 X79.534 Y48.712 Z0 F1432
G1 X79.807 Y47.484 Z0 F1432
G1 X80.162 Y46.282 Z0 F1432
G1 X80.596 Y45.108 Z0 F1432
G1 X81.106 Y43.965 Z0 F1432
G1 X81.69 Y42.858 Z0 F1432
G1 X82.346 Y41.787 Z0 F1432
G1 X83.071 Y40.757 Z0 F1432
G1 X84.124 Y38.973 Z0 F1432
G1 X85.109 Y37.127 Z0 F1432
G1 X85.521 Y36.174 Z0 F1432
G1 X85.851 Y35.197 Z0 F1432
G1 X85.977 Y34.698 Z0 F1432
G1 X86.075 Y34.193 Z0 F1432
G1 X86.141 Y33.68 Z0 F1432
G1 X86.173 Y33.159 Z0 F1432
G1 X86.2 Y32.457 Z0 F1432
G1 X86.283 Y31.731 Z0 F1432
G1 X86.346 Y31.385 Z0 F1432
G1 X86.423 Y31.063 Z0 F1432
G1 X86.515 Y30.776 Z0 F1432
G1 X86.622 Y30.535 Z0 F1432
G1 X86.744 Y30.35 Z0 F1432
G1 X86.881 Y30.23 Z0 F1432
G1 X87.033 Y30.186 Z0 F1432
G1 X87.201 Y30.229 Z0 F1432
; --- FIX Y Backlash ---
G0 X87.201 Y31.029 F1200
G1 X87.291 Y31.086 Z0 F1432
G1 X87.384 Y31.168 Z0 F1432
G1 X87.481 Y31.277 Z0 F1432
G1 X87.583 Y31.414 Z0 F1432
G1 X87.688 Y31.58 Z0 F1432
G1 X87.797 Y31.777 Z0 F1432
G1 X87.91 Y32.006 Z0 F1432
G1 X88.027 Y32.268 Z0 F1432
G1 X88.37 Y33.113 Z0 F1432
G1 X88.65 Y33.981 Z0 F1432
G1 X88.867 Y34.867 Z0 F1432
G1 X89.021 Y35.766 Z0 F1432
G1 X89.112 Y36.675 Z0 F1432
G1 X89.142 Y37.589 Z0 F1432
G1 X89.111 Y38.504 Z0 F1432
; --- FIX X Backlash ---
G0 X88.311 Y38.504 F1200
G1 X88.218 Y39.415 Z0 F1432
G1 X88.065 Y40.317 Z0 F1432
G1 X87.851 Y41.207 Z0 F1432
G1 X87.578 Y42.081 Z0 F1432
G1 X87.245 Y42.932 Z0 F1432
G1 X86.852 Y43.758 Z0 F1432
G1 X86.401 Y44.554 Z0 F1432
G1 X85.892 Y45.316 Z0 F1432
G1 X85.324 Y46.038 Z0 F1432
G1 X84.887 Y46.655 Z0 F1432
G1 X84.471 Y47.285 Z0 F1432
G1 X84.079 Y47.929 Z0 F1432
G1 X83.71 Y48.584 Z0 F1432
G1 X83.368 Y49.252 Z0 F1432
G1 X83.053 Y49.932 Z0 F1432
G1 X82.767 Y50.623 Z0 F1432
G1 X82.511 Y51.324 Z0 F1432
G1 X82.287 Y52.036 Z0 F1432
G1 X82.095 Y52.758 Z0 F1432
G1 X81.938 Y53.489 Z0 F1432
G1 X81.817 Y54.229 Z0 F1432
G1 X81.733 Y54.978 Z0 F1432
G1 X81.687 Y55.734 Z0 F1432
G1 X81.682 Y56.498 Z0 F1432
G1 X81.718 Y57.269 Z0 F1432
G1 X81.658 Y58.027 Z0 F1432
G1 X81.303 Y58.061 Z0 F1432
; --- FIX Y Backlash ---
G0 X81.303 Y57.261 F1200
G1 X80.899 Y56.966 Z0 F1432
G1 X80.532 Y56.632 Z0 F1432
G1 X80.202 Y56.263 Z0 F1432
G1 X79.906 Y55.863 Z0 F1432
G1 X79.643 Y55.435 Z0 F1432
G1 X79.413 Y54.984 Z0 F1432
G1 X79.212 Y54.512 Z0 F1432
G1 X79.041 Y54.023 Z0 F1432
G1 X78.897 Y53.522 Z0 F1432
G1 X78.78 Y53.011 Z0 F1432
G1 X78.687 Y52.495 Z0 F1432
G1 X78.617 Y51.978 Z0 F1432
G1 X78.543 Y50.951 Z0 F1432
G0 Z4.8 F1555
; --- FIX X Backlash ---
G0 X79.343 Y50.951 F1200
; --- FIX Y Backlash ---
G0 X79.343 Y51.751 F1200
G0 X87.556 Y52.9 Z4.8 F1555
G1 Z0 F1555
; --- FIX Y Backlash ---
G0 X87.556 Y52.1 F1200
G1 X88.408 Y50.393 Z0 F1432
G1 X88.768 Y49.516 Z0 F1432
G1 X89.057 Y48.615 Z0 F1432
G1 X89.169 Y48.154 Z0 F1432
G1 X89.256 Y47.685 Z0 F1432
G1 X89.315 Y47.207 Z0 F1432
G1 X89.344 Y46.719 Z0 F1432
G1 X89.546 Y46.648 Z0 F1432
G1 X89.739 Y46.609 Z0 F1432
G1 X89.924 Y46.599 Z0 F1432
G1 X90.101 Y46.617 Z0 F1432
; --- FIX Y Backlash ---
G0 X90.101 Y47.417 F1200
G1 X90.431 Y47.531 Z0 F1432
G1 X90.726 Y47.739 Z0 F1432
G1 X90.986 Y48.027 Z0 F1432
G1 X91.21 Y48.383 Z0 F1432
G1 X91.397 Y48.796 Z0 F1432
G1 X91.546 Y49.252 Z0 F1432
G1 X91.656 Y49.738 Z0 F1432
G1 X91.726 Y50.243 Z0 F1432
G1 X91.756 Y50.754 Z0 F1432
G1 X91.743 Y51.258 Z0 F1432
; --- FIX X Backlash ---
G0 X90.943 Y51.258 F1200
G1 X90.887 Y51.743 Z0 F1432
G1 X90.787 Y52.196 Z0 F1432
G1 X90.642 Y52.605 Z0 F1432
G1 X90.452 Y52.958 Z0 F1432
G1 X89.439 Y55.208 Z0 F1432
G1 X88.395 Y57.439 Z0 F1432
G1 X87.903 Y58.561 Z0 F1432
G1 X87.452 Y59.693 Z0 F1432
G1 X87.058 Y60.841 Z0 F1432
G1 X86.738 Y62.011 Z0 F1432
G1 X86.582 Y62.117 Z0 F1432
G1 X86.191 Y62.172 Z0 F1432
; --- FIX Y Backlash ---
G0 X86.191 Y61.372 F1200
G1 X85.8 Y61.024 Z0 F1432
G1 X85.466 Y60.634 Z0 F1432
G1 X85.187 Y60.208 Z0 F1432
G1 X84.963 Y59.752 Z0 F1432
G1 X84.79 Y59.271 Z0 F1432
G1 X84.668 Y58.769 Z0 F1432
G1 X84.595 Y58.252 Z0 F1432
G1 X84.569 Y57.726 Z0 F1432
G1 X84.588 Y57.195 Z0 F1432
; --- FIX X Backlash ---
G0 X85.388 Y57.195 F1200
G1 X85.452 Y56.664 Z0 F1432
G1 X85.557 Y56.14 Z0 F1432
G1 X85.703 Y55.626 Z0 F1432
G1 X85.888 Y55.129 Z0 F1432
G1 X86.11 Y54.653 Z0 F1432
G1 X86.368 Y54.203 Z0 F1432
G1 X86.66 Y53.786 Z0 F1432
G1 X87.556 Y52.1 Z0 F1432
G0 Z4.8 F1555
; --- FIX X Backlash ---
G0 X86.756 Y52.1 F1200
G0 X77.965 Y41.94 Z4.8 F1555
G1 Z0 F1555
G1 X77.649 Y41.973 Z0 F1432
G1 X77.224 Y41.611 Z0 F1432
G1 X76.871 Y41.206 Z0 F1432
G1 X76.585 Y40.764 Z0 F1432
G1 X76.364 Y40.291 Z0 F1432
G1 X76.204 Y39.791 Z0 F1432
G1 X76.102 Y39.271 Z0 F1432
G1 X76.055 Y38.735 Z0 F1432
G1 X76.06 Y38.19 Z0 F1432
; --- FIX X Backlash ---
G0 X76.86 Y38.19 F1200
G1 X76.914 Y37.64 Z0 F1432
G1 X77.013 Y37.091 Z0 F1432
G1 X77.155 Y36.548 Z0 F1432
G1 X77.336 Y36.017 Z0 F1432
G1 X77.554 Y35.504 Z0 F1432
G1 X77.804 Y35.013 Z0 F1432
G1 X78.084 Y34.55 Z0 F1432
G1 X78.391 Y34.121 Z0 F1432
G1 X78.715 Y33.73 Z0 F1432
G1 X79.01 Y33.314 Z0 F1432
G1 X79.281 Y32.877 Z0 F1432
G1 X79.53 Y32.421 Z0 F1432
G1 X79.974 Y31.474 Z0 F1432
G1 X80.366 Y30.504 Z0 F1432
G1 X80.731 Y29.543 Z0 F1432
G1 X81.094 Y28.622 Z0 F1432
G1 X81.281 Y28.187 Z0 F1432
G1 X81.477 Y27.773 Z0 F1432
G1 X81.685 Y27.385 Z0 F1432
G1 X81.907 Y27.028 Z0 F1432
; --- FIX Y Backlash ---
G0 X81.907 Y27.828 F1200
G1 X82.187 Y28.024 Z0 F1432
G1 X82.439 Y28.232 Z0 F1432
G1 X82.663 Y28.451 Z0 F1432
G1 X82.862 Y28.68 Z0 F1432
G1 X83.183 Y29.165 Z0 F1432
G1 X83.41 Y29.683 Z0 F1432
G1 X83.552 Y30.229 Z0 F1432
G1 X83.616 Y30.796 Z0 F1432
G1 X83.611 Y31.38 Z0 F1432
; --- FIX X Backlash ---
G0 X82.811 Y31.38 F1200
G1 X82.743 Y31.976 Z0 F1432
G1 X82.621 Y32.577 Z0 F1432
G1 X82.453 Y33.179 Z0 F1432
G1 X82.246 Y33.776 Z0 F1432
G1 X82.009 Y34.364 Z0 F1432
G1 X81.75 Y34.936 Z0 F1432
G1 X81.476 Y35.487 Z0 F1432
G1 X81.194 Y36.013 Z0 F1432
G1 X80.914 Y36.507 Z0 F1432
G1 X80.446 Y37.237 Z0 F1432
G1 X80.02 Y37.994 Z0 F1432
G1 X79.629 Y38.773 Z0 F1432
G1 X79.267 Y39.566 Z0 F1432
G1 X78.601 Y41.166 Z0 F1432
G1 X77.965 Y42.74 Z0 F1432
M9
M5
G1 Z10 F1555

; Color picking sequence
G1 Z10 F1000;         ; Raise brush
G0 X131 Y5 F1200;    ; Rapid move to color 1
G1 Z10 F1000;         ; Raise brush
G0 X131 Y5 F1200;    ; Rapid move to color 1
G1 Z0 F1000;         ; Lower into color
G1 X130.102 Y7.295 Z0 S800 F1200
G1 X130.026 Y7.642 Z0 F1200
G1 X130 Y8 Z0 F1200
G1 X130.026 Y8.358 Z0 F1200
G1 X130.102 Y8.705 Z0 F1200
G1 X130.225 Y9.041 Z0 F1200
G1 X130.393 Y9.362 Z0 F1200
G1 X130.603 Y9.668 Z0 F1200
G1 X130.854 Y9.957 Z0 F1200
G1 X131.142 Y10.226 Z0 F1200
G1 X131.464 Y10.475 Z0 F1200
G1 X131.82 Y10.701 Z0 F1200
G1 X132.204 Y10.902 Z0 F1200
G1 X132.617 Y11.078 Z0 F1200
G1 X133.054 Y11.225 Z0 F1200
G1 X133.513 Y11.343 Z0 F1200
G1 X133.992 Y11.429 Z0 F1200
G1 X134.489 Y11.482 Z0 F1200
G1 X135 Y11.5 Z0 F1200
G1 X135.511 Y11.482 Z0 F1200
G1 X136.008 Y11.429 Z0 F1200
G1 X136.487 Y11.343 Z0 F1200
G1 X136.946 Y11.225 Z0 F1200
G1 X137.383 Y11.078 Z0 F1200
G1 X137.796 Y10.902 Z0 F1200
G1 X138.18 Y10.701 Z0 F1200
G1 X138.536 Y10.475 Z0 F1200
G1 X138.858 Y10.226 Z0 F1200
G1 X139.146 Y9.957 Z0 F1200
G1 X139.397 Y9.668 Z0 F1200
G1 X139.607 Y9.362 Z0 F1200
G1 X139.775 Y9.041 Z0 F1200
G1 X139.898 Y8.705 Z0 F1200
G1 X139.974 Y8.358 Z0 F1200
G1 X140 Y8 Z0 F1200
G1 X139.974 Y7.642 Z0 F1200
G1 X139.898 Y7.295 Z0 F1200
G1 X139.775 Y6.959 Z0 F1200
G1 X139.607 Y6.638 Z0 F1200
G1 X139.397 Y6.332 Z0 F1200
G1 X139.146 Y6.043 Z0 F1200
G1 X138.858 Y5.774 Z0 F1200
G1 X138.536 Y5.525 Z0 F1200
G1 X138.18 Y5.299 Z0 F1200
G1 X137.796 Y5.098 Z0 F1200
G1 X137.383 Y4.922 Z0 F1200
G1 X136.946 Y4.775 Z0 F1200
G1 X136.487 Y4.657 Z0 F1200
G1 X136.008 Y4.571 Z0 F1200
G1 X135.511 Y4.518 Z0 F1200
G1 X135 Y4.5 Z0 F1200
G1 X134.489 Y4.518 Z0 F1200
G1 X133.992 Y4.571 Z0 F1200
G1 X133.513 Y4.657 Z0 F1200
G1 X133.054 Y4.775 Z0 F1200
G1 X132.617 Y4.922 Z0 F1200
G1 X132.204 Y5.098 Z0 F1200
G1 X131.82 Y5.299 Z0 F1200
G1 X131.464 Y5.525 Z0 F1200
G1 X131.142 Y5.774 Z0 F1200
G1 X130.854 Y6.043 Z0 F1200
G1 X130.603 Y6.332 Z0 F1200
G1 X130.393 Y6.638 Z0 F1200
G1 X130.225 Y6.959 Z0 F1200
G1 Z7 F800;         ; Raise from color
G1 X124 Y8 Z1 F1200;     ; Movement in paint
G1 X114 Y18 Z8 F500;     ; Move in paint
G1 F1200;           ; Set feed rate
G0 Z2.5 F1000 ; Safety Lift
G0 X77.965 Y42.74 F1200 ; Return to pos
G1 Z10 F1555
; --- FIX X Backlash ---
G0 X78.765 Y42.74 F1200
G1 X120 F1432


; Return to 2,0 wash and park
G1 Z10 F1000;        ; Raise brush
G0 X5 Y5 F1200;     ; Rapid move to clean
G1 Z-1 F800;         ; Lower brush
G1 X10 Y12 Z8 F1200;     ; Move
G1 Z-1 F800;         ; Lower
G1 X25 Y14 Z6 F800;     ; Move
G0 X5 Y5 F1200;     ; Rapid
G1 Z-1 F800;         ; Lower
G1 X15 Y12 Z8 F1200;     ; Move
G1 Z-1 F800;         ; Lower
G1 X25 Y14 Z6 F800;     ; Move
G1 Z10 F800;         ; Maintain
G0 X20 Y130 Z10 F500;; Move to park
M2;                 ; End program
