
G0 Z10 F500;      ; Move to clearance level
; G0 X-10 Y-10 F1200; Homing
; G0 X-5 Y-5 F1200; go in
; G10 P0 L20 X0 Y0; set to zero
G1 F1200;           ; Set feed rate
G90 ; Force absolute mode
;LightBurn 1.6.04
;Custom GCode device profile, absolute coords
;Bounds: X26.32 Y26.79 to X121.68 Y123.21
G00 G17 G40 G21 G54
M3
G1 Z10 F500

; Color picking sequence
G1 Z10 F1000;         ; Raise brush
G0 X86 Y5 F1200;    ; Rapid move to color 1
G1 Z10 F1000;         ; Raise brush
G0 X86 Y5 F1200;    ; Rapid move to color 1
G1 Z0 F1000;         ; Lower into color
G1 X85.102 Y7.295 Z0 S800 F1200
G1 X85.026 Y7.642 Z0 F1200
G1 X85 Y8 Z0 F1200
G1 X85.026 Y8.358 Z0 F1200
G1 X85.102 Y8.705 Z0 F1200
G1 X85.225 Y9.041 Z0 F1200
G1 X85.393 Y9.362 Z0 F1200
G1 X85.603 Y9.668 Z0 F1200
G1 X85.854 Y9.957 Z0 F1200
G1 X86.142 Y10.226 Z0 F1200
G1 X86.464 Y10.475 Z0 F1200
G1 X86.82 Y10.701 Z0 F1200
G1 X87.204 Y10.902 Z0 F1200
G1 X87.617 Y11.078 Z0 F1200
G1 X88.054 Y11.225 Z0 F1200
G1 X88.513 Y11.343 Z0 F1200
G1 X88.992 Y11.429 Z0 F1200
G1 X89.489 Y11.482 Z0 F1200
G1 X90 Y11.5 Z0 F1200
G1 X90.511 Y11.482 Z0 F1200
G1 X91.008 Y11.429 Z0 F1200
G1 X91.487 Y11.343 Z0 F1200
G1 X91.946 Y11.225 Z0 F1200
G1 X92.383 Y11.078 Z0 F1200
G1 X92.796 Y10.902 Z0 F1200
G1 X93.18 Y10.701 Z0 F1200
G1 X93.536 Y10.475 Z0 F1200
G1 X93.858 Y10.226 Z0 F1200
G1 X94.146 Y9.957 Z0 F1200
G1 X94.397 Y9.668 Z0 F1200
G1 X94.607 Y9.362 Z0 F1200
G1 X94.775 Y9.041 Z0 F1200
G1 X94.898 Y8.705 Z0 F1200
G1 X94.974 Y8.358 Z0 F1200
G1 X95 Y8 Z0 F1200
G1 X94.974 Y7.642 Z0 F1200
G1 X94.898 Y7.295 Z0 F1200
G1 X94.775 Y6.959 Z0 F1200
G1 X94.607 Y6.638 Z0 F1200
G1 X94.397 Y6.332 Z0 F1200
G1 X94.146 Y6.043 Z0 F1200
G1 X93.858 Y5.774 Z0 F1200
G1 X93.536 Y5.525 Z0 F1200
G1 X93.18 Y5.299 Z0 F1200
G1 X92.796 Y5.098 Z0 F1200
G1 X92.383 Y4.922 Z0 F1200
G1 X91.946 Y4.775 Z0 F1200
G1 X91.487 Y4.657 Z0 F1200
G1 X91.008 Y4.571 Z0 F1200
G1 X90.511 Y4.518 Z0 F1200
G1 X90 Y4.5 Z0 F1200
G1 X89.489 Y4.518 Z0 F1200
G1 X88.992 Y4.571 Z0 F1200
G1 X88.513 Y4.657 Z0 F1200
G1 X88.054 Y4.775 Z0 F1200
G1 X87.617 Y4.922 Z0 F1200
G1 X87.204 Y5.098 Z0 F1200
G1 X86.82 Y5.299 Z0 F1200
G1 X86.464 Y5.525 Z0 F1200
G1 X86.142 Y5.774 Z0 F1200
G1 X85.854 Y6.043 Z0 F1200
G1 X85.603 Y6.332 Z0 F1200
G1 X85.393 Y6.638 Z0 F1200
G1 X85.225 Y6.959 Z0 F1200
G1 Z7 F800;         ; Raise from color
G1 X79 Y8 Z1 F1200;     ; Movement in paint
G1 X69 Y18 Z8 F500;     ; Move in paint
G1 F1200;           ; Set feed rate
G0 Z3.5 F1000 ; Safety Lift
;Cut @ 1299 mm/min, 90% power

M8
G0 Z3.5 F500
G0 X56.569 Y59.758 Z3.5
G1 Z0 F500
;Layer C2
; --- FIX X Backlash ---
G0 X55.769 Y59.758 F1200
G1 X52.006 Y59.832 Z0 F1299
; --- FIX X Backlash ---
G0 X52.806 Y59.832 F1200
G1 X54.577 Y61.529 Z0 F1299
; --- FIX X Backlash ---
G0 X53.777 Y61.529 F1200
G1 X52.744 Y70.752 Z0 F1299
; --- FIX Y Backlash ---
G0 X52.744 Y69.952 F1200
G1 X47.284 Y68.329 Z0 F1299
; --- FIX X Backlash ---
G0 X48.084 Y68.329 F1200
; --- FIX Y Backlash ---
G0 X48.084 Y69.129 F1200
G1 X58.635 Y76.064 Z0 F1299
; --- FIX X Backlash ---
G0 X57.835 Y76.064 F1200
; --- FIX Y Backlash ---
G0 X57.835 Y75.264 F1200
G1 X56.064 Y60.213 Z0 F1299
G0 Z3.5 F500
; --- FIX X Backlash ---
G0 X56.864 Y60.213 F1200
; --- FIX Y Backlash ---
G0 X56.864 Y61.013 F1200
G0 X65.423 Y65.661 Z3.5 F1299
G1 Z0 F500
G1 X65.571 Y69.94 Z0 F1299
; --- FIX Y Backlash ---
G0 X65.571 Y69.14 F1200
G1 X67.637 Y68.403 Z0 F1299
G1 X67.932 Y67.517 Z0 F1299
; --- FIX X Backlash ---
G0 X67.132 Y67.517 F1200
G1 X65.361 Y65.525 Z0 F1299
G0 Z3.5 F500
; --- FIX X Backlash ---
G0 X66.161 Y65.525 F1200
G0 X80.623 Y62.574 Z3.5
G1 Z0 F500
G1 X82.615 Y56.966 Z0 F1299
; --- FIX X Backlash ---
G0 X81.815 Y56.966 F1200
G1 X77.978 Y50.842 Z0 F1299
; --- FIX Y Backlash ---
G0 X77.978 Y51.642 F1200
G1 X76.207 Y53.56 Z0 F1299
; --- FIX X Backlash ---
G0 X77.007 Y53.56 F1200
G1 X80.254 Y62.562 Z0 F1299
G0 Z3.5 F500
; --- FIX X Backlash ---
G0 X79.454 Y62.562 F1200
G0 X52.154 Y77.983 Z3.5
G1 Z0 F500
; --- FIX X Backlash ---
G0 X52.954 Y77.983 F1200
G1 X59.225 Y78.573 Z0 F1299
G1 X60.554 Y89.567 Z0 F1299
; --- FIX X Backlash ---
G0 X59.754 Y89.567 F1200
; --- FIX Y Backlash ---
G0 X59.754 Y88.767 F1200
G1 X51.933 Y86.406 Z0 F1299
; --- FIX X Backlash ---
G0 X52.733 Y86.406 F1200
G1 X54.798 Y79.396 Z0 F1299
; --- FIX X Backlash ---
G0 X53.998 Y79.396 F1200
G1 X52.892 Y77.921 Z0 F1299
G0 Z3.5 F500
; --- FIX Y Backlash ---
G0 X52.892 Y78.721 F1200
G0 X45.882 Y119.08 Z3.5
G1 Z0 F500
; --- FIX X Backlash ---
G0 X46.682 Y119.08 F1200
; --- FIX Y Backlash ---
G0 X46.682 Y118.28 F1200
G1 X46.83 Y91.718 Z0 F1299
; --- FIX X Backlash ---
G0 X46.03 Y91.718 F1200
G1 X41.455 Y85.52 Z0 F1299
; --- FIX Y Backlash ---
G0 X41.455 Y86.32 F1200
G1 X37.766 Y98.126 Z0 F1299
; --- FIX Y Backlash ---
G0 X37.766 Y97.326 F1200
G1 X32.158 Y95.26 Z0 F1299
; --- FIX Y Backlash ---
G0 X32.158 Y96.06 F1200
G1 X31.221 Y96.292 Z0 F1299
G1 X30.302 Y96.591 Z0 F1299
G1 X29.852 Y96.772 Z0 F1299
G1 X29.409 Y96.977 Z0 F1299
G1 X28.973 Y97.21 Z0 F1299
G1 X28.546 Y97.472 Z0 F1299
G1 X28.128 Y97.765 Z0 F1299
G1 X27.72 Y98.094 Z0 F1299
G1 X27.322 Y98.459 Z0 F1299
G1 X26.936 Y98.864 Z0 F1299
G1 X26.562 Y99.311 Z0 F1299
G1 X26.2 Y99.803 Z0 F1299
G1 X25.852 Y100.341 Z0 F1299
G1 X25.518 Y100.93 Z0 F1299

; Color picking sequence
G1 Z10 F1000;         ; Raise brush
G0 X86 Y5 F1200;    ; Rapid move to color 1
G1 Z10 F1000;         ; Raise brush
G0 X86 Y5 F1200;    ; Rapid move to color 1
G1 Z0 F1000;         ; Lower into color
G1 X85.102 Y7.295 Z0 S800 F1200
G1 X85.026 Y7.642 Z0 F1200
G1 X85 Y8 Z0 F1200
G1 X85.026 Y8.358 Z0 F1200
G1 X85.102 Y8.705 Z0 F1200
G1 X85.225 Y9.041 Z0 F1200
G1 X85.393 Y9.362 Z0 F1200
G1 X85.603 Y9.668 Z0 F1200
G1 X85.854 Y9.957 Z0 F1200
G1 X86.142 Y10.226 Z0 F1200
G1 X86.464 Y10.475 Z0 F1200
G1 X86.82 Y10.701 Z0 F1200
G1 X87.204 Y10.902 Z0 F1200
G1 X87.617 Y11.078 Z0 F1200
G1 X88.054 Y11.225 Z0 F1200
G1 X88.513 Y11.343 Z0 F1200
G1 X88.992 Y11.429 Z0 F1200
G1 X89.489 Y11.482 Z0 F1200
G1 X90 Y11.5 Z0 F1200
G1 X90.511 Y11.482 Z0 F1200
G1 X91.008 Y11.429 Z0 F1200
G1 X91.487 Y11.343 Z0 F1200
G1 X91.946 Y11.225 Z0 F1200
G1 X92.383 Y11.078 Z0 F1200
G1 X92.796 Y10.902 Z0 F1200
G1 X93.18 Y10.701 Z0 F1200
G1 X93.536 Y10.475 Z0 F1200
G1 X93.858 Y10.226 Z0 F1200
G1 X94.146 Y9.957 Z0 F1200
G1 X94.397 Y9.668 Z0 F1200
G1 X94.607 Y9.362 Z0 F1200
G1 X94.775 Y9.041 Z0 F1200
G1 X94.898 Y8.705 Z0 F1200
G1 X94.974 Y8.358 Z0 F1200
G1 X95 Y8 Z0 F1200
G1 X94.974 Y7.642 Z0 F1200
G1 X94.898 Y7.295 Z0 F1200
G1 X94.775 Y6.959 Z0 F1200
G1 X94.607 Y6.638 Z0 F1200
G1 X94.397 Y6.332 Z0 F1200
G1 X94.146 Y6.043 Z0 F1200
G1 X93.858 Y5.774 Z0 F1200
G1 X93.536 Y5.525 Z0 F1200
G1 X93.18 Y5.299 Z0 F1200
G1 X92.796 Y5.098 Z0 F1200
G1 X92.383 Y4.922 Z0 F1200
G1 X91.946 Y4.775 Z0 F1200
G1 X91.487 Y4.657 Z0 F1200
G1 X91.008 Y4.571 Z0 F1200
G1 X90.511 Y4.518 Z0 F1200
G1 X90 Y4.5 Z0 F1200
G1 X89.489 Y4.518 Z0 F1200
G1 X88.992 Y4.571 Z0 F1200
G1 X88.513 Y4.657 Z0 F1200
G1 X88.054 Y4.775 Z0 F1200
G1 X87.617 Y4.922 Z0 F1200
G1 X87.204 Y5.098 Z0 F1200
G1 X86.82 Y5.299 Z0 F1200
G1 X86.464 Y5.525 Z0 F1200
G1 X86.142 Y5.774 Z0 F1200
G1 X85.854 Y6.043 Z0 F1200
G1 X85.603 Y6.332 Z0 F1200
G1 X85.393 Y6.638 Z0 F1200
G1 X85.225 Y6.959 Z0 F1200
G1 Z7 F800;         ; Raise from color
G1 X79 Y8 Z1 F1200;     ; Movement in paint
G1 X69 Y18 Z8 F500;     ; Move in paint
G1 F1200;           ; Set feed rate
G0 Z3.5 F1000 ; Safety Lift
G0 X25.518 Y100.93 F1200 ; Return
G1 Z0 F1000 ; Restore Z
; --- FIX X Backlash ---
G0 X26.318 Y100.93 F1200
; --- FIX Y Backlash ---
G0 X26.318 Y100.13 F1200
G1 X28.236 Y80.356 Z0 F1299
; --- FIX Y Backlash ---
G0 X28.236 Y81.156 F1200
G1 X32.221 Y84.255 Z0 F1299
; --- FIX X Backlash ---
G0 X31.421 Y84.255 F1200
; --- FIX Y Backlash ---
G0 X31.421 Y83.455 F1200
G1 X29.06 Y81.093 Z0 F1299
G1 X28.617 Y74.896 Z0 F1299
; --- FIX Y Backlash ---
G0 X28.617 Y75.696 F1200
G1 X26.551 Y78.794 Z0 F1299
; --- FIX Y Backlash ---
G0 X26.551 Y77.994 F1200
G1 X26.448 Y76.5 Z0 F1299
G1 X26.39 Y75.061 Z0 F1299
G1 X26.375 Y73.674 Z0 F1299
G1 X26.401 Y72.339 Z0 F1299
; --- FIX X Backlash ---
G0 X27.201 Y72.339 F1200
G1 X27.266 Y71.056 Z0 F1299
G1 X27.367 Y69.823 Z0 F1299
G1 X27.503 Y68.64 Z0 F1299
G1 X27.671 Y67.505 Z0 F1299
G1 X27.869 Y66.418 Z0 F1299
G1 X28.095 Y65.378 Z0 F1299
G1 X28.348 Y64.384 Z0 F1299
G1 X28.624 Y63.434 Z0 F1299
G1 X28.922 Y62.528 Z0 F1299
G1 X29.24 Y61.666 Z0 F1299
G1 X29.575 Y60.846 Z0 F1299
G1 X29.926 Y60.067 Z0 F1299
G1 X30.29 Y59.328 Z0 F1299
G1 X30.665 Y58.629 Z0 F1299
G1 X31.05 Y57.968 Z0 F1299
G1 X31.441 Y57.345 Z0 F1299
G1 X31.837 Y56.758 Z0 F1299
G1 X32.236 Y56.208 Z0 F1299
G1 X32.636 Y55.692 Z0 F1299
G1 X33.034 Y55.21 Z0 F1299
G1 X33.428 Y54.761 Z0 F1299
G1 X33.817 Y54.344 Z0 F1299
G1 X34.197 Y53.958 Z0 F1299
G1 X34.568 Y53.603 Z0 F1299
G1 X34.927 Y53.277 Z0 F1299
G1 X35.272 Y52.979 Z0 F1299
G1 X35.6 Y52.709 Z0 F1299
G1 X35.91 Y52.465 Z0 F1299
; --- FIX Y Backlash ---
G0 X35.91 Y53.265 F1200
G1 X44.174 Y63.743 Z0 F1299
; --- FIX X Backlash ---
G0 X43.374 Y63.743 F1200
; --- FIX Y Backlash ---
G0 X43.374 Y62.943 F1200
G1 X42.341 Y49.071 Z0 F1299
; --- FIX X Backlash ---
G0 X43.141 Y49.071 F1200
; --- FIX Y Backlash ---
G0 X43.141 Y49.871 F1200
G1 X44.756 Y50.36 Z0 F1299
G1 X46.388 Y50.928 Z0 F1299
G1 X48.039 Y51.576 Z0 F1299
G1 X49.707 Y52.306 Z0 F1299
G1 X51.395 Y53.119 Z0 F1299
G1 X53.1 Y54.017 Z0 F1299
G1 X54.825 Y55 Z0 F1299
G1 X56.569 Y56.069 Z0 F1299
; --- FIX X Backlash ---
G0 X55.769 Y56.069 F1200
; --- FIX Y Backlash ---
G0 X55.769 Y55.269 F1200
G1 X54.736 Y51.875 Z0 F1299
; --- FIX X Backlash ---
G0 X55.536 Y51.875 F1200
G1 X66.309 Y42.726 Z0 F1299
; --- FIX Y Backlash ---
G0 X66.309 Y43.526 F1200
G1 X67.932 Y48.986 Z0 F1299
; --- FIX Y Backlash ---
G0 X67.932 Y48.186 F1200
G1 X72.949 Y36.233 Z0 F1299
G1 X72.996 Z0 F1299
G1 X73.09 Y36.263 Z0 F1299
; --- FIX Y Backlash ---
G0 X73.09 Y37.063 F1200
G1 X73.231 Y37.117 Z0 F1299
G1 X73.414 Y37.195 Z0 F1299
G1 X73.639 Y37.296 Z0 F1299
G1 X73.903 Y37.419 Z0 F1299
G1 X74.537 Y37.721 Z0 F1299
G1 X75.298 Y38.092 Z0 F1299
G1 X78.164 Y39.497 Z0 F1299
G1 X80.374 Y40.564 Z0 F1299
G1 X82.651 Y41.627 Z0 F1299
G1 X83.77 Y42.129 Z0 F1299
G1 X84.85 Y42.596 Z0 F1299
G1 X85.873 Y43.016 Z0 F1299
G1 X87.983 Y43.821 Z0 F1299
G1 X89.202 Y44.318 Z0 F1299
G1 X90.459 Y44.859 Z0 F1299
G1 X91.735 Y45.433 Z0 F1299
G1 X93.014 Y46.027 Z0 F1299
G1 X94.275 Y46.629 Z0 F1299
G1 X95.503 Y47.23 Z0 F1299
G1 X96.678 Y47.816 Z0 F1299
G1 X97.782 Y48.376 Z0 F1299
G1 X98.798 Y48.899 Z0 F1299
G1 X99.707 Y49.373 Z0 F1299
G1 X100.492 Y49.788 Z0 F1299
G1 X101.133 Y50.13 Z0 F1299
G1 X102.02 Y50.609 Z0 F1299
G1 X107.185 Y66.399 Z0 F1299

; Color picking sequence
G1 Z10 F1000;         ; Raise brush
G0 X86 Y5 F1200;    ; Rapid move to color 1
G1 Z10 F1000;         ; Raise brush
G0 X86 Y5 F1200;    ; Rapid move to color 1
G1 Z0 F1000;         ; Lower into color
G1 X85.102 Y7.295 Z0 S800 F1200
G1 X85.026 Y7.642 Z0 F1200
G1 X85 Y8 Z0 F1200
G1 X85.026 Y8.358 Z0 F1200
G1 X85.102 Y8.705 Z0 F1200
G1 X85.225 Y9.041 Z0 F1200
G1 X85.393 Y9.362 Z0 F1200
G1 X85.603 Y9.668 Z0 F1200
G1 X85.854 Y9.957 Z0 F1200
G1 X86.142 Y10.226 Z0 F1200
G1 X86.464 Y10.475 Z0 F1200
G1 X86.82 Y10.701 Z0 F1200
G1 X87.204 Y10.902 Z0 F1200
G1 X87.617 Y11.078 Z0 F1200
G1 X88.054 Y11.225 Z0 F1200
G1 X88.513 Y11.343 Z0 F1200
G1 X88.992 Y11.429 Z0 F1200
G1 X89.489 Y11.482 Z0 F1200
G1 X90 Y11.5 Z0 F1200
G1 X90.511 Y11.482 Z0 F1200
G1 X91.008 Y11.429 Z0 F1200
G1 X91.487 Y11.343 Z0 F1200
G1 X91.946 Y11.225 Z0 F1200
G1 X92.383 Y11.078 Z0 F1200
G1 X92.796 Y10.902 Z0 F1200
G1 X93.18 Y10.701 Z0 F1200
G1 X93.536 Y10.475 Z0 F1200
G1 X93.858 Y10.226 Z0 F1200
G1 X94.146 Y9.957 Z0 F1200
G1 X94.397 Y9.668 Z0 F1200
G1 X94.607 Y9.362 Z0 F1200
G1 X94.775 Y9.041 Z0 F1200
G1 X94.898 Y8.705 Z0 F1200
G1 X94.974 Y8.358 Z0 F1200
G1 X95 Y8 Z0 F1200
G1 X94.974 Y7.642 Z0 F1200
G1 X94.898 Y7.295 Z0 F1200
G1 X94.775 Y6.959 Z0 F1200
G1 X94.607 Y6.638 Z0 F1200
G1 X94.397 Y6.332 Z0 F1200
G1 X94.146 Y6.043 Z0 F1200
G1 X93.858 Y5.774 Z0 F1200
G1 X93.536 Y5.525 Z0 F1200
G1 X93.18 Y5.299 Z0 F1200
G1 X92.796 Y5.098 Z0 F1200
G1 X92.383 Y4.922 Z0 F1200
G1 X91.946 Y4.775 Z0 F1200
G1 X91.487 Y4.657 Z0 F1200
G1 X91.008 Y4.571 Z0 F1200
G1 X90.511 Y4.518 Z0 F1200
G1 X90 Y4.5 Z0 F1200
G1 X89.489 Y4.518 Z0 F1200
G1 X88.992 Y4.571 Z0 F1200
G1 X88.513 Y4.657 Z0 F1200
G1 X88.054 Y4.775 Z0 F1200
G1 X87.617 Y4.922 Z0 F1200
G1 X87.204 Y5.098 Z0 F1200
G1 X86.82 Y5.299 Z0 F1200
G1 X86.464 Y5.525 Z0 F1200
G1 X86.142 Y5.774 Z0 F1200
G1 X85.854 Y6.043 Z0 F1200
G1 X85.603 Y6.332 Z0 F1200
G1 X85.393 Y6.638 Z0 F1200
G1 X85.225 Y6.959 Z0 F1200
G1 Z7 F800;         ; Raise from color
G1 X79 Y8 Z1 F1200;     ; Movement in paint
G1 X69 Y18 Z8 F500;     ; Move in paint
G1 F1200;           ; Set feed rate
G0 Z3.5 F1000 ; Safety Lift
G0 X107.185 Y66.399 F1200 ; Return
G1 Z0 F1000 ; Restore Z
; --- FIX Y Backlash ---
G0 X107.185 Y65.599 F1200
G1 X108.513 Y56.007 Z0 F1299
; --- FIX Y Backlash ---
G0 X108.513 Y56.807 F1200
G1 X114.121 Y77.466 Z0 F1299
; --- FIX X Backlash ---
G0 X113.321 Y77.466 F1200
G1 X111.107 Y85.73 Z0 F1299
; --- FIX X Backlash ---
G0 X111.907 Y85.73 F1200
G1 X115.449 Y88.239 Z0 F1299
; --- FIX X Backlash ---
G0 X114.649 Y88.239 F1200
; --- FIX Y Backlash ---
G0 X114.649 Y87.439 F1200
G1 X112.288 Y59.696 Z0 F1299
; --- FIX X Backlash ---
G0 X113.088 Y59.696 F1200
; --- FIX Y Backlash ---
G0 X113.088 Y60.496 F1200
G1 X114.722 Y62.052 Z0 F1299
G1 X116.326 Y63.641 Z0 F1299
G1 X117.097 Y64.472 Z0 F1299
G1 X117.836 Y65.341 Z0 F1299
G1 X118.535 Y66.257 Z0 F1299
G1 X119.185 Y67.23 Z0 F1299
G1 X119.778 Y68.268 Z0 F1299
G1 X120.306 Y69.383 Z0 F1299
G1 X120.543 Y69.972 Z0 F1299
G1 X120.761 Y70.583 Z0 F1299
G1 X120.958 Y71.218 Z0 F1299
G1 X121.134 Y71.879 Z0 F1299
G1 X121.288 Y72.565 Z0 F1299
G1 X121.418 Y73.279 Z0 F1299
G1 X121.523 Y74.021 Z0 F1299
G1 X121.603 Y74.793 Z0 F1299
G1 X121.656 Y75.596 Z0 F1299
G1 X121.682 Y76.432 Z0 F1299
G1 X121.679 Y77.301 Z0 F1299
G1 X121.646 Y78.204 Z0 F1299
; --- FIX X Backlash ---
G0 X120.846 Y78.204 F1200
; --- FIX Y Backlash ---
G0 X120.846 Y77.404 F1200
G1 X119.371 Y76.814 Z0 F1299
; --- FIX X Backlash ---
G0 X120.171 Y76.814 F1200
; --- FIX Y Backlash ---
G0 X120.171 Y77.614 F1200
G1 X120.909 Y95.912 Z0 F1299
; --- FIX X Backlash ---
G0 X120.109 Y95.912 F1200
G1 X115.091 Y100.93 Z0 F1299
; --- FIX Y Backlash ---
G0 X115.091 Y100.13 F1200
G1 X110.222 Y95.998 Z0 F1299
; --- FIX X Backlash ---
G0 X111.022 Y95.998 F1200
; --- FIX Y Backlash ---
G0 X111.022 Y96.798 F1200
G1 X112.94 Y113.178 Z0 F1299
; --- FIX X Backlash ---
G0 X112.14 Y113.178 F1200
; --- FIX Y Backlash ---
G0 X112.14 Y112.378 F1200
G1 X102.548 Y89.505 Z0 F1299
; --- FIX Y Backlash ---
G0 X102.548 Y90.305 F1200
G1 X101.368 Y108.16 Z0 F1299

; Color picking sequence
G1 Z10 F1000;         ; Raise brush
G0 X86 Y5 F1200;    ; Rapid move to color 1
G1 Z10 F1000;         ; Raise brush
G0 X86 Y5 F1200;    ; Rapid move to color 1
G1 Z0 F1000;         ; Lower into color
G1 X85.102 Y7.295 Z0 S800 F1200
G1 X85.026 Y7.642 Z0 F1200
G1 X85 Y8 Z0 F1200
G1 X85.026 Y8.358 Z0 F1200
G1 X85.102 Y8.705 Z0 F1200
G1 X85.225 Y9.041 Z0 F1200
G1 X85.393 Y9.362 Z0 F1200
G1 X85.603 Y9.668 Z0 F1200
G1 X85.854 Y9.957 Z0 F1200
G1 X86.142 Y10.226 Z0 F1200
G1 X86.464 Y10.475 Z0 F1200
G1 X86.82 Y10.701 Z0 F1200
G1 X87.204 Y10.902 Z0 F1200
G1 X87.617 Y11.078 Z0 F1200
G1 X88.054 Y11.225 Z0 F1200
G1 X88.513 Y11.343 Z0 F1200
G1 X88.992 Y11.429 Z0 F1200
G1 X89.489 Y11.482 Z0 F1200
G1 X90 Y11.5 Z0 F1200
G1 X90.511 Y11.482 Z0 F1200
G1 X91.008 Y11.429 Z0 F1200
G1 X91.487 Y11.343 Z0 F1200
G1 X91.946 Y11.225 Z0 F1200
G1 X92.383 Y11.078 Z0 F1200
G1 X92.796 Y10.902 Z0 F1200
G1 X93.18 Y10.701 Z0 F1200
G1 X93.536 Y10.475 Z0 F1200
G1 X93.858 Y10.226 Z0 F1200
G1 X94.146 Y9.957 Z0 F1200
G1 X94.397 Y9.668 Z0 F1200
G1 X94.607 Y9.362 Z0 F1200
G1 X94.775 Y9.041 Z0 F1200
G1 X94.898 Y8.705 Z0 F1200
G1 X94.974 Y8.358 Z0 F1200
G1 X95 Y8 Z0 F1200
G1 X94.974 Y7.642 Z0 F1200
G1 X94.898 Y7.295 Z0 F1200
G1 X94.775 Y6.959 Z0 F1200
G1 X94.607 Y6.638 Z0 F1200
G1 X94.397 Y6.332 Z0 F1200
G1 X94.146 Y6.043 Z0 F1200
G1 X93.858 Y5.774 Z0 F1200
G1 X93.536 Y5.525 Z0 F1200
G1 X93.18 Y5.299 Z0 F1200
G1 X92.796 Y5.098 Z0 F1200
G1 X92.383 Y4.922 Z0 F1200
G1 X91.946 Y4.775 Z0 F1200
G1 X91.487 Y4.657 Z0 F1200
G1 X91.008 Y4.571 Z0 F1200
G1 X90.511 Y4.518 Z0 F1200
G1 X90 Y4.5 Z0 F1200
G1 X89.489 Y4.518 Z0 F1200
G1 X88.992 Y4.571 Z0 F1200
G1 X88.513 Y4.657 Z0 F1200
G1 X88.054 Y4.775 Z0 F1200
G1 X87.617 Y4.922 Z0 F1200
G1 X87.204 Y5.098 Z0 F1200
G1 X86.82 Y5.299 Z0 F1200
G1 X86.464 Y5.525 Z0 F1200
G1 X86.142 Y5.774 Z0 F1200
G1 X85.854 Y6.043 Z0 F1200
G1 X85.603 Y6.332 Z0 F1200
G1 X85.393 Y6.638 Z0 F1200
G1 X85.225 Y6.959 Z0 F1200
G1 Z7 F800;         ; Raise from color
G1 X79 Y8 Z1 F1200;     ; Movement in paint
G1 X69 Y18 Z8 F500;     ; Move in paint
G1 F1200;           ; Set feed rate
G0 Z3.5 F1000 ; Safety Lift
G0 X101.368 Y108.16 F1200 ; Return
G1 Z0 F1000 ; Restore Z
G1 X91.628 Y123.212 Z0 F1299
; --- FIX X Backlash ---
G0 X92.428 Y123.212 F1200
; --- FIX Y Backlash ---
G0 X92.428 Y122.412 F1200
G1 X97.15 Y105.442 Z0 F1299
G1 X97.445 Y103.966 Z0 F1299
; --- FIX X Backlash ---
G0 X96.645 Y103.966 F1200
; --- FIX Y Backlash ---
G0 X96.645 Y104.766 F1200
G1 X90.595 Y109.931 Z0 F1299
; --- FIX X Backlash ---
G0 X91.395 Y109.931 F1200
; --- FIX Y Backlash ---
G0 X91.395 Y109.131 F1200
G1 X94.494 Y92.751 Z0 F1299
; --- FIX X Backlash ---
G0 X93.694 Y92.751 F1200
; --- FIX Y Backlash ---
G0 X93.694 Y93.551 F1200
G1 X91.923 Y95.174 Z0 F1299
; --- FIX Y Backlash ---
G0 X91.923 Y94.374 F1200
G1 X82.774 Y79.175 Z0 F1299
; --- FIX Y Backlash ---
G0 X82.774 Y79.975 F1200
G1 X80.856 Y81.746 Z0 F1299
; --- FIX X Backlash ---
G0 X81.656 Y81.746 F1200
G1 X86.378 Y100.634 Z0 F1299
; --- FIX X Backlash ---
G0 X85.578 Y100.634 F1200
; --- FIX Y Backlash ---
G0 X85.578 Y99.834 F1200
G1 X84.53 Y98.028 Z0 F1299
G1 X83.456 Y96.235 Z0 F1299
G1 X82.356 Y94.458 Z0 F1299
G1 X81.229 Y92.696 Z0 F1299
G1 X80.073 Y90.95 Z0 F1299
G1 X78.889 Y89.222 Z0 F1299
G1 X77.674 Y87.51 Z0 F1299
G1 X76.427 Y85.816 Z0 F1299
G1 X75.149 Y84.141 Z0 F1299
G1 X73.837 Y82.485 Z0 F1299
G1 X72.491 Y80.848 Z0 F1299
G1 X71.11 Y79.231 Z0 F1299
G1 X69.692 Y77.635 Z0 F1299
G1 X68.238 Y76.061 Z0 F1299
G1 X66.745 Y74.508 Z0 F1299
G1 X65.214 Y72.977 Z0 F1299
; --- FIX X Backlash ---
G0 X66.014 Y72.977 F1200
; --- FIX Y Backlash ---
G0 X66.014 Y73.777 F1200
G1 X67.047 Y94.732 Z0 F1299
; --- FIX X Backlash ---
G0 X66.247 Y94.732 F1200
G1 X63.295 Y104.029 Z0 F1299
; --- FIX Y Backlash ---
G0 X63.295 Y103.229 F1200
G1 X51.637 Y95.407 Z0 F1299
; --- FIX Y Backlash ---
G0 X51.637 Y96.207 F1200
G1 X46.325 Y120.851 Z0 F1299

; Washing sequence (no color)
G1 Z10 F1000;        ; Raise brush
G0 X5 Y5 F1200;     ; Rapid move to clean
G1 Z0 F800;         ; Lower brush
G1 X10 Y12 Z8 F1200;     ; Move
G1 Z0 F800;         ; Lower
G1 X25 Y14 Z6 F800;     ; Move
G1 Z8 F800;         ; Maintain
G0 X5 Y5 F1200;     ; Rapid
G1 Z0 F800;         ; Lower
G1 X15 Y12 Z8 F1200;     ; Move
G1 Z0 F800;         ; Lower
G1 X25 Y14 Z6 F800;     ; Move
G1 Z10 F800;         ; Maintain
G1 F1200;           ; Set feed
G0 Z3.5 F1000 ; Safety Lift

; Color picking sequence
G1 Z10 F1000;         ; Raise brush
G0 X131 Y5 F1200;    ; Rapid move to color 1
G1 Z10 F1000;         ; Raise brush
G0 X131 Y5 F1200;    ; Rapid move to color 1
G1 Z0 F1000;         ; Lower into color
G1 X130.102 Y7.295 Z0 S800 F1200
G1 X130.026 Y7.642 Z0 F1200
G1 X130 Y8 Z0 F1200
G1 X130.026 Y8.358 Z0 F1200
G1 X130.102 Y8.705 Z0 F1200
G1 X130.225 Y9.041 Z0 F1200
G1 X130.393 Y9.362 Z0 F1200
G1 X130.603 Y9.668 Z0 F1200
G1 X130.854 Y9.957 Z0 F1200
G1 X131.142 Y10.226 Z0 F1200
G1 X131.464 Y10.475 Z0 F1200
G1 X131.82 Y10.701 Z0 F1200
G1 X132.204 Y10.902 Z0 F1200
G1 X132.617 Y11.078 Z0 F1200
G1 X133.054 Y11.225 Z0 F1200
G1 X133.513 Y11.343 Z0 F1200
G1 X133.992 Y11.429 Z0 F1200
G1 X134.489 Y11.482 Z0 F1200
G1 X135 Y11.5 Z0 F1200
G1 X135.511 Y11.482 Z0 F1200
G1 X136.008 Y11.429 Z0 F1200
G1 X136.487 Y11.343 Z0 F1200
G1 X136.946 Y11.225 Z0 F1200
G1 X137.383 Y11.078 Z0 F1200
G1 X137.796 Y10.902 Z0 F1200
G1 X138.18 Y10.701 Z0 F1200
G1 X138.536 Y10.475 Z0 F1200
G1 X138.858 Y10.226 Z0 F1200
G1 X139.146 Y9.957 Z0 F1200
G1 X139.397 Y9.668 Z0 F1200
G1 X139.607 Y9.362 Z0 F1200
G1 X139.775 Y9.041 Z0 F1200
G1 X139.898 Y8.705 Z0 F1200
G1 X139.974 Y8.358 Z0 F1200
G1 X140 Y8 Z0 F1200
G1 X139.974 Y7.642 Z0 F1200
G1 X139.898 Y7.295 Z0 F1200
G1 X139.775 Y6.959 Z0 F1200
G1 X139.607 Y6.638 Z0 F1200
G1 X139.397 Y6.332 Z0 F1200
G1 X139.146 Y6.043 Z0 F1200
G1 X138.858 Y5.774 Z0 F1200
G1 X138.536 Y5.525 Z0 F1200
G1 X138.18 Y5.299 Z0 F1200
G1 X137.796 Y5.098 Z0 F1200
G1 X137.383 Y4.922 Z0 F1200
G1 X136.946 Y4.775 Z0 F1200
G1 X136.487 Y4.657 Z0 F1200
G1 X136.008 Y4.571 Z0 F1200
G1 X135.511 Y4.518 Z0 F1200
G1 X135 Y4.5 Z0 F1200
G1 X134.489 Y4.518 Z0 F1200
G1 X133.992 Y4.571 Z0 F1200
G1 X133.513 Y4.657 Z0 F1200
G1 X133.054 Y4.775 Z0 F1200
G1 X132.617 Y4.922 Z0 F1200
G1 X132.204 Y5.098 Z0 F1200
G1 X131.82 Y5.299 Z0 F1200
G1 X131.464 Y5.525 Z0 F1200
G1 X131.142 Y5.774 Z0 F1200
G1 X130.854 Y6.043 Z0 F1200
G1 X130.603 Y6.332 Z0 F1200
G1 X130.393 Y6.638 Z0 F1200
G1 X130.225 Y6.959 Z0 F1200
G1 Z7 F800;         ; Raise from color
G1 X124 Y8 Z1 F1200;     ; Movement in paint
G1 X114 Y18 Z8 F500;     ; Move in paint
G1 F1200;           ; Set feed rate
G0 Z3.5 F1000 ; Safety Lift
;Cut @ 1300.002 mm/min, 90% power

M8
G0 Z3.5 F500
; --- FIX Y Backlash ---
G0 X46.325 Y120.051 F1200
G0 X27.157 Y44.853 Z3.5
G1 Z0 F500
;Layer C1
; --- FIX X Backlash ---
G0 X27.957 Y44.853 F1200
; --- FIX Y Backlash ---
G0 X27.957 Y45.653 F1200
G1 X28.096 Y48.497 Z0 F1299
; --- FIX Y Backlash ---
G0 X28.096 Y47.697 F1200
G1 X38.708 Y43.258 Z0 F1299
; --- FIX X Backlash ---
G0 X37.908 Y43.258 F1200
G1 X37.769 Y32.438 Z0 F1299
; --- FIX Y Backlash ---
G0 X37.769 Y33.238 F1200
G1 X27.088 Y37.816 Z0 F1299
; --- FIX X Backlash ---
G0 X27.888 Y37.816 F1200
G1 X28.027 Y42.879 Z0 F1299
; --- FIX Y Backlash ---
G0 X28.027 Y42.079 F1200
G1 X36.35 Y38.611 Z0 F1299
; --- FIX X Backlash ---
G0 X35.55 Y38.611 F1200
G1 X35.342 Y35.767 Z0 F1299
; --- FIX Y Backlash ---
G0 X35.342 Y36.567 F1200
G1 X32.429 Y37.677 Z0 F1299
; --- FIX X Backlash ---
G0 X33.229 Y37.677 F1200
G1 X33.298 Y40.035 Z0 F1299
G0 Z3.5 F500
; --- FIX Y Backlash ---
G0 X33.298 Y39.235 F1200
G0 X47.1 Y35.906 Z3.5 F1300
G1 Z0 F500
; --- FIX X Backlash ---
G0 X46.3 Y35.906 F1200
; --- FIX Y Backlash ---
G0 X46.3 Y36.706 F1200
G1 X46.162 Y38.926 Z0 F1299
G1 X43.318 Y39.897 Z0 F1299
; --- FIX Y Backlash ---
G0 X43.318 Y39.097 F1200
G1 X43.249 Y36.045 Z0 F1299
; --- FIX X Backlash ---
G0 X44.049 Y36.045 F1200
G1 X52.441 Y34.172 Z0 F1299
; --- FIX X Backlash ---
G0 X51.641 Y34.172 F1200
; --- FIX Y Backlash ---
G0 X51.641 Y34.972 F1200
G1 X51.572 Y40.105 Z0 F1299
G1 X40.821 Y42.74 Z0 F1299
; --- FIX Y Backlash ---
G0 X40.821 Y41.94 F1200
G1 Y31.467 Z0 F1299
; --- FIX X Backlash ---
G0 X41.621 Y31.467 F1200
G1 X52.927 Y28.207 Z0 F1299
; --- FIX X Backlash ---
G0 X52.127 Y28.207 F1200
; --- FIX Y Backlash ---
G0 X52.127 Y29.007 F1200
G1 X46.786 Y34.001 Z0 F1299
G0 Z3.5 F500

; Color picking sequence
G1 Z10 F1000;         ; Raise brush
G0 X131 Y5 F1200;    ; Rapid move to color 1
G1 Z10 F1000;         ; Raise brush
G0 X131 Y5 F1200;    ; Rapid move to color 1
G1 Z0 F1000;         ; Lower into color
G1 X130.102 Y7.295 Z0 S800 F1200
G1 X130.026 Y7.642 Z0 F1200
G1 X130 Y8 Z0 F1200
G1 X130.026 Y8.358 Z0 F1200
G1 X130.102 Y8.705 Z0 F1200
G1 X130.225 Y9.041 Z0 F1200
G1 X130.393 Y9.362 Z0 F1200
G1 X130.603 Y9.668 Z0 F1200
G1 X130.854 Y9.957 Z0 F1200
G1 X131.142 Y10.226 Z0 F1200
G1 X131.464 Y10.475 Z0 F1200
G1 X131.82 Y10.701 Z0 F1200
G1 X132.204 Y10.902 Z0 F1200
G1 X132.617 Y11.078 Z0 F1200
G1 X133.054 Y11.225 Z0 F1200
G1 X133.513 Y11.343 Z0 F1200
G1 X133.992 Y11.429 Z0 F1200
G1 X134.489 Y11.482 Z0 F1200
G1 X135 Y11.5 Z0 F1200
G1 X135.511 Y11.482 Z0 F1200
G1 X136.008 Y11.429 Z0 F1200
G1 X136.487 Y11.343 Z0 F1200
G1 X136.946 Y11.225 Z0 F1200
G1 X137.383 Y11.078 Z0 F1200
G1 X137.796 Y10.902 Z0 F1200
G1 X138.18 Y10.701 Z0 F1200
G1 X138.536 Y10.475 Z0 F1200
G1 X138.858 Y10.226 Z0 F1200
G1 X139.146 Y9.957 Z0 F1200
G1 X139.397 Y9.668 Z0 F1200
G1 X139.607 Y9.362 Z0 F1200
G1 X139.775 Y9.041 Z0 F1200
G1 X139.898 Y8.705 Z0 F1200
G1 X139.974 Y8.358 Z0 F1200
G1 X140 Y8 Z0 F1200
G1 X139.974 Y7.642 Z0 F1200
G1 X139.898 Y7.295 Z0 F1200
G1 X139.775 Y6.959 Z0 F1200
G1 X139.607 Y6.638 Z0 F1200
G1 X139.397 Y6.332 Z0 F1200
G1 X139.146 Y6.043 Z0 F1200
G1 X138.858 Y5.774 Z0 F1200
G1 X138.536 Y5.525 Z0 F1200
G1 X138.18 Y5.299 Z0 F1200
G1 X137.796 Y5.098 Z0 F1200
G1 X137.383 Y4.922 Z0 F1200
G1 X136.946 Y4.775 Z0 F1200
G1 X136.487 Y4.657 Z0 F1200
G1 X136.008 Y4.571 Z0 F1200
G1 X135.511 Y4.518 Z0 F1200
G1 X135 Y4.5 Z0 F1200
G1 X134.489 Y4.518 Z0 F1200
G1 X133.992 Y4.571 Z0 F1200
G1 X133.513 Y4.657 Z0 F1200
G1 X133.054 Y4.775 Z0 F1200
G1 X132.617 Y4.922 Z0 F1200
G1 X132.204 Y5.098 Z0 F1200
G1 X131.82 Y5.299 Z0 F1200
G1 X131.464 Y5.525 Z0 F1200
G1 X131.142 Y5.774 Z0 F1200
G1 X130.854 Y6.043 Z0 F1200
G1 X130.603 Y6.332 Z0 F1200
G1 X130.393 Y6.638 Z0 F1200
G1 X130.225 Y6.959 Z0 F1200
G1 Z7 F800;         ; Raise from color
G1 X124 Y8 Z1 F1200;     ; Movement in paint
G1 X114 Y18 Z8 F500;     ; Move in paint
G1 F1200;           ; Set feed rate
G0 Z3.5 F1000 ; Safety Lift
G0 X46.786 Y34.001 F1200 ; Return to pos
; --- FIX X Backlash ---
G0 X47.586 Y34.001 F1200
G0 X55.562 Y36.567 Z3.5
G1 Z0 F500
G1 X55.632 Y39.619 Z0 F1299
; --- FIX Y Backlash ---
G0 X55.632 Y38.819 F1200
G1 X66.937 Y37.085 Z0 F1299
G1 Y26.335 Z0 F1299
; --- FIX X Backlash ---
G0 X66.137 Y26.335 F1200
; --- FIX Y Backlash ---
G0 X66.137 Y27.135 F1200
G1 X54.97 Y28.73 Z0 F1299
G1 X54.901 Y33.862 Z0 F1299
; --- FIX X Backlash ---
G0 X55.701 Y33.862 F1200
; --- FIX Y Backlash ---
G0 X55.701 Y33.062 F1200
G1 X64.232 Y32.091 Z0 F1299
G1 Y28.693 Z0 F1299
; --- FIX X Backlash ---
G0 X63.432 Y28.693 F1200
; --- FIX Y Backlash ---
G0 X63.432 Y29.493 F1200
G1 X60.38 Y30.048 Z0 F1299
; --- FIX X Backlash ---
G0 X61.18 Y30.048 F1200
G1 X61.25 Y32.545 Z0 F1299
G0 Z3.5 F500
; --- FIX Y Backlash ---
G0 X61.25 Y31.745 F1200
G0 X73.038 Y31.421 Z3.5
G1 Z0 F500
G1 X76.962 Y31.224 Z0 F1299
G0 Z3.5 F500
; --- FIX Y Backlash ---
G0 X76.962 Y32.024 F1200
G0 X85.595 Y33.724 Z3.5
G1 Z0 F500
G1 X85.664 Y35.596 Z0 F1299
; --- FIX X Backlash ---
G0 X84.864 Y35.596 F1200
; --- FIX Y Backlash ---
G0 X84.864 Y34.796 F1200
G1 X81.674 Y34.658 Z0 F1299
; --- FIX X Backlash ---
G0 X82.474 Y34.658 F1200
G1 X82.612 Y31.398 Z0 F1299
; --- FIX Y Backlash ---
G0 X82.612 Y32.198 F1200
G1 X91.213 Y32.683 Z0 F1299
G1 Y38.301 Z0 F1299
; --- FIX X Backlash ---
G0 X90.413 Y38.301 F1200
; --- FIX Y Backlash ---
G0 X90.413 Y37.501 F1200
G1 X79.524 Y36.808 Z0 F1299
G1 X79.385 Y25.988 Z0 F1299
; --- FIX X Backlash ---
G0 X80.185 Y25.988 F1200
; --- FIX Y Backlash ---
G0 X80.185 Y26.788 F1200
G1 X91.282 Y27.689 Z0 F1299
G1 Y30.256 Z0 F1299
G0 Z3.5 F500

; Color picking sequence
G1 Z10 F1000;         ; Raise brush
G0 X131 Y5 F1200;    ; Rapid move to color 1
G1 Z10 F1000;         ; Raise brush
G0 X131 Y5 F1200;    ; Rapid move to color 1
G1 Z0 F1000;         ; Lower into color
G1 X130.102 Y7.295 Z0 S800 F1200
G1 X130.026 Y7.642 Z0 F1200
G1 X130 Y8 Z0 F1200
G1 X130.026 Y8.358 Z0 F1200
G1 X130.102 Y8.705 Z0 F1200
G1 X130.225 Y9.041 Z0 F1200
G1 X130.393 Y9.362 Z0 F1200
G1 X130.603 Y9.668 Z0 F1200
G1 X130.854 Y9.957 Z0 F1200
G1 X131.142 Y10.226 Z0 F1200
G1 X131.464 Y10.475 Z0 F1200
G1 X131.82 Y10.701 Z0 F1200
G1 X132.204 Y10.902 Z0 F1200
G1 X132.617 Y11.078 Z0 F1200
G1 X133.054 Y11.225 Z0 F1200
G1 X133.513 Y11.343 Z0 F1200
G1 X133.992 Y11.429 Z0 F1200
G1 X134.489 Y11.482 Z0 F1200
G1 X135 Y11.5 Z0 F1200
G1 X135.511 Y11.482 Z0 F1200
G1 X136.008 Y11.429 Z0 F1200
G1 X136.487 Y11.343 Z0 F1200
G1 X136.946 Y11.225 Z0 F1200
G1 X137.383 Y11.078 Z0 F1200
G1 X137.796 Y10.902 Z0 F1200
G1 X138.18 Y10.701 Z0 F1200
G1 X138.536 Y10.475 Z0 F1200
G1 X138.858 Y10.226 Z0 F1200
G1 X139.146 Y9.957 Z0 F1200
G1 X139.397 Y9.668 Z0 F1200
G1 X139.607 Y9.362 Z0 F1200
G1 X139.775 Y9.041 Z0 F1200
G1 X139.898 Y8.705 Z0 F1200
G1 X139.974 Y8.358 Z0 F1200
G1 X140 Y8 Z0 F1200
G1 X139.974 Y7.642 Z0 F1200
G1 X139.898 Y7.295 Z0 F1200
G1 X139.775 Y6.959 Z0 F1200
G1 X139.607 Y6.638 Z0 F1200
G1 X139.397 Y6.332 Z0 F1200
G1 X139.146 Y6.043 Z0 F1200
G1 X138.858 Y5.774 Z0 F1200
G1 X138.536 Y5.525 Z0 F1200
G1 X138.18 Y5.299 Z0 F1200
G1 X137.796 Y5.098 Z0 F1200
G1 X137.383 Y4.922 Z0 F1200
G1 X136.946 Y4.775 Z0 F1200
G1 X136.487 Y4.657 Z0 F1200
G1 X136.008 Y4.571 Z0 F1200
G1 X135.511 Y4.518 Z0 F1200
G1 X135 Y4.5 Z0 F1200
G1 X134.489 Y4.518 Z0 F1200
G1 X133.992 Y4.571 Z0 F1200
G1 X133.513 Y4.657 Z0 F1200
G1 X133.054 Y4.775 Z0 F1200
G1 X132.617 Y4.922 Z0 F1200
G1 X132.204 Y5.098 Z0 F1200
G1 X131.82 Y5.299 Z0 F1200
G1 X131.464 Y5.525 Z0 F1200
G1 X131.142 Y5.774 Z0 F1200
G1 X130.854 Y6.043 Z0 F1200
G1 X130.603 Y6.332 Z0 F1200
G1 X130.393 Y6.638 Z0 F1200
G1 X130.225 Y6.959 Z0 F1200
G1 Z7 F800;         ; Raise from color
G1 X124 Y8 Z1 F1200;     ; Movement in paint
G1 X114 Y18 Z8 F500;     ; Move in paint
G1 F1200;           ; Set feed rate
G0 Z3.5 F1000 ; Safety Lift
G0 X91.282 Y30.256 F1200 ; Return to pos
G0 X99.915 Y35.458 Z3.5
G1 Z0 F500
G1 Y37.714 Z0 F1299
; --- FIX X Backlash ---
G0 X99.115 Y37.714 F1200
; --- FIX Y Backlash ---
G0 X99.115 Y36.914 F1200
G1 X96.172 Y36.227 Z0 F1299
G1 X96.074 Y33.088 Z0 F1299
; --- FIX X Backlash ---
G0 X96.874 Y33.088 F1200
; --- FIX Y Backlash ---
G0 X96.874 Y33.888 F1200
G1 X105.309 Y35.85 Z0 F1299
G1 X105.408 Y41.343 Z0 F1299
; --- FIX X Backlash ---
G0 X104.608 Y41.343 F1200
; --- FIX Y Backlash ---
G0 X104.608 Y40.543 F1200
G1 X93.818 Y38.287 Z0 F1299
G1 Y27.301 Z0 F1299
; --- FIX X Backlash ---
G0 X94.618 Y27.301 F1200
; --- FIX Y Backlash ---
G0 X94.618 Y28.101 F1200
G1 X105.506 Y30.455 Z0 F1299
G1 X105.702 Y33.3 Z0 F1299
G0 Z3.5 F500
G0 X114.824 Y36.635 Z3.5
G1 Z0 F500
; --- FIX Y Backlash ---
G0 X114.824 Y35.835 F1200
G1 X118.846 Y34.363 Z0 F1299
; --- FIX X Backlash ---
G0 X118.046 Y34.363 F1200
G1 X108.041 Y30.538 Z0 F1299
; --- FIX Y Backlash ---
G0 X108.041 Y31.338 F1200
G1 Y42.226 Z0 F1299
; --- FIX X Backlash ---
G0 X108.841 Y42.226 F1200
G1 X119.042 Y46.051 Z0 F1299
; --- FIX X Backlash ---
G0 X118.242 Y46.051 F1200
; --- FIX Y Backlash ---
G0 X118.242 Y45.251 F1200
G1 X113.239 Y37.404 Z0 F1299
G1 X110.297 Y36.914 Z0 F1299
; --- FIX Y Backlash ---
G0 X110.297 Y37.714 F1200
G1 Y40.754 Z0 F1299
; --- FIX X Backlash ---
G0 X111.097 Y40.754 F1200
G1 X113.745 Y41.539 Z0 F1299
; --- FIX Y Backlash ---
G0 X113.745 Y40.739 F1200
G1 X113.843 Y38.679 Z0 F1299
G0 Z3.5 F500
; --- FIX X Backlash ---
G0 X113.043 Y38.679 F1200
G0 X69.296 Y37.012 Z3.5
G1 Z0 F500
G1 Y26.026 Z0 F1299

; Washing sequence (no color)
G1 Z10 F1000;        ; Raise brush
G0 X5 Y5 F1200;     ; Rapid move to clean
G1 Z0 F800;         ; Lower brush
G1 X10 Y12 Z8 F1200;     ; Move
G1 Z0 F800;         ; Lower
G1 X25 Y14 Z6 F800;     ; Move
G1 Z8 F800;         ; Maintain
G0 X5 Y5 F1200;     ; Rapid
G1 Z0 F800;         ; Lower
G1 X15 Y12 Z8 F1200;     ; Move
G1 Z0 F800;         ; Lower
G1 X25 Y14 Z6 F800;     ; Move
G1 Z10 F800;         ; Maintain
G1 F1200;           ; Set feed
G0 Z3.5 F1000 ; Safety Lift

; Color picking sequence
G1 Z10 F1000;         ; Raise brush
G0 X41 Y5 F1200;    ; Rapid move to color 1
G1 Z10 F1000;         ; Raise brush
G0 X41 Y5 F1200;    ; Rapid move to color 1
G1 Z0 F1000;         ; Lower into color
G1 X40.102 Y7.295 Z0 S800 F1200
G1 X40.026 Y7.642 Z0 F1200
G1 X40 Y8 Z0 F1200
G1 X40.026 Y8.358 Z0 F1200
G1 X40.102 Y8.705 Z0 F1200
G1 X40.225 Y9.041 Z0 F1200
G1 X40.393 Y9.362 Z0 F1200
G1 X40.603 Y9.668 Z0 F1200
G1 X40.854 Y9.957 Z0 F1200
G1 X41.142 Y10.226 Z0 F1200
G1 X41.464 Y10.475 Z0 F1200
G1 X41.82 Y10.701 Z0 F1200
G1 X42.204 Y10.902 Z0 F1200
G1 X42.617 Y11.078 Z0 F1200
G1 X43.054 Y11.225 Z0 F1200
G1 X43.513 Y11.343 Z0 F1200
G1 X43.992 Y11.429 Z0 F1200
G1 X44.489 Y11.482 Z0 F1200
G1 X45 Y11.5 Z0 F1200
G1 X45.511 Y11.482 Z0 F1200
G1 X46.008 Y11.429 Z0 F1200
G1 X46.487 Y11.343 Z0 F1200
G1 X46.946 Y11.225 Z0 F1200
G1 X47.383 Y11.078 Z0 F1200
G1 X47.796 Y10.902 Z0 F1200
G1 X48.18 Y10.701 Z0 F1200
G1 X48.536 Y10.475 Z0 F1200
G1 X48.858 Y10.226 Z0 F1200
G1 X49.146 Y9.957 Z0 F1200
G1 X49.397 Y9.668 Z0 F1200
G1 X49.607 Y9.362 Z0 F1200
G1 X49.775 Y9.041 Z0 F1200
G1 X49.898 Y8.705 Z0 F1200
G1 X49.974 Y8.358 Z0 F1200
G1 X50 Y8 Z0 F1200
G1 X49.974 Y7.642 Z0 F1200
G1 X49.898 Y7.295 Z0 F1200
G1 X49.775 Y6.959 Z0 F1200
G1 X49.607 Y6.638 Z0 F1200
G1 X49.397 Y6.332 Z0 F1200
G1 X49.146 Y6.043 Z0 F1200
G1 X48.858 Y5.774 Z0 F1200
G1 X48.536 Y5.525 Z0 F1200
G1 X48.18 Y5.299 Z0 F1200
G1 X47.796 Y5.098 Z0 F1200
G1 X47.383 Y4.922 Z0 F1200
G1 X46.946 Y4.775 Z0 F1200
G1 X46.487 Y4.657 Z0 F1200
G1 X46.008 Y4.571 Z0 F1200
G1 X45.511 Y4.518 Z0 F1200
G1 X45 Y4.5 Z0 F1200
G1 X44.489 Y4.518 Z0 F1200
G1 X43.992 Y4.571 Z0 F1200
G1 X43.513 Y4.657 Z0 F1200
G1 X43.054 Y4.775 Z0 F1200
G1 X42.617 Y4.922 Z0 F1200
G1 X42.204 Y5.098 Z0 F1200
G1 X41.82 Y5.299 Z0 F1200
G1 X41.464 Y5.525 Z0 F1200
G1 X41.142 Y5.774 Z0 F1200
G1 X40.854 Y6.043 Z0 F1200
G1 X40.603 Y6.332 Z0 F1200
G1 X40.393 Y6.638 Z0 F1200
G1 X40.225 Y6.959 Z0 F1200
G1 Z7 F800;         ; Raise from color
G1 X34 Y8 Z1 F1200;     ; Movement in paint
G1 X24 Y18 Z8 F500;     ; Move in paint
G1 F1200;           ; Set feed rate
G0 Z3.5 F1000 ; Safety Lift
;Offset @ 1500 mm/min, 80% power

M8
G0 Z3.5 F500
; --- FIX Y Backlash ---
G0 X69.296 Y26.826 F1200
G0 X47.709 Y56.647 Z3.5
G1 Z0 F500
;Layer C3
; --- FIX X Backlash ---
G0 X48.509 Y56.647 F1200
G1 X48.876 Y56.825 Z0 F1500
; --- FIX X Backlash ---
G0 X48.076 Y56.825 F1200
G1 X47.465 Y56.933 Z0 F1500
; --- FIX Y Backlash ---
G0 X47.465 Y56.133 F1200
G1 X47.418 Y55.722 Z0 F1500
; --- FIX X Backlash ---
G0 X48.218 Y55.722 F1200
; --- FIX Y Backlash ---
G0 X48.218 Y56.522 F1200
G1 X48.509 Y56.647 Z0 F1500
G0 Z3.5 F500
G0 X50.087 Y57.422 Z3.5 F1500
G1 Z0 F500
; --- FIX X Backlash ---
G0 X49.287 Y57.422 F1200
G1 X46.767 Y57.868 Z0 F1500
; --- FIX Y Backlash ---
G0 X46.767 Y57.068 F1200
G1 X46.468 Y54.456 Z0 F1500
; --- FIX X Backlash ---
G0 X47.268 Y54.456 F1200
; --- FIX Y Backlash ---
G0 X47.268 Y55.256 F1200
G1 X47.508 Y55.346 Z0 F1500
G1 X48.842 Y55.92 Z0 F1500
G1 X50.198 Y56.573 Z0 F1500
G1 X51.452 Y57.238 Z0 F1500
; --- FIX X Backlash ---
G0 X50.652 Y57.238 F1200
G1 X50.223 Y57.287 Z0 F1500
G1 X49.287 Y57.422 Z0 F1500
G0 Z3.5 F500
; --- FIX X Backlash ---
G0 X50.087 Y57.422 F1200
G0 X50.32 Y66.427 Z3.5
G1 Z0 F500
; --- FIX Y Backlash ---
G0 X50.32 Y65.627 F1200
G1 X50.558 Y65.559 Z0 F1500
G1 X51.099 Y65.428 Z0 F1500
; --- FIX X Backlash ---
G0 X50.299 Y65.428 F1200
; --- FIX Y Backlash ---
G0 X50.299 Y66.228 F1200
G1 X50.238 Y66.659 Z0 F1500
; --- FIX Y Backlash ---
G0 X50.238 Y65.859 F1200
G1 X49.52 Y65.627 Z0 F1500
G0 Z3.5 F500
G0 X47.521 Y65.368 Z3.5
G1 Z0 F500
; --- FIX X Backlash ---
G0 X48.321 Y65.368 F1200
G1 X50.354 Y64.785 Z0 F1500
G1 X52.057 Y64.372 Z0 F1500
; --- FIX X Backlash ---
G0 X51.257 Y64.372 F1200
; --- FIX Y Backlash ---
G0 X51.257 Y65.172 F1200
G1 X51.192 Y65.63 Z0 F1500
G1 X50.893 Y67.729 Z0 F1500
; --- FIX Y Backlash ---
G0 X50.893 Y66.929 F1200
G1 X50.447 Y66.767 Z0 F1500
G1 X49.079 Y66.326 Z0 F1500
G1 X47.726 Y65.948 Z0 F1500
G1 X46.96 Y65.774 Z0 F1500
G1 X45.525 Y53.254 Z0 F1500
; --- FIX X Backlash ---
G0 X46.325 Y53.254 F1200
G1 X46.469 Y53.3 Z0 F1500
; --- FIX Y Backlash ---
G0 X46.469 Y54.1 F1200
G1 X47.809 Y54.605 Z0 F1500
G1 X49.171 Y55.191 Z0 F1500
G1 X50.563 Y55.861 Z0 F1500
G1 X51.97 Y56.607 Z0 F1500
G1 X53.377 Y57.421 Z0 F1500
G1 X54.062 Y57.848 Z0 F1500
; --- FIX X Backlash ---
G0 X53.262 Y57.848 F1200
G1 X52.177 Y57.896 Z0 F1500
G1 X51.245 Y57.976 Z0 F1500
G1 X50.325 Y58.081 Z0 F1500
G1 X49.414 Y58.212 Z0 F1500
G1 X46.872 Y58.662 Z0 F1500
; --- FIX X Backlash ---
G0 X47.672 Y58.662 F1200
G1 X49.863 Y60.564 Z0 F1500
G1 X50.798 Y61.411 Z0 F1500
G1 X51.725 Y62.29 Z0 F1500
G1 X52.373 Y62.935 Z0 F1500
; --- FIX X Backlash ---
G0 X51.573 Y62.935 F1200
G1 X51.385 Y64.262 Z0 F1500
; --- FIX Y Backlash ---
G0 X51.385 Y63.462 F1200
G1 X49.75 Y61.855 Z0 F1500
G1 X46.901 Y59.188 Z0 F1500
; --- FIX X Backlash ---
G0 X47.701 Y59.188 F1200
; --- FIX Y Backlash ---
G0 X47.701 Y59.988 F1200
G1 X48.049 Y63.667 Z0 F1500
G1 X48.321 Y66.168 Z0 F1500
G0 Z3.5 F500
; --- FIX Y Backlash ---
G0 X48.321 Y65.368 F1200
G0 X49.014 Y64.337 Z3.5
G1 Z0 F500
G1 X50.145 Y64.013 Z0 F1500
G1 X51.315 Y63.729 Z0 F1500
; --- FIX X Backlash ---
G0 X50.515 Y63.729 F1200
G1 X49.196 Y62.432 Z0 F1500
G1 X47.896 Y61.215 Z0 F1500
; --- FIX X Backlash ---
G0 X48.696 Y61.215 F1200
; --- FIX Y Backlash ---
G0 X48.696 Y62.015 F1200
G1 X48.845 Y63.586 Z0 F1500
G1 X49.014 Y65.137 Z0 F1500
G0 Z3.5 F500
G0 X49.648 Y67.892 Z3.5
G1 Z0 F500
; --- FIX X Backlash ---
G0 X48.848 Y67.892 F1200
; --- FIX Y Backlash ---
G0 X48.848 Y67.092 F1200
G1 X47.529 Y66.724 Z0 F1500
G1 X46.229 Y66.428 Z0 F1500
G1 X44.589 Y52.114 Z0 F1500
; --- FIX X Backlash ---
G0 X45.389 Y52.114 F1200
; --- FIX Y Backlash ---
G0 X45.389 Y52.914 F1200
G1 X46.734 Y53.345 Z0 F1500
G1 X48.107 Y53.862 Z0 F1500
G1 X49.504 Y54.463 Z0 F1500
G1 X50.922 Y55.146 Z0 F1500
G1 X52.355 Y55.906 Z0 F1500
G1 X53.801 Y56.742 Z0 F1500
G1 X55.255 Y57.65 Z0 F1500
G1 X56.713 Y58.628 Z0 F1500
; --- FIX X Backlash ---
G0 X55.913 Y58.628 F1200
G1 X54.058 Y58.614 Z0 F1500
G1 X52.229 Y58.694 Z0 F1500
G1 X51.325 Y58.771 Z0 F1500
G1 X50.429 Y58.874 Z0 F1500
G1 X49.541 Y59.002 Z0 F1500
G1 X48.663 Y59.158 Z0 F1500
; --- FIX X Backlash ---
G0 X49.463 Y59.158 F1200
G1 X50.4 Y59.971 Z0 F1500
G1 X51.342 Y60.824 Z0 F1500
G1 X52.284 Y61.717 Z0 F1500
G1 X53.221 Y62.65 Z0 F1500
; --- FIX X Backlash ---
G0 X52.421 Y62.65 F1200
G1 X51.984 Y65.742 Z0 F1500
G1 X51.547 Y68.815 Z0 F1500
; --- FIX Y Backlash ---
G0 X51.547 Y68.015 F1200
G1 X50.188 Y67.525 Z0 F1500
G1 X48.848 Y67.092 Z0 F1500
G0 Z3.5 F500

; Color picking sequence
G1 Z10 F1000;         ; Raise brush
G0 X41 Y5 F1200;    ; Rapid move to color 1
G1 Z10 F1000;         ; Raise brush
G0 X41 Y5 F1200;    ; Rapid move to color 1
G1 Z0 F1000;         ; Lower into color
G1 X40.102 Y7.295 Z0 S800 F1200
G1 X40.026 Y7.642 Z0 F1200
G1 X40 Y8 Z0 F1200
G1 X40.026 Y8.358 Z0 F1200
G1 X40.102 Y8.705 Z0 F1200
G1 X40.225 Y9.041 Z0 F1200
G1 X40.393 Y9.362 Z0 F1200
G1 X40.603 Y9.668 Z0 F1200
G1 X40.854 Y9.957 Z0 F1200
G1 X41.142 Y10.226 Z0 F1200
G1 X41.464 Y10.475 Z0 F1200
G1 X41.82 Y10.701 Z0 F1200
G1 X42.204 Y10.902 Z0 F1200
G1 X42.617 Y11.078 Z0 F1200
G1 X43.054 Y11.225 Z0 F1200
G1 X43.513 Y11.343 Z0 F1200
G1 X43.992 Y11.429 Z0 F1200
G1 X44.489 Y11.482 Z0 F1200
G1 X45 Y11.5 Z0 F1200
G1 X45.511 Y11.482 Z0 F1200
G1 X46.008 Y11.429 Z0 F1200
G1 X46.487 Y11.343 Z0 F1200
G1 X46.946 Y11.225 Z0 F1200
G1 X47.383 Y11.078 Z0 F1200
G1 X47.796 Y10.902 Z0 F1200
G1 X48.18 Y10.701 Z0 F1200
G1 X48.536 Y10.475 Z0 F1200
G1 X48.858 Y10.226 Z0 F1200
G1 X49.146 Y9.957 Z0 F1200
G1 X49.397 Y9.668 Z0 F1200
G1 X49.607 Y9.362 Z0 F1200
G1 X49.775 Y9.041 Z0 F1200
G1 X49.898 Y8.705 Z0 F1200
G1 X49.974 Y8.358 Z0 F1200
G1 X50 Y8 Z0 F1200
G1 X49.974 Y7.642 Z0 F1200
G1 X49.898 Y7.295 Z0 F1200
G1 X49.775 Y6.959 Z0 F1200
G1 X49.607 Y6.638 Z0 F1200
G1 X49.397 Y6.332 Z0 F1200
G1 X49.146 Y6.043 Z0 F1200
G1 X48.858 Y5.774 Z0 F1200
G1 X48.536 Y5.525 Z0 F1200
G1 X48.18 Y5.299 Z0 F1200
G1 X47.796 Y5.098 Z0 F1200
G1 X47.383 Y4.922 Z0 F1200
G1 X46.946 Y4.775 Z0 F1200
G1 X46.487 Y4.657 Z0 F1200
G1 X46.008 Y4.571 Z0 F1200
G1 X45.511 Y4.518 Z0 F1200
G1 X45 Y4.5 Z0 F1200
G1 X44.489 Y4.518 Z0 F1200
G1 X43.992 Y4.571 Z0 F1200
G1 X43.513 Y4.657 Z0 F1200
G1 X43.054 Y4.775 Z0 F1200
G1 X42.617 Y4.922 Z0 F1200
G1 X42.204 Y5.098 Z0 F1200
G1 X41.82 Y5.299 Z0 F1200
G1 X41.464 Y5.525 Z0 F1200
G1 X41.142 Y5.774 Z0 F1200
G1 X40.854 Y6.043 Z0 F1200
G1 X40.603 Y6.332 Z0 F1200
G1 X40.393 Y6.638 Z0 F1200
G1 X40.225 Y6.959 Z0 F1200
G1 Z7 F800;         ; Raise from color
G1 X34 Y8 Z1 F1200;     ; Movement in paint
G1 X24 Y18 Z8 F500;     ; Move in paint
G1 F1200;           ; Set feed rate
G0 Z3.5 F1000 ; Safety Lift
G0 X48.848 Y67.092 F1200 ; Return to pos
; --- FIX Y Backlash ---
G0 X48.848 Y67.892 F1200
G0 X48.02 Y74.014 Z3.5
G1 Z0 F500
; --- FIX X Backlash ---
G0 X48.82 Y74.014 F1200
G1 X48.966 Y74.101 Z0 F1500
; --- FIX X Backlash ---
G0 X48.166 Y74.101 F1200
G1 X47.986 Y74.104 Z0 F1500
; --- FIX Y Backlash ---
G0 X47.986 Y73.304 F1200
G1 X47.972 Y73.187 Z0 F1500
G1 X48.02 Y73.214 Z0 F1500
G0 Z3.5 F500
; --- FIX X Backlash ---
G0 X48.82 Y73.214 F1200
; --- FIX Y Backlash ---
G0 X48.82 Y74.014 F1200
G0 X51.62 Y74.856 Z3.5
G1 Z0 F500
; --- FIX X Backlash ---
G0 X50.82 Y74.856 F1200
G1 X47.277 Y74.916 Z0 F1500
; --- FIX Y Backlash ---
G0 X47.277 Y74.116 F1200
G1 X46.994 Y71.742 Z0 F1500
; --- FIX X Backlash ---
G0 X47.794 Y71.742 F1200
G1 X47.88 Y71.785 Z0 F1500
; --- FIX Y Backlash ---
G0 X47.88 Y72.585 F1200
G1 X49.216 Y73.319 Z0 F1500
G1 X50.602 Y74.147 Z0 F1500
G1 X51.705 Y74.859 Z0 F1500
; --- FIX X Backlash ---
G0 X50.905 Y74.859 F1200
G1 X50.82 Y74.856 Z0 F1500
G0 Z3.5 F500
G0 X47.564 Y77.327 Z3.5
G1 Z0 F500
; --- FIX X Backlash ---
G0 X48.364 Y77.327 F1200
G1 X48.604 Y77.573 Z0 F1500
; --- FIX X Backlash ---
G0 X47.804 Y77.573 F1200
G1 X47.604 Y77.665 Z0 F1500
; --- FIX Y Backlash ---
G0 X47.604 Y76.865 F1200
G1 X47.564 Y76.527 Z0 F1500
G0 Z3.5 F500
G0 X47.109 Y74.919 Z3.5
G1 Z0 F500
; --- FIX X Backlash ---
G0 X47.909 Y74.919 F1200
; --- FIX Y Backlash ---
G0 X47.909 Y75.719 F1200
G1 X50.091 Y77.948 Z0 F1500
G1 X50.984 Y78.897 Z0 F1500
G1 X51.859 Y79.862 Z0 F1500
G1 X52.465 Y80.552 Z0 F1500
; --- FIX X Backlash ---
G0 X51.665 Y80.552 F1200
G1 X51.408 Y81.471 Z0 F1500
; --- FIX Y Backlash ---
G0 X51.408 Y80.671 F1200
G1 X50.093 Y79.172 Z0 F1500
G1 X48.437 Y77.364 Z0 F1500
; --- FIX Y Backlash ---
G0 X48.437 Y78.164 F1200
G1 X47.377 Y78.649 Z0 F1500
; --- FIX X Backlash ---
G0 X48.177 Y78.649 F1200
G1 X48.427 Y80.763 Z0 F1500
G1 X48.675 Y83.104 Z0 F1500
; --- FIX Y Backlash ---
G0 X48.675 Y82.304 F1200
G1 X50.557 Y82.054 Z0 F1500
G1 X51.861 Y81.908 Z0 F1500
; --- FIX Y Backlash ---
G0 X51.861 Y82.708 F1200
G1 X51.829 Y82.824 Z0 F1500
; --- FIX X Backlash ---
G0 X51.029 Y82.824 F1200
G1 X50.533 Y84.569 Z0 F1500
; --- FIX Y Backlash ---
G0 X50.533 Y83.769 F1200
G1 X50.285 Y83.651 Z0 F1500
G1 X49.177 Y83.168 Z0 F1500
G1 X48.076 Y82.73 Z0 F1500
G1 X47.468 Y82.511 Z0 F1500
G1 X46.693 Y75.98 Z0 F1500
G1 X46.025 Y70.371 Z0 F1500
; --- FIX X Backlash ---
G0 X46.825 Y70.371 F1200
G1 X46.889 Y70.399 Z0 F1500
; --- FIX Y Backlash ---
G0 X46.889 Y71.199 F1200
G1 X48.24 Y71.87 Z0 F1500
G1 X49.624 Y72.63 Z0 F1500
G1 X51.02 Y73.465 Z0 F1500
G1 X52.441 Y74.382 Z0 F1500
G1 X53.865 Y75.365 Z0 F1500
G1 X54.457 Y75.799 Z0 F1500
; --- FIX X Backlash ---
G0 X53.657 Y75.799 F1200
; --- FIX Y Backlash ---
G0 X53.657 Y74.999 F1200
G1 X52.708 Y74.922 Z0 F1500
G1 X50.812 Y74.857 Z0 F1500
; --- FIX Y Backlash ---
G0 X50.812 Y75.657 F1200
G1 X47.109 Y75.719 Z0 F1500
G0 Z3.5 F500
; --- FIX X Backlash ---
G0 X47.909 Y75.719 F1200
G0 X49.04 Y79.134 Z3.5
G1 Z0 F500
G1 X49.222 Y80.678 Z0 F1500
G1 X49.384 Y82.203 Z0 F1500
; --- FIX Y Backlash ---
G0 X49.384 Y81.403 F1200
G1 X50.459 Y81.261 Z0 F1500
G1 X51.554 Y81.138 Z0 F1500
; --- FIX X Backlash ---
G0 X50.754 Y81.138 F1200
G1 X49.497 Y79.706 Z0 F1500
G1 X48.24 Y78.334 Z0 F1500
G0 Z3.5 F500
G0 X45.899 Y76.075 Z3.5
G1 Z0 F500
G1 X45.065 Y69.073 Z0 F1500
; --- FIX X Backlash ---
G0 X45.865 Y69.073 F1200
; --- FIX Y Backlash ---
G0 X45.865 Y69.873 F1200
G1 X47.228 Y70.474 Z0 F1500
G1 X48.614 Y71.163 Z0 F1500
G1 X50.021 Y71.935 Z0 F1500
G1 X51.444 Y72.787 Z0 F1500
G1 X52.882 Y73.714 Z0 F1500
G1 X54.33 Y74.714 Z0 F1500
G1 X55.784 Y75.781 Z0 F1500
G1 X57.242 Y76.911 Z0 F1500
; --- FIX X Backlash ---
G0 X56.442 Y76.911 F1200
; --- FIX Y Backlash ---
G0 X56.442 Y76.111 F1200
G1 X54.543 Y75.874 Z0 F1500
G1 X52.662 Y75.721 Z0 F1500
G1 X50.805 Y75.657 Z0 F1500
G1 X48.981 Y75.688 Z0 F1500
; --- FIX X Backlash ---
G0 X49.781 Y75.688 F1200
; --- FIX Y Backlash ---
G0 X49.781 Y76.488 F1200
G1 X50.674 Y77.4 Z0 F1500
G1 X51.567 Y78.35 Z0 F1500
G1 X52.46 Y79.334 Z0 F1500
G1 X53.353 Y80.351 Z0 F1500
; --- FIX X Backlash ---
G0 X52.553 Y80.351 F1200
G1 X51.799 Y83.043 Z0 F1500
G1 X51.045 Y85.695 Z0 F1500
; --- FIX Y Backlash ---
G0 X51.045 Y84.895 F1200
G1 X49.954 Y84.38 Z0 F1500
G1 X48.868 Y83.907 Z0 F1500
G1 X47.793 Y83.478 Z0 F1500
G1 X46.732 Y83.096 Z0 F1500
G1 X45.899 Y76.075 Z0 F1500
G0 Z3.5 F500

; Color picking sequence
G1 Z10 F1000;         ; Raise brush
G0 X41 Y5 F1200;    ; Rapid move to color 1
G1 Z10 F1000;         ; Raise brush
G0 X41 Y5 F1200;    ; Rapid move to color 1
G1 Z0 F1000;         ; Lower into color
G1 X40.102 Y7.295 Z0 S800 F1200
G1 X40.026 Y7.642 Z0 F1200
G1 X40 Y8 Z0 F1200
G1 X40.026 Y8.358 Z0 F1200
G1 X40.102 Y8.705 Z0 F1200
G1 X40.225 Y9.041 Z0 F1200
G1 X40.393 Y9.362 Z0 F1200
G1 X40.603 Y9.668 Z0 F1200
G1 X40.854 Y9.957 Z0 F1200
G1 X41.142 Y10.226 Z0 F1200
G1 X41.464 Y10.475 Z0 F1200
G1 X41.82 Y10.701 Z0 F1200
G1 X42.204 Y10.902 Z0 F1200
G1 X42.617 Y11.078 Z0 F1200
G1 X43.054 Y11.225 Z0 F1200
G1 X43.513 Y11.343 Z0 F1200
G1 X43.992 Y11.429 Z0 F1200
G1 X44.489 Y11.482 Z0 F1200
G1 X45 Y11.5 Z0 F1200
G1 X45.511 Y11.482 Z0 F1200
G1 X46.008 Y11.429 Z0 F1200
G1 X46.487 Y11.343 Z0 F1200
G1 X46.946 Y11.225 Z0 F1200
G1 X47.383 Y11.078 Z0 F1200
G1 X47.796 Y10.902 Z0 F1200
G1 X48.18 Y10.701 Z0 F1200
G1 X48.536 Y10.475 Z0 F1200
G1 X48.858 Y10.226 Z0 F1200
G1 X49.146 Y9.957 Z0 F1200
G1 X49.397 Y9.668 Z0 F1200
G1 X49.607 Y9.362 Z0 F1200
G1 X49.775 Y9.041 Z0 F1200
G1 X49.898 Y8.705 Z0 F1200
G1 X49.974 Y8.358 Z0 F1200
G1 X50 Y8 Z0 F1200
G1 X49.974 Y7.642 Z0 F1200
G1 X49.898 Y7.295 Z0 F1200
G1 X49.775 Y6.959 Z0 F1200
G1 X49.607 Y6.638 Z0 F1200
G1 X49.397 Y6.332 Z0 F1200
G1 X49.146 Y6.043 Z0 F1200
G1 X48.858 Y5.774 Z0 F1200
G1 X48.536 Y5.525 Z0 F1200
G1 X48.18 Y5.299 Z0 F1200
G1 X47.796 Y5.098 Z0 F1200
G1 X47.383 Y4.922 Z0 F1200
G1 X46.946 Y4.775 Z0 F1200
G1 X46.487 Y4.657 Z0 F1200
G1 X46.008 Y4.571 Z0 F1200
G1 X45.511 Y4.518 Z0 F1200
G1 X45 Y4.5 Z0 F1200
G1 X44.489 Y4.518 Z0 F1200
G1 X43.992 Y4.571 Z0 F1200
G1 X43.513 Y4.657 Z0 F1200
G1 X43.054 Y4.775 Z0 F1200
G1 X42.617 Y4.922 Z0 F1200
G1 X42.204 Y5.098 Z0 F1200
G1 X41.82 Y5.299 Z0 F1200
G1 X41.464 Y5.525 Z0 F1200
G1 X41.142 Y5.774 Z0 F1200
G1 X40.854 Y6.043 Z0 F1200
G1 X40.603 Y6.332 Z0 F1200
G1 X40.393 Y6.638 Z0 F1200
G1 X40.225 Y6.959 Z0 F1200
G1 Z7 F800;         ; Raise from color
G1 X34 Y8 Z1 F1200;     ; Movement in paint
G1 X24 Y18 Z8 F500;     ; Move in paint
G1 F1200;           ; Set feed rate
G0 Z3.5 F1000 ; Safety Lift
G0 X45.899 Y76.075 F1200 ; Return to pos
G0 X35.822 Y61.702 Z3.5
G1 Z0 F500
G1 X35.692 Y61.589 Z0 F1500
G1 X35.387 Y61.336 Z0 F1500
; --- FIX X Backlash ---
G0 X36.187 Y61.336 F1200
G1 X36.252 Y61.229 Z0 F1500
; --- FIX Y Backlash ---
G0 X36.252 Y62.029 F1200
G1 X36.622 Y62.502 Z0 F1500
G0 Z3.5 F500
G0 X37.851 Y64.763 Z3.5
G1 Z0 F500
; --- FIX X Backlash ---
G0 X37.051 Y64.763 F1200
; --- FIX Y Backlash ---
G0 X37.051 Y63.963 F1200
G1 X36.574 Y63.486 Z0 F1500
G1 X36.102 Y63.032 Z0 F1500
G1 X35.636 Y62.603 Z0 F1500
G1 X35.173 Y62.197 Z0 F1500
G1 X34.353 Y61.517 Z0 F1500
; --- FIX X Backlash ---
G0 X35.153 Y61.517 F1200
G1 X35.266 Y61.308 Z0 F1500
G1 X35.715 Y60.574 Z0 F1500
G1 X36.193 Y59.882 Z0 F1500
; --- FIX Y Backlash ---
G0 X36.193 Y60.682 F1200
G1 X36.827 Y61.464 Z0 F1500
G1 X37.594 Y62.449 Z0 F1500
G1 X38.388 Y63.502 Z0 F1500
G1 X39.22 Y64.644 Z0 F1500
G1 X39.576 Y65.148 Z0 F1500
G1 X39.768 Y66.851 Z0 F1500
; --- FIX X Backlash ---
G0 X38.968 Y66.851 F1200
; --- FIX Y Backlash ---
G0 X38.968 Y66.051 F1200
G1 X38.519 Y65.54 Z0 F1500
G1 X38.024 Y64.992 Z0 F1500
G1 X37.534 Y64.465 Z0 F1500
G1 X37.051 Y63.963 Z0 F1500
G0 Z3.5 F500
G0 X33.776 Y60.904 Z3.5
G1 Z0 F500
; --- FIX X Backlash ---
G0 X34.576 Y60.904 F1200
G1 X35.042 Y60.14 Z0 F1500
G1 X35.553 Y59.401 Z0 F1500
G1 X36.074 Y58.73 Z0 F1500
G1 X36.176 Y58.613 Z0 F1500
; --- FIX Y Backlash ---
G0 X36.176 Y59.413 F1200
G1 X36.681 Y60.012 Z0 F1500
G1 X37.45 Y60.961 Z0 F1500
G1 X38.231 Y61.964 Z0 F1500
G1 X39.024 Y63.016 Z0 F1500
G1 X39.867 Y64.173 Z0 F1500
G1 X40.348 Y64.854 Z0 F1500
G1 X40.863 Y69.423 Z0 F1500
; --- FIX X Backlash ---
G0 X40.063 Y69.423 F1200
; --- FIX Y Backlash ---
G0 X40.063 Y68.623 F1200
G1 X39.95 Y68.48 Z0 F1500
G1 X39.429 Y67.838 Z0 F1500
G1 X38.92 Y67.226 Z0 F1500
G1 X38.418 Y66.637 Z0 F1500
G1 X37.922 Y66.072 Z0 F1500
G1 X37.434 Y65.532 Z0 F1500
G1 X36.953 Y65.015 Z0 F1500
G1 X36.479 Y64.523 Z0 F1500
G1 X36.013 Y64.057 Z0 F1500
G1 X35.554 Y63.615 Z0 F1500
G1 X35.101 Y63.198 Z0 F1500
G1 X34.654 Y62.806 Z0 F1500
G1 X33.338 Y61.715 Z0 F1500
; --- FIX X Backlash ---
G0 X34.138 Y61.715 F1200
G1 X34.576 Y60.904 Z0 F1500
G0 Z3.5 F500
G0 X36.545 Y57.809 Z3.5
G1 Z0 F500
; --- FIX Y Backlash ---
G0 X36.545 Y58.609 F1200
G1 X37.285 Y59.487 Z0 F1500
G1 X38.08 Y60.469 Z0 F1500
G1 X38.865 Y61.476 Z0 F1500
G1 X39.67 Y62.545 Z0 F1500
G1 X40.513 Y63.702 Z0 F1500
G1 X41.12 Y64.561 Z0 F1500
G1 X41.979 Y72.187 Z0 F1500
; --- FIX X Backlash ---
G0 X41.179 Y72.187 F1200
; --- FIX Y Backlash ---
G0 X41.179 Y71.387 F1200
G1 X40.364 Y70.303 Z0 F1500
G1 X39.325 Y68.979 Z0 F1500
G1 X38.811 Y68.346 Z0 F1500
G1 X38.308 Y67.742 Z0 F1500
G1 X37.812 Y67.16 Z0 F1500
G1 X37.324 Y66.604 Z0 F1500
G1 X36.845 Y66.073 Z0 F1500
G1 X36.372 Y65.565 Z0 F1500
G1 X35.908 Y65.083 Z0 F1500
G1 X35.453 Y64.628 Z0 F1500
G1 X35.006 Y64.197 Z0 F1500
G1 X34.567 Y63.793 Z0 F1500
G1 X34.135 Y63.415 Z0 F1500
G1 X32.348 Y61.934 Z0 F1500
; --- FIX X Backlash ---
G0 X33.148 Y61.934 F1200
G1 X33.412 Y61.376 Z0 F1500
G1 X33.88 Y60.507 Z0 F1500
G1 X34.375 Y59.698 Z0 F1500
G1 X34.901 Y58.936 Z0 F1500
G1 X35.461 Y58.215 Z0 F1500
G1 X36.05 Y57.537 Z0 F1500
G1 X36.185 Y57.399 Z0 F1500
; --- FIX Y Backlash ---
G0 X36.185 Y58.199 F1200
G1 X36.545 Y58.609 Z0 F1500
G0 Z3.5 F500
; --- FIX X Backlash ---
G0 X35.745 Y58.609 F1200
G0 X32.512 Y91.401 Z3.5
G1 Z0 F500
G1 X32.36 Y91.398 Z0 F1500
; --- FIX Y Backlash ---
G0 X32.36 Y90.598 F1200
G1 X32.377 Y90.433 Z0 F1500
; --- FIX X Backlash ---
G0 X33.177 Y90.433 F1200
; --- FIX Y Backlash ---
G0 X33.177 Y91.233 F1200
G1 X33.312 Y91.401 Z0 F1500
G0 Z3.5 F500
G0 X34.035 Y92.267 Z3.5
G1 Z0 F500
; --- FIX X Backlash ---
G0 X33.235 Y92.267 F1200
; --- FIX Y Backlash ---
G0 X33.235 Y91.467 F1200
G1 X32.502 Y91.401 Z0 F1500
G1 X31.775 Y91.385 Z0 F1500
G1 X31.471 Y91.401 Z0 F1500
G1 X31.513 Y91.013 Z0 F1500
; --- FIX X Backlash ---
G0 X32.313 Y91.013 F1200
G1 X32.461 Y89.569 Z0 F1500
G1 X32.567 Y88.451 Z0 F1500
; --- FIX Y Backlash ---
G0 X32.567 Y89.251 F1200
G1 X32.802 Y89.523 Z0 F1500
G1 X33.189 Y89.982 Z0 F1500
G1 X33.61 Y90.494 Z0 F1500
G1 X34.044 Y91.036 Z0 F1500
G1 X35.162 Y92.458 Z0 F1500
; --- FIX X Backlash ---
G0 X34.362 Y92.458 F1200
; --- FIX Y Backlash ---
G0 X34.362 Y91.658 F1200
G1 X33.974 Y91.578 Z0 F1500
G1 X33.235 Y91.467 Z0 F1500
G0 Z3.5 F500
; --- FIX X Backlash ---
G0 X34.035 Y91.467 F1200
G0 X41.673 Y79.162 Z3.5
G1 Z0 F500
G1 X41.939 Y78.177 Z0 F1500
; --- FIX Y Backlash ---
G0 X41.939 Y78.977 F1200
G1 X42.107 Y80.465 Z0 F1500
; --- FIX X Backlash ---
G0 X41.307 Y80.465 F1200
; --- FIX Y Backlash ---
G0 X41.307 Y79.665 F1200
G1 X40.873 Y79.162 Z0 F1500
G0 Z3.5 F500
; --- FIX X Backlash ---
G0 X41.673 Y79.162 F1200
G0 X41.889 Y75.298 Z3.5
G1 Z0 F500
G1 X42.264 Y73.914 Z0 F1500
; --- FIX Y Backlash ---
G0 X42.264 Y74.714 F1200
G1 X43.192 Y82.95 Z0 F1500
; --- FIX X Backlash ---
G0 X42.392 Y82.95 F1200
; --- FIX Y Backlash ---
G0 X42.392 Y82.15 F1200
G1 X40.563 Y80.028 Z0 F1500
; --- FIX Y Backlash ---
G0 X40.563 Y80.828 F1200
G1 X38.78 Y86.754 Z0 F1500
G1 X37.855 Y89.791 Z0 F1500
G1 X37.396 Y91.273 Z0 F1500
G1 X36.94 Y92.731 Z0 F1500
G1 X36.559 Y93.929 Z0 F1500
; --- FIX Y Backlash ---
G0 X36.559 Y93.129 F1200
G1 X35.978 Y92.922 Z0 F1500
G1 X35.252 Y92.698 Z0 F1500
G1 X34.538 Y92.512 Z0 F1500
G1 X33.833 Y92.366 Z0 F1500
G1 X33.139 Y92.261 Z0 F1500
G1 X32.457 Y92.2 Z0 F1500
G1 X31.787 Y92.185 Z0 F1500
G1 X31.127 Y92.22 Z0 F1500
; --- FIX Y Backlash ---
G0 X31.127 Y93.02 F1200
G1 X30.566 Y93.096 Z0 F1500
; --- FIX X Backlash ---
G0 X31.366 Y93.096 F1200
; --- FIX Y Backlash ---
G0 X31.366 Y92.296 F1200
G1 X31.518 Y90.928 Z0 F1500
G1 X31.665 Y89.491 Z0 F1500
G1 X31.803 Y88.026 Z0 F1500
G1 X31.93 Y86.566 Z0 F1500
; --- FIX Y Backlash ---
G0 X31.93 Y87.366 F1200
G1 X32.234 Y87.685 Z0 F1500
G1 X32.606 Y88.088 Z0 F1500
G1 X33.008 Y88.539 Z0 F1500
G1 X33.393 Y88.983 Z0 F1500
G1 X33.82 Y89.49 Z0 F1500
G1 X34.234 Y89.994 Z0 F1500
G1 X34.684 Y90.555 Z0 F1500
G1 X37.081 Y93.607 Z0 F1500
; --- FIX Y Backlash ---
G0 X37.081 Y92.807 F1200
G1 X38.481 Y87.824 Z0 F1500
G1 X39.034 Y85.828 Z0 F1500
G1 X39.59 Y83.794 Z0 F1500
G1 X40.153 Y81.722 Z0 F1500
G1 X41.889 Y75.298 Z0 F1500
G0 Z3.5 F500

; Color picking sequence
G1 Z10 F1000;         ; Raise brush
G0 X41 Y5 F1200;    ; Rapid move to color 1
G1 Z10 F1000;         ; Raise brush
G0 X41 Y5 F1200;    ; Rapid move to color 1
G1 Z0 F1000;         ; Lower into color
G1 X40.102 Y7.295 Z0 S800 F1200
G1 X40.026 Y7.642 Z0 F1200
G1 X40 Y8 Z0 F1200
G1 X40.026 Y8.358 Z0 F1200
G1 X40.102 Y8.705 Z0 F1200
G1 X40.225 Y9.041 Z0 F1200
G1 X40.393 Y9.362 Z0 F1200
G1 X40.603 Y9.668 Z0 F1200
G1 X40.854 Y9.957 Z0 F1200
G1 X41.142 Y10.226 Z0 F1200
G1 X41.464 Y10.475 Z0 F1200
G1 X41.82 Y10.701 Z0 F1200
G1 X42.204 Y10.902 Z0 F1200
G1 X42.617 Y11.078 Z0 F1200
G1 X43.054 Y11.225 Z0 F1200
G1 X43.513 Y11.343 Z0 F1200
G1 X43.992 Y11.429 Z0 F1200
G1 X44.489 Y11.482 Z0 F1200
G1 X45 Y11.5 Z0 F1200
G1 X45.511 Y11.482 Z0 F1200
G1 X46.008 Y11.429 Z0 F1200
G1 X46.487 Y11.343 Z0 F1200
G1 X46.946 Y11.225 Z0 F1200
G1 X47.383 Y11.078 Z0 F1200
G1 X47.796 Y10.902 Z0 F1200
G1 X48.18 Y10.701 Z0 F1200
G1 X48.536 Y10.475 Z0 F1200
G1 X48.858 Y10.226 Z0 F1200
G1 X49.146 Y9.957 Z0 F1200
G1 X49.397 Y9.668 Z0 F1200
G1 X49.607 Y9.362 Z0 F1200
G1 X49.775 Y9.041 Z0 F1200
G1 X49.898 Y8.705 Z0 F1200
G1 X49.974 Y8.358 Z0 F1200
G1 X50 Y8 Z0 F1200
G1 X49.974 Y7.642 Z0 F1200
G1 X49.898 Y7.295 Z0 F1200
G1 X49.775 Y6.959 Z0 F1200
G1 X49.607 Y6.638 Z0 F1200
G1 X49.397 Y6.332 Z0 F1200
G1 X49.146 Y6.043 Z0 F1200
G1 X48.858 Y5.774 Z0 F1200
G1 X48.536 Y5.525 Z0 F1200
G1 X48.18 Y5.299 Z0 F1200
G1 X47.796 Y5.098 Z0 F1200
G1 X47.383 Y4.922 Z0 F1200
G1 X46.946 Y4.775 Z0 F1200
G1 X46.487 Y4.657 Z0 F1200
G1 X46.008 Y4.571 Z0 F1200
G1 X45.511 Y4.518 Z0 F1200
G1 X45 Y4.5 Z0 F1200
G1 X44.489 Y4.518 Z0 F1200
G1 X43.992 Y4.571 Z0 F1200
G1 X43.513 Y4.657 Z0 F1200
G1 X43.054 Y4.775 Z0 F1200
G1 X42.617 Y4.922 Z0 F1200
G1 X42.204 Y5.098 Z0 F1200
G1 X41.82 Y5.299 Z0 F1200
G1 X41.464 Y5.525 Z0 F1200
G1 X41.142 Y5.774 Z0 F1200
G1 X40.854 Y6.043 Z0 F1200
G1 X40.603 Y6.332 Z0 F1200
G1 X40.393 Y6.638 Z0 F1200
G1 X40.225 Y6.959 Z0 F1200
G1 Z7 F800;         ; Raise from color
G1 X34 Y8 Z1 F1200;     ; Movement in paint
G1 X24 Y18 Z8 F500;     ; Move in paint
G1 F1200;           ; Set feed rate
G0 Z3.5 F1000 ; Safety Lift
G0 X41.889 Y75.298 F1200 ; Return to pos
; --- FIX X Backlash ---
G0 X41.089 Y75.298 F1200
G0 X33.397 Y72.433 Z3.5
G1 Z0 F500
; --- FIX X Backlash ---
G0 X34.197 Y72.433 F1200
; --- FIX Y Backlash ---
G0 X34.197 Y73.233 F1200
G1 X34.515 Y76.187 Z0 F1500
G1 X34.832 Y79.16 Z0 F1500
; --- FIX Y Backlash ---
G0 X34.832 Y78.36 F1200
G1 X35.338 Y77.087 Z0 F1500
G1 X35.864 Y75.794 Z0 F1500
; --- FIX X Backlash ---
G0 X35.064 Y75.794 F1200
G1 X34.632 Y74.911 Z0 F1500
G1 X34.211 Y74.054 Z0 F1500
G1 X33.799 Y73.226 Z0 F1500
G1 X33.397 Y72.433 Z0 F1500
G0 Z3.5 F500
G0 X32.53 Y71.856 Z3.5
G1 Z0 F500
; --- FIX X Backlash ---
G0 X33.33 Y71.856 F1200
; --- FIX Y Backlash ---
G0 X33.33 Y72.656 F1200
G1 X33.719 Y76.272 Z0 F1500
G1 X34.103 Y79.868 Z0 F1500
G1 X35.344 Y80.038 Z0 F1500
; --- FIX Y Backlash ---
G0 X35.344 Y79.238 F1200
G1 X36.079 Y77.388 Z0 F1500
G1 X36.74 Y75.763 Z0 F1500
; --- FIX X Backlash ---
G0 X35.94 Y75.763 F1200
G1 X35.35 Y74.559 Z0 F1500
G1 X34.928 Y73.7 Z0 F1500
G1 X34.513 Y72.867 Z0 F1500
G1 X33.809 Y71.477 Z0 F1500
; --- FIX Y Backlash ---
G0 X33.809 Y72.277 F1200
G1 X32.53 Y72.656 Z0 F1500
G0 Z3.5 F500
; --- FIX X Backlash ---
G0 X33.33 Y72.656 F1200
G0 X33.583 Y80.604 Z3.5
G1 Z0 F500
G1 X35.219 Y80.828 Z0 F1500
G1 X35.175 Y81.052 Z0 F1500
; --- FIX X Backlash ---
G0 X34.375 Y81.052 F1200
G1 X34.123 Y82.324 Z0 F1500
; --- FIX Y Backlash ---
G0 X34.123 Y81.524 F1200
G1 X33.68 Y80.935 Z0 F1500
G1 X33.212 Y80.333 Z0 F1500
G1 X32.783 Y79.804 Z0 F1500
G0 Z3.5 F500
; --- FIX X Backlash ---
G0 X33.583 Y79.804 F1200
G0 X35.842 Y72.14 Z3.5
G1 Z0 F500
G1 X35.883 Y72.16 Z0 F1500
; --- FIX Y Backlash ---
G0 X35.883 Y72.96 F1200
G1 X36.425 Y73.255 Z0 F1500
G1 X36.673 Y73.402 Z0 F1500
; --- FIX X Backlash ---
G0 X35.873 Y73.402 F1200
G1 X35.704 Y74.265 Z0 F1500
; --- FIX Y Backlash ---
G0 X35.704 Y73.465 F1200
G1 X35.645 Y73.345 Z0 F1500
G1 X35.228 Y72.508 Z0 F1500
G1 X35.042 Y72.14 Z0 F1500
G0 Z3.5 F500
G0 X32.156 Y71.133 Z3.5
G1 Z0 F500
; --- FIX Y Backlash ---
G0 X32.156 Y71.933 F1200
G1 X31.964 Y71.989 Z0 F1500
; --- FIX Y Backlash ---
G0 X31.964 Y71.189 F1200
G1 X31.955 Y71.085 Z0 F1500
; --- FIX X Backlash ---
G0 X32.755 Y71.085 F1200
G1 X32.956 Y71.133 Z0 F1500
G0 Z3.5 F500
; --- FIX X Backlash ---
G0 X32.156 Y71.133 F1200
G0 X31.516 Y70.317 Z3.5
G1 Z0 F500
G1 X31.084 Y69.959 Z0 F1500
G1 X30.602 Y69.693 Z0 F1500
G1 X30.333 Y69.602 Z0 F1500
; --- FIX X Backlash ---
G0 X31.133 Y69.602 F1200
G1 X31.22 Y68.828 Z0 F1500
G1 X31.41 Y67.591 Z0 F1500
G1 X31.641 Y66.434 Z0 F1500
G1 X31.92 Y65.306 Z0 F1500
G1 X31.965 Y65.154 Z0 F1500
; --- FIX Y Backlash ---
G0 X31.965 Y65.954 F1200
G1 X32.107 Y67.934 Z0 F1500
G1 X32.316 Y71.117 Z0 F1500
G0 Z3.5 F500
; --- FIX X Backlash ---
G0 X31.516 Y71.117 F1200
G0 X31.15 Y71.853 Z3.5
G1 Z0 F500
; --- FIX Y Backlash ---
G0 X31.15 Y71.053 F1200
G1 X30.631 Y70.623 Z0 F1500
G1 X30.278 Y70.428 Z0 F1500
G1 X29.902 Y70.301 Z0 F1500
G1 X29.511 Y70.245 Z0 F1500
G1 X29.464 Z0 F1500
G1 X29.479 Y70.041 Z0 F1500
; --- FIX X Backlash ---
G0 X30.279 Y70.041 F1200
G1 X30.426 Y68.722 Z0 F1500
G1 X30.619 Y67.469 Z0 F1500
G1 X30.863 Y66.247 Z0 F1500
G1 X31.146 Y65.102 Z0 F1500
G1 X31.475 Y64 Z0 F1500
G1 X31.843 Y62.954 Z0 F1500
G1 X32.256 Y61.95 Z0 F1500
G1 X32.699 Y61.012 Z0 F1500
G1 X33.184 Y60.113 Z0 F1500
G1 X33.707 Y59.259 Z0 F1500
G1 X34.256 Y58.462 Z0 F1500
G1 X34.842 Y57.708 Z0 F1500
G1 X35.463 Y56.993 Z0 F1500
G1 X36.11 Y56.329 Z0 F1500
G1 X36.215 Y56.232 Z0 F1500
; --- FIX Y Backlash ---
G0 X36.215 Y57.032 F1200
G1 X36.402 Y57.235 Z0 F1500
G1 X37.152 Y58.087 Z0 F1500
G1 X37.907 Y58.983 Z0 F1500
G1 X38.692 Y59.954 Z0 F1500
G1 X39.497 Y60.985 Z0 F1500
G1 X40.317 Y62.074 Z0 F1500
G1 X41.16 Y63.231 Z0 F1500
G1 X41.892 Y64.267 Z0 F1500
G1 X44.277 Y85.434 Z0 F1500
; --- FIX X Backlash ---
G0 X43.477 Y85.434 F1200
; --- FIX Y Backlash ---
G0 X43.477 Y84.634 F1200
G1 X40.909 Y81.655 Z0 F1500
; --- FIX Y Backlash ---
G0 X40.909 Y82.455 F1200
G1 X39.547 Y86.982 Z0 F1500
G1 X38.619 Y90.026 Z0 F1500
G1 X38.16 Y91.512 Z0 F1500
G1 X37.701 Y92.977 Z0 F1500
G1 X37.246 Y94.408 Z0 F1500
G1 X37.061 Y94.982 Z0 F1500
; --- FIX Y Backlash ---
G0 X37.061 Y94.182 F1200
G1 X36.433 Y93.932 Z0 F1500
G1 X35.726 Y93.682 Z0 F1500
G1 X35.033 Y93.468 Z0 F1500
G1 X34.355 Y93.291 Z0 F1500
G1 X33.692 Y93.154 Z0 F1500
G1 X33.044 Y93.056 Z0 F1500
G1 X32.413 Y92.999 Z0 F1500
G1 X31.799 Y92.986 Z0 F1500
G1 X31.202 Y93.017 Z0 F1500
; --- FIX Y Backlash ---
G0 X31.202 Y93.817 F1200
G1 X30.624 Y93.896 Z0 F1500
G1 X30.067 Y94.023 Z0 F1500
G1 X29.633 Y94.169 Z0 F1500
; --- FIX X Backlash ---
G0 X30.433 Y94.169 F1200
; --- FIX Y Backlash ---
G0 X30.433 Y93.369 F1200
G1 X30.567 Y92.248 Z0 F1500
G1 X30.722 Y90.844 Z0 F1500
G1 X30.869 Y89.412 Z0 F1500
G1 X31.007 Y87.953 Z0 F1500
G1 X31.136 Y86.468 Z0 F1500
G1 X31.257 Y84.956 Z0 F1500
G1 X31.266 Y84.835 Z0 F1500
; --- FIX Y Backlash ---
G0 X31.266 Y85.635 F1200
G1 X31.456 Y85.798 Z0 F1500
G1 X31.78 Y86.094 Z0 F1500
G1 X32.121 Y86.421 Z0 F1500
G1 X32.458 Y86.761 Z0 F1500
G1 X32.833 Y87.153 Z0 F1500
G1 X33.212 Y87.565 Z0 F1500
G1 X33.597 Y87.997 Z0 F1500
G1 X34.005 Y88.468 Z0 F1500
G1 X34.425 Y88.966 Z0 F1500
G1 X34.858 Y89.493 Z0 F1500
G1 X35.303 Y90.047 Z0 F1500
G1 X36.737 Y91.874 Z0 F1500
; --- FIX Y Backlash ---
G0 X36.737 Y91.074 F1200
G1 X37.71 Y87.608 Z0 F1500
G1 X38.263 Y85.616 Z0 F1500
G1 X38.819 Y83.584 Z0 F1500
G1 X39.381 Y81.513 Z0 F1500
G1 X41.117 Y75.088 Z0 F1500
G1 X41.818 Y72.503 Z0 F1500
; --- FIX X Backlash ---
G0 X41.018 Y72.503 F1200
G1 X39.729 Y70.791 Z0 F1500
G1 X38.7 Y69.478 Z0 F1500
G1 X38.194 Y68.854 Z0 F1500
G1 X37.696 Y68.257 Z0 F1500
G1 X37.207 Y67.684 Z0 F1500
G1 X36.726 Y67.136 Z0 F1500
G1 X36.255 Y66.613 Z0 F1500
G1 X35.791 Y66.115 Z0 F1500
G1 X35.337 Y65.644 Z0 F1500
G1 X34.893 Y65.199 Z0 F1500
G1 X34.457 Y64.78 Z0 F1500
G1 X34.032 Y64.388 Z0 F1500
G1 X33.616 Y64.024 Z0 F1500
G1 X31.777 Y62.499 Z0 F1500
; --- FIX X Backlash ---
G0 X32.577 Y62.499 F1200
; --- FIX Y Backlash ---
G0 X32.577 Y63.299 F1200
G1 X32.906 Y67.881 Z0 F1500
G1 X33.12 Y71.149 Z0 F1500

; Color picking sequence
G1 Z10 F1000;         ; Raise brush
G0 X41 Y5 F1200;    ; Rapid move to color 1
G1 Z10 F1000;         ; Raise brush
G0 X41 Y5 F1200;    ; Rapid move to color 1
G1 Z0 F1000;         ; Lower into color
G1 X40.102 Y7.295 Z0 S800 F1200
G1 X40.026 Y7.642 Z0 F1200
G1 X40 Y8 Z0 F1200
G1 X40.026 Y8.358 Z0 F1200
G1 X40.102 Y8.705 Z0 F1200
G1 X40.225 Y9.041 Z0 F1200
G1 X40.393 Y9.362 Z0 F1200
G1 X40.603 Y9.668 Z0 F1200
G1 X40.854 Y9.957 Z0 F1200
G1 X41.142 Y10.226 Z0 F1200
G1 X41.464 Y10.475 Z0 F1200
G1 X41.82 Y10.701 Z0 F1200
G1 X42.204 Y10.902 Z0 F1200
G1 X42.617 Y11.078 Z0 F1200
G1 X43.054 Y11.225 Z0 F1200
G1 X43.513 Y11.343 Z0 F1200
G1 X43.992 Y11.429 Z0 F1200
G1 X44.489 Y11.482 Z0 F1200
G1 X45 Y11.5 Z0 F1200
G1 X45.511 Y11.482 Z0 F1200
G1 X46.008 Y11.429 Z0 F1200
G1 X46.487 Y11.343 Z0 F1200
G1 X46.946 Y11.225 Z0 F1200
G1 X47.383 Y11.078 Z0 F1200
G1 X47.796 Y10.902 Z0 F1200
G1 X48.18 Y10.701 Z0 F1200
G1 X48.536 Y10.475 Z0 F1200
G1 X48.858 Y10.226 Z0 F1200
G1 X49.146 Y9.957 Z0 F1200
G1 X49.397 Y9.668 Z0 F1200
G1 X49.607 Y9.362 Z0 F1200
G1 X49.775 Y9.041 Z0 F1200
G1 X49.898 Y8.705 Z0 F1200
G1 X49.974 Y8.358 Z0 F1200
G1 X50 Y8 Z0 F1200
G1 X49.974 Y7.642 Z0 F1200
G1 X49.898 Y7.295 Z0 F1200
G1 X49.775 Y6.959 Z0 F1200
G1 X49.607 Y6.638 Z0 F1200
G1 X49.397 Y6.332 Z0 F1200
G1 X49.146 Y6.043 Z0 F1200
G1 X48.858 Y5.774 Z0 F1200
G1 X48.536 Y5.525 Z0 F1200
G1 X48.18 Y5.299 Z0 F1200
G1 X47.796 Y5.098 Z0 F1200
G1 X47.383 Y4.922 Z0 F1200
G1 X46.946 Y4.775 Z0 F1200
G1 X46.487 Y4.657 Z0 F1200
G1 X46.008 Y4.571 Z0 F1200
G1 X45.511 Y4.518 Z0 F1200
G1 X45 Y4.5 Z0 F1200
G1 X44.489 Y4.518 Z0 F1200
G1 X43.992 Y4.571 Z0 F1200
G1 X43.513 Y4.657 Z0 F1200
G1 X43.054 Y4.775 Z0 F1200
G1 X42.617 Y4.922 Z0 F1200
G1 X42.204 Y5.098 Z0 F1200
G1 X41.82 Y5.299 Z0 F1200
G1 X41.464 Y5.525 Z0 F1200
G1 X41.142 Y5.774 Z0 F1200
G1 X40.854 Y6.043 Z0 F1200
G1 X40.603 Y6.332 Z0 F1200
G1 X40.393 Y6.638 Z0 F1200
G1 X40.225 Y6.959 Z0 F1200
G1 Z7 F800;         ; Raise from color
G1 X34 Y8 Z1 F1200;     ; Movement in paint
G1 X24 Y18 Z8 F500;     ; Move in paint
G1 F1200;           ; Set feed rate
G0 Z3.5 F1000 ; Safety Lift
G0 X33.12 Y71.149 F1200 ; Return
G1 Z0 F1000 ; Restore Z
G1 X34.174 Y71.401 Z0 F1500
G1 X34.656 Y71.552 Z0 F1500
G1 X35.16 Y71.742 Z0 F1500
G1 X35.691 Y71.974 Z0 F1500
G1 X36.246 Y72.248 Z0 F1500
G1 X36.814 Y72.556 Z0 F1500
G1 X37.415 Y72.911 Z0 F1500
G1 X37.566 Y73.007 Z0 F1500
; --- FIX X Backlash ---
G0 X36.766 Y73.007 F1200
G1 X36.171 Y76.037 Z0 F1500
G1 X35.16 Y81.207 Z0 F1500
G1 X34.829 Y82.879 Z0 F1500
G1 X34.549 Y84.285 Z0 F1500
G1 X34.537 Y84.269 Z0 F1500
; --- FIX Y Backlash ---
G0 X34.537 Y83.469 F1200
G1 X34.021 Y82.741 Z0 F1500
G1 X33.524 Y82.058 Z0 F1500
G1 X33.045 Y81.421 Z0 F1500
G1 X32.586 Y80.831 Z0 F1500
G1 X32.145 Y80.288 Z0 F1500
G1 X31.897 Y79.996 Z0 F1500
G1 X31.15 Y71.053 Z0 F1500
G0 Z3.5 F500
G0 X29.914 Y63.752 Z3.5
G1 Z0 F500
; --- FIX X Backlash ---
G0 X30.714 Y63.752 F1200
G1 X31.097 Y62.666 Z0 F1500
G1 X31.521 Y61.632 Z0 F1500
G1 X31.987 Y60.647 Z0 F1500
G1 X32.491 Y59.712 Z0 F1500
G1 X33.033 Y58.826 Z0 F1500
G1 X33.612 Y57.988 Z0 F1500
G1 X34.226 Y57.198 Z0 F1500
G1 X34.872 Y56.453 Z0 F1500
G1 X35.551 Y55.756 Z0 F1500
G1 X36.261 Y55.103 Z0 F1500
; --- FIX Y Backlash ---
G0 X36.261 Y55.903 F1200
G1 X36.996 Y56.699 Z0 F1500
G1 X37.752 Y57.559 Z0 F1500
G1 X38.528 Y58.48 Z0 F1500
G1 X39.323 Y59.462 Z0 F1500
G1 X40.135 Y60.503 Z0 F1500
G1 X40.964 Y61.603 Z0 F1500
G1 X41.807 Y62.76 Z0 F1500
G1 X42.664 Y63.973 Z0 F1500
G1 X45.362 Y87.918 Z0 F1500
; --- FIX X Backlash ---
G0 X44.562 Y87.918 F1200
; --- FIX Y Backlash ---
G0 X44.562 Y87.118 F1200
G1 X41.255 Y83.281 Z0 F1500
; --- FIX Y Backlash ---
G0 X41.255 Y84.081 F1200
G1 X40.312 Y87.215 Z0 F1500
G1 X39.383 Y90.263 Z0 F1500
G1 X38.923 Y91.751 Z0 F1500
G1 X38.465 Y93.216 Z0 F1500
G1 X38.008 Y94.654 Z0 F1500
G1 X37.551 Y96.067 Z0 F1500
; --- FIX Y Backlash ---
G0 X37.551 Y95.267 F1200
G1 X36.844 Y94.957 Z0 F1500
G1 X36.151 Y94.681 Z0 F1500
G1 X35.474 Y94.441 Z0 F1500
G1 X34.815 Y94.238 Z0 F1500
G1 X34.173 Y94.071 Z0 F1500
G1 X33.551 Y93.941 Z0 F1500
G1 X32.949 Y93.85 Z0 F1500
G1 X32.368 Y93.799 Z0 F1500
G1 X31.811 Y93.786 Z0 F1500
G1 X31.277 Y93.814 Z0 F1500
; --- FIX Y Backlash ---
G0 X31.277 Y94.614 F1200
G1 X30.767 Y94.684 Z0 F1500
G1 X30.284 Y94.794 Z0 F1500
G1 X29.828 Y94.948 Z0 F1500
G1 X29.401 Y95.145 Z0 F1500
G1 X29.002 Y95.385 Z0 F1500
G1 X28.635 Y95.67 Z0 F1500
; --- FIX X Backlash ---
G0 X29.435 Y95.67 F1200
; --- FIX Y Backlash ---
G0 X29.435 Y94.87 F1200
G1 X29.608 Y93.527 Z0 F1500
G1 X29.772 Y92.157 Z0 F1500
G1 X29.927 Y90.759 Z0 F1500
G1 X30.073 Y89.334 Z0 F1500
G1 X30.21 Y87.881 Z0 F1500
G1 X30.338 Y86.402 Z0 F1500
G1 X30.459 Y84.895 Z0 F1500
G1 X30.572 Y83.361 Z0 F1500
; --- FIX Y Backlash ---
G0 X30.572 Y84.161 F1200
G1 X30.824 Y84.306 Z0 F1500
G1 X31.092 Y84.484 Z0 F1500
G1 X31.377 Y84.693 Z0 F1500
G1 X31.679 Y84.935 Z0 F1500
G1 X31.996 Y85.208 Z0 F1500
G1 X32.328 Y85.511 Z0 F1500
G1 X32.675 Y85.844 Z0 F1500
G1 X33.036 Y86.208 Z0 F1500
G1 X33.411 Y86.601 Z0 F1500
G1 X33.8 Y87.023 Z0 F1500
G1 X34.202 Y87.473 Z0 F1500
G1 X34.617 Y87.952 Z0 F1500
G1 X35.043 Y88.458 Z0 F1500
G1 X35.482 Y88.992 Z0 F1500
G1 X35.932 Y89.553 Z0 F1500
G1 X36.393 Y90.14 Z0 F1500
; --- FIX Y Backlash ---
G0 X36.393 Y89.34 F1200
G1 X36.94 Y87.393 Z0 F1500
G1 X37.491 Y85.404 Z0 F1500
G1 X38.047 Y83.373 Z0 F1500
G1 X38.609 Y81.304 Z0 F1500
G1 X40.345 Y74.879 Z0 F1500
G1 X40.944 Y72.672 Z0 F1500
; --- FIX X Backlash ---
G0 X40.144 Y72.672 F1200
G1 X39.095 Y71.278 Z0 F1500
G1 X38.075 Y69.977 Z0 F1500
G1 X37.575 Y69.363 Z0 F1500
G1 X37.084 Y68.773 Z0 F1500
G1 X36.602 Y68.207 Z0 F1500
G1 X36.129 Y67.668 Z0 F1500
G1 X35.665 Y67.154 Z0 F1500
G1 X35.21 Y66.665 Z0 F1500
G1 X34.766 Y66.204 Z0 F1500
G1 X34.332 Y65.77 Z0 F1500
G1 X33.909 Y65.363 Z0 F1500
G1 X33.497 Y64.984 Z0 F1500
G1 X33.097 Y64.633 Z0 F1500
G1 X32.709 Y64.311 Z0 F1500
; --- FIX X Backlash ---
G0 X33.509 Y64.311 F1200
; --- FIX Y Backlash ---
G0 X33.509 Y65.111 F1200
G1 X33.704 Y67.829 Z0 F1500
G1 X33.879 Y70.508 Z0 F1500
G1 X34.387 Y70.629 Z0 F1500
G1 X34.915 Y70.794 Z0 F1500
G1 X35.462 Y71.001 Z0 F1500
G1 X36.029 Y71.249 Z0 F1500
G1 X36.613 Y71.537 Z0 F1500
G1 X37.213 Y71.862 Z0 F1500
G1 X37.828 Y72.226 Z0 F1500
G1 X38.457 Y72.625 Z0 F1500
; --- FIX X Backlash ---
G0 X37.657 Y72.625 F1200
G1 X36.956 Y76.191 Z0 F1500
G1 X35.945 Y81.362 Z0 F1500
G1 X35.614 Y83.035 Z0 F1500
G1 X35.285 Y84.683 Z0 F1500
G1 X34.958 Y86.304 Z0 F1500
; --- FIX Y Backlash ---
G0 X34.958 Y85.504 F1200
G1 X34.411 Y84.693 Z0 F1500
G1 X33.882 Y83.927 Z0 F1500
G1 X33.372 Y83.207 Z0 F1500
G1 X32.881 Y82.534 Z0 F1500
G1 X32.41 Y81.908 Z0 F1500
G1 X31.959 Y81.329 Z0 F1500
G1 X31.53 Y80.799 Z0 F1500

; Color picking sequence
G1 Z10 F1000;         ; Raise brush
G0 X41 Y5 F1200;    ; Rapid move to color 1
G1 Z10 F1000;         ; Raise brush
G0 X41 Y5 F1200;    ; Rapid move to color 1
G1 Z0 F1000;         ; Lower into color
G1 X40.102 Y7.295 Z0 S800 F1200
G1 X40.026 Y7.642 Z0 F1200
G1 X40 Y8 Z0 F1200
G1 X40.026 Y8.358 Z0 F1200
G1 X40.102 Y8.705 Z0 F1200
G1 X40.225 Y9.041 Z0 F1200
G1 X40.393 Y9.362 Z0 F1200
G1 X40.603 Y9.668 Z0 F1200
G1 X40.854 Y9.957 Z0 F1200
G1 X41.142 Y10.226 Z0 F1200
G1 X41.464 Y10.475 Z0 F1200
G1 X41.82 Y10.701 Z0 F1200
G1 X42.204 Y10.902 Z0 F1200
G1 X42.617 Y11.078 Z0 F1200
G1 X43.054 Y11.225 Z0 F1200
G1 X43.513 Y11.343 Z0 F1200
G1 X43.992 Y11.429 Z0 F1200
G1 X44.489 Y11.482 Z0 F1200
G1 X45 Y11.5 Z0 F1200
G1 X45.511 Y11.482 Z0 F1200
G1 X46.008 Y11.429 Z0 F1200
G1 X46.487 Y11.343 Z0 F1200
G1 X46.946 Y11.225 Z0 F1200
G1 X47.383 Y11.078 Z0 F1200
G1 X47.796 Y10.902 Z0 F1200
G1 X48.18 Y10.701 Z0 F1200
G1 X48.536 Y10.475 Z0 F1200
G1 X48.858 Y10.226 Z0 F1200
G1 X49.146 Y9.957 Z0 F1200
G1 X49.397 Y9.668 Z0 F1200
G1 X49.607 Y9.362 Z0 F1200
G1 X49.775 Y9.041 Z0 F1200
G1 X49.898 Y8.705 Z0 F1200
G1 X49.974 Y8.358 Z0 F1200
G1 X50 Y8 Z0 F1200
G1 X49.974 Y7.642 Z0 F1200
G1 X49.898 Y7.295 Z0 F1200
G1 X49.775 Y6.959 Z0 F1200
G1 X49.607 Y6.638 Z0 F1200
G1 X49.397 Y6.332 Z0 F1200
G1 X49.146 Y6.043 Z0 F1200
G1 X48.858 Y5.774 Z0 F1200
G1 X48.536 Y5.525 Z0 F1200
G1 X48.18 Y5.299 Z0 F1200
G1 X47.796 Y5.098 Z0 F1200
G1 X47.383 Y4.922 Z0 F1200
G1 X46.946 Y4.775 Z0 F1200
G1 X46.487 Y4.657 Z0 F1200
G1 X46.008 Y4.571 Z0 F1200
G1 X45.511 Y4.518 Z0 F1200
G1 X45 Y4.5 Z0 F1200
G1 X44.489 Y4.518 Z0 F1200
G1 X43.992 Y4.571 Z0 F1200
G1 X43.513 Y4.657 Z0 F1200
G1 X43.054 Y4.775 Z0 F1200
G1 X42.617 Y4.922 Z0 F1200
G1 X42.204 Y5.098 Z0 F1200
G1 X41.82 Y5.299 Z0 F1200
G1 X41.464 Y5.525 Z0 F1200
G1 X41.142 Y5.774 Z0 F1200
G1 X40.854 Y6.043 Z0 F1200
G1 X40.603 Y6.332 Z0 F1200
G1 X40.393 Y6.638 Z0 F1200
G1 X40.225 Y6.959 Z0 F1200
G1 Z7 F800;         ; Raise from color
G1 X34 Y8 Z1 F1200;     ; Movement in paint
G1 X24 Y18 Z8 F500;     ; Move in paint
G1 F1200;           ; Set feed rate
G0 Z3.5 F1000 ; Safety Lift
G0 X31.53 Y80.799 F1200 ; Return
G1 Z0 F1000 ; Restore Z
G1 X31.121 Y80.318 Z0 F1500
G1 X30.381 Y71.454 Z0 F1500
G1 X30.179 Y71.287 Z0 F1500
G1 X29.954 Y71.163 Z0 F1500
G1 X29.716 Y71.083 Z0 F1500
G1 X29.471 Y71.048 Z0 F1500
G1 X29.227 Y71.058 Z0 F1500
; --- FIX Y Backlash ---
G0 X29.227 Y71.858 F1200
G1 X28.993 Y71.916 Z0 F1500
G1 X28.775 Y72.021 Z0 F1500
G1 X28.581 Y72.175 Z0 F1500
; --- FIX X Backlash ---
G0 X29.381 Y72.175 F1200
; --- FIX Y Backlash ---
G0 X29.381 Y71.375 F1200
G1 X29.482 Y69.969 Z0 F1500
G1 X29.633 Y68.618 Z0 F1500
G1 X29.833 Y67.322 Z0 F1500
G1 X30.081 Y66.079 Z0 F1500
G1 X30.375 Y64.889 Z0 F1500
G1 X30.714 Y63.752 Z0 F1500
G0 Z3.5 F500
; --- FIX Y Backlash ---
G0 X30.714 Y64.552 F1200
G0 X72.965 Y74.254 Z3.5
G1 Z0 F500
G1 X74.878 Y76.483 Z0 F1500
G1 X76.768 Y78.782 Z0 F1500
G1 X77.214 Y79.351 Z0 F1500
G1 X77.174 Y79.415 Z0 F1500
; --- FIX X Backlash ---
G0 X76.374 Y79.415 F1200
; --- FIX Y Backlash ---
G0 X76.374 Y78.615 F1200
G1 X74.32 Y76.121 Z0 F1500
G1 X72.074 Y73.537 Z0 F1500
G1 X70.918 Y72.263 Z0 F1500
G1 X70.592 Y71.915 Z0 F1500
; --- FIX X Backlash ---
G0 X71.392 Y71.915 F1200
G1 X71.457 Y71.774 Z0 F1500
; --- FIX Y Backlash ---
G0 X71.457 Y72.574 F1200
G1 X72.965 Y74.254 Z0 F1500
G0 Z3.5 F500
G0 X75.495 Y75.973 Z3.5
G1 Z0 F500
G1 X77.386 Y78.274 Z0 F1500
G1 X78.194 Y79.304 Z0 F1500
; --- FIX X Backlash ---
G0 X77.394 Y79.304 F1200
G1 X76.527 Y80.662 Z0 F1500
; --- FIX X Backlash ---
G0 X77.327 Y80.662 F1200
G1 X77.422 Y81.021 Z0 F1500
; --- FIX X Backlash ---
G0 X76.622 Y81.021 F1200
; --- FIX Y Backlash ---
G0 X76.622 Y80.221 F1200
G1 X75.892 Y79.288 Z0 F1500
G1 X73.71 Y76.638 Z0 F1500
G1 X71.476 Y74.068 Z0 F1500
G1 X70.33 Y72.806 Z0 F1500
G1 X69.579 Y72.004 Z0 F1500
; --- FIX X Backlash ---
G0 X70.379 Y72.004 F1200
G1 X70.485 Y71.971 Z0 F1500
G1 X71.24 Y70.335 Z0 F1500
; --- FIX Y Backlash ---
G0 X71.24 Y71.135 F1200
G1 X73.56 Y73.719 Z0 F1500
G1 X75.495 Y75.973 Z0 F1500
G0 Z3.5 F500
G0 X78.013 Y77.777 Z3.5
G1 Z0 F500
G1 X79.174 Y79.256 Z0 F1500
; --- FIX X Backlash ---
G0 X78.374 Y79.256 F1200
G1 X77.39 Y80.796 Z0 F1500
; --- FIX X Backlash ---
G0 X78.19 Y80.796 F1200
G1 X79.13 Y84.333 Z0 F1500
G1 X79.218 Y84.676 Z0 F1500
; --- FIX X Backlash ---
G0 X78.418 Y84.676 F1200
; --- FIX Y Backlash ---
G0 X78.418 Y83.876 F1200
G1 X77.379 Y82.485 Z0 F1500
G1 X75.268 Y79.789 Z0 F1500
G1 X73.099 Y77.155 Z0 F1500
G1 X70.878 Y74.6 Z0 F1500
G1 X69.742 Y73.348 Z0 F1500
G1 X68.596 Y72.125 Z0 F1500
G1 X68.114 Y71.626 Z0 F1500
; --- FIX X Backlash ---
G0 X68.914 Y71.626 F1200
G1 X69.907 Y71.314 Z0 F1500
G1 X71.933 Y66.923 Z0 F1500
G1 X72.627 Y65.49 Z0 F1500
; --- FIX X Backlash ---
G0 X71.827 Y65.49 F1200
; --- FIX Y Backlash ---
G0 X71.827 Y66.29 F1200
G1 X70.793 Y70.332 Z0 F1500
; --- FIX X Backlash ---
G0 X71.593 Y70.332 F1200
G1 X74.155 Y73.184 Z0 F1500
G1 X76.111 Y75.462 Z0 F1500
G1 X78.013 Y77.777 Z0 F1500
G0 Z3.5 F500
; --- FIX Y Backlash ---
G0 X78.013 Y76.977 F1200
G0 X85.819 Y53.78 Z3.5
G1 Z0 F500
; --- FIX X Backlash ---
G0 X85.019 Y53.78 F1200
G1 X84.826 Y53.462 Z0 F1500
; --- FIX X Backlash ---
G0 X85.626 Y53.462 F1200
; --- FIX Y Backlash ---
G0 X85.626 Y54.262 F1200
G1 X85.842 Y54.498 Z0 F1500
G1 X85.819 Y54.58 Z0 F1500
G0 Z3.5 F500
G0 X86.082 Y56.558 Z3.5
G1 Z0 F500
; --- FIX X Backlash ---
G0 X85.282 Y56.558 F1200
; --- FIX Y Backlash ---
G0 X85.282 Y55.758 F1200
G1 X84.036 Y53.702 Z0 F1500
G1 X82.682 Y51.541 Z0 F1500
G1 X81.298 Y49.404 Z0 F1500
G1 X80.212 Y47.785 Z0 F1500
; --- FIX X Backlash ---
G0 X81.012 Y47.785 F1200
; --- FIX Y Backlash ---
G0 X81.012 Y48.585 F1200
G1 X82.391 Y49.859 Z0 F1500
G1 X84.169 Y51.597 Z0 F1500
G1 X85.911 Y53.391 Z0 F1500
G1 X86.736 Y54.287 Z0 F1500
; --- FIX X Backlash ---
G0 X85.936 Y54.287 F1200
G1 X85.282 Y56.558 Z0 F1500
G0 Z3.5 F500

; Color picking sequence
G1 Z10 F1000;         ; Raise brush
G0 X41 Y5 F1200;    ; Rapid move to color 1
G1 Z10 F1000;         ; Raise brush
G0 X41 Y5 F1200;    ; Rapid move to color 1
G1 Z0 F1000;         ; Lower into color
G1 X40.102 Y7.295 Z0 S800 F1200
G1 X40.026 Y7.642 Z0 F1200
G1 X40 Y8 Z0 F1200
G1 X40.026 Y8.358 Z0 F1200
G1 X40.102 Y8.705 Z0 F1200
G1 X40.225 Y9.041 Z0 F1200
G1 X40.393 Y9.362 Z0 F1200
G1 X40.603 Y9.668 Z0 F1200
G1 X40.854 Y9.957 Z0 F1200
G1 X41.142 Y10.226 Z0 F1200
G1 X41.464 Y10.475 Z0 F1200
G1 X41.82 Y10.701 Z0 F1200
G1 X42.204 Y10.902 Z0 F1200
G1 X42.617 Y11.078 Z0 F1200
G1 X43.054 Y11.225 Z0 F1200
G1 X43.513 Y11.343 Z0 F1200
G1 X43.992 Y11.429 Z0 F1200
G1 X44.489 Y11.482 Z0 F1200
G1 X45 Y11.5 Z0 F1200
G1 X45.511 Y11.482 Z0 F1200
G1 X46.008 Y11.429 Z0 F1200
G1 X46.487 Y11.343 Z0 F1200
G1 X46.946 Y11.225 Z0 F1200
G1 X47.383 Y11.078 Z0 F1200
G1 X47.796 Y10.902 Z0 F1200
G1 X48.18 Y10.701 Z0 F1200
G1 X48.536 Y10.475 Z0 F1200
G1 X48.858 Y10.226 Z0 F1200
G1 X49.146 Y9.957 Z0 F1200
G1 X49.397 Y9.668 Z0 F1200
G1 X49.607 Y9.362 Z0 F1200
G1 X49.775 Y9.041 Z0 F1200
G1 X49.898 Y8.705 Z0 F1200
G1 X49.974 Y8.358 Z0 F1200
G1 X50 Y8 Z0 F1200
G1 X49.974 Y7.642 Z0 F1200
G1 X49.898 Y7.295 Z0 F1200
G1 X49.775 Y6.959 Z0 F1200
G1 X49.607 Y6.638 Z0 F1200
G1 X49.397 Y6.332 Z0 F1200
G1 X49.146 Y6.043 Z0 F1200
G1 X48.858 Y5.774 Z0 F1200
G1 X48.536 Y5.525 Z0 F1200
G1 X48.18 Y5.299 Z0 F1200
G1 X47.796 Y5.098 Z0 F1200
G1 X47.383 Y4.922 Z0 F1200
G1 X46.946 Y4.775 Z0 F1200
G1 X46.487 Y4.657 Z0 F1200
G1 X46.008 Y4.571 Z0 F1200
G1 X45.511 Y4.518 Z0 F1200
G1 X45 Y4.5 Z0 F1200
G1 X44.489 Y4.518 Z0 F1200
G1 X43.992 Y4.571 Z0 F1200
G1 X43.513 Y4.657 Z0 F1200
G1 X43.054 Y4.775 Z0 F1200
G1 X42.617 Y4.922 Z0 F1200
G1 X42.204 Y5.098 Z0 F1200
G1 X41.82 Y5.299 Z0 F1200
G1 X41.464 Y5.525 Z0 F1200
G1 X41.142 Y5.774 Z0 F1200
G1 X40.854 Y6.043 Z0 F1200
G1 X40.603 Y6.332 Z0 F1200
G1 X40.393 Y6.638 Z0 F1200
G1 X40.225 Y6.959 Z0 F1200
G1 Z7 F800;         ; Raise from color
G1 X34 Y8 Z1 F1200;     ; Movement in paint
G1 X24 Y18 Z8 F500;     ; Move in paint
G1 F1200;           ; Set feed rate
G0 Z3.5 F1000 ; Safety Lift
G0 X85.282 Y56.558 F1200 ; Return to pos
G0 X81.404 Y70.734 Z3.5
G1 Z0 F500
G1 X81.313 Y71.076 Z0 F1500
G1 X81.022 Y72.228 Z0 F1500
; --- FIX Y Backlash ---
G0 X81.022 Y71.428 F1200
G1 X79.939 Y69.967 Z0 F1500
; --- FIX X Backlash ---
G0 X80.739 Y69.967 F1200
G1 X82.204 Y69.934 Z0 F1500
G0 Z3.5 F500
; --- FIX X Backlash ---
G0 X81.404 Y69.934 F1200
G0 X76.945 Y66.16 Z3.5
G1 Z0 F500
G1 X76.412 Y65.508 Z0 F1500
G1 X74.076 Y62.725 Z0 F1500
; --- FIX X Backlash ---
G0 X74.876 Y62.725 F1200
G1 X75.803 Y60.905 Z0 F1500
; --- FIX Y Backlash ---
G0 X75.803 Y61.705 F1200
G1 X76.279 Y62.951 Z0 F1500
G1 X77.427 Y66.065 Z0 F1500
G1 X77.745 Y66.96 Z0 F1500
G0 Z3.5 F500
G0 X78.852 Y69.622 Z3.5
G1 Z0 F500
; --- FIX X Backlash ---
G0 X78.052 Y69.622 F1200
; --- FIX Y Backlash ---
G0 X78.052 Y68.822 F1200
G1 X76.931 Y67.409 Z0 F1500
G1 X75.796 Y66.018 Z0 F1500
G1 X73.123 Y62.834 Z0 F1500
; --- FIX X Backlash ---
G0 X73.923 Y62.834 F1200
G1 X75.594 Y59.552 Z0 F1500
G1 X75.914 Y58.954 Z0 F1500
; --- FIX Y Backlash ---
G0 X75.914 Y59.754 F1200
G1 X77.03 Y62.674 Z0 F1500
G1 X78.178 Y65.789 Z0 F1500
G1 X79.669 Y69.991 Z0 F1500
; --- FIX Y Backlash ---
G0 X79.669 Y69.191 F1200
G1 X81.983 Y69.139 Z0 F1500
G1 X83.12 Y65.409 Z0 F1500
G1 X83.938 Y62.798 Z0 F1500
G1 X84.77 Y60.201 Z0 F1500
G1 X85.846 Y56.913 Z0 F1500
; --- FIX X Backlash ---
G0 X85.046 Y56.913 F1200
G1 X83.355 Y54.122 Z0 F1500
G1 X82.008 Y51.971 Z0 F1500
G1 X80.63 Y49.845 Z0 F1500
G1 X78.074 Y46.034 Z0 F1500
; --- FIX Y Backlash ---
G0 X78.074 Y46.834 F1200
G1 X77.717 Y47.238 Z0 F1500
; --- FIX Y Backlash ---
G0 X77.717 Y46.438 F1200
G1 X76.584 Y45.158 Z0 F1500
G1 X73.969 Y42.314 Z0 F1500
; --- FIX Y Backlash ---
G0 X73.969 Y43.114 F1200
G1 X71.963 Y47.406 Z0 F1500
G1 X70.978 Y49.553 Z0 F1500
; --- FIX Y Backlash ---
G0 X70.978 Y48.753 F1200
G1 X70.878 Y48.616 Z0 F1500
; --- FIX X Backlash ---
G0 X71.678 Y48.616 F1200
G1 X72.37 Y47.084 Z0 F1500
G1 X73.474 Y44.704 Z0 F1500
G1 X74.585 Y42.38 Z0 F1500
G1 X74.904 Y41.736 Z0 F1500
; --- FIX Y Backlash ---
G0 X74.904 Y42.536 F1200
G1 X75.357 Y42.863 Z0 F1500
G1 X77.301 Y44.361 Z0 F1500
G1 X79.208 Y45.927 Z0 F1500
G1 X81.092 Y47.57 Z0 F1500
G1 X82.949 Y49.287 Z0 F1500
G1 X84.737 Y51.033 Z0 F1500
G1 X86.499 Y52.848 Z0 F1500
G1 X87.629 Y54.076 Z0 F1500
; --- FIX X Backlash ---
G0 X86.829 Y54.076 F1200
G1 X85.37 Y59.141 Z0 F1500
G1 X83.704 Y65.169 Z0 F1500
G1 X82.088 Y71.276 Z0 F1500
G1 X81.384 Y74.063 Z0 F1500
; --- FIX Y Backlash ---
G0 X81.384 Y73.263 F1200
G1 X81.315 Y73.166 Z0 F1500
G1 X79.159 Y70.258 Z0 F1500
G1 X78.052 Y68.822 Z0 F1500
G0 Z3.5 F500

; Color picking sequence
G1 Z10 F1000;         ; Raise brush
G0 X41 Y5 F1200;    ; Rapid move to color 1
G1 Z10 F1000;         ; Raise brush
G0 X41 Y5 F1200;    ; Rapid move to color 1
G1 Z0 F1000;         ; Lower into color
G1 X40.102 Y7.295 Z0 S800 F1200
G1 X40.026 Y7.642 Z0 F1200
G1 X40 Y8 Z0 F1200
G1 X40.026 Y8.358 Z0 F1200
G1 X40.102 Y8.705 Z0 F1200
G1 X40.225 Y9.041 Z0 F1200
G1 X40.393 Y9.362 Z0 F1200
G1 X40.603 Y9.668 Z0 F1200
G1 X40.854 Y9.957 Z0 F1200
G1 X41.142 Y10.226 Z0 F1200
G1 X41.464 Y10.475 Z0 F1200
G1 X41.82 Y10.701 Z0 F1200
G1 X42.204 Y10.902 Z0 F1200
G1 X42.617 Y11.078 Z0 F1200
G1 X43.054 Y11.225 Z0 F1200
G1 X43.513 Y11.343 Z0 F1200
G1 X43.992 Y11.429 Z0 F1200
G1 X44.489 Y11.482 Z0 F1200
G1 X45 Y11.5 Z0 F1200
G1 X45.511 Y11.482 Z0 F1200
G1 X46.008 Y11.429 Z0 F1200
G1 X46.487 Y11.343 Z0 F1200
G1 X46.946 Y11.225 Z0 F1200
G1 X47.383 Y11.078 Z0 F1200
G1 X47.796 Y10.902 Z0 F1200
G1 X48.18 Y10.701 Z0 F1200
G1 X48.536 Y10.475 Z0 F1200
G1 X48.858 Y10.226 Z0 F1200
G1 X49.146 Y9.957 Z0 F1200
G1 X49.397 Y9.668 Z0 F1200
G1 X49.607 Y9.362 Z0 F1200
G1 X49.775 Y9.041 Z0 F1200
G1 X49.898 Y8.705 Z0 F1200
G1 X49.974 Y8.358 Z0 F1200
G1 X50 Y8 Z0 F1200
G1 X49.974 Y7.642 Z0 F1200
G1 X49.898 Y7.295 Z0 F1200
G1 X49.775 Y6.959 Z0 F1200
G1 X49.607 Y6.638 Z0 F1200
G1 X49.397 Y6.332 Z0 F1200
G1 X49.146 Y6.043 Z0 F1200
G1 X48.858 Y5.774 Z0 F1200
G1 X48.536 Y5.525 Z0 F1200
G1 X48.18 Y5.299 Z0 F1200
G1 X47.796 Y5.098 Z0 F1200
G1 X47.383 Y4.922 Z0 F1200
G1 X46.946 Y4.775 Z0 F1200
G1 X46.487 Y4.657 Z0 F1200
G1 X46.008 Y4.571 Z0 F1200
G1 X45.511 Y4.518 Z0 F1200
G1 X45 Y4.5 Z0 F1200
G1 X44.489 Y4.518 Z0 F1200
G1 X43.992 Y4.571 Z0 F1200
G1 X43.513 Y4.657 Z0 F1200
G1 X43.054 Y4.775 Z0 F1200
G1 X42.617 Y4.922 Z0 F1200
G1 X42.204 Y5.098 Z0 F1200
G1 X41.82 Y5.299 Z0 F1200
G1 X41.464 Y5.525 Z0 F1200
G1 X41.142 Y5.774 Z0 F1200
G1 X40.854 Y6.043 Z0 F1200
G1 X40.603 Y6.332 Z0 F1200
G1 X40.393 Y6.638 Z0 F1200
G1 X40.225 Y6.959 Z0 F1200
G1 Z7 F800;         ; Raise from color
G1 X34 Y8 Z1 F1200;     ; Movement in paint
G1 X24 Y18 Z8 F500;     ; Move in paint
G1 F1200;           ; Set feed rate
G0 Z3.5 F1000 ; Safety Lift
G0 X78.052 Y68.822 F1200 ; Return to pos
G0 X72.423 Y49.441 Z3.5
G1 Z0 F500
; --- FIX X Backlash ---
G0 X73.223 Y49.441 F1200
G1 X74.2 Y48.88 Z0 F1500
G1 X75.184 Y48.343 Z0 F1500
G1 X76.173 Y47.826 Z0 F1500
G1 X77.165 Y47.325 Z0 F1500
; --- FIX X Backlash ---
G0 X76.365 Y47.325 F1200
G1 X75.396 Y46.23 Z0 F1500
G1 X74.408 Y45.155 Z0 F1500
; --- FIX Y Backlash ---
G0 X74.408 Y45.955 F1200
G1 X73.415 Y48.078 Z0 F1500
G1 X72.423 Y50.241 Z0 F1500
G0 Z3.5 F500
G0 X72.316 Y51.226 Z3.5
G1 Z0 F500
; --- FIX X Backlash ---
G0 X73.116 Y51.226 F1200
; --- FIX Y Backlash ---
G0 X73.116 Y50.426 F1200
G1 X74.583 Y49.582 Z0 F1500
G1 X75.567 Y49.046 Z0 F1500
G1 X76.535 Y48.54 Z0 F1500
G1 X78.451 Y47.57 Z0 F1500
; --- FIX X Backlash ---
G0 X77.651 Y47.57 F1200
G1 X75.991 Y45.694 Z0 F1500
G1 X74.188 Y43.734 Z0 F1500
; --- FIX Y Backlash ---
G0 X74.188 Y44.534 F1200
G1 X72.689 Y47.742 Z0 F1500
G1 X71.452 Y50.438 Z0 F1500
; --- FIX X Backlash ---
G0 X72.252 Y50.438 F1200
G1 X73.116 Y51.226 Z0 F1500
G0 Z3.5 F500
G0 X73.477 Y51.941 Z3.5
G1 Z0 F500
; --- FIX Y Backlash ---
G0 X73.477 Y51.141 F1200
G1 X74.988 Y50.272 Z0 F1500
G1 X75.321 Y50.091 Z0 F1500
; --- FIX X Backlash ---
G0 X74.521 Y50.091 F1200
; --- FIX Y Backlash ---
G0 X74.521 Y50.891 F1200
G1 X74.198 Y51.269 Z0 F1500
G1 X73.117 Y52.577 Z0 F1500
; --- FIX Y Backlash ---
G0 X73.117 Y51.777 F1200
G1 X72.677 Y51.141 Z0 F1500
G0 Z3.5 F500
G0 X69.957 Y48.711 Z3.5
G1 Z0 F500
; --- FIX X Backlash ---
G0 X70.757 Y48.711 F1200
G1 X71.647 Y46.741 Z0 F1500
G1 X72.744 Y44.376 Z0 F1500
G1 X73.868 Y42.025 Z0 F1500
G1 X74.605 Y40.535 Z0 F1500
; --- FIX Y Backlash ---
G0 X74.605 Y41.335 F1200
G1 X75.839 Y42.224 Z0 F1500
G1 X77.799 Y43.735 Z0 F1500
G1 X79.726 Y45.318 Z0 F1500
G1 X81.633 Y46.981 Z0 F1500
G1 X83.481 Y48.688 Z0 F1500
G1 X85.304 Y50.469 Z0 F1500
G1 X87.077 Y52.295 Z0 F1500
G1 X88.522 Y53.866 Z0 F1500
; --- FIX X Backlash ---
G0 X87.722 Y53.866 F1200
G1 X86.14 Y59.358 Z0 F1500
G1 X84.476 Y65.378 Z0 F1500
G1 X82.863 Y71.477 Z0 F1500
G1 X81.732 Y75.951 Z0 F1500
; --- FIX Y Backlash ---
G0 X81.732 Y75.151 F1200
G1 X80.667 Y73.635 Z0 F1500
G1 X78.521 Y70.741 Z0 F1500
G1 X77.421 Y69.315 Z0 F1500
G1 X76.308 Y67.911 Z0 F1500
G1 X75.179 Y66.528 Z0 F1500
G1 X73.039 Y63.979 Z0 F1500
; --- FIX Y Backlash ---
G0 X73.039 Y64.779 F1200
G1 X71.675 Y70.116 Z0 F1500
; --- FIX X Backlash ---
G0 X72.475 Y70.116 F1200
G1 X74.768 Y72.67 Z0 F1500
G1 X76.716 Y74.938 Z0 F1500
G1 X78.642 Y77.283 Z0 F1500
G1 X80.154 Y79.208 Z0 F1500
; --- FIX X Backlash ---
G0 X79.354 Y79.208 F1200
G1 X78.254 Y80.931 Z0 F1500
; --- FIX X Backlash ---
G0 X79.054 Y80.931 F1200
G1 X79.901 Y84.121 Z0 F1500
G1 X80.632 Y86.973 Z0 F1500
G1 X81.01 Y88.5 Z0 F1500
; --- FIX X Backlash ---
G0 X80.21 Y88.5 F1200
; --- FIX Y Backlash ---
G0 X80.21 Y87.7 F1200
G1 X78.782 Y85.7 Z0 F1500
G1 X76.743 Y82.971 Z0 F1500
G1 X74.644 Y80.29 Z0 F1500
G1 X72.488 Y77.672 Z0 F1500
G1 X70.28 Y75.131 Z0 F1500
G1 X69.154 Y73.89 Z0 F1500
G1 X68.017 Y72.677 Z0 F1500
G1 X66.868 Y71.489 Z0 F1500
G1 X66.633 Y71.254 Z0 F1500
; --- FIX X Backlash ---
G0 X67.433 Y71.254 F1200
G1 X67.598 Y71.2 Z0 F1500
G1 X69.329 Y70.657 Z0 F1500
G1 X71.219 Y66.56 Z0 F1500
G1 X73.017 Y62.851 Z0 F1500
G1 X74.889 Y59.174 Z0 F1500
G1 X76.024 Y57.054 Z0 F1500
; --- FIX Y Backlash ---
G0 X76.024 Y57.854 F1200
G1 X76.602 Y59.312 Z0 F1500
G1 X77.781 Y62.398 Z0 F1500
G1 X78.925 Y65.503 Z0 F1500
G1 X80.229 Y69.178 Z0 F1500
G1 X81.387 Y69.152 Z0 F1500
; --- FIX Y Backlash ---
G0 X81.387 Y68.352 F1200
G1 X82.356 Y65.17 Z0 F1500

; Color picking sequence
G1 Z10 F1000;         ; Raise brush
G0 X41 Y5 F1200;    ; Rapid move to color 1
G1 Z10 F1000;         ; Raise brush
G0 X41 Y5 F1200;    ; Rapid move to color 1
G1 Z0 F1000;         ; Lower into color
G1 X40.102 Y7.295 Z0 S800 F1200
G1 X40.026 Y7.642 Z0 F1200
G1 X40 Y8 Z0 F1200
G1 X40.026 Y8.358 Z0 F1200
G1 X40.102 Y8.705 Z0 F1200
G1 X40.225 Y9.041 Z0 F1200
G1 X40.393 Y9.362 Z0 F1200
G1 X40.603 Y9.668 Z0 F1200
G1 X40.854 Y9.957 Z0 F1200
G1 X41.142 Y10.226 Z0 F1200
G1 X41.464 Y10.475 Z0 F1200
G1 X41.82 Y10.701 Z0 F1200
G1 X42.204 Y10.902 Z0 F1200
G1 X42.617 Y11.078 Z0 F1200
G1 X43.054 Y11.225 Z0 F1200
G1 X43.513 Y11.343 Z0 F1200
G1 X43.992 Y11.429 Z0 F1200
G1 X44.489 Y11.482 Z0 F1200
G1 X45 Y11.5 Z0 F1200
G1 X45.511 Y11.482 Z0 F1200
G1 X46.008 Y11.429 Z0 F1200
G1 X46.487 Y11.343 Z0 F1200
G1 X46.946 Y11.225 Z0 F1200
G1 X47.383 Y11.078 Z0 F1200
G1 X47.796 Y10.902 Z0 F1200
G1 X48.18 Y10.701 Z0 F1200
G1 X48.536 Y10.475 Z0 F1200
G1 X48.858 Y10.226 Z0 F1200
G1 X49.146 Y9.957 Z0 F1200
G1 X49.397 Y9.668 Z0 F1200
G1 X49.607 Y9.362 Z0 F1200
G1 X49.775 Y9.041 Z0 F1200
G1 X49.898 Y8.705 Z0 F1200
G1 X49.974 Y8.358 Z0 F1200
G1 X50 Y8 Z0 F1200
G1 X49.974 Y7.642 Z0 F1200
G1 X49.898 Y7.295 Z0 F1200
G1 X49.775 Y6.959 Z0 F1200
G1 X49.607 Y6.638 Z0 F1200
G1 X49.397 Y6.332 Z0 F1200
G1 X49.146 Y6.043 Z0 F1200
G1 X48.858 Y5.774 Z0 F1200
G1 X48.536 Y5.525 Z0 F1200
G1 X48.18 Y5.299 Z0 F1200
G1 X47.796 Y5.098 Z0 F1200
G1 X47.383 Y4.922 Z0 F1200
G1 X46.946 Y4.775 Z0 F1200
G1 X46.487 Y4.657 Z0 F1200
G1 X46.008 Y4.571 Z0 F1200
G1 X45.511 Y4.518 Z0 F1200
G1 X45 Y4.5 Z0 F1200
G1 X44.489 Y4.518 Z0 F1200
G1 X43.992 Y4.571 Z0 F1200
G1 X43.513 Y4.657 Z0 F1200
G1 X43.054 Y4.775 Z0 F1200
G1 X42.617 Y4.922 Z0 F1200
G1 X42.204 Y5.098 Z0 F1200
G1 X41.82 Y5.299 Z0 F1200
G1 X41.464 Y5.525 Z0 F1200
G1 X41.142 Y5.774 Z0 F1200
G1 X40.854 Y6.043 Z0 F1200
G1 X40.603 Y6.332 Z0 F1200
G1 X40.393 Y6.638 Z0 F1200
G1 X40.225 Y6.959 Z0 F1200
G1 Z7 F800;         ; Raise from color
G1 X34 Y8 Z1 F1200;     ; Movement in paint
G1 X24 Y18 Z8 F500;     ; Move in paint
G1 F1200;           ; Set feed rate
G0 Z3.5 F1000 ; Safety Lift
G0 X82.356 Y65.17 F1200 ; Return
G1 Z0 F1000 ; Restore Z
G1 X83.178 Y62.549 Z0 F1500
G1 X84.01 Y59.952 Z0 F1500
G1 X84.972 Y57.013 Z0 F1500
; --- FIX X Backlash ---
G0 X84.172 Y57.013 F1200
G1 X82.674 Y54.541 Z0 F1500
G1 X81.333 Y52.401 Z0 F1500
G1 X79.962 Y50.285 Z0 F1500
G1 X77.987 Y47.341 Z0 F1500
; --- FIX Y Backlash ---
G0 X77.987 Y48.141 F1200
G1 X76.051 Y50.331 Z0 F1500
G1 X74.81 Y51.784 Z0 F1500
G1 X73.585 Y53.266 Z0 F1500
G1 X73.062 Y53.918 Z0 F1500
; --- FIX Y Backlash ---
G0 X73.062 Y53.118 F1200
G1 X72.688 Y52.563 Z0 F1500
G1 X71.695 Y51.128 Z0 F1500
G1 X70.692 Y49.718 Z0 F1500
G1 X69.957 Y48.711 Z0 F1500
G0 Z3.5 F500
; --- FIX Y Backlash ---
G0 X69.957 Y49.511 F1200
G0 X69.036 Y49.606 Z3.5
G1 Z0 F500
; --- FIX X Backlash ---
G0 X69.836 Y49.606 F1200
; --- FIX Y Backlash ---
G0 X69.836 Y48.806 F1200
G1 X70.918 Y46.411 Z0 F1500
G1 X72.022 Y44.031 Z0 F1500
G1 X73.151 Y41.67 Z0 F1500
G1 X74.308 Y39.334 Z0 F1500
; --- FIX Y Backlash ---
G0 X74.308 Y40.134 F1200
G1 X76.318 Y41.583 Z0 F1500
G1 X78.298 Y43.11 Z0 F1500
G1 X80.246 Y44.709 Z0 F1500
G1 X82.159 Y46.378 Z0 F1500
G1 X84.035 Y48.111 Z0 F1500
G1 X85.872 Y49.905 Z0 F1500
G1 X87.666 Y51.753 Z0 F1500
G1 X89.416 Y53.654 Z0 F1500
; --- FIX X Backlash ---
G0 X88.616 Y53.654 F1200
G1 X86.91 Y59.576 Z0 F1500
G1 X85.249 Y65.587 Z0 F1500
G1 X83.637 Y71.677 Z0 F1500
G1 X82.08 Y77.837 Z0 F1500
; --- FIX Y Backlash ---
G0 X82.08 Y77.037 F1200
G1 X80.018 Y74.103 Z0 F1500
G1 X77.883 Y71.223 Z0 F1500
G1 X76.791 Y69.808 Z0 F1500
G1 X75.684 Y68.412 Z0 F1500
G1 X74.563 Y67.038 Z0 F1500
G1 X73.429 Y65.686 Z0 F1500
; --- FIX Y Backlash ---
G0 X73.429 Y66.486 F1200
G1 X72.555 Y69.899 Z0 F1500
; --- FIX X Backlash ---
G0 X73.355 Y69.899 F1200
G1 X75.363 Y72.135 Z0 F1500
G1 X77.334 Y74.431 Z0 F1500
G1 X79.26 Y76.775 Z0 F1500
G1 X81.134 Y79.16 Z0 F1500
; --- FIX X Backlash ---
G0 X80.334 Y79.16 F1200
G1 X79.117 Y81.065 Z0 F1500
; --- FIX X Backlash ---
G0 X79.917 Y81.065 F1200
G1 X80.676 Y83.922 Z0 F1500
G1 X81.409 Y86.78 Z0 F1500
G1 X82.116 Y89.638 Z0 F1500
G1 X82.801 Y92.495 Z0 F1500
; --- FIX X Backlash ---
G0 X82.001 Y92.495 F1200
; --- FIX Y Backlash ---
G0 X82.001 Y91.695 F1200
G1 X80.101 Y88.923 Z0 F1500
G1 X78.136 Y86.172 Z0 F1500
G1 X76.108 Y83.457 Z0 F1500
G1 X74.02 Y80.791 Z0 F1500
G1 X71.877 Y78.188 Z0 F1500
G1 X69.681 Y75.662 Z0 F1500
G1 X68.565 Y74.433 Z0 F1500
G1 X67.437 Y73.228 Z0 F1500
G1 X66.298 Y72.05 Z0 F1500
G1 X65.147 Y70.899 Z0 F1500
; --- FIX X Backlash ---
G0 X65.947 Y70.899 F1200
G1 X67.349 Y70.439 Z0 F1500
G1 X68.751 Y69.999 Z0 F1500
G1 X70.493 Y66.225 Z0 F1500
G1 X72.304 Y62.489 Z0 F1500
G1 X74.184 Y58.796 Z0 F1500
G1 X76.133 Y55.156 Z0 F1500
; --- FIX Y Backlash ---
G0 X76.133 Y55.956 F1200
G1 X77.349 Y59.026 Z0 F1500

; Color picking sequence
G1 Z10 F1000;         ; Raise brush
G0 X41 Y5 F1200;    ; Rapid move to color 1
G1 Z10 F1000;         ; Raise brush
G0 X41 Y5 F1200;    ; Rapid move to color 1
G1 Z0 F1000;         ; Lower into color
G1 X40.102 Y7.295 Z0 S800 F1200
G1 X40.026 Y7.642 Z0 F1200
G1 X40 Y8 Z0 F1200
G1 X40.026 Y8.358 Z0 F1200
G1 X40.102 Y8.705 Z0 F1200
G1 X40.225 Y9.041 Z0 F1200
G1 X40.393 Y9.362 Z0 F1200
G1 X40.603 Y9.668 Z0 F1200
G1 X40.854 Y9.957 Z0 F1200
G1 X41.142 Y10.226 Z0 F1200
G1 X41.464 Y10.475 Z0 F1200
G1 X41.82 Y10.701 Z0 F1200
G1 X42.204 Y10.902 Z0 F1200
G1 X42.617 Y11.078 Z0 F1200
G1 X43.054 Y11.225 Z0 F1200
G1 X43.513 Y11.343 Z0 F1200
G1 X43.992 Y11.429 Z0 F1200
G1 X44.489 Y11.482 Z0 F1200
G1 X45 Y11.5 Z0 F1200
G1 X45.511 Y11.482 Z0 F1200
G1 X46.008 Y11.429 Z0 F1200
G1 X46.487 Y11.343 Z0 F1200
G1 X46.946 Y11.225 Z0 F1200
G1 X47.383 Y11.078 Z0 F1200
G1 X47.796 Y10.902 Z0 F1200
G1 X48.18 Y10.701 Z0 F1200
G1 X48.536 Y10.475 Z0 F1200
G1 X48.858 Y10.226 Z0 F1200
G1 X49.146 Y9.957 Z0 F1200
G1 X49.397 Y9.668 Z0 F1200
G1 X49.607 Y9.362 Z0 F1200
G1 X49.775 Y9.041 Z0 F1200
G1 X49.898 Y8.705 Z0 F1200
G1 X49.974 Y8.358 Z0 F1200
G1 X50 Y8 Z0 F1200
G1 X49.974 Y7.642 Z0 F1200
G1 X49.898 Y7.295 Z0 F1200
G1 X49.775 Y6.959 Z0 F1200
G1 X49.607 Y6.638 Z0 F1200
G1 X49.397 Y6.332 Z0 F1200
G1 X49.146 Y6.043 Z0 F1200
G1 X48.858 Y5.774 Z0 F1200
G1 X48.536 Y5.525 Z0 F1200
G1 X48.18 Y5.299 Z0 F1200
G1 X47.796 Y5.098 Z0 F1200
G1 X47.383 Y4.922 Z0 F1200
G1 X46.946 Y4.775 Z0 F1200
G1 X46.487 Y4.657 Z0 F1200
G1 X46.008 Y4.571 Z0 F1200
G1 X45.511 Y4.518 Z0 F1200
G1 X45 Y4.5 Z0 F1200
G1 X44.489 Y4.518 Z0 F1200
G1 X43.992 Y4.571 Z0 F1200
G1 X43.513 Y4.657 Z0 F1200
G1 X43.054 Y4.775 Z0 F1200
G1 X42.617 Y4.922 Z0 F1200
G1 X42.204 Y5.098 Z0 F1200
G1 X41.82 Y5.299 Z0 F1200
G1 X41.464 Y5.525 Z0 F1200
G1 X41.142 Y5.774 Z0 F1200
G1 X40.854 Y6.043 Z0 F1200
G1 X40.603 Y6.332 Z0 F1200
G1 X40.393 Y6.638 Z0 F1200
G1 X40.225 Y6.959 Z0 F1200
G1 Z7 F800;         ; Raise from color
G1 X34 Y8 Z1 F1200;     ; Movement in paint
G1 X24 Y18 Z8 F500;     ; Move in paint
G1 F1200;           ; Set feed rate
G0 Z3.5 F1000 ; Safety Lift
G0 X77.349 Y59.026 F1200 ; Return
G1 Z0 F1000 ; Restore Z
G1 X78.531 Y62.121 Z0 F1500
G1 X79.679 Y65.235 Z0 F1500
G1 X80.79 Y68.365 Z0 F1500
; --- FIX Y Backlash ---
G0 X80.79 Y67.565 F1200
G1 X81.593 Y64.931 Z0 F1500
G1 X82.414 Y62.31 Z0 F1500
G1 X83.25 Y59.703 Z0 F1500
G1 X84.097 Y57.114 Z0 F1500
; --- FIX X Backlash ---
G0 X83.297 Y57.114 F1200
G1 X81.992 Y54.961 Z0 F1500
G1 X80.658 Y52.831 Z0 F1500
G1 X79.294 Y50.725 Z0 F1500
G1 X77.9 Y48.647 Z0 F1500
; --- FIX Y Backlash ---
G0 X77.9 Y49.447 F1200
G1 X76.655 Y50.855 Z0 F1500
G1 X75.423 Y52.298 Z0 F1500
G1 X74.205 Y53.771 Z0 F1500
G1 X73.005 Y55.268 Z0 F1500
; --- FIX Y Backlash ---
G0 X73.005 Y54.468 F1200
G1 X72.028 Y53.014 Z0 F1500
G1 X71.04 Y51.588 Z0 F1500
G1 X70.043 Y50.186 Z0 F1500
G1 X69.036 Y48.806 Z0 F1500
G0 Z3.5 F500
; --- FIX X Backlash ---
G0 X69.836 Y48.806 F1200
; --- FIX Y Backlash ---
G0 X69.836 Y49.606 F1200
G0 X100.804 Y83.086 Z3.5
G1 Z0 F500
; --- FIX X Backlash ---
G0 X100.004 Y83.086 F1200
G1 X98.846 Y83.845 Z0 F1500
; --- FIX X Backlash ---
G0 X99.646 Y83.845 F1200
; --- FIX Y Backlash ---
G0 X99.646 Y83.045 F1200
G1 X100.171 Y82.189 Z0 F1500
G1 X100.947 Y80.956 Z0 F1500
; --- FIX X Backlash ---
G0 X100.147 Y80.956 F1200
; --- FIX Y Backlash ---
G0 X100.147 Y81.756 F1200
G1 X100.004 Y83.086 Z0 F1500
G0 Z3.5 F500
; --- FIX X Backlash ---
G0 X100.804 Y83.086 F1200
G0 X100.94 Y83.954 Z3.5
G1 Z0 F500
; --- FIX X Backlash ---
G0 X100.14 Y83.954 F1200
G1 X97.901 Y85.42 Z0 F1500
G1 X96.884 Y86.117 Z0 F1500
G1 X96.305 Y86.532 Z0 F1500
; --- FIX X Backlash ---
G0 X97.105 Y86.532 F1200
; --- FIX Y Backlash ---
G0 X97.105 Y85.732 F1200
G1 X97.629 Y84.836 Z0 F1500
G1 X98.575 Y83.26 Z0 F1500
G1 X99.508 Y81.741 Z0 F1500
G1 X100.425 Y80.283 Z0 F1500
G1 X101.369 Y78.821 Z0 F1500
G1 X102.099 Y77.719 Z0 F1500
; --- FIX X Backlash ---
G0 X101.299 Y77.719 F1200
; --- FIX Y Backlash ---
G0 X101.299 Y78.519 F1200
G1 X100.681 Y84.274 Z0 F1500
; --- FIX Y Backlash ---
G0 X100.681 Y83.474 F1200
G1 X100.14 Y83.154 Z0 F1500
G0 Z3.5 F500
G0 X98.026 Y81.322 Z3.5
G1 Z0 F500
; --- FIX X Backlash ---
G0 X98.826 Y81.322 F1200
G1 X99.752 Y79.849 Z0 F1500
G1 X100.687 Y78.403 Z0 F1500
G1 X101.628 Y76.981 Z0 F1500
G1 X102.543 Y75.638 Z0 F1500
G1 X103.234 Y74.653 Z0 F1500
; --- FIX X Backlash ---
G0 X102.434 Y74.653 F1200
; --- FIX Y Backlash ---
G0 X102.434 Y75.453 F1200
G1 X102.202 Y77.6 Z0 F1500
G1 X101.345 Y85.596 Z0 F1500
; --- FIX Y Backlash ---
G0 X101.345 Y84.796 F1200
G1 X100.161 Y84.096 Z0 F1500
; --- FIX Y Backlash ---
G0 X100.161 Y84.896 F1200
G1 X98.346 Y86.084 Z0 F1500
G1 X97.343 Y86.772 Z0 F1500
G1 X96.335 Y87.494 Z0 F1500
G1 X95.324 Y88.248 Z0 F1500
G1 X94.311 Y89.031 Z0 F1500
G1 X93.563 Y89.631 Z0 F1500
; --- FIX X Backlash ---
G0 X94.363 Y89.631 F1200
; --- FIX Y Backlash ---
G0 X94.363 Y88.831 F1200
G1 X96.952 Y84.41 Z0 F1500
G1 X97.88 Y82.862 Z0 F1500
G1 X98.826 Y81.322 Z0 F1500
G0 Z3.5 F500
; --- FIX X Backlash ---
G0 X98.026 Y81.322 F1200
G0 X88.272 Y77.018 Z3.5
G1 Z0 F500
; --- FIX X Backlash ---
G0 X89.072 Y77.018 F1200
; --- FIX Y Backlash ---
G0 X89.072 Y77.818 F1200
G1 X89.526 Y79.424 Z0 F1500
G1 X89.987 Y81.09 Z0 F1500
; --- FIX X Backlash ---
G0 X89.187 Y81.09 F1200
; --- FIX Y Backlash ---
G0 X89.187 Y80.29 F1200
G1 X87.948 Y78.331 Z0 F1500
; --- FIX X Backlash ---
G0 X88.748 Y78.331 F1200
G1 X89.072 Y77.018 Z0 F1500
G0 Z3.5 F500
G0 X89.597 Y75.934 Z3.5
G1 Z0 F500
; --- FIX Y Backlash ---
G0 X89.597 Y76.734 F1200
G1 X90.298 Y79.211 Z0 F1500
G1 X90.985 Y81.697 Z0 F1500
G1 X91.655 Y84.167 Z0 F1500
G1 X92.255 Y86.427 Z0 F1500
; --- FIX X Backlash ---
G0 X91.455 Y86.427 F1200
; --- FIX Y Backlash ---
G0 X91.455 Y85.627 F1200
G1 X90.639 Y84.229 Z0 F1500
G1 X88.631 Y80.908 Z0 F1500
G1 X87.09 Y78.471 Z0 F1500
; --- FIX X Backlash ---
G0 X87.89 Y78.471 F1200
G1 X88.501 Y75.992 Z0 F1500
G1 X89.014 Y73.952 Z0 F1500
; --- FIX Y Backlash ---
G0 X89.014 Y74.752 F1200
G1 X89.597 Y76.734 Z0 F1500
G0 Z3.5 F500

; Color picking sequence
G1 Z10 F1000;         ; Raise brush
G0 X41 Y5 F1200;    ; Rapid move to color 1
G1 Z10 F1000;         ; Raise brush
G0 X41 Y5 F1200;    ; Rapid move to color 1
G1 Z0 F1000;         ; Lower into color
G1 X40.102 Y7.295 Z0 S800 F1200
G1 X40.026 Y7.642 Z0 F1200
G1 X40 Y8 Z0 F1200
G1 X40.026 Y8.358 Z0 F1200
G1 X40.102 Y8.705 Z0 F1200
G1 X40.225 Y9.041 Z0 F1200
G1 X40.393 Y9.362 Z0 F1200
G1 X40.603 Y9.668 Z0 F1200
G1 X40.854 Y9.957 Z0 F1200
G1 X41.142 Y10.226 Z0 F1200
G1 X41.464 Y10.475 Z0 F1200
G1 X41.82 Y10.701 Z0 F1200
G1 X42.204 Y10.902 Z0 F1200
G1 X42.617 Y11.078 Z0 F1200
G1 X43.054 Y11.225 Z0 F1200
G1 X43.513 Y11.343 Z0 F1200
G1 X43.992 Y11.429 Z0 F1200
G1 X44.489 Y11.482 Z0 F1200
G1 X45 Y11.5 Z0 F1200
G1 X45.511 Y11.482 Z0 F1200
G1 X46.008 Y11.429 Z0 F1200
G1 X46.487 Y11.343 Z0 F1200
G1 X46.946 Y11.225 Z0 F1200
G1 X47.383 Y11.078 Z0 F1200
G1 X47.796 Y10.902 Z0 F1200
G1 X48.18 Y10.701 Z0 F1200
G1 X48.536 Y10.475 Z0 F1200
G1 X48.858 Y10.226 Z0 F1200
G1 X49.146 Y9.957 Z0 F1200
G1 X49.397 Y9.668 Z0 F1200
G1 X49.607 Y9.362 Z0 F1200
G1 X49.775 Y9.041 Z0 F1200
G1 X49.898 Y8.705 Z0 F1200
G1 X49.974 Y8.358 Z0 F1200
G1 X50 Y8 Z0 F1200
G1 X49.974 Y7.642 Z0 F1200
G1 X49.898 Y7.295 Z0 F1200
G1 X49.775 Y6.959 Z0 F1200
G1 X49.607 Y6.638 Z0 F1200
G1 X49.397 Y6.332 Z0 F1200
G1 X49.146 Y6.043 Z0 F1200
G1 X48.858 Y5.774 Z0 F1200
G1 X48.536 Y5.525 Z0 F1200
G1 X48.18 Y5.299 Z0 F1200
G1 X47.796 Y5.098 Z0 F1200
G1 X47.383 Y4.922 Z0 F1200
G1 X46.946 Y4.775 Z0 F1200
G1 X46.487 Y4.657 Z0 F1200
G1 X46.008 Y4.571 Z0 F1200
G1 X45.511 Y4.518 Z0 F1200
G1 X45 Y4.5 Z0 F1200
G1 X44.489 Y4.518 Z0 F1200
G1 X43.992 Y4.571 Z0 F1200
G1 X43.513 Y4.657 Z0 F1200
G1 X43.054 Y4.775 Z0 F1200
G1 X42.617 Y4.922 Z0 F1200
G1 X42.204 Y5.098 Z0 F1200
G1 X41.82 Y5.299 Z0 F1200
G1 X41.464 Y5.525 Z0 F1200
G1 X41.142 Y5.774 Z0 F1200
G1 X40.854 Y6.043 Z0 F1200
G1 X40.603 Y6.332 Z0 F1200
G1 X40.393 Y6.638 Z0 F1200
G1 X40.225 Y6.959 Z0 F1200
G1 Z7 F800;         ; Raise from color
G1 X34 Y8 Z1 F1200;     ; Movement in paint
G1 X24 Y18 Z8 F500;     ; Move in paint
G1 F1200;           ; Set feed rate
G0 Z3.5 F1000 ; Safety Lift
G0 X89.597 Y76.734 F1200 ; Return to pos
G0 X91.069 Y78.998 Z3.5
G1 Z0 F500
G1 X91.758 Y81.488 Z0 F1500
G1 X92.428 Y83.962 Z0 F1500
G1 X94.009 Y89.917 Z0 F1500
; --- FIX X Backlash ---
G0 X93.209 Y89.917 F1200
G1 X92.758 Y90.291 Z0 F1500
; --- FIX Y Backlash ---
G0 X92.758 Y89.491 F1200
G1 X91.869 Y87.925 Z0 F1500
G1 X89.951 Y84.638 Z0 F1500
G1 X87.95 Y81.328 Z0 F1500
G1 X86.231 Y78.61 Z0 F1500
; --- FIX X Backlash ---
G0 X87.031 Y78.61 F1200
G1 X87.725 Y75.798 Z0 F1500
G1 X88.593 Y72.347 Z0 F1500
G1 X88.959 Y70.928 Z0 F1500
; --- FIX Y Backlash ---
G0 X88.959 Y71.728 F1200
G1 X90.36 Y76.493 Z0 F1500
G1 X91.069 Y78.998 Z0 F1500
G0 Z3.5 F500
; --- FIX Y Backlash ---
G0 X91.069 Y78.198 F1200
G0 X95.951 Y53.535 Z3.5
G1 Z0 F500
G1 X96.079 Y52.773 Z0 F1500
; --- FIX X Backlash ---
G0 X95.279 Y52.773 F1200
G1 X94.468 Y51.691 Z0 F1500
; --- FIX X Backlash ---
G0 X95.268 Y51.691 F1200
; --- FIX Y Backlash ---
G0 X95.268 Y52.491 F1200
G1 X95.723 Y52.709 Z0 F1500
G1 X97.333 Y53.572 Z0 F1500
G1 X97.982 Y53.961 Z0 F1500
G1 X98.039 Y54.119 Z0 F1500
; --- FIX X Backlash ---
G0 X97.239 Y54.119 F1200
G1 X95.151 Y54.335 Z0 F1500
G0 Z3.5 F500
; --- FIX Y Backlash ---
G0 X95.151 Y53.535 F1200
G0 X94.433 Y52.979 Z3.5
G1 Z0 F500
G1 X92.163 Y49.95 Z0 F1500
G1 X91.963 Y49.695 Z0 F1500
; --- FIX X Backlash ---
G0 X92.763 Y49.695 F1200
; --- FIX Y Backlash ---
G0 X92.763 Y50.495 F1200
G1 X94.397 Y51.188 Z0 F1500
G1 X96.089 Y51.997 Z0 F1500
G1 X97.723 Y52.873 Z0 F1500
G1 X98.639 Y53.421 Z0 F1500
G1 X99.742 Y56.496 Z0 F1500
G1 X101.041 Y60.291 Z0 F1500
G1 X102.276 Y64.088 Z0 F1500
G1 X103.301 Y67.408 Z0 F1500
; --- FIX X Backlash ---
G0 X102.501 Y67.408 F1200
G1 X102.339 Y68.898 Z0 F1500
; --- FIX Y Backlash ---
G0 X102.339 Y68.098 F1200
G1 X101.241 Y64.413 Z0 F1500
G1 X99.925 Y60.168 Z0 F1500
G1 X97.948 Y54.05 Z0 F1500
; --- FIX Y Backlash ---
G0 X97.948 Y54.85 F1200
G1 X94.188 Y55.239 Z0 F1500
; --- FIX X Backlash ---
G0 X94.988 Y55.239 F1200
; --- FIX Y Backlash ---
G0 X94.988 Y54.439 F1200
G1 X95.233 Y52.979 Z0 F1500
G0 Z3.5 F500
; --- FIX X Backlash ---
G0 X94.433 Y52.979 F1200
; --- FIX Y Backlash ---
G0 X94.433 Y53.779 F1200
G0 X93.9 Y56.953 Z3.5
G1 Z0 F500
G1 X93.315 Y62.436 Z0 F1500
; --- FIX X Backlash ---
G0 X94.115 Y62.436 F1200
G1 X94.205 Y62.688 Z0 F1500
; --- FIX X Backlash ---
G0 X93.405 Y62.688 F1200
G1 X92.955 Y62.691 Z0 F1500
; --- FIX X Backlash ---
G0 X93.755 Y62.691 F1200
; --- FIX Y Backlash ---
G0 X93.755 Y61.891 F1200
G1 X94.134 Y59.524 Z0 F1500
G1 X94.7 Y56.153 Z0 F1500
G0 Z3.5 F500
; --- FIX X Backlash ---
G0 X93.9 Y56.153 F1200
G0 X93.588 Y53.184 Z3.5
G1 Z0 F500
G1 X91.529 Y50.437 Z0 F1500
G1 X89.817 Y48.267 Z0 F1500
G1 X89.589 Y47.991 Z0 F1500
; --- FIX X Backlash ---
G0 X90.389 Y47.991 F1200
; --- FIX Y Backlash ---
G0 X90.389 Y48.791 F1200
G1 X91.154 Y49.038 Z0 F1500
G1 X92.954 Y49.707 Z0 F1500
G1 X94.723 Y50.457 Z0 F1500
G1 X96.442 Y51.279 Z0 F1500
G1 X98.129 Y52.184 Z0 F1500
G1 X99.295 Y52.881 Z0 F1500
G1 X100.495 Y56.226 Z0 F1500
G1 X101.801 Y60.043 Z0 F1500
G1 X103.048 Y63.876 Z0 F1500
G1 X104.114 Y67.33 Z0 F1500
; --- FIX X Backlash ---
G0 X103.314 Y67.33 F1200
G1 X102.698 Y73.02 Z0 F1500
; --- FIX Y Backlash ---
G0 X102.698 Y72.22 F1200
