
G0 Z10 F500;      ; Move to clearance level
; G0 X-10 Y-10 F1200; Homing
; G0 X-5 Y-5 F1200; go in
; G10 P0 L20 X0 Y0; set to zero
G1 F1200;           ; Set feed rate
;LightBurn 1.6.04
;Custom GCode device profile, absolute coords
;Bounds: X21.42 Y38.03 to X126.58 Y103.97
G00 G17 G40 G21 G54
G90
M3
G1 Z10 F500

; Color picking sequence
G1 Z10 F1000;         ; Raise brush
G0 X86 Y5 F1200;    ; Rapid move to color 1
G1 Z10 F1000;         ; Raise brush
G0 X86 Y5 F1200;    ; Rapid move to color 1
G1 Z0 F1000;         ; Lower into color
G1 X85.102 Y7.295 Z0 S800 F1200
G1 X85.026 Y7.642 Z0 F1200
G1 X85 Y8 Z0 F1200
G1 X85.026 Y8.358 Z0 F1200
G1 X85.102 Y8.705 Z0 F1200
G1 X85.225 Y9.041 Z0 F1200
G1 X85.393 Y9.362 Z0 F1200
G1 X85.603 Y9.668 Z0 F1200
G1 X85.854 Y9.957 Z0 F1200
G1 X86.142 Y10.226 Z0 F1200
G1 X86.464 Y10.475 Z0 F1200
G1 X86.82 Y10.701 Z0 F1200
G1 X87.204 Y10.902 Z0 F1200
G1 X87.617 Y11.078 Z0 F1200
G1 X88.054 Y11.225 Z0 F1200
G1 X88.513 Y11.343 Z0 F1200
G1 X88.992 Y11.429 Z0 F1200
G1 X89.489 Y11.482 Z0 F1200
G1 X90 Y11.5 Z0 F1200
G1 X90.511 Y11.482 Z0 F1200
G1 X91.008 Y11.429 Z0 F1200
G1 X91.487 Y11.343 Z0 F1200
G1 X91.946 Y11.225 Z0 F1200
G1 X92.383 Y11.078 Z0 F1200
G1 X92.796 Y10.902 Z0 F1200
G1 X93.18 Y10.701 Z0 F1200
G1 X93.536 Y10.475 Z0 F1200
G1 X93.858 Y10.226 Z0 F1200
G1 X94.146 Y9.957 Z0 F1200
G1 X94.397 Y9.668 Z0 F1200
G1 X94.607 Y9.362 Z0 F1200
G1 X94.775 Y9.041 Z0 F1200
G1 X94.898 Y8.705 Z0 F1200
G1 X94.974 Y8.358 Z0 F1200
G1 X95 Y8 Z0 F1200
G1 X94.974 Y7.642 Z0 F1200
G1 X94.898 Y7.295 Z0 F1200
G1 X94.775 Y6.959 Z0 F1200
G1 X94.607 Y6.638 Z0 F1200
G1 X94.397 Y6.332 Z0 F1200
G1 X94.146 Y6.043 Z0 F1200
G1 X93.858 Y5.774 Z0 F1200
G1 X93.536 Y5.525 Z0 F1200
G1 X93.18 Y5.299 Z0 F1200
G1 X92.796 Y5.098 Z0 F1200
G1 X92.383 Y4.922 Z0 F1200
G1 X91.946 Y4.775 Z0 F1200
G1 X91.487 Y4.657 Z0 F1200
G1 X91.008 Y4.571 Z0 F1200
G1 X90.511 Y4.518 Z0 F1200
G1 X90 Y4.5 Z0 F1200
G1 X89.489 Y4.518 Z0 F1200
G1 X88.992 Y4.571 Z0 F1200
G1 X88.513 Y4.657 Z0 F1200
G1 X88.054 Y4.775 Z0 F1200
G1 X87.617 Y4.922 Z0 F1200
G1 X87.204 Y5.098 Z0 F1200
G1 X86.82 Y5.299 Z0 F1200
G1 X86.464 Y5.525 Z0 F1200
G1 X86.142 Y5.774 Z0 F1200
G1 X85.854 Y6.043 Z0 F1200
G1 X85.603 Y6.332 Z0 F1200
G1 X85.393 Y6.638 Z0 F1200
G1 X85.225 Y6.959 Z0 F1200
G1 Z7 F800;         ; Raise from color
G1 X79 Y8 Z1 F1200;     ; Movement in paint
G1 X69 Y18 Z8 F500;     ; Move in paint
G1 F1200;           ; Set feed rate
G0 Z2.5 F1000 ; Safety Lift
;Cut @ 1300 mm/min, 90% power

M8
G0 Z3.5 F500
G0 X38.235 Y60.637 Z3.5
G1 Z0 F500
;Layer C1
; --- FIX Y Backlash ---
G0 X38.235 Y59.337 F1200
G1 Y59.259 Z0 S900 F1300
G1 Y59.17 Z0 F1300
G1 X38.23 Y59.055 Z0 F1300
G1 X38.198 Y58.769 Z0 F1300
; --- FIX X Backlash ---
G0 X36.898 Y58.769 F1200
G1 X36.822 Y58.443 Z0 F1300
G1 X36.684 Y58.123 Z0 F1300
G1 X36.468 Y57.85 Z0 F1300
G1 X36.324 Y57.746 Z0 F1300
G1 X36.154 Y57.67 Z0 F1300
G1 X35.956 Y57.628 Z0 F1300
G1 X35.727 Y57.625 Z0 F1300
G1 X35.466 Y57.664 Z0 F1300
; --- FIX Y Backlash ---
G0 X35.466 Y58.964 F1200
G1 X35.179 Y59.039 Z0 F1300
G1 X34.868 Y59.148 Z0 F1300
G1 X34.536 Y59.287 Z0 F1300
G1 X33.824 Y59.644 Z0 F1300
G1 X33.071 Y60.083 Z0 F1300
G1 X32.304 Y60.579 Z0 F1300
G1 X31.55 Y61.106 Z0 F1300
G1 X30.836 Y61.637 Z0 F1300
G1 X30.189 Y62.147 Z0 F1300
G1 X29.863 Y62.419 Z0 F1300
G1 X29.496 Y62.738 Z0 F1300
G1 X29.092 Y63.098 Z0 F1300
G1 X28.662 Y63.494 Z0 F1300
G1 X27.745 Y64.363 Z0 F1300
G1 X26.804 Y65.294 Z0 F1300
G1 X26.342 Y65.766 Z0 F1300
G1 X25.895 Y66.233 Z0 F1300
G1 X25.472 Y66.691 Z0 F1300
G1 X25.078 Y67.131 Z0 F1300
G1 X24.721 Y67.548 Z0 F1300
G1 X24.409 Y67.934 Z0 F1300
G1 X24.149 Y68.284 Z0 F1300
G1 X23.947 Y68.591 Z0 F1300
G1 X23.655 Y69.158 Z0 F1300
G1 X23.44 Y69.711 Z0 F1300
G1 X23.278 Y70.226 Z0 F1300
G1 X23.141 Y70.68 Z0 F1300
G1 X23.075 Y70.877 Z0 F1300
G1 X23.005 Y71.049 Z0 F1300
G1 X22.929 Y71.194 Z0 F1300
G1 X22.842 Y71.309 Z0 F1300
G1 X22.743 Y71.391 Z0 F1300
G1 X22.628 Y71.437 Z0 F1300
G1 X22.493 Y71.445 Z0 F1300
; --- FIX Y Backlash ---
G0 X22.493 Y70.145 F1200
G1 X22.005 Y70.04 Z0 F1300
G1 X21.705 Y70.022 Z0 F1300
G1 X21.46 Y70.004 Z0 F1300
G1 X21.291 Y69.934 Z0 F1300
G1 X21.243 Y69.863 Z0 F1300
G1 X21.222 Y69.76 Z0 F1300
G1 X21.231 Y69.618 Z0 F1300
G1 X21.274 Y69.43 Z0 F1300
; --- FIX X Backlash ---
G0 X22.574 Y69.43 F1200
G1 X22.653 Y69.191 Z0 F1300
G1 X22.77 Y68.893 Z0 F1300
G1 X22.929 Y68.53 Z0 F1300
G1 X23.132 Y68.096 Z0 F1300
G1 X23.596 Y67.089 Z0 F1300
G1 X24.067 Y65.982 Z0 F1300
G1 X24.524 Y64.819 Z0 F1300
G1 X24.945 Y63.641 Z0 F1300
G1 X25.135 Y63.06 Z0 F1300
G1 X25.309 Y62.492 Z0 F1300
G1 X25.464 Y61.941 Z0 F1300
G1 X25.596 Y61.414 Z0 F1300
G1 X25.704 Y60.914 Z0 F1300
G1 X25.784 Y60.448 Z0 F1300
G1 X25.834 Y60.022 Z0 F1300
G1 X25.851 Y59.639 Z0 F1300
G1 X25.855 Y59.446 Z0 F1300
G1 X25.869 Y59.226 Z0 F1300
G1 X25.89 Y58.98 Z0 F1300
G1 X25.919 Y58.71 Z0 F1300
G1 X25.995 Y58.104 Z0 F1300
G1 X26.092 Y57.419 Z0 F1300
G1 X26.323 Y55.857 Z0 F1300
G1 X26.447 Y55.002 Z0 F1300
G1 X26.568 Y54.114 Z0 F1300
G1 X26.78 Y52.282 Z0 F1300
G1 X26.913 Y50.45 Z0 F1300
G1 X26.935 Y49.563 Z0 F1300
G1 X26.92 Y48.711 Z0 F1300
; --- FIX X Backlash ---
G0 X25.62 Y48.711 F1200
G1 X25.563 Y47.904 Z0 F1300
G1 X25.457 Y47.154 Z0 F1300
G1 X25.338 Y46.472 Z0 F1300
G1 X25.244 Y45.855 Z0 F1300
G1 X25.169 Y45.298 Z0 F1300
G1 X25.109 Y44.798 Z0 F1300
G1 X24.981 Y43.581 Z0 F1300
G1 X24.941 Y43.253 Z0 F1300
G1 X24.895 Y42.956 Z0 F1300
G1 X24.839 Y42.685 Z0 F1300
G1 X24.768 Y42.434 Z0 F1300
G1 X24.678 Y42.199 Z0 F1300
G1 X24.566 Y41.975 Z0 F1300
G1 X24.426 Y41.756 Z0 F1300
G1 X24.255 Y41.537 Z0 F1300
G1 X24.047 Y41.315 Z0 F1300
G1 X23.927 Y41.188 Z0 F1300
G1 X23.792 Y41.036 Z0 F1300
G1 X23.645 Y40.862 Z0 F1300
G1 X23.487 Y40.668 Z0 F1300
G1 X23.144 Y40.232 Z0 F1300
G1 X22.773 Y39.748 Z0 F1300
G1 X21.998 Y38.724 Z0 F1300
G1 X21.254 Y37.766 Z0 F1300
G1 X20.922 Y37.365 Z0 F1300
G1 X20.632 Y37.044 Z0 F1300
G1 X20.506 Y36.92 Z0 F1300
G1 X20.396 Y36.824 Z0 F1300
G1 X20.301 Y36.759 Z0 F1300
G1 X20.225 Y36.728 Z0 F1300
G1 X20.167 Y36.732 Z0 F1300
G1 X20.13 Y36.775 Z0 F1300
; --- FIX Y Backlash ---
G0 X20.13 Y38.075 F1200
G1 X20.116 Y38.159 Z0 F1300
G1 X20.124 Y38.287 Z0 F1300
G1 X20.158 Y38.462 Z0 F1300
; --- FIX X Backlash ---
G0 X21.458 Y38.462 F1200
G1 X21.518 Y38.686 Z0 F1300
G1 X21.606 Y38.962 Z0 F1300
G1 X21.723 Y39.292 Z0 F1300
G1 X21.965 Y39.965 Z0 F1300
G1 X22.168 Y40.556 Z0 F1300
G1 X22.34 Y41.074 Z0 F1300
G1 X22.489 Y41.529 Z0 F1300
G1 X22.623 Y41.932 Z0 F1300
G1 X22.751 Y42.29 Z0 F1300
G1 X22.88 Y42.616 Z0 F1300
G1 X23.019 Y42.917 Z0 F1300
G1 X23.176 Y43.204 Z0 F1300
G1 X23.358 Y43.487 Z0 F1300
G1 X23.574 Y43.775 Z0 F1300
G1 X23.833 Y44.078 Z0 F1300
G1 X24.141 Y44.406 Z0 F1300
G1 X24.508 Y44.768 Z0 F1300
G1 X24.941 Y45.175 Z0 F1300
G1 X25.448 Y45.635 Z0 F1300
G1 X26.008 Y46.16 Z0 F1300
G1 X26.591 Y46.746 Z0 F1300
G1 X27.2 Y47.384 Z0 F1300
G1 X27.835 Y48.064 Z0 F1300
G1 X28.496 Y48.778 Z0 F1300
G1 X29.184 Y49.515 Z0 F1300
G1 X29.901 Y50.266 Z0 F1300
G1 X30.646 Y51.022 Z0 F1300
G1 X31.421 Y51.773 Z0 F1300
G1 X32.226 Y52.51 Z0 F1300
G1 X33.061 Y53.223 Z0 F1300
G1 X33.929 Y53.904 Z0 F1300
G1 X34.829 Y54.542 Z0 F1300
G1 X35.762 Y55.128 Z0 F1300
G1 X36.73 Y55.652 Z0 F1300
G1 X37.731 Y56.106 Z0 F1300
G1 X38.223 Y56.308 Z0 F1300
G1 X38.681 Y56.499 Z0 F1300
G1 X39.107 Y56.68 Z0 F1300
G1 X39.87 Y57.009 Z0 F1300
G1 X41.352 Y57.659 Z0 F1300
G1 X41.814 Y57.855 Z0 F1300
G1 X42.226 Y58.016 Z0 F1300
G1 X42.602 Y58.145 Z0 F1300
G1 X42.958 Y58.243 Z0 F1300
G1 X43.309 Y58.313 Z0 F1300
G1 X43.671 Y58.355 Z0 F1300
G1 X44.06 Y58.372 Z0 F1300
G1 X44.491 Y58.365 Z0 F1300
G1 X44.979 Y58.336 Z0 F1300
G1 X45.54 Y58.288 Z0 F1300
; --- FIX Y Backlash ---
G0 X45.54 Y56.988 F1200
G1 X46.189 Y56.921 Z0 F1300
G1 X46.849 Y56.841 Z0 F1300
G1 X47.438 Y56.755 Z0 F1300
G1 X47.962 Y56.662 Z0 F1300
G1 X48.427 Y56.562 Z0 F1300
G1 X48.84 Y56.455 Z0 F1300
G1 X49.206 Y56.34 Z0 F1300
G1 X49.533 Y56.219 Z0 F1300
G1 X49.826 Y56.09 Z0 F1300
G1 X50.337 Y55.811 Z0 F1300
G1 X50.79 Y55.505 Z0 F1300
G1 X51.236 Y55.17 Z0 F1300
G1 X51.726 Y54.806 Z0 F1300
G1 X52.034 Y54.598 Z0 F1300
G1 X52.416 Y54.359 Z0 F1300
G1 X52.852 Y54.101 Z0 F1300
G1 X53.32 Y53.834 Z0 F1300
G1 X53.8 Y53.571 Z0 F1300
G1 X54.273 Y53.323 Z0 F1300
G1 X54.717 Y53.102 Z0 F1300
G1 X55.112 Y52.918 Z0 F1300
G1 X55.284 Y52.845 Z0 F1300
G1 X55.437 Y52.785 Z0 F1300
G1 X55.567 Y52.74 Z0 F1300
G1 X55.672 Y52.712 Z0 F1300
G1 X55.749 Y52.702 Z0 F1300
G1 X55.796 Y52.712 Z0 F1300
G1 X55.811 Y52.743 Z0 F1300
; --- FIX Y Backlash ---
G0 X55.811 Y54.043 F1200
G1 X55.79 Y54.096 Z0 F1300
; --- FIX X Backlash ---
G0 X54.49 Y54.096 F1200
G1 X54.431 Y54.173 Z0 F1300
G1 X54.331 Y54.275 Z0 F1300
G1 X54.189 Y54.404 Z0 F1300
G1 X54.001 Y54.562 Z0 F1300
G1 X53.765 Y54.749 Z0 F1300
G1 X53.478 Y54.967 Z0 F1300
G1 X53.138 Y55.218 Z0 F1300
G1 X52.742 Y55.502 Z0 F1300
G1 X51.077 Y56.684 Z0 F1300
G1 X49.489 Y57.823 Z0 F1300
G1 X47.985 Y58.93 Z0 F1300
G1 X46.575 Y60.02 Z0 F1300
G1 X45.909 Y60.563 Z0 F1300
G1 X45.269 Y61.106 Z0 F1300
G1 X44.658 Y61.65 Z0 F1300
G1 X44.077 Y62.199 Z0 F1300
G1 X43.526 Y62.753 Z0 F1300
G1 X43.007 Y63.314 Z0 F1300
G1 X42.521 Y63.883 Z0 F1300
G1 X42.07 Y64.463 Z0 F1300
G1 X41.621 Y65.082 Z0 F1300
G1 X41.148 Y65.76 Z0 F1300
G1 X40.657 Y66.487 Z0 F1300
G1 X40.153 Y67.25 Z0 F1300
G1 X39.135 Y68.845 Z0 F1300
G1 X38.143 Y70.453 Z0 F1300
G1 X37.672 Y71.235 Z0 F1300
G1 X37.226 Y71.986 Z0 F1300
G1 X36.812 Y72.697 Z0 F1300
G1 X36.435 Y73.354 Z0 F1300
G1 X36.101 Y73.948 Z0 F1300
G1 X35.817 Y74.467 Z0 F1300
G1 X35.696 Y74.695 Z0 F1300
G1 X35.59 Y74.9 Z0 F1300
G1 X35.499 Y75.081 Z0 F1300
G1 X35.425 Y75.236 Z0 F1300
G1 X35.277 Y75.562 Z0 F1300
G1 X35.099 Y75.967 Z0 F1300
G1 X34.896 Y76.44 Z0 F1300
G1 X33.625 Y79.439 Z0 F1300
G1 X33.066 Y80.732 Z0 F1300
G1 X32.522 Y81.947 Z0 F1300
G1 X32.265 Y82.498 Z0 F1300
G1 X32.023 Y82.997 Z0 F1300
G1 X31.8 Y83.432 Z0 F1300
G1 X31.599 Y83.794 Z0 F1300
G1 X31.408 Y84.143 Z0 F1300
G1 X31.212 Y84.543 Z0 F1300
G1 X31.014 Y84.985 Z0 F1300
G1 X30.812 Y85.461 Z0 F1300
G1 X30.402 Y86.484 Z0 F1300
G1 X29.988 Y87.544 Z0 F1300
G1 X29.573 Y88.576 Z0 F1300
G1 X29.163 Y89.514 Z0 F1300
G1 X28.962 Y89.927 Z0 F1300
G1 X28.763 Y90.291 Z0 F1300
G1 X28.568 Y90.599 Z0 F1300
G1 X28.377 Y90.842 Z0 F1300
G1 X28.001 Y91.224 Z0 F1300
G1 X27.637 Y91.545 Z0 F1300
G1 X27.297 Y91.806 Z0 F1300
G1 X26.992 Y92.012 Z0 F1300
G1 X26.735 Y92.166 Z0 F1300
G1 X26.536 Y92.272 Z0 F1300
G1 X26.408 Y92.332 Z0 F1300
G1 X26.363 Y92.352 Z0 F1300
G0 Z3.5 F500

; Color picking sequence
G1 Z10 F1000;         ; Raise brush
G0 X86 Y5 F1200;    ; Rapid move to color 1
G1 Z10 F1000;         ; Raise brush
G0 X86 Y5 F1200;    ; Rapid move to color 1
G1 Z0 F1000;         ; Lower into color
G1 X85.102 Y7.295 Z0 S800 F1200
G1 X85.026 Y7.642 Z0 F1200
G1 X85 Y8 Z0 F1200
G1 X85.026 Y8.358 Z0 F1200
G1 X85.102 Y8.705 Z0 F1200
G1 X85.225 Y9.041 Z0 F1200
G1 X85.393 Y9.362 Z0 F1200
G1 X85.603 Y9.668 Z0 F1200
G1 X85.854 Y9.957 Z0 F1200
G1 X86.142 Y10.226 Z0 F1200
G1 X86.464 Y10.475 Z0 F1200
G1 X86.82 Y10.701 Z0 F1200
G1 X87.204 Y10.902 Z0 F1200
G1 X87.617 Y11.078 Z0 F1200
G1 X88.054 Y11.225 Z0 F1200
G1 X88.513 Y11.343 Z0 F1200
G1 X88.992 Y11.429 Z0 F1200
G1 X89.489 Y11.482 Z0 F1200
G1 X90 Y11.5 Z0 F1200
G1 X90.511 Y11.482 Z0 F1200
G1 X91.008 Y11.429 Z0 F1200
G1 X91.487 Y11.343 Z0 F1200
G1 X91.946 Y11.225 Z0 F1200
G1 X92.383 Y11.078 Z0 F1200
G1 X92.796 Y10.902 Z0 F1200
G1 X93.18 Y10.701 Z0 F1200
G1 X93.536 Y10.475 Z0 F1200
G1 X93.858 Y10.226 Z0 F1200
G1 X94.146 Y9.957 Z0 F1200
G1 X94.397 Y9.668 Z0 F1200
G1 X94.607 Y9.362 Z0 F1200
G1 X94.775 Y9.041 Z0 F1200
G1 X94.898 Y8.705 Z0 F1200
G1 X94.974 Y8.358 Z0 F1200
G1 X95 Y8 Z0 F1200
G1 X94.974 Y7.642 Z0 F1200
G1 X94.898 Y7.295 Z0 F1200
G1 X94.775 Y6.959 Z0 F1200
G1 X94.607 Y6.638 Z0 F1200
G1 X94.397 Y6.332 Z0 F1200
G1 X94.146 Y6.043 Z0 F1200
G1 X93.858 Y5.774 Z0 F1200
G1 X93.536 Y5.525 Z0 F1200
G1 X93.18 Y5.299 Z0 F1200
G1 X92.796 Y5.098 Z0 F1200
G1 X92.383 Y4.922 Z0 F1200
G1 X91.946 Y4.775 Z0 F1200
G1 X91.487 Y4.657 Z0 F1200
G1 X91.008 Y4.571 Z0 F1200
G1 X90.511 Y4.518 Z0 F1200
G1 X90 Y4.5 Z0 F1200
G1 X89.489 Y4.518 Z0 F1200
G1 X88.992 Y4.571 Z0 F1200
G1 X88.513 Y4.657 Z0 F1200
G1 X88.054 Y4.775 Z0 F1200
G1 X87.617 Y4.922 Z0 F1200
G1 X87.204 Y5.098 Z0 F1200
G1 X86.82 Y5.299 Z0 F1200
G1 X86.464 Y5.525 Z0 F1200
G1 X86.142 Y5.774 Z0 F1200
G1 X85.854 Y6.043 Z0 F1200
G1 X85.603 Y6.332 Z0 F1200
G1 X85.393 Y6.638 Z0 F1200
G1 X85.225 Y6.959 Z0 F1200
G1 Z7 F800;         ; Raise from color
G1 X79 Y8 Z1 F1200;     ; Movement in paint
G1 X69 Y18 Z8 F500;     ; Move in paint
G1 F1200;           ; Set feed rate
G0 Z2.5 F1000 ; Safety Lift
G0 X26.363 Y92.352 F1200 ; Return to pos
G0 X23.544 Y95.07 Z3.5 F1300
G1 Z0 F500
G1 X23.248 Y95.251 Z0 F1300
G1 X23.05 Y95.368 Z0 F1300
G1 X22.578 Y95.628 Z0 F1300
G1 X22.084 Y95.863 Z0 F1300
G1 X21.86 Y95.948 Z0 F1300
G1 X21.666 Y95.999 Z0 F1300
G1 X21.516 Y96.007 Z0 F1300
G1 X21.42 Y95.962 Z0 F1300
G1 X21.397 Y95.917 Z0 F1300
; --- FIX Y Backlash ---
G0 X21.397 Y94.617 F1200
G1 X21.392 Y94.555 Z0 F1300
G1 X21.407 Y94.476 Z0 F1300
G1 X21.444 Y94.377 Z0 F1300
; --- FIX X Backlash ---
G0 X22.744 Y94.377 F1200
G1 X22.803 Y94.259 Z0 F1300
G1 X22.886 Y94.119 Z0 F1300
G1 X22.996 Y93.956 Z0 F1300
G1 X23.132 Y93.77 Z0 F1300
G1 X23.685 Y93.044 Z0 F1300
G1 X24.155 Y92.431 Z0 F1300
G1 X24.699 Y91.733 Z0 F1300
G1 X24.995 Y91.357 Z0 F1300
G1 X25.633 Y90.563 Z0 F1300
G1 X26.325 Y89.724 Z0 F1300
G1 X27.063 Y88.858 Z0 F1300
G1 X27.839 Y87.981 Z0 F1300
G1 X28.646 Y87.108 Z0 F1300
G1 X29.476 Y86.256 Z0 F1300
G1 X30.322 Y85.442 Z0 F1300
G1 X31.174 Y84.681 Z0 F1300
G1 X32.027 Y83.989 Z0 F1300
G1 X32.873 Y83.383 Z0 F1300
G1 X33.29 Y83.117 Z0 F1300
G1 X33.703 Y82.879 Z0 F1300
G1 X34.109 Y82.671 Z0 F1300
G1 X34.51 Y82.494 Z0 F1300
G1 X35.294 Y82.183 Z0 F1300
G1 X36.063 Y81.891 Z0 F1300
G1 X36.817 Y81.621 Z0 F1300
G1 X37.557 Y81.374 Z0 F1300
G1 X38.283 Y81.15 Z0 F1300
G1 X38.996 Y80.951 Z0 F1300
G1 X39.697 Y80.777 Z0 F1300
G1 X40.387 Y80.631 Z0 F1300
G1 X41.066 Y80.513 Z0 F1300
G1 X41.735 Y80.425 Z0 F1300
G1 X42.395 Y80.368 Z0 F1300
G1 X43.047 Y80.342 Z0 F1300
G1 X43.691 Y80.349 Z0 F1300
G1 X44.328 Y80.391 Z0 F1300
; --- FIX Y Backlash ---
G0 X44.328 Y81.691 F1200
G1 X44.959 Y81.767 Z0 F1300
G1 X45.585 Y81.881 Z0 F1300
G1 X47.307 Y82.247 Z0 F1300
G1 X48.296 Y82.459 Z0 F1300
G1 X49.161 Y82.649 Z0 F1300
G1 X49.907 Y82.819 Z0 F1300
G1 X50.236 Y82.898 Z0 F1300
G1 X50.537 Y82.972 Z0 F1300
G1 X50.809 Y83.042 Z0 F1300
G1 X51.054 Y83.109 Z0 F1300
G1 X51.271 Y83.172 Z0 F1300
G1 X51.461 Y83.233 Z0 F1300
G1 X51.626 Y83.29 Z0 F1300
G1 X51.996 Y83.401 Z0 F1300
G1 X52.453 Y83.497 Z0 F1300
G1 X52.925 Y83.561 Z0 F1300
G1 X53.337 Y83.58 Z0 F1300
G1 X53.498 Y83.567 Z0 F1300
G1 X53.618 Y83.537 Z0 F1300
G1 X53.685 Y83.488 Z0 F1300
; --- FIX Y Backlash ---
G0 X53.685 Y82.188 F1200
G1 X53.693 Y82.118 Z0 F1300
; --- FIX X Backlash ---
G0 X52.393 Y82.118 F1200
G1 X52.33 Y82.025 Z0 F1300
G1 X52.189 Y81.906 Z0 F1300
G1 X52.086 Y81.837 Z0 F1300
G1 X51.96 Y81.761 Z0 F1300
G1 X51.81 Y81.678 Z0 F1300
G1 X51.634 Y81.588 Z0 F1300
G1 X51.263 Y81.414 Z0 F1300
G1 X50.903 Y81.266 Z0 F1300
G1 X50.554 Y81.142 Z0 F1300
G1 X50.217 Y81.037 Z0 F1300
G1 X49.576 Y80.869 Z0 F1300
G1 X48.979 Y80.732 Z0 F1300
G1 X48.424 Y80.595 Z0 F1300
G1 X47.911 Y80.427 Z0 F1300
G1 X47.437 Y80.197 Z0 F1300
G1 X47.003 Y79.876 Z0 F1300
G1 X46.246 Y79.115 Z0 F1300
G1 X45.556 Y78.316 Z0 F1300
G1 X45.197 Y77.89 Z0 F1300
G1 X44.808 Y77.441 Z0 F1300
G1 X44.375 Y76.963 Z0 F1300
G1 X43.882 Y76.453 Z0 F1300
G1 X43.317 Y75.874 Z0 F1300
G1 X42.7 Y75.218 Z0 F1300
G1 X42.068 Y74.522 Z0 F1300
G1 X41.453 Y73.823 Z0 F1300
G1 X41.163 Y73.483 Z0 F1300
G1 X40.89 Y73.156 Z0 F1300
G1 X40.639 Y72.847 Z0 F1300
G1 X40.413 Y72.559 Z0 F1300
G1 X40.218 Y72.298 Z0 F1300
G1 X40.057 Y72.069 Z0 F1300
G1 X39.934 Y71.875 Z0 F1300
G1 X39.855 Y71.721 Z0 F1300
G1 X39.81 Y71.643 Z0 F1300
G1 X39.736 Y71.542 Z0 F1300
G1 X39.634 Y71.42 Z0 F1300
G1 X39.508 Y71.28 Z0 F1300
G1 X39.194 Y70.953 Z0 F1300
G1 X38.818 Y70.576 Z0 F1300
G1 X37.97 Y69.739 Z0 F1300
G1 X37.149 Y68.902 Z0 F1300
G1 X36.806 Y68.525 Z0 F1300
G1 X36.54 Y68.197 Z0 F1300
G1 X36.443 Y68.057 Z0 F1300
G1 X36.373 Y67.935 Z0 F1300
G1 X36.334 Y67.835 Z0 F1300
G1 X36.329 Y67.756 Z0 F1300
G1 X36.36 Y67.703 Z0 F1300
; --- FIX X Backlash ---
G0 X37.66 Y67.703 F1200
G1 X37.731 Y67.677 Z0 F1300
G1 X37.843 Z0 F1300
G1 X38.001 Y67.712 Z0 F1300
; --- FIX Y Backlash ---
G0 X38.001 Y69.012 F1200
G1 X38.207 Y69.079 Z0 F1300
G1 X38.463 Y69.18 Z0 F1300
G1 X38.774 Y69.319 Z0 F1300
G1 X39.141 Y69.497 Z0 F1300
G1 X39.901 Y69.875 Z0 F1300
G1 X42.388 Y71.102 Z0 F1300
G1 X42.905 Y71.361 Z0 F1300
G1 X43.394 Y71.608 Z0 F1300
G1 X43.86 Y71.85 Z0 F1300
G1 X44.754 Y72.336 Z0 F1300
G1 X45.64 Y72.853 Z0 F1300
G1 X46.096 Y73.134 Z0 F1300
G1 X46.57 Y73.438 Z0 F1300
G1 X47.069 Y73.768 Z0 F1300
G1 X47.598 Y74.128 Z0 F1300
G1 X48.157 Y74.523 Z0 F1300
G1 X48.732 Y74.946 Z0 F1300
G1 X49.32 Y75.392 Z0 F1300
G1 X49.914 Y75.856 Z0 F1300
G1 X51.095 Y76.808 Z0 F1300
G1 X52.23 Y77.753 Z0 F1300
G1 X52.764 Y78.207 Z0 F1300
G1 X53.269 Y78.641 Z0 F1300
G1 X53.739 Y79.049 Z0 F1300
G1 X54.168 Y79.424 Z0 F1300
G1 X54.877 Y80.05 Z0 F1300
G1 X55.351 Y80.471 Z0 F1300
G1 X55.442 Y80.564 Z0 F1300
G1 X55.546 Y80.69 Z0 F1300
G1 X55.66 Y80.845 Z0 F1300
G1 X55.784 Y81.025 Z0 F1300
G1 X56.055 Y81.451 Z0 F1300
G1 X56.347 Y81.939 Z0 F1300
G1 X56.949 Y82.997 Z0 F1300
G1 X57.503 Y83.983 Z0 F1300
G1 X57.623 Y84.193 Z0 F1300
G1 X57.734 Y84.381 Z0 F1300
G1 X57.833 Y84.545 Z0 F1300
G1 X57.92 Y84.681 Z0 F1300
G1 X57.992 Y84.785 Z0 F1300
G1 X58.049 Y84.854 Z0 F1300
G1 X58.09 Y84.885 Z0 F1300
G1 X58.112 Y84.875 Z0 F1300
; --- FIX Y Backlash ---
G0 X58.112 Y83.575 F1200
G1 Y83.519 Z0 F1300
G1 X58.095 Y83.415 Z0 F1300
G1 X58.054 Y83.26 Z0 F1300
; --- FIX X Backlash ---
G0 X56.754 Y83.26 F1200
G1 X56.69 Y83.049 Z0 F1300
G1 X56.6 Y82.78 Z0 F1300
G1 X56.483 Y82.449 Z0 F1300
G1 X56.339 Y82.053 Z0 F1300
G1 X56.165 Y81.588 Z0 F1300
G1 X55.783 Y80.6 Z0 F1300
G1 X55.396 Y79.64 Z0 F1300
G1 X55.006 Y78.709 Z0 F1300
G1 X54.617 Y77.807 Z0 F1300
G1 X54.233 Y76.937 Z0 F1300
G1 X53.857 Y76.1 Z0 F1300
G1 X53.145 Y74.527 Z0 F1300
G1 X52.815 Y73.795 Z0 F1300
G1 X52.507 Y73.102 Z0 F1300
G1 X52.226 Y72.447 Z0 F1300
G1 X51.974 Y71.833 Z0 F1300
G1 X51.755 Y71.26 Z0 F1300
G1 X51.573 Y70.731 Z0 F1300
G1 X51.431 Y70.247 Z0 F1300
G1 X51.332 Y69.808 Z0 F1300
G1 X51.252 Y69.343 Z0 F1300
G1 X51.165 Y68.788 Z0 F1300
G1 X51.071 Y68.155 Z0 F1300
G1 X50.972 Y67.459 Z0 F1300
G1 X50.768 Y65.93 Z0 F1300
G1 X50.565 Y64.308 Z0 F1300
G1 X50.468 Y63.496 Z0 F1300
G1 X50.376 Y62.7 Z0 F1300
G1 X50.291 Y61.935 Z0 F1300
G1 X50.214 Y61.214 Z0 F1300
G1 X50.147 Y60.55 Z0 F1300
G1 X50.092 Y59.956 Z0 F1300
G1 X50.05 Y59.447 Z0 F1300
G1 X50.023 Y59.035 Z0 F1300
G1 X50.015 Y58.841 Z0 F1300
G1 X50.009 Y58.62 Z0 F1300
G1 X50.006 Y58.373 Z0 F1300
G1 Y58.101 Z0 F1300
G1 X50.012 Y57.495 Z0 F1300
G1 X50.03 Y56.815 Z0 F1300
G1 X50.059 Y56.077 Z0 F1300
G1 X50.101 Y55.295 Z0 F1300
; --- FIX X Backlash ---
G0 X51.401 Y55.295 F1200
G1 X51.456 Y54.485 Z0 F1300
G1 X51.525 Y53.661 Z0 F1300
G1 X51.608 Y52.838 Z0 F1300
G1 X51.705 Y52.031 Z0 F1300
G1 X51.818 Y51.256 Z0 F1300
G1 X51.946 Y50.526 Z0 F1300
G1 X52.092 Y49.857 Z0 F1300
G1 X52.254 Y49.263 Z0 F1300
G1 X52.342 Y48.999 Z0 F1300
G1 X52.434 Y48.76 Z0 F1300
G1 X52.531 Y48.547 Z0 F1300
G1 X52.632 Y48.363 Z0 F1300
G1 X52.846 Y48.005 Z0 F1300
G1 X53.562 Y46.769 Z0 F1300
G1 X54.107 Y45.873 Z0 F1300
G1 X54.709 Y44.977 Z0 F1300
G1 X55.033 Y44.546 Z0 F1300
G1 X55.373 Y44.134 Z0 F1300
G1 X55.729 Y43.747 Z0 F1300
G1 X56.101 Y43.393 Z0 F1300
G1 X56.491 Y43.077 Z0 F1300
G1 X56.898 Y42.806 Z0 F1300
G1 X57.323 Y42.585 Z0 F1300
G1 X57.767 Y42.422 Z0 F1300
G1 X58 Y42.369 Z0 F1300
G1 X58.245 Y42.342 Z0 F1300
G1 X58.5 Y42.338 Z0 F1300
G1 X58.765 Y42.358 Z0 F1300
; --- FIX Y Backlash ---
G0 X58.765 Y43.658 F1200
G1 X59.319 Y43.761 Z0 F1300
G1 X59.897 Y43.941 Z0 F1300
G1 X60.491 Y44.189 Z0 F1300
G1 X61.091 Y44.496 Z0 F1300
G1 X61.688 Y44.851 Z0 F1300
G1 X62.273 Y45.245 Z0 F1300
G1 X62.836 Y45.669 Z0 F1300
G1 X63.37 Y46.113 Z0 F1300
G1 X63.863 Y46.567 Z0 F1300
G1 X64.308 Y47.021 Z0 F1300
G1 X64.696 Y47.467 Z0 F1300
G1 X65.016 Y47.895 Z0 F1300
G1 X65.26 Y48.294 Z0 F1300
G1 X65.419 Y48.656 Z0 F1300
G1 X65.488 Y48.842 Z0 F1300
G1 X65.581 Y49.06 Z0 F1300
G1 X65.696 Y49.308 Z0 F1300
G1 X65.831 Y49.586 Z0 F1300
G1 X66.151 Y50.223 Z0 F1300
G1 X66.525 Y50.96 Z0 F1300
G1 X66.936 Y51.788 Z0 F1300
G1 X67.368 Y52.696 Z0 F1300
G1 X67.803 Y53.673 Z0 F1300
G1 X68.225 Y54.709 Z0 F1300
G1 X68.619 Y55.794 Z0 F1300
G1 X68.965 Y56.916 Z0 F1300
G1 X69.25 Y58.066 Z0 F1300
G1 X69.454 Y59.232 Z0 F1300
G1 X69.521 Y59.819 Z0 F1300
G1 X69.563 Y60.405 Z0 F1300
G1 X69.576 Y60.991 Z0 F1300
G1 X69.558 Y61.574 Z0 F1300
; --- FIX X Backlash ---
G0 X68.258 Y61.574 F1200
G1 X68.208 Y62.154 Z0 F1300
G1 X68.124 Y62.729 Z0 F1300
G1 X68.004 Y63.298 Z0 F1300
G1 X67.844 Y63.859 Z0 F1300
G1 X67.486 Y64.922 Z0 F1300
G1 X67.127 Y65.886 Z0 F1300
G1 X66.768 Y66.756 Z0 F1300
G1 X66.409 Y67.538 Z0 F1300
G1 X66.051 Y68.237 Z0 F1300
G1 X65.692 Y68.858 Z0 F1300
G1 X65.333 Y69.407 Z0 F1300
G1 X64.975 Y69.887 Z0 F1300
G1 X64.616 Y70.305 Z0 F1300
G1 X64.257 Y70.666 Z0 F1300
G1 X63.899 Y70.974 Z0 F1300
G1 X63.54 Y71.235 Z0 F1300
G1 X63.181 Y71.455 Z0 F1300
G1 X62.823 Y71.637 Z0 F1300
G1 X62.464 Y71.789 Z0 F1300
G1 X62.105 Y71.913 Z0 F1300
G1 X61.905 Y71.96 Z0 F1300
G1 X61.666 Y71.987 Z0 F1300
G1 X61.392 Y71.997 Z0 F1300
G1 X61.086 Y71.99 Z0 F1300
; --- FIX Y Backlash ---
G0 X61.086 Y70.69 F1200
G1 X60.392 Y70.635 Z0 F1300
G1 X59.613 Y70.532 Z0 F1300
G1 X57.914 Y70.231 Z0 F1300
G1 X56.215 Y69.883 Z0 F1300
G1 X55.437 Y69.721 Z0 F1300
G1 X54.743 Y69.583 Z0 F1300
G1 X54.437 Y69.526 Z0 F1300
G1 X54.162 Y69.48 Z0 F1300
G1 X53.924 Y69.445 Z0 F1300
G1 X53.724 Y69.424 Z0 F1300
G1 X53.566 Y69.418 Z0 F1300
G1 X53.455 Y69.427 Z0 F1300
G1 X53.393 Y69.455 Z0 F1300
G1 X53.384 Y69.501 Z0 F1300
; --- FIX Y Backlash ---
G0 X53.384 Y70.801 F1200
G1 X53.432 Y70.868 Z0 F1300
; --- FIX X Backlash ---
G0 X54.732 Y70.868 F1200
G1 X54.839 Y70.958 Z0 F1300
G1 X55.011 Y71.071 Z0 F1300
G1 X55.25 Y71.209 Z0 F1300
G1 X56.325 Y71.76 Z0 F1300
G1 X57.357 Y72.225 Z0 F1300
G1 X58.338 Y72.628 Z0 F1300
G1 X59.265 Y72.996 Z0 F1300
G1 X60.13 Y73.354 Z0 F1300
G1 X60.928 Y73.729 Z0 F1300
G1 X61.299 Y73.93 Z0 F1300
G1 X61.652 Y74.146 Z0 F1300
G1 X61.985 Y74.379 Z0 F1300
G1 X62.298 Y74.632 Z0 F1300
G1 X62.617 Y74.923 Z0 F1300
G1 X62.966 Y75.263 Z0 F1300
G1 X63.342 Y75.65 Z0 F1300
G1 X63.739 Y76.078 Z0 F1300
G1 X64.152 Y76.543 Z0 F1300
G1 X64.577 Y77.04 Z0 F1300
G1 X65.01 Y77.567 Z0 F1300
G1 X65.444 Y78.118 Z0 F1300
G1 X66.302 Y79.276 Z0 F1300
G1 X67.112 Y80.479 Z0 F1300
G1 X67.487 Y81.088 Z0 F1300
G1 X67.837 Y81.695 Z0 F1300
G1 X68.156 Y82.296 Z0 F1300
G1 X68.439 Y82.888 Z0 F1300
G1 X68.574 Y83.196 Z0 F1300
G1 X68.714 Y83.535 Z0 F1300
G1 X68.858 Y83.902 Z0 F1300
G1 X69.005 Y84.295 Z0 F1300
G1 X69.31 Y85.15 Z0 F1300
G1 X69.624 Y86.084 Z0 F1300
G1 X69.943 Y87.08 Z0 F1300

; Color picking sequence
G1 Z10 F1000;         ; Raise brush
G0 X86 Y5 F1200;    ; Rapid move to color 1
G1 Z10 F1000;         ; Raise brush
G0 X86 Y5 F1200;    ; Rapid move to color 1
G1 Z0 F1000;         ; Lower into color
G1 X85.102 Y7.295 Z0 S800 F1200
G1 X85.026 Y7.642 Z0 F1200
G1 X85 Y8 Z0 F1200
G1 X85.026 Y8.358 Z0 F1200
G1 X85.102 Y8.705 Z0 F1200
G1 X85.225 Y9.041 Z0 F1200
G1 X85.393 Y9.362 Z0 F1200
G1 X85.603 Y9.668 Z0 F1200
G1 X85.854 Y9.957 Z0 F1200
G1 X86.142 Y10.226 Z0 F1200
G1 X86.464 Y10.475 Z0 F1200
G1 X86.82 Y10.701 Z0 F1200
G1 X87.204 Y10.902 Z0 F1200
G1 X87.617 Y11.078 Z0 F1200
G1 X88.054 Y11.225 Z0 F1200
G1 X88.513 Y11.343 Z0 F1200
G1 X88.992 Y11.429 Z0 F1200
G1 X89.489 Y11.482 Z0 F1200
G1 X90 Y11.5 Z0 F1200
G1 X90.511 Y11.482 Z0 F1200
G1 X91.008 Y11.429 Z0 F1200
G1 X91.487 Y11.343 Z0 F1200
G1 X91.946 Y11.225 Z0 F1200
G1 X92.383 Y11.078 Z0 F1200
G1 X92.796 Y10.902 Z0 F1200
G1 X93.18 Y10.701 Z0 F1200
G1 X93.536 Y10.475 Z0 F1200
G1 X93.858 Y10.226 Z0 F1200
G1 X94.146 Y9.957 Z0 F1200
G1 X94.397 Y9.668 Z0 F1200
G1 X94.607 Y9.362 Z0 F1200
G1 X94.775 Y9.041 Z0 F1200
G1 X94.898 Y8.705 Z0 F1200
G1 X94.974 Y8.358 Z0 F1200
G1 X95 Y8 Z0 F1200
G1 X94.974 Y7.642 Z0 F1200
G1 X94.898 Y7.295 Z0 F1200
G1 X94.775 Y6.959 Z0 F1200
G1 X94.607 Y6.638 Z0 F1200
G1 X94.397 Y6.332 Z0 F1200
G1 X94.146 Y6.043 Z0 F1200
G1 X93.858 Y5.774 Z0 F1200
G1 X93.536 Y5.525 Z0 F1200
G1 X93.18 Y5.299 Z0 F1200
G1 X92.796 Y5.098 Z0 F1200
G1 X92.383 Y4.922 Z0 F1200
G1 X91.946 Y4.775 Z0 F1200
G1 X91.487 Y4.657 Z0 F1200
G1 X91.008 Y4.571 Z0 F1200
G1 X90.511 Y4.518 Z0 F1200
G1 X90 Y4.5 Z0 F1200
G1 X89.489 Y4.518 Z0 F1200
G1 X88.992 Y4.571 Z0 F1200
G1 X88.513 Y4.657 Z0 F1200
G1 X88.054 Y4.775 Z0 F1200
G1 X87.617 Y4.922 Z0 F1200
G1 X87.204 Y5.098 Z0 F1200
G1 X86.82 Y5.299 Z0 F1200
G1 X86.464 Y5.525 Z0 F1200
G1 X86.142 Y5.774 Z0 F1200
G1 X85.854 Y6.043 Z0 F1200
G1 X85.603 Y6.332 Z0 F1200
G1 X85.393 Y6.638 Z0 F1200
G1 X85.225 Y6.959 Z0 F1200
G1 Z7 F800;         ; Raise from color
G1 X79 Y8 Z1 F1200;     ; Movement in paint
G1 X69 Y18 Z8 F500;     ; Move in paint
G1 F1200;           ; Set feed rate
G0 Z2.5 F1000 ; Safety Lift
G0 X69.943 Y87.08 F1200 ; Return
G1 Z0 F1000 ; Restore Z
G1 X70.264 Y88.119 Z0 F1300
G1 X70.582 Y89.186 Z0 F1300
G1 X70.894 Y90.263 Z0 F1300
G1 X71.194 Y91.332 Z0 F1300
G1 X71.481 Y92.378 Z0 F1300
G1 X71.748 Y93.382 Z0 F1300
G1 X71.993 Y94.328 Z0 F1300
G1 X72.212 Y95.198 Z0 F1300
G1 X72.4 Y95.976 Z0 F1300
G1 X72.481 Y96.324 Z0 F1300
G1 X72.553 Y96.644 Z0 F1300
G1 X72.616 Y96.931 Z0 F1300
G1 X72.668 Y97.185 Z0 F1300
G1 X72.755 Y97.694 Z0 F1300
G1 X72.827 Y98.267 Z0 F1300
G1 X72.887 Y98.886 Z0 F1300
G1 X72.937 Y99.535 Z0 F1300
G1 X73.017 Y100.855 Z0 F1300
G1 X73.083 Y102.093 Z0 F1300
G1 X73.117 Y102.639 Z0 F1300
G1 X73.155 Y103.113 Z0 F1300
G1 X73.175 Y103.319 Z0 F1300
G1 X73.198 Y103.5 Z0 F1300
G1 X73.222 Y103.655 Z0 F1300
G1 X73.249 Y103.782 Z0 F1300
G1 X73.278 Y103.879 Z0 F1300
G1 X73.309 Y103.943 Z0 F1300
G1 X73.344 Y103.972 Z0 F1300
G1 X73.382 Y103.965 Z0 F1300
G1 X73.424 Y103.919 Z0 F1300
; --- FIX Y Backlash ---
G0 X73.424 Y102.619 F1200
G1 X73.47 Y102.532 Z0 F1300
G1 X73.52 Y102.403 Z0 F1300
G1 X73.574 Y102.228 Z0 F1300
G1 X73.63 Y102.005 Z0 F1300
G1 X73.685 Y101.737 Z0 F1300
G1 X73.739 Y101.425 Z0 F1300
G1 X73.793 Y101.074 Z0 F1300
G1 X73.845 Y100.684 Z0 F1300
G1 X73.897 Y100.26 Z0 F1300
G1 X73.949 Y99.805 Z0 F1300
G1 X74.001 Y99.32 Z0 F1300
G1 X74.103 Y98.276 Z0 F1300
G1 X74.206 Y97.152 Z0 F1300
G1 X74.417 Y94.752 Z0 F1300
G1 X74.528 Y93.523 Z0 F1300
G1 X74.643 Y92.305 Z0 F1300
G1 X74.764 Y91.121 Z0 F1300
G1 X74.891 Y89.995 Z0 F1300
G1 X74.957 Y89.46 Z0 F1300
G1 X75.026 Y88.948 Z0 F1300
G1 X75.097 Y88.463 Z0 F1300
G1 X75.17 Y88.005 Z0 F1300
G1 X75.245 Y87.58 Z0 F1300
G1 X75.323 Y87.189 Z0 F1300
G1 X75.404 Y86.835 Z0 F1300
G1 X75.487 Y86.521 Z0 F1300
G1 X75.572 Y86.182 Z0 F1300
G1 X75.657 Y85.754 Z0 F1300
G1 X75.742 Y85.243 Z0 F1300
G1 X75.828 Y84.654 Z0 F1300
G1 X75.913 Y83.993 Z0 F1300
G1 X76 Y83.264 Z0 F1300
G1 X76.086 Y82.474 Z0 F1300
G1 X76.173 Y81.629 Z0 F1300
G1 X76.261 Y80.732 Z0 F1300
G1 X76.349 Y79.791 Z0 F1300
G1 X76.438 Y78.811 Z0 F1300
G1 X76.528 Y77.796 Z0 F1300
G1 X76.897 Y73.508 Z0 F1300
G1 X77.088 Y71.303 Z0 F1300
G1 X77.285 Y69.116 Z0 F1300
G1 X77.385 Y68.043 Z0 F1300
G1 X77.487 Y66.991 Z0 F1300
G1 X77.591 Y65.966 Z0 F1300
G1 X77.696 Y64.972 Z0 F1300
G1 X77.803 Y64.016 Z0 F1300
G1 X77.912 Y63.103 Z0 F1300
G1 X78.023 Y62.238 Z0 F1300
G1 X78.136 Y61.427 Z0 F1300
G1 X78.251 Y60.676 Z0 F1300
G1 X78.368 Y59.99 Z0 F1300
G1 X78.487 Y59.374 Z0 F1300
G1 X78.608 Y58.834 Z0 F1300
G1 X78.841 Y57.863 Z0 F1300
G1 X79.051 Y56.952 Z0 F1300
G1 X79.24 Y56.097 Z0 F1300
G1 X79.411 Y55.297 Z0 F1300
G1 X79.566 Y54.549 Z0 F1300
G1 X79.968 Y52.591 Z0 F1300
G1 X80.088 Y52.027 Z0 F1300
G1 X80.207 Y51.503 Z0 F1300
G1 X80.326 Y51.016 Z0 F1300
G1 X80.449 Y50.565 Z0 F1300
G1 X80.577 Y50.147 Z0 F1300
G1 X80.714 Y49.76 Z0 F1300
G1 X80.863 Y49.401 Z0 F1300
G1 X81.025 Y49.067 Z0 F1300
G1 X81.192 Y48.764 Z0 F1300
G1 X81.354 Y48.494 Z0 F1300
G1 X81.51 Y48.255 Z0 F1300
G1 X81.659 Y48.046 Z0 F1300
G1 X81.8 Y47.865 Z0 F1300
G1 X81.933 Y47.71 Z0 F1300
G1 X82.056 Y47.579 Z0 F1300
G1 X82.17 Y47.469 Z0 F1300
G1 X82.365 Y47.308 Z0 F1300
G1 X82.511 Y47.213 Z0 F1300
G1 X82.604 Y47.166 Z0 F1300
G1 X82.636 Y47.154 Z0 F1300
G0 Z3.5 F500
; --- FIX Y Backlash ---
G0 X82.636 Y48.454 F1200
G0 X84.75 Y59.127 Z3.5
G1 Z0 F500
; --- FIX X Backlash ---
G0 X83.45 Y59.127 F1200
G1 X83.281 Y59.23 Z0 F1300
G1 X83.162 Y59.308 Z0 F1300
G1 X82.861 Y59.525 Z0 F1300
G1 X82.506 Y59.819 Z0 F1300
G1 X82.137 Y60.184 Z0 F1300
G1 X81.793 Y60.613 Z0 F1300
G1 X81.643 Y60.851 Z0 F1300
G1 X81.513 Y61.102 Z0 F1300
G1 X81.409 Y61.367 Z0 F1300
G1 X81.336 Y61.644 Z0 F1300
G1 X81.305 Y61.81 Z0 F1300
G1 X81.271 Y62.023 Z0 F1300
G1 X81.234 Y62.281 Z0 F1300
G1 X81.194 Y62.582 Z0 F1300
G1 X81.152 Y62.924 Z0 F1300
G1 X81.108 Y63.303 Z0 F1300
G1 X81.063 Y63.718 Z0 F1300
G1 X81.016 Y64.167 Z0 F1300
G1 X80.97 Y64.647 Z0 F1300
G1 X80.923 Y65.156 Z0 F1300
G1 X80.877 Y65.692 Z0 F1300
G1 X80.831 Y66.252 Z0 F1300
G1 X80.745 Y67.437 Z0 F1300
G1 X80.669 Y68.692 Z0 F1300
G1 X80.605 Y69.998 Z0 F1300
G1 X80.558 Y71.338 Z0 F1300
G1 X80.531 Y72.694 Z0 F1300
G1 Y74.047 Z0 F1300
G1 X80.554 Y75.378 Z0 F1300
; --- FIX X Backlash ---
G0 X81.854 Y75.378 F1200
G1 X81.91 Y76.67 Z0 F1300
G1 X82.002 Y77.904 Z0 F1300
G1 X82.132 Y79.062 Z0 F1300
G1 X82.297 Y80.225 Z0 F1300
G1 X82.485 Y81.475 Z0 F1300
G1 X82.693 Y82.792 Z0 F1300
G1 X82.917 Y84.156 Z0 F1300
G1 X83.394 Y86.944 Z0 F1300
G1 X83.882 Y89.684 Z0 F1300
G1 X84.119 Y90.985 Z0 F1300
G1 X84.345 Y92.215 Z0 F1300
G1 X84.558 Y93.354 Z0 F1300
G1 X84.752 Y94.381 Z0 F1300
G1 X85.066 Y96.023 Z0 F1300
G1 X85.253 Y96.983 Z0 F1300
G1 X85.298 Y97.319 Z0 F1300
G1 X85.32 Y97.748 Z0 F1300
G1 X85.324 Y98.247 Z0 F1300
G1 X85.315 Y98.795 Z0 F1300
G1 X85.269 Y99.956 Z0 F1300
; --- FIX X Backlash ---
G0 X83.969 Y99.956 F1200
G1 X83.916 Y101.061 Z0 F1300
G1 X83.896 Y101.539 Z0 F1300
G1 X83.885 Y101.939 Z0 F1300
G1 Y102.103 Z0 F1300
G1 X83.889 Y102.24 Z0 F1300
G1 X83.898 Y102.346 Z0 F1300
G1 X83.911 Y102.42 Z0 F1300
G1 X83.93 Y102.459 Z0 F1300
G1 X83.954 Z0 F1300
G1 X83.985 Y102.419 Z0 F1300
; --- FIX Y Backlash ---
G0 X83.985 Y101.119 F1200
G1 X84.024 Y101.035 Z0 F1300
G1 X84.069 Y100.905 Z0 F1300
; --- FIX X Backlash ---
G0 X85.369 Y100.905 F1200
G1 X85.423 Y100.727 Z0 F1300
G1 X85.485 Y100.498 Z0 F1300
G1 X85.555 Y100.214 Z0 F1300
G1 X85.621 Y99.876 Z0 F1300
G1 X85.668 Y99.488 Z0 F1300
G1 X85.697 Y99.054 Z0 F1300
G1 X85.71 Y98.576 Z0 F1300
G1 Y98.06 Z0 F1300
G1 X85.691 Y97.507 Z0 F1300
G1 X85.662 Y96.922 Z0 F1300
G1 X85.621 Y96.308 Z0 F1300
; --- FIX X Backlash ---
G0 X84.321 Y96.308 F1200
G1 X84.21 Y95.008 Z0 F1300
G1 X84.068 Y93.636 Z0 F1300
G1 X83.903 Y92.219 Z0 F1300
G1 X83.727 Y90.788 Z0 F1300
G1 X83.548 Y89.369 Z0 F1300
G1 X83.376 Y87.991 Z0 F1300
G1 X83.296 Y87.327 Z0 F1300
G1 X83.222 Y86.684 Z0 F1300
G1 X83.154 Y86.065 Z0 F1300
G1 X83.094 Y85.475 Z0 F1300
G1 X83.044 Y84.916 Z0 F1300
G1 X83.003 Y84.393 Z0 F1300
G1 X82.975 Y83.908 Z0 F1300
G1 X82.959 Y83.466 Z0 F1300
G1 Y83.07 Z0 F1300
G1 X82.97 Y82.723 Z0 F1300
G1 X83 Y82.429 Z0 F1300
; --- FIX X Backlash ---
G0 X84.3 Y82.429 F1200
G1 X84.438 Y81.733 Z0 F1300
G1 X84.493 Y81.197 Z0 F1300
G1 X84.528 Y80.598 Z0 F1300
G1 X84.555 Y79.952 Z0 F1300
G1 X84.589 Y79.272 Z0 F1300
G1 X84.645 Y78.574 Z0 F1300
G1 X84.735 Y77.873 Z0 F1300
G1 X84.876 Y77.183 Z0 F1300
G1 X85.08 Y76.519 Z0 F1300
G1 X85.362 Y75.895 Z0 F1300
G1 X85.537 Y75.603 Z0 F1300
G1 X85.736 Y75.327 Z0 F1300
G1 X85.962 Y75.069 Z0 F1300
G1 X86.216 Y74.829 Z0 F1300
G1 X86.5 Y74.611 Z0 F1300
G1 X86.817 Y74.417 Z0 F1300
G1 X87.166 Y74.247 Z0 F1300
G1 X87.552 Y74.103 Z0 F1300
G1 X87.974 Y73.989 Z0 F1300
G1 X88.435 Y73.905 Z0 F1300
G1 X88.937 Y73.853 Z0 F1300
G1 X89.482 Y73.835 Z0 F1300
G1 X90.568 Y73.84 Z0 F1300
G1 X91.567 Y73.853 Z0 F1300
G1 X92.482 Y73.876 Z0 F1300
G1 X93.322 Y73.906 Z0 F1300
G1 X94.091 Y73.944 Z0 F1300
G1 X94.797 Y73.989 Z0 F1300
; --- FIX Y Backlash ---
G0 X94.797 Y75.289 F1200
G1 X95.444 Y75.341 Z0 F1300
G1 X96.039 Y75.399 Z0 F1300
G1 X96.588 Y75.464 Z0 F1300
G1 X97.097 Y75.533 Z0 F1300
G1 X97.572 Y75.608 Z0 F1300
G1 X98.02 Y75.687 Z0 F1300
G1 X98.855 Y75.858 Z0 F1300
G1 X99.651 Y76.041 Z0 F1300
G1 X100.425 Y76.233 Z0 F1300
G1 X101.145 Y76.402 Z0 F1300
G1 X101.477 Y76.465 Z0 F1300
G1 X101.785 Y76.507 Z0 F1300
G1 X102.067 Y76.523 Z0 F1300
G1 X102.319 Y76.507 Z0 F1300
; --- FIX Y Backlash ---
G0 X102.319 Y75.207 F1200
G1 X102.538 Y75.155 Z0 F1300
G1 X102.721 Y75.061 Z0 F1300
G1 X102.864 Y74.92 Z0 F1300
G1 X102.964 Y74.727 Z0 F1300
G1 X103.018 Y74.477 Z0 F1300
G1 X103.023 Y74.165 Z0 F1300
G1 X102.976 Y73.785 Z0 F1300
; --- FIX X Backlash ---
G0 X101.676 Y73.785 F1200
G1 X101.573 Y73.332 Z0 F1300
G1 X101.491 Y73.07 Z0 F1300
G1 X101.379 Y72.777 Z0 F1300
G1 X101.237 Y72.455 Z0 F1300
G1 X101.068 Y72.105 Z0 F1300
G1 X100.873 Y71.729 Z0 F1300
G1 X100.653 Y71.33 Z0 F1300
G1 X100.409 Y70.908 Z0 F1300
G1 X100.143 Y70.465 Z0 F1300
G1 X99.55 Y69.527 Z0 F1300
G1 X98.884 Y68.529 Z0 F1300
G1 X98.158 Y67.485 Z0 F1300
G1 X97.382 Y66.41 Z0 F1300
G1 X95.724 Y64.225 Z0 F1300
G1 X93.998 Y62.09 Z0 F1300
G1 X93.138 Y61.077 Z0 F1300
G1 X92.294 Y60.12 Z0 F1300
G1 X91.477 Y59.233 Z0 F1300
G1 X90.699 Y58.431 Z0 F1300
G1 X90.317 Y58.067 Z0 F1300
G1 X89.927 Y57.73 Z0 F1300
G1 X89.529 Y57.419 Z0 F1300
G1 X89.125 Y57.132 Z0 F1300
G1 X88.304 Y56.631 Z0 F1300
G1 X87.471 Y56.217 Z0 F1300
G1 X86.636 Y55.885 Z0 F1300
G1 X85.807 Y55.626 Z0 F1300
G1 X84.994 Y55.432 Z0 F1300
G1 X84.205 Y55.297 Z0 F1300
G1 X83.449 Y55.213 Z0 F1300
G1 X82.735 Y55.171 Z0 F1300
G1 X82.072 Y55.166 Z0 F1300
G1 X81.468 Y55.189 Z0 F1300
G1 X80.932 Y55.232 Z0 F1300
; --- FIX Y Backlash ---
G0 X80.932 Y56.532 F1200
G1 X80.474 Y56.588 Z0 F1300
G1 X80.102 Y56.65 Z0 F1300
G1 X79.825 Y56.71 Z0 F1300
G1 X79.606 Y56.778 Z0 F1300
G1 X79.401 Y56.868 Z0 F1300
G1 X79.212 Y56.978 Z0 F1300
G1 X79.039 Y57.107 Z0 F1300
G1 X78.742 Y57.411 Z0 F1300
G1 X78.517 Y57.768 Z0 F1300
G1 X78.366 Y58.162 Z0 F1300
G1 X78.296 Y58.579 Z0 F1300
G1 X78.311 Y59.006 Z0 F1300
; --- FIX X Backlash ---
G0 X79.611 Y59.006 F1200
G1 X79.716 Y59.429 Z0 F1300
G1 X79.866 Y59.829 Z0 F1300
G1 X80.012 Y60.195 Z0 F1300
G1 X80.148 Y60.521 Z0 F1300
G1 X80.27 Y60.801 Z0 F1300
G1 X80.373 Y61.028 Z0 F1300
G1 X80.452 Y61.199 Z0 F1300
G1 X80.521 Y61.342 Z0 F1300
G0 Z3.5 F500

; Color picking sequence
G1 Z10 F1000;         ; Raise brush
G0 X86 Y5 F1200;    ; Rapid move to color 1
G1 Z10 F1000;         ; Raise brush
G0 X86 Y5 F1200;    ; Rapid move to color 1
G1 Z0 F1000;         ; Lower into color
G1 X85.102 Y7.295 Z0 S800 F1200
G1 X85.026 Y7.642 Z0 F1200
G1 X85 Y8 Z0 F1200
G1 X85.026 Y8.358 Z0 F1200
G1 X85.102 Y8.705 Z0 F1200
G1 X85.225 Y9.041 Z0 F1200
G1 X85.393 Y9.362 Z0 F1200
G1 X85.603 Y9.668 Z0 F1200
G1 X85.854 Y9.957 Z0 F1200
G1 X86.142 Y10.226 Z0 F1200
G1 X86.464 Y10.475 Z0 F1200
G1 X86.82 Y10.701 Z0 F1200
G1 X87.204 Y10.902 Z0 F1200
G1 X87.617 Y11.078 Z0 F1200
G1 X88.054 Y11.225 Z0 F1200
G1 X88.513 Y11.343 Z0 F1200
G1 X88.992 Y11.429 Z0 F1200
G1 X89.489 Y11.482 Z0 F1200
G1 X90 Y11.5 Z0 F1200
G1 X90.511 Y11.482 Z0 F1200
G1 X91.008 Y11.429 Z0 F1200
G1 X91.487 Y11.343 Z0 F1200
G1 X91.946 Y11.225 Z0 F1200
G1 X92.383 Y11.078 Z0 F1200
G1 X92.796 Y10.902 Z0 F1200
G1 X93.18 Y10.701 Z0 F1200
G1 X93.536 Y10.475 Z0 F1200
G1 X93.858 Y10.226 Z0 F1200
G1 X94.146 Y9.957 Z0 F1200
G1 X94.397 Y9.668 Z0 F1200
G1 X94.607 Y9.362 Z0 F1200
G1 X94.775 Y9.041 Z0 F1200
G1 X94.898 Y8.705 Z0 F1200
G1 X94.974 Y8.358 Z0 F1200
G1 X95 Y8 Z0 F1200
G1 X94.974 Y7.642 Z0 F1200
G1 X94.898 Y7.295 Z0 F1200
G1 X94.775 Y6.959 Z0 F1200
G1 X94.607 Y6.638 Z0 F1200
G1 X94.397 Y6.332 Z0 F1200
G1 X94.146 Y6.043 Z0 F1200
G1 X93.858 Y5.774 Z0 F1200
G1 X93.536 Y5.525 Z0 F1200
G1 X93.18 Y5.299 Z0 F1200
G1 X92.796 Y5.098 Z0 F1200
G1 X92.383 Y4.922 Z0 F1200
G1 X91.946 Y4.775 Z0 F1200
G1 X91.487 Y4.657 Z0 F1200
G1 X91.008 Y4.571 Z0 F1200
G1 X90.511 Y4.518 Z0 F1200
G1 X90 Y4.5 Z0 F1200
G1 X89.489 Y4.518 Z0 F1200
G1 X88.992 Y4.571 Z0 F1200
G1 X88.513 Y4.657 Z0 F1200
G1 X88.054 Y4.775 Z0 F1200
G1 X87.617 Y4.922 Z0 F1200
G1 X87.204 Y5.098 Z0 F1200
G1 X86.82 Y5.299 Z0 F1200
G1 X86.464 Y5.525 Z0 F1200
G1 X86.142 Y5.774 Z0 F1200
G1 X85.854 Y6.043 Z0 F1200
G1 X85.603 Y6.332 Z0 F1200
G1 X85.393 Y6.638 Z0 F1200
G1 X85.225 Y6.959 Z0 F1200
G1 Z7 F800;         ; Raise from color
G1 X79 Y8 Z1 F1200;     ; Movement in paint
G1 X69 Y18 Z8 F500;     ; Move in paint
G1 F1200;           ; Set feed rate
G0 Z2.5 F1000 ; Safety Lift
G0 X80.521 Y61.342 F1200 ; Return to pos
; --- FIX X Backlash ---
G0 X79.221 Y61.342 F1200
G0 X64.924 Y63.657 Z3.5
G1 Z0 F500
; --- FIX Y Backlash ---
G0 X64.924 Y62.357 F1200
G1 X64.457 Y61.763 Z0 F1300
G1 X63.942 Y61.115 Z0 F1300
G1 X63.301 Y60.319 Z0 F1300
G1 X62.579 Y59.437 Z0 F1300
G1 X61.824 Y58.535 Z0 F1300
G1 X61.447 Y58.095 Z0 F1300
G1 X61.08 Y57.675 Z0 F1300
G1 X60.727 Y57.28 Z0 F1300
G1 X60.394 Y56.921 Z0 F1300
G1 X60.07 Y56.611 Z0 F1300
G1 X59.741 Y56.359 Z0 F1300
G1 X59.404 Y56.161 Z0 F1300
G1 X59.058 Y56.014 Z0 F1300
G1 X58.702 Y55.915 Z0 F1300
G1 X58.335 Y55.859 Z0 F1300
G1 X57.956 Y55.843 Z0 F1300
G1 X57.562 Y55.863 Z0 F1300
; --- FIX Y Backlash ---
G0 X57.562 Y57.163 F1200
G1 X57.153 Y57.217 Z0 F1300
G1 X56.727 Y57.3 Z0 F1300
G1 X56.284 Y57.409 Z0 F1300
G1 X55.821 Y57.541 Z0 F1300
G1 X55.337 Y57.691 Z0 F1300
G1 X54.831 Y57.857 Z0 F1300
G1 X53.749 Y58.221 Z0 F1300
G1 X53.482 Y58.32 Z0 F1300
G1 X53.245 Y58.428 Z0 F1300
G1 X53.039 Y58.544 Z0 F1300
G1 X52.86 Y58.668 Z0 F1300
G1 X52.581 Y58.939 Z0 F1300
G1 X52.397 Y59.235 Z0 F1300
G1 X52.297 Y59.553 Z0 F1300
G1 X52.267 Y59.89 Z0 F1300
G1 X52.298 Y60.239 Z0 F1300
; --- FIX X Backlash ---
G0 X53.598 Y60.239 F1200
G1 X53.677 Y60.599 Z0 F1300
G1 X53.933 Y61.332 Z0 F1300
G1 X54.242 Y62.058 Z0 F1300
G1 X54.387 Y62.407 Z0 F1300
G1 X54.51 Y62.742 Z0 F1300
G1 X54.601 Y63.06 Z0 F1300
G1 X54.646 Y63.355 Z0 F1300
G1 X54.704 Y63.666 Z0 F1300
G1 X54.834 Y64.026 Z0 F1300
G1 X55.028 Y64.429 Z0 F1300
G1 X55.28 Y64.867 Z0 F1300
G1 X55.58 Y65.335 Z0 F1300
G1 X55.922 Y65.824 Z0 F1300
G1 X56.297 Y66.329 Z0 F1300
G1 X56.697 Y66.841 Z0 F1300
G1 X57.544 Y67.863 Z0 F1300
G1 X58.398 Y68.835 Z0 F1300
G1 X58.809 Y69.284 Z0 F1300
G1 X59.198 Y69.7 Z0 F1300
G1 X59.558 Y70.075 Z0 F1300
G1 X59.881 Y70.403 Z0 F1300
G1 X60.19 Y70.68 Z0 F1300
G1 X60.511 Y70.906 Z0 F1300
G1 X60.842 Y71.084 Z0 F1300
G1 X61.181 Y71.216 Z0 F1300
G1 X61.526 Y71.304 Z0 F1300
G1 X61.874 Y71.35 Z0 F1300
G1 X62.225 Y71.355 Z0 F1300
G1 X62.575 Y71.322 Z0 F1300
; --- FIX Y Backlash ---
G0 X62.575 Y70.022 F1200
G1 X62.922 Y69.952 Z0 F1300
G1 X63.266 Y69.847 Z0 F1300
G1 X63.603 Y69.71 Z0 F1300
G1 X63.931 Y69.542 Z0 F1300
G1 X64.248 Y69.345 Z0 F1300
G1 X64.553 Y69.121 Z0 F1300
G1 X64.844 Y68.872 Z0 F1300
G1 X65.117 Y68.6 Z0 F1300
G1 X65.345 Y68.323 Z0 F1300
G1 X65.504 Y68.058 Z0 F1300
G1 X65.603 Y67.807 Z0 F1300
G1 X65.649 Y67.569 Z0 F1300
G1 Y67.347 Z0 F1300
G1 X65.609 Y67.14 Z0 F1300
; --- FIX X Backlash ---
G0 X64.309 Y67.14 F1200
G1 X64.238 Y66.949 Z0 F1300
G1 X64.144 Y66.775 Z0 F1300
G1 X63.913 Y66.481 Z0 F1300
G1 X63.675 Y66.264 Z0 F1300
G1 X63.572 Y66.186 Z0 F1300
G1 X63.489 Y66.129 Z0 F1300
G1 X63.414 Y66.083 Z0 F1300
G0 Z3.5 F500
; --- FIX Y Backlash ---
G0 X63.414 Y67.383 F1200
G0 X62.911 Y68.591 Z3.5
G1 Z0 F500
; --- FIX X Backlash ---
G0 X64.211 Y68.591 F1200
G1 X64.344 Y68.678 Z0 F1300
G1 X64.713 Y68.913 Z0 F1300
G1 X64.97 Y69.073 Z0 F1300
G1 X65.267 Y69.255 Z0 F1300
G1 X65.6 Y69.452 Z0 F1300
G1 X65.96 Y69.661 Z0 F1300
G1 X66.743 Y70.09 Z0 F1300
G1 X67.566 Y70.502 Z0 F1300
G1 X67.979 Y70.689 Z0 F1300
G1 X68.383 Y70.855 Z0 F1300
G1 X68.774 Y70.997 Z0 F1300
G1 X69.144 Y71.108 Z0 F1300
G1 X69.528 Y71.218 Z0 F1300
G1 X69.96 Y71.358 Z0 F1300
G1 X70.435 Y71.522 Z0 F1300
G1 X70.95 Y71.709 Z0 F1300
G1 X71.501 Y71.913 Z0 F1300
G1 X72.691 Y72.359 Z0 F1300
G1 X73.323 Y72.593 Z0 F1300
G1 X74.638 Y73.064 Z0 F1300
G1 X75.997 Y73.515 Z0 F1300
G1 X77.365 Y73.913 Z0 F1300
G1 X78.709 Y74.229 Z0 F1300
G1 X79.343 Y74.358 Z0 F1300
G1 X79.924 Y74.479 Z0 F1300
G1 X80.454 Y74.593 Z0 F1300
G1 X80.935 Y74.699 Z0 F1300
G1 X81.368 Y74.798 Z0 F1300
G1 X81.755 Y74.889 Z0 F1300
G1 X82.097 Y74.972 Z0 F1300
G1 X82.396 Y75.047 Z0 F1300
G1 X82.873 Y75.172 Z0 F1300
G1 X83.197 Y75.263 Z0 F1300
G1 X83.441 Y75.337 Z0 F1300
G0 Z3.5 F500
G0 X105.591 Y75.739 Z3.5
G1 Z0 F500
; --- FIX Y Backlash ---
G0 X105.591 Y74.439 F1200
G1 X105.587 Y74.357 Z0 F1300
G1 X105.578 Y74.259 Z0 F1300
G1 X105.56 Y74.125 Z0 F1300
G1 X105.53 Y73.957 Z0 F1300
G1 X105.485 Y73.76 Z0 F1300
; --- FIX X Backlash ---
G0 X104.185 Y73.76 F1200
G1 X104.123 Y73.534 Z0 F1300
G1 X104.039 Y73.281 Z0 F1300
G1 X103.933 Y73.006 Z0 F1300
G1 X103.8 Y72.709 Z0 F1300
G1 X103.637 Y72.393 Z0 F1300
G1 X103.442 Y72.061 Z0 F1300
G1 X103.211 Y71.714 Z0 F1300
G1 X102.942 Y71.356 Z0 F1300
G1 X102.632 Y70.988 Z0 F1300
G1 X102.277 Y70.613 Z0 F1300
G1 X101.923 Y70.248 Z0 F1300
G1 X101.611 Y69.904 Z0 F1300
G1 X101.332 Y69.577 Z0 F1300
G1 X101.079 Y69.262 Z0 F1300
G1 X100.617 Y68.651 Z0 F1300
G1 X100.163 Y68.033 Z0 F1300
G1 X99.919 Y67.711 Z0 F1300
G1 X99.652 Y67.374 Z0 F1300
G1 X99.356 Y67.016 Z0 F1300
G1 X99.021 Y66.635 Z0 F1300
G1 X98.64 Y66.224 Z0 F1300
G1 X98.206 Y65.78 Z0 F1300
G1 X97.709 Y65.298 Z0 F1300
G1 X97.143 Y64.774 Z0 F1300
G1 X96.853 Y64.508 Z0 F1300
G1 X96.585 Y64.259 Z0 F1300
G1 X96.339 Y64.025 Z0 F1300
G1 X96.112 Y63.804 Z0 F1300
G1 X95.712 Y63.401 Z0 F1300
G1 X95.373 Y63.04 Z0 F1300
G1 X95.083 Y62.714 Z0 F1300
G1 X94.83 Y62.413 Z0 F1300
G1 X94.601 Y62.129 Z0 F1300
G1 X94.173 Y61.579 Z0 F1300
G1 X93.948 Y61.295 Z0 F1300
G1 X93.701 Y60.994 Z0 F1300
G1 X93.419 Y60.668 Z0 F1300
G1 X93.091 Y60.307 Z0 F1300
G1 X92.703 Y59.904 Z0 F1300
G1 X92.484 Y59.683 Z0 F1300
G1 X92.246 Y59.449 Z0 F1300
G1 X91.987 Y59.2 Z0 F1300
G1 X91.706 Y58.934 Z0 F1300
G1 X91.148 Y58.394 Z0 F1300
G1 X90.641 Y57.865 Z0 F1300
G1 X90.179 Y57.347 Z0 F1300
G1 X89.757 Y56.837 Z0 F1300
G1 X89.007 Y55.835 Z0 F1300
G1 X88.346 Y54.844 Z0 F1300
G1 X87.727 Y53.848 Z0 F1300
G1 X87.104 Y52.832 Z0 F1300
G1 X86.777 Y52.312 Z0 F1300
G1 X86.432 Y51.78 Z0 F1300
G1 X86.064 Y51.237 Z0 F1300
G1 X85.476 Y50.414 Z0 F1300
G1 X85.325 Y50.185 Z0 F1300
G1 X85.209 Y49.991 Z0 F1300
G1 X85.128 Y49.829 Z0 F1300
G1 X85.08 Y49.698 Z0 F1300
G1 X85.064 Y49.596 Z0 F1300
G1 X85.079 Y49.522 Z0 F1300
G1 X85.124 Y49.473 Z0 F1300
; --- FIX X Backlash ---
G0 X86.424 Y49.473 F1200
G1 X86.497 Y49.448 Z0 F1300
G1 X86.597 Z0 F1300
G1 X86.723 Y49.463 Z0 F1300
G1 X86.873 Y49.5 Z0 F1300
; --- FIX Y Backlash ---
G0 X86.873 Y50.8 F1200
G1 X87.242 Y50.921 Z0 F1300
G1 X87.695 Y51.097 Z0 F1300
G1 X88.809 Y51.555 Z0 F1300
G1 X89.451 Y51.81 Z0 F1300
G1 X90.136 Y52.063 Z0 F1300
G1 X90.854 Y52.301 Z0 F1300
G1 X91.596 Y52.51 Z0 F1300
G1 X92.35 Y52.675 Z0 F1300
G1 X93.107 Y52.784 Z0 F1300
G1 X93.882 Y52.886 Z0 F1300
G1 X94.693 Y53.037 Z0 F1300
G1 X95.534 Y53.234 Z0 F1300
G1 X96.398 Y53.471 Z0 F1300
G1 X97.278 Y53.744 Z0 F1300
G1 X98.168 Y54.049 Z0 F1300
G1 X99.062 Y54.381 Z0 F1300
G1 X99.953 Y54.734 Z0 F1300
G1 X101.7 Y55.491 Z0 F1300
G1 X103.357 Y56.281 Z0 F1300
G1 X104.136 Y56.677 Z0 F1300
G1 X104.873 Y57.069 Z0 F1300
G1 X105.562 Y57.45 Z0 F1300
G1 X106.195 Y57.818 Z0 F1300
G1 X106.811 Y58.194 Z0 F1300
G1 X107.452 Y58.606 Z0 F1300
G1 X108.117 Y59.054 Z0 F1300
G1 X108.808 Y59.539 Z0 F1300
G1 X109.526 Y60.06 Z0 F1300
G1 X110.271 Y60.618 Z0 F1300
G1 X111.044 Y61.213 Z0 F1300
G1 X111.846 Y61.845 Z0 F1300
G1 X112.677 Y62.515 Z0 F1300
G1 X113.539 Y63.224 Z0 F1300
G1 X114.431 Y63.97 Z0 F1300
G1 X115.356 Y64.755 Z0 F1300
G1 X116.312 Y65.58 Z0 F1300
G1 X117.302 Y66.443 Z0 F1300
G1 X118.326 Y67.346 Z0 F1300
G1 X119.385 Y68.289 Z0 F1300
G1 X120.425 Y69.251 Z0 F1300
G1 X121.392 Y70.209 Z0 F1300
G1 X122.284 Y71.161 Z0 F1300
G1 X123.099 Y72.101 Z0 F1300
G1 X123.834 Y73.026 Z0 F1300
G1 X124.487 Y73.933 Z0 F1300
G1 X125.056 Y74.817 Z0 F1300
G1 X125.539 Y75.676 Z0 F1300
G1 X125.933 Y76.506 Z0 F1300
G1 X126.237 Y77.302 Z0 F1300
G1 X126.354 Y77.687 Z0 F1300
G1 X126.447 Y78.061 Z0 F1300
G1 X126.517 Y78.426 Z0 F1300
G1 X126.563 Y78.78 Z0 F1300
G1 X126.584 Y79.123 Z0 F1300
G1 X126.581 Y79.455 Z0 F1300
G1 X126.553 Y79.774 Z0 F1300
; --- FIX X Backlash ---
G0 X125.253 Y79.774 F1200
G1 X125.2 Y80.081 Z0 F1300
G1 X125.121 Y80.376 Z0 F1300
G1 X125.017 Y80.656 Z0 F1300
G1 X124.886 Y80.923 Z0 F1300
G1 X124.73 Y81.176 Z0 F1300
G1 X124.361 Y81.624 Z0 F1300
G1 X123.939 Y81.992 Z0 F1300
G1 X123.468 Y82.286 Z0 F1300
G1 X122.954 Y82.512 Z0 F1300
G1 X122.401 Y82.677 Z0 F1300
G1 X121.815 Y82.788 Z0 F1300
G1 X121.201 Y82.852 Z0 F1300
G1 X120.564 Y82.875 Z0 F1300
G1 X119.242 Y82.825 Z0 F1300
; --- FIX Y Backlash ---
G0 X119.242 Y81.525 F1200
G1 X117.891 Y81.391 Z0 F1300
G1 X116.552 Y81.226 Z0 F1300
G1 X115.265 Y81.084 Z0 F1300
G1 X114.942 Y81.047 Z0 F1300
G1 X114.594 Y80.991 Z0 F1300
G1 X114.224 Y80.918 Z0 F1300
G1 X113.832 Y80.829 Z0 F1300
G1 X112.985 Y80.605 Z0 F1300
G1 X112.063 Y80.326 Z0 F1300
G1 X111.072 Y79.999 Z0 F1300
G1 X110.02 Y79.629 Z0 F1300
G1 X108.915 Y79.226 Z0 F1300
G1 X107.765 Y78.794 Z0 F1300
G1 X105.359 Y77.873 Z0 F1300
G1 X102.863 Y76.922 Z0 F1300
G1 X100.339 Y75.994 Z0 F1300
G1 X97.847 Y75.144 Z0 F1300
G1 X97.258 Y74.962 Z0 F1300
G1 X96.715 Y74.811 Z0 F1300
G1 X96.216 Y74.689 Z0 F1300
G1 X95.759 Y74.596 Z0 F1300
G1 X95.343 Y74.53 Z0 F1300
G1 X94.965 Y74.49 Z0 F1300
G1 X94.624 Y74.475 Z0 F1300
G1 X94.317 Y74.482 Z0 F1300
G1 X94.043 Y74.511 Z0 F1300
G1 X93.799 Y74.56 Z0 F1300
; --- FIX Y Backlash ---
G0 X93.799 Y75.86 F1200
G1 X93.584 Y75.928 Z0 F1300
G1 X93.395 Y76.014 Z0 F1300
G1 X93.088 Y76.233 Z0 F1300
G1 X92.864 Y76.507 Z0 F1300
G1 X92.467 Y77.931 Z0 F1300
G1 X92.109 Y79.364 Z0 F1300
G1 X91.962 Y79.671 Z0 F1300
G1 X91.865 Y79.993 Z0 F1300
G1 X91.817 Y80.333 Z0 F1300
G1 Y80.696 Z0 F1300
; --- FIX X Backlash ---
G0 X93.117 Y80.696 F1200
G1 X93.174 Y81.087 Z0 F1300
G1 X93.281 Y81.511 Z0 F1300
G1 X93.443 Y81.971 Z0 F1300
G1 X93.66 Y82.472 Z0 F1300
G1 X93.934 Y83.02 Z0 F1300
G1 X94.266 Y83.618 Z0 F1300
G1 X94.657 Y84.272 Z0 F1300
G1 X95.108 Y84.985 Z0 F1300
G1 X95.62 Y85.762 Z0 F1300
G1 X96.195 Y86.608 Z0 F1300
G1 X96.506 Y87.059 Z0 F1300
G1 X96.833 Y87.528 Z0 F1300
G1 X97.537 Y88.526 Z0 F1300
G1 X97.905 Y89.019 Z0 F1300
G1 X98.274 Y89.462 Z0 F1300
G1 X98.643 Y89.857 Z0 F1300
G1 X99.01 Y90.207 Z0 F1300
G1 X99.375 Y90.513 Z0 F1300
G1 X99.738 Y90.777 Z0 F1300
G1 X100.097 Y91.003 Z0 F1300
G1 X100.452 Y91.192 Z0 F1300
G1 X100.801 Y91.347 Z0 F1300
G1 X101.145 Y91.47 Z0 F1300
G1 X101.481 Y91.563 Z0 F1300
G1 X101.811 Y91.628 Z0 F1300
G1 X102.443 Y91.686 Z0 F1300
G1 X103.036 Y91.66 Z0 F1300
; --- FIX Y Backlash ---
G0 X103.036 Y90.36 F1200
G1 X103.583 Y90.269 Z0 F1300
G1 X104.078 Y90.131 Z0 F1300
G1 X104.514 Y89.965 Z0 F1300
G1 X104.885 Y89.789 Z0 F1300
G1 X105.184 Y89.62 Z0 F1300
G1 X105.406 Y89.476 Z0 F1300
G1 X105.486 Y89.42 Z0 F1300
G1 X105.591 Y89.34 Z0 F1300
G0 Z3.5 F500

; Color picking sequence
G1 Z10 F1000;         ; Raise brush
G0 X86 Y5 F1200;    ; Rapid move to color 1
G1 Z10 F1000;         ; Raise brush
G0 X86 Y5 F1200;    ; Rapid move to color 1
G1 Z0 F1000;         ; Lower into color
G1 X85.102 Y7.295 Z0 S800 F1200
G1 X85.026 Y7.642 Z0 F1200
G1 X85 Y8 Z0 F1200
G1 X85.026 Y8.358 Z0 F1200
G1 X85.102 Y8.705 Z0 F1200
G1 X85.225 Y9.041 Z0 F1200
G1 X85.393 Y9.362 Z0 F1200
G1 X85.603 Y9.668 Z0 F1200
G1 X85.854 Y9.957 Z0 F1200
G1 X86.142 Y10.226 Z0 F1200
G1 X86.464 Y10.475 Z0 F1200
G1 X86.82 Y10.701 Z0 F1200
G1 X87.204 Y10.902 Z0 F1200
G1 X87.617 Y11.078 Z0 F1200
G1 X88.054 Y11.225 Z0 F1200
G1 X88.513 Y11.343 Z0 F1200
G1 X88.992 Y11.429 Z0 F1200
G1 X89.489 Y11.482 Z0 F1200
G1 X90 Y11.5 Z0 F1200
G1 X90.511 Y11.482 Z0 F1200
G1 X91.008 Y11.429 Z0 F1200
G1 X91.487 Y11.343 Z0 F1200
G1 X91.946 Y11.225 Z0 F1200
G1 X92.383 Y11.078 Z0 F1200
G1 X92.796 Y10.902 Z0 F1200
G1 X93.18 Y10.701 Z0 F1200
G1 X93.536 Y10.475 Z0 F1200
G1 X93.858 Y10.226 Z0 F1200
G1 X94.146 Y9.957 Z0 F1200
G1 X94.397 Y9.668 Z0 F1200
G1 X94.607 Y9.362 Z0 F1200
G1 X94.775 Y9.041 Z0 F1200
G1 X94.898 Y8.705 Z0 F1200
G1 X94.974 Y8.358 Z0 F1200
G1 X95 Y8 Z0 F1200
G1 X94.974 Y7.642 Z0 F1200
G1 X94.898 Y7.295 Z0 F1200
G1 X94.775 Y6.959 Z0 F1200
G1 X94.607 Y6.638 Z0 F1200
G1 X94.397 Y6.332 Z0 F1200
G1 X94.146 Y6.043 Z0 F1200
G1 X93.858 Y5.774 Z0 F1200
G1 X93.536 Y5.525 Z0 F1200
G1 X93.18 Y5.299 Z0 F1200
G1 X92.796 Y5.098 Z0 F1200
G1 X92.383 Y4.922 Z0 F1200
G1 X91.946 Y4.775 Z0 F1200
G1 X91.487 Y4.657 Z0 F1200
G1 X91.008 Y4.571 Z0 F1200
G1 X90.511 Y4.518 Z0 F1200
G1 X90 Y4.5 Z0 F1200
G1 X89.489 Y4.518 Z0 F1200
G1 X88.992 Y4.571 Z0 F1200
G1 X88.513 Y4.657 Z0 F1200
G1 X88.054 Y4.775 Z0 F1200
G1 X87.617 Y4.922 Z0 F1200
G1 X87.204 Y5.098 Z0 F1200
G1 X86.82 Y5.299 Z0 F1200
G1 X86.464 Y5.525 Z0 F1200
G1 X86.142 Y5.774 Z0 F1200
G1 X85.854 Y6.043 Z0 F1200
G1 X85.603 Y6.332 Z0 F1200
G1 X85.393 Y6.638 Z0 F1200
G1 X85.225 Y6.959 Z0 F1200
G1 Z7 F800;         ; Raise from color
G1 X79 Y8 Z1 F1200;     ; Movement in paint
G1 X69 Y18 Z8 F500;     ; Move in paint
G1 F1200;           ; Set feed rate
G0 Z2.5 F1000 ; Safety Lift
G0 X105.591 Y89.34 F1200 ; Return to pos
G0 X106.296 Y84.306 Z3.5
G1 Z0 F500
; --- FIX X Backlash ---
G0 X104.996 Y84.306 F1200
G1 X104.641 Y84.089 Z0 F1300
G1 X104.295 Y83.894 Z0 F1300
G1 X103.96 Y83.723 Z0 F1300
G1 X103.637 Y83.578 Z0 F1300
G1 X103.328 Y83.462 Z0 F1300
G1 X103.035 Y83.377 Z0 F1300
G1 X102.76 Y83.326 Z0 F1300
G1 X102.504 Y83.312 Z0 F1300
G1 X102.27 Y83.336 Z0 F1300
; --- FIX Y Backlash ---
G0 X102.27 Y84.636 F1200
G1 X102.058 Y84.703 Z0 F1300
G1 X101.871 Y84.813 Z0 F1300
G1 X101.711 Y84.969 Z0 F1300
G1 X101.579 Y85.174 Z0 F1300
G1 X101.478 Y85.431 Z0 F1300
G1 X101.408 Y85.742 Z0 F1300
G1 X101.371 Y86.11 Z0 F1300
G1 X101.336 Y86.89 Z0 F1300
G1 X101.318 Y87.65 Z0 F1300
G1 X101.332 Y88.398 Z0 F1300
; --- FIX X Backlash ---
G0 X102.632 Y88.398 F1200
G1 X102.697 Y89.143 Z0 F1300
G1 X102.827 Y89.892 Z0 F1300
G1 X103.039 Y90.654 Z0 F1300
G1 X103.182 Y91.043 Z0 F1300
G1 X103.351 Y91.438 Z0 F1300
G1 X103.55 Y91.84 Z0 F1300
G1 X103.779 Y92.251 Z0 F1300
G1 X104.269 Y93.061 Z0 F1300
G1 X104.759 Y93.823 Z0 F1300
G1 X105.246 Y94.525 Z0 F1300
G1 X105.73 Y95.158 Z0 F1300
G1 X106.208 Y95.711 Z0 F1300
G1 X106.681 Y96.173 Z0 F1300
G1 X106.915 Y96.367 Z0 F1300
G1 X107.147 Y96.533 Z0 F1300
G1 X107.377 Y96.672 Z0 F1300
G1 X107.605 Y96.782 Z0 F1300
G1 X108.034 Y96.931 Z0 F1300
G1 X108.413 Y97.01 Z0 F1300
G1 X108.741 Y97.035 Z0 F1300
G1 X109.014 Y97.021 Z0 F1300
G1 X109.231 Y96.983 Z0 F1300
G1 X109.389 Y96.938 Z0 F1300
G1 X109.485 Y96.899 Z0 F1300
G1 X109.518 Y96.883 Z0 F1300
G0 Z3.5 F500
; --- FIX X Backlash ---
G0 X108.218 Y96.883 F1200
; --- FIX Y Backlash ---
G0 X108.218 Y95.583 F1200
G0 X104.593 Y79.272 Z3.5
G1 Z0 F500
; --- FIX X Backlash ---
G0 X105.893 Y79.272 F1200
G1 X107.504 Y77.963 Z0 F1300
G1 X107.778 Y77.726 Z0 F1300
G1 X108 Y77.504 Z0 F1300
G1 X108.173 Y77.291 Z0 F1300
G1 X108.3 Y77.084 Z0 F1300
G1 X108.386 Y76.877 Z0 F1300
G1 X108.435 Y76.666 Z0 F1300
G1 X108.45 Y76.446 Z0 F1300
G1 X108.435 Y76.214 Z0 F1300
G1 X108.395 Y75.963 Z0 F1300
; --- FIX X Backlash ---
G0 X107.095 Y75.963 F1200
G1 X107.032 Y75.691 Z0 F1300
G1 X106.951 Y75.392 Z0 F1300
G1 X106.749 Y74.694 Z0 F1300
G1 X106.636 Y74.286 Z0 F1300
G1 X106.52 Y73.834 Z0 F1300
G1 X106.405 Y73.332 Z0 F1300
G1 X106.295 Y72.832 Z0 F1300
G1 X106.19 Y72.384 Z0 F1300
G1 X106.087 Y71.978 Z0 F1300
G1 X105.984 Y71.603 Z0 F1300
G1 X105.768 Y70.909 Z0 F1300
G1 X105.524 Y70.223 Z0 F1300
G1 X105.386 Y69.859 Z0 F1300
G1 X104.667 Y68.026 Z0 F1300
G1 X104.434 Y67.425 Z0 F1300
G1 X104.176 Y66.747 Z0 F1300
G1 X103.888 Y65.982 Z0 F1300
G1 X103.618 Y65.2 Z0 F1300
G1 X103.409 Y64.475 Z0 F1300
G1 X103.253 Y63.808 Z0 F1300
G1 X103.146 Y63.196 Z0 F1300
G1 X103.081 Y62.639 Z0 F1300
G1 X103.053 Y62.136 Z0 F1300
G1 X103.056 Y61.686 Z0 F1300
G1 X103.083 Y61.288 Z0 F1300
G1 X103.129 Y60.94 Z0 F1300
; --- FIX X Backlash ---
G0 X104.429 Y60.94 F1200
G1 X104.488 Y60.642 Z0 F1300
G1 X104.555 Y60.393 Z0 F1300
G1 X104.622 Y60.191 Z0 F1300
G1 X104.685 Y60.036 Z0 F1300
G1 X104.737 Y59.927 Z0 F1300
G1 X104.786 Y59.84 Z0 F1300
G0 Z3.5 F500
; --- FIX X Backlash ---
G0 X103.486 Y59.84 F1200
; --- FIX Y Backlash ---
G0 X103.486 Y61.14 F1200
G0 X58.883 Y88.325 Z3.5
G1 Z0 F500
G1 X58.847 Y88.34 Z0 F1300
G1 X58.783 Y88.378 Z0 F1300
G1 X58.67 Y88.45 Z0 F1300
G1 X58.495 Y88.57 Z0 F1300
G1 X58.246 Y88.749 Z0 F1300
G1 X57.91 Y88.999 Z0 F1300
G1 X57.474 Y89.331 Z0 F1300
G1 X57.244 Y89.566 Z0 F1300
G1 X57.043 Y89.886 Z0 F1300
G1 X56.864 Y90.283 Z0 F1300
G1 X56.705 Y90.747 Z0 F1300
G1 X56.558 Y91.271 Z0 F1300
G1 X56.421 Y91.844 Z0 F1300
G1 X56.287 Y92.459 Z0 F1300
G1 X56.152 Y93.107 Z0 F1300
G1 X55.86 Y94.464 Z0 F1300
G1 X55.506 Y95.844 Z0 F1300
G1 X55.293 Y96.521 Z0 F1300
G1 X55.05 Y97.177 Z0 F1300
G1 X54.772 Y97.804 Z0 F1300
G1 X54.453 Y98.393 Z0 F1300
G1 X54.298 Y98.643 Z0 F1300
G1 X54.17 Y98.829 Z0 F1300
G1 X54.067 Y98.956 Z0 F1300
G1 X53.989 Y99.026 Z0 F1300
G1 X53.935 Y99.044 Z0 F1300
G1 X53.901 Y99.013 Z0 F1300
; --- FIX Y Backlash ---
G0 X53.901 Y97.713 F1200
G1 X53.888 Y97.636 Z0 F1300
G1 X53.893 Y97.517 Z0 F1300
G1 X53.916 Y97.361 Z0 F1300
G1 X53.954 Y97.17 Z0 F1300
; --- FIX X Backlash ---
G0 X55.254 Y97.17 F1200
G1 X55.306 Y96.949 Z0 F1300
G1 X55.371 Y96.7 Z0 F1300
G1 X55.533 Y96.136 Z0 F1300
G1 X55.728 Y95.507 Z0 F1300
G1 X56.17 Y94.173 Z0 F1300
G1 X56.603 Y92.93 Z0 F1300
G1 X56.932 Y92.013 Z0 F1300
G1 X57.062 Y91.656 Z0 F1300
G1 X57.056 Y91.598 Z0 F1300
G1 X57.041 Y91.502 Z0 F1300
G1 X57.012 Y91.341 Z0 F1300
G1 X56.964 Y91.1 Z0 F1300
; --- FIX X Backlash ---
G0 X55.664 Y91.1 F1200
G1 X55.592 Y90.764 Z0 F1300
G1 X55.493 Y90.317 Z0 F1300
G1 X55.36 Y89.743 Z0 F1300
G1 X55.285 Y89.439 Z0 F1300
G1 X55.211 Y89.167 Z0 F1300
G1 X55.136 Y88.922 Z0 F1300
G1 X55.059 Y88.7 Z0 F1300
G1 X54.891 Y88.311 Z0 F1300
G1 X54.693 Y87.968 Z0 F1300
G1 X54.452 Y87.64 Z0 F1300
G1 X54.156 Y87.294 Z0 F1300
G1 X53.983 Y87.104 Z0 F1300
G1 X53.346 Y86.42 Z0 F1300
G1 X53.108 Y86.18 Z0 F1300
G1 X52.884 Y85.985 Z0 F1300
G1 X52.674 Y85.832 Z0 F1300
G1 X52.479 Y85.716 Z0 F1300
G1 X52.299 Y85.632 Z0 F1300
G1 X52.134 Y85.578 Z0 F1300
G1 X51.983 Y85.548 Z0 F1300
G1 X51.848 Y85.539 Z0 F1300
G1 X51.624 Y85.567 Z0 F1300
; --- FIX Y Backlash ---
G0 X51.624 Y86.867 F1200
G1 X51.463 Y86.928 Z0 F1300
G1 X51.365 Y86.988 Z0 F1300
G1 X51.332 Y87.016 Z0 F1300
G0 Z3.5 F500
G0 X45.593 Y90.942 Z3.5
G1 Z0 F500
G1 X45.598 Y90.922 Z0 F1300
G1 X45.63 Y90.876 Z0 F1300
; --- FIX X Backlash ---
G0 X46.93 Y90.876 F1200
; --- FIX Y Backlash ---
G0 X46.93 Y89.576 F1200
G1 X47.016 Y89.525 Z0 F1300
G1 X47.183 Y89.491 Z0 F1300
G1 X47.306 Y89.487 Z0 F1300
G1 X47.459 Y89.495 Z0 F1300
G1 X47.646 Y89.517 Z0 F1300
G1 X47.87 Y89.557 Z0 F1300
; --- FIX Y Backlash ---
G0 X47.87 Y90.857 F1200
G1 X48.136 Y90.917 Z0 F1300
G1 X48.445 Y91 Z0 F1300
G1 X48.802 Y91.108 Z0 F1300
G1 X49.209 Y91.244 Z0 F1300
G1 X49.687 Y91.415 Z0 F1300
G1 X50.244 Y91.62 Z0 F1300
G1 X50.871 Y91.856 Z0 F1300
G1 X53.078 Y92.697 Z0 F1300
G1 X54.721 Y93.321 Z0 F1300
G1 X56.412 Y93.949 Z0 F1300
G1 X58.072 Y94.543 Z0 F1300
G1 X58.867 Y94.815 Z0 F1300
G1 X59.624 Y95.064 Z0 F1300
G1 X60.335 Y95.285 Z0 F1300
G1 X60.989 Y95.473 Z0 F1300
G1 X62.732 Y95.946 Z0 F1300
G1 X63.257 Y96.085 Z0 F1300
G1 X63.756 Y96.212 Z0 F1300
G1 X64.228 Y96.328 Z0 F1300
G1 X64.673 Y96.43 Z0 F1300
G1 X65.092 Y96.518 Z0 F1300
G1 X65.485 Y96.59 Z0 F1300
G1 X65.852 Y96.646 Z0 F1300
G1 X66.194 Y96.685 Z0 F1300
G1 X66.511 Y96.705 Z0 F1300
G1 X66.803 Z0 F1300
G1 X67.07 Y96.686 Z0 F1300
G1 X67.314 Y96.644 Z0 F1300
; --- FIX Y Backlash ---
G0 X67.314 Y95.344 F1200
G1 X67.533 Y95.28 Z0 F1300
G1 X67.908 Y95.139 Z0 F1300
G1 X68.205 Y95.016 Z0 F1300
G1 X68.434 Y94.912 Z0 F1300
G1 X68.603 Y94.827 Z0 F1300
G1 X68.72 Y94.761 Z0 F1300
G1 X68.793 Y94.714 Z0 F1300
G1 X68.842 Y94.676 Z0 F1300
M9
M5
G1 Z10 F500
G90
G1 Z10 F800


; Return to 2,0 wash and park
G1 Z10 F1000;        ; Raise brush
G0 X5 Y5 F1200;     ; Rapid move to clean
G1 Z-1 F800;         ; Lower brush
G1 X10 Y12 Z8 F1200;     ; Move
G1 Z-1 F800;         ; Lower
G1 X25 Y14 Z6 F800;     ; Move
G0 X5 Y5 F1200;     ; Rapid
G1 Z-1 F800;         ; Lower
G1 X15 Y12 Z8 F1200;     ; Move
G1 Z-1 F800;         ; Lower
G1 X25 Y14 Z6 F800;     ; Move
G1 Z10 F800;         ; Maintain
G0 X20 Y130 Z10 F500;; Move to park
M2;                 ; End program
