G90 ; Force absolute mode
;LightBurn 1.6.04
;Custom GCode device profile, absolute coords
;Bounds: X4.34 Y4.05 to X47.66 Y47.95
G00 G17 G40 G21 G54
M3
G1 Z10 F600
;Cut @ 444 mm/min, 80% power

M8
G0 Z3.5 F600
G0 X15.878 Y11.391 Z3.5
G1 Z0 F600
;Layer C3 Pass 1 of 2
; --- FIX X Backlash ---
G0 X15.178 Y11.391 F410
G1 X15.113 Z0 F600
G1 X14.531 Y11.65 Z0 F600
; --- FIX X Backlash ---
G0 X15.231 Y11.65 F410
G1 X16.266 Y12.557 Z0 F600
; --- FIX Y Backlash ---
G0 X16.266 Y12.057 F410
G1 X16.434 Y11.647 Z0 F600
G1 X16.534 Y11.393 Z0 F600
G1 X16.636 Y11.121 Z0 F600
G1 X16.731 Y10.855 Z0 F600
G1 X16.805 Y10.619 Z0 F600
G1 X16.849 Y10.438 Z0 F600
G1 X16.829 Y10.299 Z0 F600
; --- FIX X Backlash ---
G0 X16.129 Y10.299 F410
G1 X16.035 Y10.173 Z0 F600
G1 X15.891 Y10.063 Z0 F600
G1 X15.72 Y9.969 Z0 F600
G1 X15.547 Y9.893 Z0 F600
G1 X15.394 Y9.837 Z0 F600
G1 X15.243 Y9.791 Z0 F600
G1 X15.19 Y9.803 Z0 F600
G1 X15.049 Y9.839 Z0 F600
; --- FIX Y Backlash ---
G0 X15.049 Y10.339 F410
G1 X14.847 Y10.4 Z0 F600
G1 X14.612 Y10.485 Z0 F600
G1 X14.37 Y10.594 Z0 F600
G1 X14.15 Y10.728 Z0 F600
G1 X13.979 Y10.885 Z0 F600
G1 X13.883 Y11.068 Z0 F600
G1 X13.813 Y11.286 Z0 F600
G1 X13.707 Y11.539 Z0 F600
G1 X13.581 Y11.807 Z0 F600
G1 X13.446 Y12.071 Z0 F600
G1 X13.318 Y12.31 Z0 F600
G1 X13.21 Y12.506 Z0 F600
G1 X13.106 Y12.686 Z0 F600
; --- FIX X Backlash ---
G0 X13.806 Y12.686 F410
G1 X14.065 Y12.767 Z0 F600
G1 X14.339 Y12.85 Z0 F600
G1 X14.664 Y12.945 Z0 F600
G1 X15.008 Y13.04 Z0 F600
G1 X15.336 Y13.123 Z0 F600
G1 X15.616 Y13.182 Z0 F600
G1 X15.813 Y13.204 Z0 F600
G1 X17.367 Z0 F600
G1 X17.495 Y13.238 Z0 F600
G1 X17.592 Y13.331 Z0 F600
G1 X17.661 Y13.47 Z0 F600
G1 X17.707 Y13.641 Z0 F600
G1 X17.749 Y14.023 Z0 F600
G1 X17.755 Y14.369 Z0 F600
G1 X17.789 Y14.561 Z0 F600
G1 X17.877 Y14.826 Z0 F600
G1 X18.001 Y15.134 Z0 F600
G1 X18.144 Y15.454 Z0 F600
G1 X18.287 Y15.755 Z0 F600
G1 X18.461 Y16.107 Z0 F600
G1 X18.532 Y16.247 Z0 F600
G1 X18.662 Y16.318 Z0 F600
G1 X18.805 Y16.393 Z0 F600
G1 X18.985 Y16.481 Z0 F600
G1 X19.406 Y16.656 Z0 F600
G1 X19.827 Y16.765 Z0 F600
G1 X20.031 Y16.814 Z0 F600
G1 X20.248 Y16.903 Z0 F600
G1 X20.464 Y17.018 Z0 F600
G1 X20.669 Y17.145 Z0 F600
G1 X20.849 Y17.268 Z0 F600
G1 X20.992 Y17.374 Z0 F600
G1 X21.122 Y17.477 Z0 F600
G1 X21.64 Y18.642 Z0 F600
G1 X22.158 Y19.419 Z0 F600
; --- FIX X Backlash ---
G0 X21.458 Y19.419 F410
G1 X21.263 Y24.468 Z0 F600
;Layer C3 Pass 2 of 2
; --- FIX X Backlash ---
G0 X21.963 Y24.468 F410
; --- FIX Y Backlash ---
G0 X21.963 Y23.968 F410
G1 X22.158 Y18.919 Z0 F600
; --- FIX X Backlash ---
G0 X21.458 Y18.919 F410
G1 X20.94 Y18.142 Z0 F600
G1 X20.422 Y16.977 Z0 F600
G1 X20.292 Y16.874 Z0 F600
G1 X20.149 Y16.768 Z0 F600
G1 X19.969 Y16.645 Z0 F600
G1 X19.764 Y16.518 Z0 F600
G1 X19.548 Y16.403 Z0 F600
G1 X19.331 Y16.314 Z0 F600
G1 X19.127 Y16.265 Z0 F600
G1 X18.706 Y16.156 Z0 F600
G1 X18.285 Y15.981 Z0 F600
G1 X18.105 Y15.893 Z0 F600
G1 X17.962 Y15.818 Z0 F600
G1 X17.832 Y15.747 Z0 F600
G1 X17.761 Y15.607 Z0 F600
G1 X17.587 Y15.255 Z0 F600
G1 X17.444 Y14.954 Z0 F600
G1 X17.301 Y14.634 Z0 F600
G1 X17.177 Y14.326 Z0 F600
G1 X17.089 Y14.061 Z0 F600
G1 X17.055 Y13.869 Z0 F600
G1 X17.049 Y13.523 Z0 F600
G1 X17.007 Y13.141 Z0 F600
G1 X16.961 Y12.97 Z0 F600
G1 X16.892 Y12.831 Z0 F600
G1 X16.795 Y12.738 Z0 F600
G1 X16.667 Y12.704 Z0 F600
G1 X15.113 Z0 F600
G1 X14.916 Y12.682 Z0 F600
G1 X14.636 Y12.623 Z0 F600
G1 X14.308 Y12.54 Z0 F600
G1 X13.964 Y12.445 Z0 F600
G1 X13.639 Y12.35 Z0 F600
G1 X13.365 Y12.267 Z0 F600
G1 X13.106 Y12.186 Z0 F600
; --- FIX X Backlash ---
G0 X13.806 Y12.186 F410
G1 X13.91 Y12.006 Z0 F600
G1 X14.018 Y11.81 Z0 F600
G1 X14.146 Y11.571 Z0 F600
G1 X14.281 Y11.307 Z0 F600
G1 X14.407 Y11.039 Z0 F600
G1 X14.513 Y10.786 Z0 F600
G1 X14.583 Y10.568 Z0 F600
G1 X14.679 Y10.385 Z0 F600
G1 X14.85 Y10.228 Z0 F600
G1 X15.07 Y10.094 Z0 F600
G1 X15.312 Y9.985 Z0 F600
G1 X15.547 Y9.9 Z0 F600
G1 X15.749 Y9.839 Z0 F600
G1 X15.89 Y9.803 Z0 F600
G1 X15.943 Y9.791 Z0 F600
G1 X16.094 Y9.837 Z0 F600
; --- FIX Y Backlash ---
G0 X16.094 Y10.337 F410
G1 X16.247 Y10.393 Z0 F600
G1 X16.42 Y10.469 Z0 F600
G1 X16.591 Y10.563 Z0 F600
G1 X16.735 Y10.673 Z0 F600
G1 X16.829 Y10.799 Z0 F600
G1 X16.849 Y10.938 Z0 F600
G1 X16.805 Y11.119 Z0 F600
; --- FIX X Backlash ---
G0 X16.105 Y11.119 F410
G1 X16.031 Y11.355 Z0 F600
G1 X15.936 Y11.621 Z0 F600
G1 X15.834 Y11.893 Z0 F600
G1 X15.734 Y12.147 Z0 F600
G1 X15.566 Y12.557 Z0 F600
; --- FIX Y Backlash ---
G0 X15.566 Y12.057 F410
G1 X14.531 Y11.15 Z0 F600
; --- FIX X Backlash ---
G0 X15.231 Y11.15 F410
G1 X15.813 Y10.891 Z0 F600
G1 X15.878 Z0 F600
G0 Z3.5 F600
; --- FIX Y Backlash ---
G0 X15.878 Y11.391 F410
G0 X27.531 Y24.048 Z3.5 F600
G1 Z0 F600
;Layer C3 Pass 1 of 2
; --- FIX X Backlash ---
G0 X26.831 Y24.048 F410
; --- FIX Y Backlash ---
G0 X26.831 Y23.548 F410
G1 X26.766 Y19.534 Z0 F600
;Layer C3 Pass 2 of 2
; --- FIX X Backlash ---
G0 X27.466 Y19.534 F410
; --- FIX Y Backlash ---
G0 X27.466 Y20.034 F410
G1 X27.531 Y24.048 Z0 F600
G0 Z3.5 F600
; --- FIX Y Backlash ---
G0 X27.531 Y23.548 F410
G0 X30.023 Y19.534 Z3.5
G1 Z0 F600
;Layer C3 Pass 1 of 2
; --- FIX X Backlash ---
G0 X29.323 Y19.534 F410
; --- FIX Y Backlash ---
G0 X29.323 Y20.034 F410
G1 X29.097 Y24.145 Z0 F600
;Layer C3 Pass 2 of 2
; --- FIX X Backlash ---
G0 X29.797 Y24.145 F410
; --- FIX Y Backlash ---
G0 X29.797 Y23.645 F410
G1 X30.023 Y19.534 Z0 F600
G0 Z3.5 F600
; --- FIX Y Backlash ---
G0 X30.023 Y20.034 F410
G0 X32.386 Y23.95 Z3.5
G1 Z0 F600
;Layer C3 Pass 1 of 2
; --- FIX X Backlash ---
G0 X31.686 Y23.95 F410
; --- FIX Y Backlash ---
G0 X31.686 Y23.45 F410
G1 X31.622 Y19.178 Z0 F600
;Layer C3 Pass 2 of 2
; --- FIX X Backlash ---
G0 X32.322 Y19.178 F410
; --- FIX Y Backlash ---
G0 X32.322 Y19.678 F410
G1 X32.386 Y23.95 Z0 F600
G0 Z3.5 F600
; --- FIX Y Backlash ---
G0 X32.386 Y23.45 F410
G0 X33.726 Y12.52 Z3.5
G1 Z0 F600
;Layer C3 Pass 1 of 2
G1 X34.686 Y12.371 Z0 F600
; --- FIX Y Backlash ---
G0 X34.686 Y12.871 F410
G1 X34.643 Y13.556 Z0 F600
; --- FIX X Backlash ---
G0 X33.943 Y13.556 F410
G1 X33.521 Y14.513 Z0 F600
; --- FIX Y Backlash ---
G0 X33.521 Y14.013 F410
G1 X33.021 Y13.545 Z0 F600
G1 X32.006 Y11.906 Z0 F600
; --- FIX X Backlash ---
G0 X32.706 Y11.906 F410
G1 X35.179 Y11.015 Z0 F600
; --- FIX Y Backlash ---
G0 X35.179 Y11.515 F410
G1 X35.594 Y13.021 Z0 F600
; --- FIX X Backlash ---
G0 X34.894 Y13.021 F410
G1 X34.415 Y14.494 Z0 F600
G1 X33.531 Y15.936 Z0 F600
; --- FIX Y Backlash ---
G0 X33.531 Y15.436 F410
G1 X32.157 Y13.934 Z0 F600
G1 X30.989 Y12.228 Z0 F600
;Layer C3 Pass 2 of 2
; --- FIX X Backlash ---
G0 X31.689 Y12.228 F410
; --- FIX Y Backlash ---
G0 X31.689 Y12.728 F410
G1 X32.857 Y14.434 Z0 F600
G1 X34.231 Y15.936 Z0 F600
; --- FIX Y Backlash ---
G0 X34.231 Y15.436 F410
G1 X35.115 Y13.994 Z0 F600
G1 X35.594 Y12.521 Z0 F600
; --- FIX X Backlash ---
G0 X34.894 Y12.521 F410
G1 X34.479 Y11.015 Z0 F600
; --- FIX Y Backlash ---
G0 X34.479 Y11.515 F410
G1 X32.006 Y12.406 Z0 F600
; --- FIX X Backlash ---
G0 X32.706 Y12.406 F410
G1 X33.721 Y14.045 Z0 F600
G1 X34.221 Y14.513 Z0 F600
; --- FIX Y Backlash ---
G0 X34.221 Y14.013 F410
G1 X34.643 Y13.056 Z0 F600
G1 X34.686 Y12.371 Z0 F600
; --- FIX X Backlash ---
G0 X33.986 Y12.371 F410
; --- FIX Y Backlash ---
G0 X33.986 Y12.871 F410
G1 X33.026 Y13.02 Z0 F600
G0 Z3.5 F600
; --- FIX Y Backlash ---
G0 X33.026 Y12.52 F410
G0 X26.378 Y11.021 Z3.5
G1 Z0 F600
;Layer C3 Pass 1 of 2
G1 X26.29 Y10.996 Z0 F600
G1 X26.19 Y10.964 Z0 F600
G1 X26.062 Y10.92 Z0 F600
G1 X25.75 Y10.789 Z0 F600
G1 X25.407 Y10.6 Z0 F600
G1 X25.233 Y10.512 Z0 F600
G1 X25.057 Y10.462 Z0 F600
G1 X24.883 Y10.441 Z0 F600
G1 X24.719 Z0 F600
G1 X24.57 Y10.457 Z0 F600
G1 X24.442 Y10.477 Z0 F600
G1 X24.341 Y10.495 Z0 F600
G1 X24.274 Y10.503 Z0 F600
G1 X23.74 Y10.422 Z0 F600
G1 X23.303 Y10.341 Z0 F600
; --- FIX Y Backlash ---
G0 X23.303 Y10.841 F410
G1 X22.85 Y11.521 Z0 F600
; --- FIX X Backlash ---
G0 X23.55 Y11.521 F410
G1 X24.557 Y11.658 Z0 F600
G1 X24.939 Y11.714 Z0 F600
G1 X25.284 Y11.767 Z0 F600
G1 X25.548 Y11.812 Z0 F600
G1 X25.635 Y11.83 Z0 F600
G1 X25.686 Y11.844 Z0 F600
G1 X25.79 Y11.884 Z0 F600
G1 X25.968 Y11.948 Z0 F600
G1 X26.197 Y12.026 Z0 F600
G1 X26.459 Y12.111 Z0 F600
G1 X26.731 Y12.193 Z0 F600
G1 X26.992 Y12.263 Z0 F600
G1 X27.223 Y12.312 Z0 F600
G1 X27.401 Y12.33 Z0 F600
G1 X27.544 Y12.292 Z0 F600
; --- FIX Y Backlash ---
G0 X27.544 Y11.792 F410
G1 X27.677 Y11.69 Z0 F600
G1 X27.797 Y11.541 Z0 F600
G1 X27.903 Y11.365 Z0 F600
G1 X27.991 Y11.177 Z0 F600
G1 X28.057 Y10.997 Z0 F600
G1 X28.099 Y10.842 Z0 F600
G1 X28.114 Y10.729 Z0 F600
; --- FIX X Backlash ---
G0 X27.414 Y10.729 F410
G1 X27.358 Y10.512 Z0 F600
G1 X27.236 Y10.256 Z0 F600
G1 X27.17 Y10.139 Z0 F600
G1 X27.058 Y9.953 Z0 F600
G1 X26.107 Y9.774 Z0 F600
G1 X25.741 Y9.709 Z0 F600
G1 X25.405 Y9.652 Z0 F600
G1 X25.14 Y9.612 Z0 F600
G1 X25.046 Y9.6 Z0 F600
G1 X24.986 Y9.596 Z0 F600
G1 X24.759 Y9.63 Z0 F600
; --- FIX Y Backlash ---
G0 X24.759 Y10.13 F410
G1 X24.456 Y10.218 Z0 F600
G1 X24.135 Y10.342 Z0 F600
G1 X23.853 Y10.485 Z0 F600
G1 X23.691 Y10.563 Z0 F600
G1 X23.464 Y10.649 Z0 F600
G1 X23.194 Y10.738 Z0 F600
G1 X22.902 Y10.825 Z0 F600
G1 X22.612 Y10.906 Z0 F600
G1 X22.346 Y10.977 Z0 F600
G1 X22.127 Y11.032 Z0 F600
G1 X21.976 Y11.068 Z0 F600
G1 X21.738 Y11.173 Z0 F600
G1 X21.486 Y11.355 Z0 F600
G1 X21.252 Y11.555 Z0 F600
G1 X21.069 Y11.715 Z0 F600
G1 X21.02 Y11.788 Z0 F600
G1 X21.013 Y11.879 Z0 F600
G1 X21.035 Y11.981 Z0 F600
G1 X21.077 Y12.083 Z0 F600
; --- FIX X Backlash ---
G0 X21.777 Y12.083 F410
G1 X21.829 Y12.178 Z0 F600
G1 X21.878 Y12.257 Z0 F600
G1 X21.931 Y12.33 Z0 F600
; --- FIX Y Backlash ---
G0 X21.931 Y11.83 F410
G1 X22.574 Y11.725 Z0 F600
G1 X23.119 Y11.639 Z0 F600
G1 X23.582 Y11.571 Z0 F600
G1 X23.93 Y11.575 Z0 F600
; --- FIX Y Backlash ---
G0 X23.93 Y12.075 F410
G1 X24.233 Y12.152 Z0 F600
G1 X24.47 Y12.253 Z0 F600
G1 X24.618 Y12.33 Z0 F600
G1 X24.652 Y12.396 Z0 F600
G1 X24.662 Y12.529 Z0 F600
G1 X24.654 Y12.707 Z0 F600
G1 X24.634 Y12.904 Z0 F600
G1 X24.608 Y13.099 Z0 F600
G1 X24.581 Y13.268 Z0 F600
G1 X24.553 Y13.43 Z0 F600
G1 X24.535 Y13.629 Z0 F600
G1 X24.514 Y13.84 Z0 F600
G1 X24.484 Y14.094 Z0 F600
G1 X24.447 Y14.366 Z0 F600
G1 X24.403 Y14.632 Z0 F600
; --- FIX X Backlash ---
G0 X23.703 Y14.632 F410
G1 X23.652 Y14.868 Z0 F600
G1 X23.594 Y15.049 Z0 F600
G1 X23.521 Y15.39 Z0 F600
G1 X23.517 Y15.761 Z0 F600
G1 X23.529 Y15.926 Z0 F600
G1 X23.544 Y16.059 Z0 F600
G1 X23.562 Y16.182 Z0 F600
; --- FIX X Backlash ---
G0 X24.262 Y16.182 F410
G1 X25.168 Y16.538 Z0 F600
; --- FIX Y Backlash ---
G0 X25.168 Y16.038 F410
G1 X25.649 Y15.791 Z0 F600
G1 X26.056 Y15.587 Z0 F600
G1 X26.398 Y15.423 Z0 F600
G1 X26.546 Y15.39 Z0 F600
G1 X26.715 Y15.405 Z0 F600
G1 X26.892 Y15.454 Z0 F600
; --- FIX Y Backlash ---
G0 X26.892 Y15.954 F410
G1 X27.066 Y16.024 Z0 F600
G1 X27.222 Y16.101 Z0 F600
G1 X27.349 Y16.173 Z0 F600
G1 X27.466 Y16.247 Z0 F600
; --- FIX X Backlash ---
G0 X26.766 Y16.247 F410
G1 X26.292 Y16.325 Z0 F600
G1 X26.006 Y16.376 Z0 F600
G1 X25.707 Y16.433 Z0 F600
G1 X25.428 Y16.492 Z0 F600
G1 X25.199 Y16.55 Z0 F600
G1 X25.051 Y16.603 Z0 F600
G1 X24.935 Y16.627 Z0 F600
G1 X24.787 Y16.612 Z0 F600
G1 X24.612 Y16.567 Z0 F600
; --- FIX Y Backlash ---
G0 X24.612 Y16.067 F410
G1 X24.004 Y15.875 Z0 F600
G1 X23.594 Y15.811 Z0 F600
G1 X23.433 Y15.831 Z0 F600
; --- FIX Y Backlash ---
G0 X23.433 Y16.331 F410
G1 X23.33 Y16.388 Z0 F600
G1 X23.274 Y16.473 Z0 F600
G1 X23.254 Y16.582 Z0 F600
G1 X23.275 Y16.844 Z0 F600
G1 X23.303 Y17.121 Z0 F600
G1 X23.324 Y17.269 Z0 F600
; --- FIX X Backlash ---
G0 X24.024 Y17.269 F410
G1 X24.08 Y17.441 Z0 F600
G1 X24.161 Y17.627 Z0 F600
G1 X24.258 Y17.816 Z0 F600
G1 X24.358 Y18 Z0 F600
G1 X24.532 Y18.309 Z0 F600
G1 X24.585 Y18.415 Z0 F600
G1 X24.62 Y18.527 Z0 F600
G1 X24.652 Y18.681 Z0 F600
G1 X24.681 Y18.863 Z0 F600
G1 X24.707 Y19.059 Z0 F600
G1 X24.766 Y19.577 Z0 F600
G1 X24.78 Y19.678 Z0 F600
G1 X24.812 Y20.058 Z0 F600
G1 X24.844 Y20.39 Z0 F600
G1 X24.85 Y20.535 Z0 F600
G1 X24.82 Y20.754 Z0 F600
; --- FIX X Backlash ---
G0 X24.12 Y20.754 F410
G1 X24.053 Y21.009 Z0 F600
G1 X23.95 Y21.264 Z0 F600
G1 X23.897 Y21.406 Z0 F600
G1 X23.857 Y21.583 Z0 F600
G1 X23.829 Y21.783 Z0 F600
G1 X23.812 Y21.996 Z0 F600
G1 X23.804 Y22.415 Z0 F600
G1 X23.821 Y22.753 Z0 F600
; --- FIX X Backlash ---
G0 X24.521 Y22.753 F410
G1 X24.602 Y23.538 Z0 F600
G1 X24.682 Y24.274 Z0 F600
G1 X24.687 Y24.417 Z0 F600
G1 X24.68 Y24.619 Z0 F600
G1 X24.664 Y24.863 Z0 F600
G1 X24.642 Y25.136 Z0 F600
; --- FIX X Backlash ---
G0 X23.942 Y25.136 F410
G1 X23.891 Y25.708 Z0 F600
G1 X23.853 Y26.216 Z0 F600
G1 X23.784 Y26.629 Z0 F600
G1 X23.663 Y26.969 Z0 F600
G1 X23.601 Y27.1 Z0 F600
G1 X23.548 Y27.199 Z0 F600
G1 X23.497 Y27.284 Z0 F600
G1 X22.623 Z0 F600
; --- FIX Y Backlash ---
G0 X22.623 Y26.784 F410
G1 X22.04 Y26.704 Z0 F600
G1 X21.361 Y26.623 Z0 F600
; --- FIX Y Backlash ---
G0 X21.361 Y27.123 F410
G1 X21.225 Y27.188 Z0 F600
G1 X21.053 Y27.333 Z0 F600
G1 X20.972 Y27.41 Z0 F600
G1 X20.843 Y27.543 Z0 F600
; --- FIX X Backlash ---
G0 X21.543 Y27.543 F410
G1 X21.769 Y28.32 Z0 F600
G1 X21.996 Y29.356 Z0 F600
;Layer C3 Pass 2 of 2
; --- FIX X Backlash ---
G0 X21.296 Y29.356 F410
; --- FIX Y Backlash ---
G0 X21.296 Y28.856 F410
G1 X21.069 Y27.82 Z0 F600
G1 X20.843 Y27.043 Z0 F600
; --- FIX X Backlash ---
G0 X21.543 Y27.043 F410
G1 X21.672 Y26.91 Z0 F600
G1 X21.753 Y26.833 Z0 F600
G1 X21.925 Y26.688 Z0 F600
G1 X22.061 Y26.623 Z0 F600
; --- FIX Y Backlash ---
G0 X22.061 Y27.123 F410
G1 X22.74 Y27.204 Z0 F600
G1 X23.323 Y27.284 Z0 F600
G1 X24.197 Z0 F600
; --- FIX Y Backlash ---
G0 X24.197 Y26.784 F410
G1 X24.248 Y26.699 Z0 F600
G1 X24.301 Y26.6 Z0 F600
G1 X24.363 Y26.469 Z0 F600
G1 X24.484 Y26.129 Z0 F600
G1 X24.553 Y25.716 Z0 F600
G1 X24.591 Y25.208 Z0 F600
G1 X24.642 Y24.636 Z0 F600
G1 X24.664 Y24.363 Z0 F600
G1 X24.68 Y24.119 Z0 F600
G1 X24.687 Y23.917 Z0 F600
G1 X24.682 Y23.774 Z0 F600
; --- FIX X Backlash ---
G0 X23.982 Y23.774 F410
G1 X23.902 Y23.038 Z0 F600
G1 X23.821 Y22.253 Z0 F600
G1 X23.804 Y21.915 Z0 F600
G1 X23.812 Y21.496 Z0 F600
G1 X23.829 Y21.283 Z0 F600
G1 X23.857 Y21.083 Z0 F600
G1 X23.897 Y20.906 Z0 F600
; --- FIX X Backlash ---
G0 X24.597 Y20.906 F410
G1 X24.65 Y20.764 Z0 F600
G1 X24.753 Y20.509 Z0 F600
G1 X24.82 Y20.254 Z0 F600
G1 X24.85 Y20.035 Z0 F600
G1 X24.844 Y19.89 Z0 F600
G1 X24.812 Y19.558 Z0 F600
G1 X24.78 Y19.178 Z0 F600
G1 X24.766 Y19.077 Z0 F600
; --- FIX X Backlash ---
G0 X24.066 Y19.077 F410
G1 X24.007 Y18.559 Z0 F600
G1 X23.981 Y18.363 Z0 F600
G1 X23.952 Y18.181 Z0 F600
G1 X23.92 Y18.027 Z0 F600
G1 X23.885 Y17.915 Z0 F600
G1 X23.832 Y17.809 Z0 F600
G1 X23.658 Y17.5 Z0 F600
G1 X23.558 Y17.316 Z0 F600
G1 X23.461 Y17.127 Z0 F600
G1 X23.38 Y16.941 Z0 F600
G1 X23.324 Y16.769 Z0 F600
G1 X23.303 Y16.621 Z0 F600
G1 X23.275 Y16.344 Z0 F600
G1 X23.254 Y16.082 Z0 F600
G1 X23.274 Y15.973 Z0 F600
; --- FIX X Backlash ---
G0 X23.974 Y15.973 F410
G1 X24.03 Y15.888 Z0 F600
G1 X24.133 Y15.831 Z0 F600
G1 X24.294 Y15.811 Z0 F600
; --- FIX Y Backlash ---
G0 X24.294 Y16.311 F410
G1 X24.704 Y16.375 Z0 F600
G1 X25.312 Y16.567 Z0 F600
G1 X25.487 Y16.612 Z0 F600
G1 X25.635 Y16.627 Z0 F600
G1 X25.751 Y16.603 Z0 F600
; --- FIX Y Backlash ---
G0 X25.751 Y16.103 F410
G1 X25.899 Y16.05 Z0 F600
G1 X26.128 Y15.992 Z0 F600
G1 X26.407 Y15.933 Z0 F600
G1 X26.706 Y15.876 Z0 F600
G1 X26.992 Y15.825 Z0 F600
G1 X27.466 Y15.747 Z0 F600
; --- FIX X Backlash ---
G0 X26.766 Y15.747 F410
G1 X26.649 Y15.673 Z0 F600
G1 X26.522 Y15.601 Z0 F600
G1 X26.366 Y15.524 Z0 F600
G1 X26.192 Y15.454 Z0 F600
G1 X26.015 Y15.405 Z0 F600
G1 X25.846 Y15.39 Z0 F600
G1 X25.698 Y15.423 Z0 F600
; --- FIX Y Backlash ---
G0 X25.698 Y15.923 F410
G1 X25.356 Y16.087 Z0 F600
G1 X24.949 Y16.291 Z0 F600
G1 X24.468 Y16.538 Z0 F600
; --- FIX Y Backlash ---
G0 X24.468 Y16.038 F410
G1 X23.562 Y15.682 Z0 F600
G1 X23.544 Y15.559 Z0 F600
G1 X23.529 Y15.426 Z0 F600
G1 X23.517 Y15.261 Z0 F600
G1 X23.521 Y14.89 Z0 F600
; --- FIX X Backlash ---
G0 X24.221 Y14.89 F410
G1 X24.294 Y14.549 Z0 F600
G1 X24.352 Y14.368 Z0 F600
G1 X24.403 Y14.132 Z0 F600
G1 X24.447 Y13.866 Z0 F600
G1 X24.484 Y13.594 Z0 F600
G1 X24.514 Y13.34 Z0 F600
G1 X24.535 Y13.129 Z0 F600
G1 X24.553 Y12.93 Z0 F600
G1 X24.581 Y12.768 Z0 F600
G1 X24.608 Y12.599 Z0 F600
G1 X24.634 Y12.404 Z0 F600
G1 X24.654 Y12.207 Z0 F600
G1 X24.662 Y12.029 Z0 F600
G1 X24.652 Y11.896 Z0 F600
G1 X24.618 Y11.83 Z0 F600
; --- FIX X Backlash ---
G0 X23.918 Y11.83 F410
G1 X23.77 Y11.753 Z0 F600
G1 X23.533 Y11.652 Z0 F600
G1 X23.23 Y11.575 Z0 F600
G1 X22.882 Y11.571 Z0 F600
; --- FIX Y Backlash ---
G0 X22.882 Y12.071 F410
G1 X22.419 Y12.139 Z0 F600
G1 X21.874 Y12.225 Z0 F600
G1 X21.231 Y12.33 Z0 F600
; --- FIX Y Backlash ---
G0 X21.231 Y11.83 F410
G1 X21.178 Y11.757 Z0 F600
G1 X21.129 Y11.678 Z0 F600
G1 X21.077 Y11.583 Z0 F600
G1 X21.035 Y11.481 Z0 F600
G1 X21.013 Y11.379 Z0 F600
G1 X21.02 Y11.288 Z0 F600
G1 X21.069 Y11.215 Z0 F600
; --- FIX X Backlash ---
G0 X21.769 Y11.215 F410
G1 X21.952 Y11.055 Z0 F600
G1 X22.186 Y10.855 Z0 F600
G1 X22.438 Y10.673 Z0 F600
G1 X22.676 Y10.568 Z0 F600
G1 X22.827 Y10.532 Z0 F600
G1 X23.046 Y10.477 Z0 F600
G1 X23.312 Y10.406 Z0 F600
G1 X23.602 Y10.325 Z0 F600
G1 X23.894 Y10.238 Z0 F600
G1 X24.164 Y10.149 Z0 F600
G1 X24.391 Y10.063 Z0 F600
G1 X24.553 Y9.985 Z0 F600
G1 X24.835 Y9.842 Z0 F600
G1 X25.156 Y9.718 Z0 F600
G1 X25.459 Y9.63 Z0 F600
G1 X25.686 Y9.596 Z0 F600
G1 X25.746 Y9.6 Z0 F600
G1 X25.84 Y9.612 Z0 F600
G1 X26.105 Y9.652 Z0 F600
; --- FIX Y Backlash ---
G0 X26.105 Y10.152 F410
G1 X26.441 Y10.209 Z0 F600
G1 X26.807 Y10.274 Z0 F600
G1 X27.758 Y10.453 Z0 F600
G1 X27.87 Y10.639 Z0 F600
G1 X27.936 Y10.756 Z0 F600
G1 X28.058 Y11.012 Z0 F600
G1 X28.114 Y11.229 Z0 F600
G1 X28.099 Y11.342 Z0 F600
G1 X28.057 Y11.497 Z0 F600
; --- FIX X Backlash ---
G0 X27.357 Y11.497 F410
G1 X27.291 Y11.677 Z0 F600
G1 X27.203 Y11.865 Z0 F600
G1 X27.097 Y12.041 Z0 F600
G1 X26.977 Y12.19 Z0 F600
G1 X26.844 Y12.292 Z0 F600
G1 X26.701 Y12.33 Z0 F600
G1 X26.523 Y12.312 Z0 F600
G1 X26.292 Y12.263 Z0 F600
; --- FIX Y Backlash ---
G0 X26.292 Y11.763 F410
G1 X26.031 Y11.693 Z0 F600
G1 X25.759 Y11.611 Z0 F600
G1 X25.497 Y11.526 Z0 F600
G1 X25.268 Y11.448 Z0 F600
G1 X25.09 Y11.384 Z0 F600
G1 X24.986 Y11.344 Z0 F600
G1 X24.935 Y11.33 Z0 F600
G1 X24.848 Y11.312 Z0 F600
G1 X24.584 Y11.267 Z0 F600
G1 X24.239 Y11.214 Z0 F600
G1 X23.857 Y11.158 Z0 F600
G1 X22.85 Y11.021 Z0 F600
; --- FIX X Backlash ---
G0 X23.55 Y11.021 F410
G1 X24.003 Y10.341 Z0 F600
; --- FIX Y Backlash ---
G0 X24.003 Y10.841 F410
G1 X24.44 Y10.922 Z0 F600
G1 X24.974 Y11.003 Z0 F600
G1 X25.041 Y10.995 Z0 F600
G1 X25.142 Y10.977 Z0 F600
G1 X25.27 Y10.957 Z0 F600
G1 X25.419 Y10.942 Z0 F600
G1 X25.583 Z0 F600
G1 X25.757 Y10.962 Z0 F600
G1 X25.933 Y11.012 Z0 F600
G1 X26.107 Y11.1 Z0 F600
G1 X26.45 Y11.289 Z0 F600
G1 X26.762 Y11.42 Z0 F600
G1 X26.89 Y11.464 Z0 F600
G1 X26.99 Y11.496 Z0 F600
G1 X27.078 Y11.521 Z0 F600
G0 Z3.5 F600
; --- FIX X Backlash ---
G0 X26.378 Y11.521 F410
G0 X21.302 Y29.186 Z3.5
G1 Z0 F600
;Layer C3 Pass 1 of 2
G1 X21.165 Y34.313 Z0 F600
;Layer C3 Pass 2 of 2
; --- FIX X Backlash ---
G0 X21.865 Y34.313 F410
; --- FIX Y Backlash ---
G0 X21.865 Y33.813 F410
G1 X22.002 Y28.686 Z0 F600
G0 Z3.5 F600
; --- FIX Y Backlash ---
G0 X22.002 Y29.186 F410
G0 X21.956 Y34.176 Z3.5
G1 Z0 F600
;Layer C3 Pass 1 of 2
; --- FIX Y Backlash ---
G0 X21.956 Y33.676 F410
G1 X21.911 Y30.929 Z0 F600
G1 X22.185 Y29.418 Z0 F600
; --- FIX X Backlash ---
G0 X21.485 Y29.418 F410
G1 X21.165 Y27.725 Z0 F600
;Layer C3 Pass 2 of 2
; --- FIX X Backlash ---
G0 X21.865 Y27.725 F410
; --- FIX Y Backlash ---
G0 X21.865 Y28.225 F410
G1 X22.185 Y29.918 Z0 F600
; --- FIX X Backlash ---
G0 X21.485 Y29.918 F410
G1 X21.211 Y31.429 Z0 F600
G1 X21.256 Y34.176 Z0 F600
G0 Z3.5 F600
; --- FIX X Backlash ---
G0 X21.956 Y34.176 F410
; --- FIX Y Backlash ---
G0 X21.956 Y33.676 F410
G0 X24.52 Y29.418 Z3.5
G1 Z0 F600
;Layer C3 Pass 1 of 2
; --- FIX Y Backlash ---
G0 X24.52 Y29.918 F410
G1 X24.611 Y32.573 Z0 F600
; --- FIX X Backlash ---
G0 X23.911 Y32.573 F410
G1 X23.82 Y34.725 Z0 F600
G1 X23.815 Y34.956 Z0 F600
G1 X23.803 Y35.196 Z0 F600
G1 X23.78 Y35.475 Z0 F600
G1 X23.742 Y35.76 Z0 F600
G1 X23.685 Y36.019 Z0 F600
G1 X23.605 Y36.219 Z0 F600
G1 X23.499 Y36.327 Z0 F600
G1 X23.346 Y36.396 Z0 F600
G1 X23.143 Y36.492 Z0 F600
G1 X22.67 Y36.722 Z0 F600
G1 X22.08 Y37.014 Z0 F600
; --- FIX Y Backlash ---
G0 X22.08 Y36.514 F410
G1 X20.295 Y36.285 Z0 F600
; --- FIX Y Backlash ---
G0 X20.295 Y36.785 F410
G1 X18.83 Y37.197 Z0 F600
G1 X18.144 Y37.975 Z0 F600
G1 X18.098 Y39.12 Z0 F600
; --- FIX X Backlash ---
G0 X18.798 Y39.12 F410
G1 X20.585 Y39.707 Z0 F600
; --- FIX X Backlash ---
G0 X19.885 Y39.707 F410
G1 X18.098 Y39.989 Z0 F600
; --- FIX X Backlash ---
G0 X18.798 Y39.989 F410
G1 X19.329 Y41.27 Z0 F600
; --- FIX X Backlash ---
G0 X18.629 Y41.27 F410
; --- FIX Y Backlash ---
G0 X18.629 Y40.77 F410
G1 X17.32 Y39.169 Z0 F600
; --- FIX Y Backlash ---
G0 X17.32 Y39.669 F410
G1 X16.923 Y41.426 Z0 F600
; --- FIX Y Backlash ---
G0 X16.923 Y40.926 F410
G1 X16.725 Y39.032 Z0 F600
; --- FIX Y Backlash ---
G0 X16.725 Y39.532 F410
G1 X15.627 Y40.61 Z0 F600
; --- FIX X Backlash ---
G0 X16.327 Y40.61 F410
; --- FIX Y Backlash ---
G0 X16.327 Y40.11 F410
G1 X17.791 Y38.528 Z0 F600
; --- FIX X Backlash ---
G0 X17.091 Y38.528 F410
G1 X15.372 Y37.795 Z0 F600
; --- FIX X Backlash ---
G0 X16.072 Y37.795 F410
; --- FIX Y Backlash ---
G0 X16.072 Y38.295 F410
G1 X18.157 Y38.708 Z0 F600
; --- FIX X Backlash ---
G0 X17.457 Y38.708 F410
; --- FIX Y Backlash ---
G0 X17.457 Y38.208 F410
G1 X17.365 Y36.697 Z0 F600
; --- FIX X Backlash ---
G0 X18.065 Y36.697 F410
G1 X18.981 Y36.422 Z0 F600
;Layer C3 Pass 2 of 2
; --- FIX X Backlash ---
G0 X18.281 Y36.422 F410
; --- FIX Y Backlash ---
G0 X18.281 Y36.922 F410
G1 X17.365 Y37.197 Z0 F600
; --- FIX X Backlash ---
G0 X18.065 Y37.197 F410
G1 X18.157 Y38.708 Z0 F600
; --- FIX X Backlash ---
G0 X17.457 Y38.708 F410
; --- FIX Y Backlash ---
G0 X17.457 Y38.208 F410
G1 X15.372 Y37.795 Z0 F600
; --- FIX X Backlash ---
G0 X16.072 Y37.795 F410
; --- FIX Y Backlash ---
G0 X16.072 Y38.295 F410
G1 X17.791 Y39.028 Z0 F600
; --- FIX X Backlash ---
G0 X17.091 Y39.028 F410
G1 X15.627 Y40.61 Z0 F600
; --- FIX X Backlash ---
G0 X16.327 Y40.61 F410
; --- FIX Y Backlash ---
G0 X16.327 Y40.11 F410
G1 X17.425 Y39.032 Z0 F600
; --- FIX Y Backlash ---
G0 X17.425 Y39.532 F410
G1 X17.623 Y41.426 Z0 F600
; --- FIX Y Backlash ---
G0 X17.623 Y40.926 F410
G1 X18.02 Y39.169 Z0 F600
; --- FIX Y Backlash ---
G0 X18.02 Y39.669 F410
G1 X19.329 Y41.27 Z0 F600
; --- FIX X Backlash ---
G0 X18.629 Y41.27 F410
; --- FIX Y Backlash ---
G0 X18.629 Y40.77 F410
G1 X18.098 Y39.489 Z0 F600
; --- FIX X Backlash ---
G0 X18.798 Y39.489 F410
G1 X20.585 Y39.207 Z0 F600
; --- FIX X Backlash ---
G0 X19.885 Y39.207 F410
G1 X18.098 Y38.62 Z0 F600
G1 X18.144 Y37.475 Z0 F600
; --- FIX X Backlash ---
G0 X18.844 Y37.475 F410
G1 X19.53 Y36.697 Z0 F600
G1 X20.995 Y36.285 Z0 F600
; --- FIX Y Backlash ---
G0 X20.995 Y36.785 F410
G1 X22.78 Y37.014 Z0 F600
; --- FIX Y Backlash ---
G0 X22.78 Y36.514 F410
G1 X23.37 Y36.222 Z0 F600
G1 X23.843 Y35.992 Z0 F600
G1 X24.046 Y35.896 Z0 F600
G1 X24.199 Y35.827 Z0 F600
G1 X24.305 Y35.719 Z0 F600
G1 X24.385 Y35.519 Z0 F600
G1 X24.442 Y35.26 Z0 F600
G1 X24.48 Y34.975 Z0 F600
G1 X24.503 Y34.696 Z0 F600
G1 X24.515 Y34.456 Z0 F600
G1 X24.52 Y34.225 Z0 F600
G1 X24.611 Y32.073 Z0 F600
; --- FIX X Backlash ---
G0 X23.911 Y32.073 F410
G1 X23.82 Y29.418 Z0 F600
G0 Z3.5 F600
; --- FIX Y Backlash ---
G0 X23.82 Y29.918 F410
G0 X11.585 Y37.416 Z3.5
G1 Z0 F600
;Layer C3 Pass 1 of 2
; --- FIX X Backlash ---
G0 X12.285 Y37.416 F410
G1 X12.373 Y37.591 Z0 F600
G1 X12.467 Y37.766 Z0 F600
G1 X12.58 Y37.961 Z0 F600
G1 X12.701 Y38.148 Z0 F600
G1 X12.82 Y38.296 Z0 F600
G1 X12.926 Y38.378 Z0 F600
G1 X13.008 Y38.365 Z0 F600
; --- FIX Y Backlash ---
G0 X13.008 Y37.865 F410
G1 X13.154 Y37.708 Z0 F600
G1 X13.292 Y37.553 Z0 F600
G1 X13.407 Y37.413 Z0 F600
G1 X13.483 Y37.304 Z0 F600
G1 X13.503 Y37.168 Z0 F600
G1 X13.477 Y36.951 Z0 F600
; --- FIX X Backlash ---
G0 X12.777 Y36.951 F410
G1 X12.717 Y36.683 Z0 F600
G1 X12.637 Y36.394 Z0 F600
G1 X12.551 Y36.116 Z0 F600
G1 X12.441 Y35.787 Z0 F600
G1 X12.394 Y35.654 Z0 F600
; --- FIX Y Backlash ---
G0 X12.394 Y36.154 F410
G1 X12.188 Y36.228 Z0 F600
G1 X11.971 Y36.311 Z0 F600
G1 X11.715 Y36.413 Z0 F600
G1 X11.446 Y36.527 Z0 F600
G1 X11.193 Y36.645 Z0 F600
G1 X10.982 Y36.761 Z0 F600
G1 X10.841 Y36.866 Z0 F600
G1 X10.772 Y36.991 Z0 F600
G1 X10.753 Y37.164 Z0 F600
G1 X10.773 Y37.37 Z0 F600
G1 X10.82 Y37.598 Z0 F600
; --- FIX X Backlash ---
G0 X11.52 Y37.598 F410
G1 X11.767 Y38.452 Z0 F600
G1 X11.814 Y38.584 Z0 F600
G1 X11.878 Y38.674 Z0 F600
G1 X11.952 Y38.734 Z0 F600
G1 X12.026 Y38.775 Z0 F600
G1 X12.095 Y38.811 Z0 F600
G1 X12.15 Y38.852 Z0 F600
G1 X12.183 Y38.912 Z0 F600
G1 X12.188 Y39.002 Z0 F600
G1 X12.163 Y39.148 Z0 F600
G1 X12.114 Y39.358 Z0 F600
; --- FIX X Backlash ---
G0 X11.414 Y39.358 F410
G1 X11.346 Y39.617 Z0 F600
G1 X11.261 Y39.908 Z0 F600
G1 X11.06 Y40.532 Z0 F600
G1 X10.841 Y41.106 Z0 F600
G1 X10.727 Y41.345 Z0 F600
G1 X10.609 Y41.552 Z0 F600
G1 X10.489 Y41.731 Z0 F600
G1 X10.371 Y41.883 Z0 F600
G1 X10.158 Y42.117 Z0 F600
G1 X9.999 Y42.271 Z0 F600
G1 X9.554 Y42.85 Z0 F600
G1 X9.06 Y43.501 Z0 F600
G1 X8.909 Y43.744 Z0 F600
G1 X8.797 Y44.056 Z0 F600
G1 X8.728 Y44.398 Z0 F600
G1 X8.704 Y44.731 Z0 F600
G1 X8.738 Y45.093 Z0 F600
; --- FIX X Backlash ---
G0 X9.438 Y45.093 F410
G1 X9.505 Y45.512 Z0 F600
G1 X9.554 Y45.938 Z0 F600
G1 X9.534 Y46.317 Z0 F600
G1 X9.488 Y46.756 Z0 F600
G1 X9.481 Y47.28 Z0 F600
G1 X9.486 Y47.521 Z0 F600
G1 X9.501 Y47.904 Z0 F600
;Layer C3 Pass 2 of 2
; --- FIX Y Backlash ---
G0 X9.501 Y47.404 F410
G1 X9.486 Y47.021 Z0 F600
G1 X9.481 Y46.78 Z0 F600
G1 X9.488 Y46.256 Z0 F600
G1 X9.534 Y45.817 Z0 F600
G1 X9.554 Y45.438 Z0 F600
G1 X9.505 Y45.012 Z0 F600
; --- FIX X Backlash ---
G0 X8.805 Y45.012 F410
G1 X8.738 Y44.593 Z0 F600
G1 X8.704 Y44.231 Z0 F600
G1 X8.728 Y43.898 Z0 F600
; --- FIX X Backlash ---
G0 X9.428 Y43.898 F410
G1 X9.497 Y43.556 Z0 F600
G1 X9.609 Y43.244 Z0 F600
G1 X9.76 Y43.001 Z0 F600
G1 X10.254 Y42.35 Z0 F600
G1 X10.699 Y41.771 Z0 F600
G1 X10.858 Y41.617 Z0 F600
G1 X11.071 Y41.383 Z0 F600
G1 X11.189 Y41.231 Z0 F600
G1 X11.309 Y41.052 Z0 F600
G1 X11.427 Y40.845 Z0 F600
G1 X11.541 Y40.606 Z0 F600
G1 X11.76 Y40.032 Z0 F600
G1 X11.961 Y39.408 Z0 F600
G1 X12.046 Y39.117 Z0 F600
G1 X12.114 Y38.858 Z0 F600
G1 X12.163 Y38.648 Z0 F600
G1 X12.188 Y38.502 Z0 F600
G1 X12.183 Y38.412 Z0 F600
G1 X12.15 Y38.352 Z0 F600
; --- FIX X Backlash ---
G0 X11.45 Y38.352 F410
G1 X11.395 Y38.311 Z0 F600
G1 X11.326 Y38.275 Z0 F600
G1 X11.252 Y38.234 Z0 F600
G1 X11.178 Y38.174 Z0 F600
G1 X11.114 Y38.084 Z0 F600
G1 X11.067 Y37.952 Z0 F600
G1 X10.82 Y37.098 Z0 F600
G1 X10.773 Y36.87 Z0 F600
G1 X10.753 Y36.664 Z0 F600
G1 X10.772 Y36.491 Z0 F600
; --- FIX X Backlash ---
G0 X11.472 Y36.491 F410
G1 X11.541 Y36.366 Z0 F600
G1 X11.682 Y36.261 Z0 F600
G1 X11.893 Y36.145 Z0 F600
G1 X12.146 Y36.027 Z0 F600
G1 X12.415 Y35.913 Z0 F600
G1 X12.671 Y35.811 Z0 F600
G1 X12.888 Y35.728 Z0 F600
G1 X13.094 Y35.654 Z0 F600
; --- FIX Y Backlash ---
G0 X13.094 Y36.154 F410
G1 X13.141 Y36.287 Z0 F600
G1 X13.251 Y36.616 Z0 F600
G1 X13.337 Y36.894 Z0 F600
G1 X13.417 Y37.183 Z0 F600
G1 X13.477 Y37.451 Z0 F600
G1 X13.503 Y37.668 Z0 F600
G1 X13.483 Y37.804 Z0 F600
; --- FIX X Backlash ---
G0 X12.783 Y37.804 F410
G1 X12.707 Y37.913 Z0 F600
G1 X12.592 Y38.053 Z0 F600
G1 X12.454 Y38.208 Z0 F600
G1 X12.308 Y38.365 Z0 F600
G1 X12.226 Y38.378 Z0 F600
; --- FIX Y Backlash ---
G0 X12.226 Y37.878 F410
G1 X12.12 Y37.796 Z0 F600
G1 X12.001 Y37.648 Z0 F600
G1 X11.88 Y37.461 Z0 F600
G1 X11.767 Y37.266 Z0 F600
G1 X11.673 Y37.091 Z0 F600
G1 X11.585 Y36.916 Z0 F600
G0 Z3.5 F600
; --- FIX Y Backlash ---
G0 X11.585 Y37.416 F410
G0 X6.697 Y47.871 Z3.5
G1 Z0 F600
;Layer C3 Pass 1 of 2
; --- FIX Y Backlash ---
G0 X6.697 Y47.371 F410
G1 X6.653 Y46.348 Z0 F600
G1 X6.639 Y45.95 Z0 F600
G1 X6.629 Y45.582 Z0 F600
G1 X6.626 Y45.286 Z0 F600
G1 Y45.179 Z0 F600
G1 X6.633 Y45.105 Z0 F600
; --- FIX X Backlash ---
G0 X7.333 Y45.105 F410
G1 X7.396 Y44.556 Z0 F600
G1 X7.422 Y44.312 Z0 F600
G1 X7.46 Y43.822 Z0 F600
G1 Y43.422 Z0 F600
G1 X7.443 Y43.223 Z0 F600
G1 X7.413 Y42.961 Z0 F600
; --- FIX X Backlash ---
G0 X6.713 Y42.961 F410
G1 X6.637 Y42.358 Z0 F600
G1 X6.535 Y41.609 Z0 F600
G1 X6.492 Y41.431 Z0 F600
G1 X6.45 Y41.248 Z0 F600
G1 X6.406 Y41.035 Z0 F600
G1 X6.368 Y40.819 Z0 F600
G1 X6.344 Y40.626 Z0 F600
G1 Y40.482 Z0 F600
G1 X6.374 Y40.412 Z0 F600
; --- FIX X Backlash ---
G0 X7.074 Y40.412 F410
G1 X7.235 Y40.378 Z0 F600
G1 X7.49 Y40.359 Z0 F600
G1 X7.788 Y40.334 Z0 F600
G1 X8.077 Y40.282 Z0 F600
G1 X8.399 Y40.162 Z0 F600
G1 X8.761 Y39.975 Z0 F600
G1 X8.923 Y39.87 Z0 F600
G1 X9.056 Y39.763 Z0 F600
G1 X9.145 Y39.662 Z0 F600
G1 X9.178 Y39.57 Z0 F600
G1 X9.188 Y39.463 Z0 F600
G1 X9.215 Y39.319 Z0 F600
G1 X9.249 Y39.15 Z0 F600
G1 X9.283 Y38.967 Z0 F600
G1 X9.307 Y38.783 Z0 F600
G1 X9.314 Y38.61 Z0 F600
G1 X9.295 Y38.458 Z0 F600
; --- FIX X Backlash ---
G0 X8.595 Y38.458 F410
G1 X8.542 Y38.34 Z0 F600
G1 X8.438 Y38.245 Z0 F600
G1 X8.281 Y38.156 Z0 F600
G1 X8.092 Y38.076 Z0 F600
G1 X7.887 Y38.008 Z0 F600
G1 X7.685 Y37.956 Z0 F600
G1 X7.505 Y37.921 Z0 F600
G1 X7.363 Y37.908 Z0 F600
G1 X7.28 Y37.919 Z0 F600
; --- FIX Y Backlash ---
G0 X7.28 Y38.419 F410
G1 X6.92 Y38.634 Z0 F600
G1 X6.535 Y38.873 Z0 F600
G1 X6.446 Y38.942 Z0 F600
G1 X6.31 Y39.065 Z0 F600
G1 X6.147 Y39.222 Z0 F600
G1 X5.973 Y39.395 Z0 F600
G1 X5.666 Y39.706 Z0 F600
G1 X5.532 Y39.844 Z0 F600
; --- FIX X Backlash ---
G0 X6.232 Y39.844 F410
G1 X6.371 Y39.889 Z0 F600
G1 X6.685 Y39.985 Z0 F600
G1 X6.861 Y40.035 Z0 F600
G1 X7.024 Y40.076 Z0 F600
G1 X7.155 Y40.101 Z0 F600
G1 X7.235 Z0 F600
G1 X7.305 Y40.071 Z0 F600
; --- FIX Y Backlash ---
G0 X7.305 Y39.571 F410
G1 X7.406 Y39.508 Z0 F600
G1 X7.528 Y39.424 Z0 F600
G1 X7.656 Y39.331 Z0 F600
G1 X7.882 Y39.161 Z0 F600
G1 X7.98 Y39.085 Z0 F600
G1 X8.271 Y38.793 Z0 F600
;Layer C3 Pass 2 of 2
; --- FIX X Backlash ---
G0 X7.571 Y38.793 F410
; --- FIX Y Backlash ---
G0 X7.571 Y39.293 F410
G1 X7.28 Y39.585 Z0 F600
G1 X7.182 Y39.661 Z0 F600
G1 X6.956 Y39.831 Z0 F600
G1 X6.828 Y39.924 Z0 F600
G1 X6.706 Y40.008 Z0 F600
G1 X6.605 Y40.071 Z0 F600
G1 X6.535 Y40.103 Z0 F600
G1 X6.455 Z0 F600
G1 X6.324 Y40.076 Z0 F600
G1 X6.161 Y40.035 Z0 F600
G1 X5.985 Y39.985 Z0 F600
; --- FIX Y Backlash ---
G0 X5.985 Y39.485 F410
G1 X5.671 Y39.389 Z0 F600
G1 X5.532 Y39.344 Z0 F600
; --- FIX X Backlash ---
G0 X6.232 Y39.344 F410
G1 X6.366 Y39.206 Z0 F600
G1 X6.673 Y38.895 Z0 F600
G1 X6.847 Y38.722 Z0 F600
G1 X7.01 Y38.565 Z0 F600
G1 X7.146 Y38.442 Z0 F600
G1 X7.235 Y38.373 Z0 F600
G1 X7.62 Y38.134 Z0 F600
G1 X7.98 Y37.919 Z0 F600
G1 X8.063 Y37.908 Z0 F600
G1 X8.205 Y37.921 Z0 F600
G1 X8.385 Y37.956 Z0 F600
; --- FIX Y Backlash ---
G0 X8.385 Y38.456 F410
G1 X8.587 Y38.508 Z0 F600
G1 X8.792 Y38.576 Z0 F600
G1 X8.981 Y38.656 Z0 F600
G1 X9.138 Y38.745 Z0 F600
G1 X9.242 Y38.84 Z0 F600
G1 X9.295 Y38.958 Z0 F600
G1 X9.314 Y39.11 Z0 F600
G1 X9.307 Y39.283 Z0 F600
G1 X9.283 Y39.467 Z0 F600
G1 X9.249 Y39.65 Z0 F600
G1 X9.215 Y39.819 Z0 F600
G1 X9.188 Y39.963 Z0 F600
G1 X9.178 Y40.07 Z0 F600
G1 X9.145 Y40.162 Z0 F600
; --- FIX X Backlash ---
G0 X8.445 Y40.162 F410
G1 X8.356 Y40.263 Z0 F600
G1 X8.223 Y40.37 Z0 F600
G1 X8.061 Y40.475 Z0 F600
G1 X7.699 Y40.662 Z0 F600
G1 X7.377 Y40.782 Z0 F600
G1 X7.088 Y40.834 Z0 F600
G1 X6.79 Y40.859 Z0 F600
G1 X6.535 Y40.878 Z0 F600
G1 X6.374 Y40.912 Z0 F600
G1 X6.343 Y40.982 Z0 F600
G1 Y41.126 Z0 F600
G1 X6.368 Y41.319 Z0 F600
G1 X6.406 Y41.535 Z0 F600
G1 X6.45 Y41.748 Z0 F600
G1 X6.492 Y41.931 Z0 F600
G1 X6.535 Y42.109 Z0 F600
; --- FIX X Backlash ---
G0 X7.235 Y42.109 F410
G1 X7.337 Y42.858 Z0 F600
G1 X7.413 Y43.461 Z0 F600
G1 X7.443 Y43.723 Z0 F600
G1 X7.462 Y43.922 Z0 F600
G1 Y44.322 Z0 F600
G1 X7.422 Y44.812 Z0 F600
G1 X7.396 Y45.056 Z0 F600
; --- FIX X Backlash ---
G0 X6.696 Y45.056 F410
G1 X6.633 Y45.605 Z0 F600
G1 X6.628 Y45.679 Z0 F600
G1 Y45.786 Z0 F600
G1 Y46.082 Z0 F600
G1 X6.639 Y46.45 Z0 F600
G1 X6.653 Y46.848 Z0 F600
G1 X6.697 Y47.871 Z0 F600
G0 Z3.5 F600
; --- FIX X Backlash ---
G0 X7.397 Y47.871 F410
; --- FIX Y Backlash ---
G0 X7.397 Y47.371 F410
G0 X13.463 Y29.626 Z3.5
G1 Z0 F600
;Layer C3 Pass 1 of 2
; --- FIX X Backlash ---
G0 X12.763 Y29.626 F410
G1 X12.362 Y26.561 Z0 F600
; --- FIX Y Backlash ---
G0 X12.362 Y27.061 F410
G1 X12.118 Y27.446 Z0 F600
G1 X12.127 Y30.989 Z0 F600
G1 X11.65 Y31.222 Z0 F600
; --- FIX Y Backlash ---
G0 X11.65 Y30.722 F410
G1 X11.575 Y29.082 Z0 F600
G1 X11.552 Y27.358 Z0 F600
G1 X11.14 Y26.077 Z0 F600
; --- FIX Y Backlash ---
G0 X11.14 Y26.577 F410
G1 X10.819 Y30.285 Z0 F600
; --- FIX X Backlash ---
G0 X11.519 Y30.285 F410
G1 X11.657 Y33.077 Z0 F600
G1 X12.435 Y33.123 Z0 F600
; --- FIX Y Backlash ---
G0 X12.435 Y32.623 F410
G1 X13.076 Y31.661 Z0 F600
G1 X14.266 Y30.197 Z0 F600
G1 X15.914 Y29.739 Z0 F600
; --- FIX Y Backlash ---
G0 X15.914 Y30.239 F410
G1 X17.928 Y30.376 Z0 F600
; --- FIX Y Backlash ---
G0 X17.928 Y29.876 F410
G1 X19.118 Y29.052 Z0 F600
; --- FIX Y Backlash ---
G0 X19.118 Y29.552 F410
G1 Y34.267 Z0 F600
; --- FIX Y Backlash ---
G0 X19.118 Y33.767 F410
G1 X19.805 Y33.538 Z0 F600
; --- FIX X Backlash ---
G0 X19.105 Y33.538 F410
G1 X18.739 Y29.968 Z0 F600
; --- FIX X Backlash ---
G0 X19.439 Y29.968 F410
G1 X19.713 Y28.411 Z0 F600
; --- FIX X Backlash ---
G0 X19.013 Y28.411 F410
G1 X18.693 Y27.313 Z0 F600
G1 X18.647 Y27.13 Z0 F600
; --- FIX X Backlash ---
G0 X19.347 Y27.13 F410
G1 X19.622 Y26.031 Z0 F600
; --- FIX X Backlash ---
G0 X18.922 Y26.031 F410
G1 X18.784 Y24.52 Z0 F600
G1 Y19.21 Z0 F600
;Layer C3 Pass 2 of 2
; --- FIX Y Backlash ---
G0 X18.784 Y19.71 F410
G1 Y25.02 Z0 F600
; --- FIX X Backlash ---
G0 X19.484 Y25.02 F410
G1 X19.622 Y26.531 Z0 F600
; --- FIX X Backlash ---
G0 X18.922 Y26.531 F410
G1 X18.647 Y27.63 Z0 F600
G1 X18.693 Y27.813 Z0 F600
; --- FIX X Backlash ---
G0 X19.393 Y27.813 F410
G1 X19.713 Y28.911 Z0 F600
; --- FIX X Backlash ---
G0 X19.013 Y28.911 F410
G1 X18.739 Y30.468 Z0 F600
; --- FIX X Backlash ---
G0 X19.439 Y30.468 F410
G1 X19.805 Y34.038 Z0 F600
; --- FIX X Backlash ---
G0 X19.105 Y34.038 F410
G1 X18.418 Y34.267 Z0 F600
; --- FIX Y Backlash ---
G0 X18.418 Y33.767 F410
G1 Y29.052 Z0 F600
; --- FIX Y Backlash ---
G0 X18.418 Y29.552 F410
G1 X17.228 Y30.376 Z0 F600
; --- FIX Y Backlash ---
G0 X17.228 Y29.876 F410
G1 X15.214 Y29.739 Z0 F600
; --- FIX Y Backlash ---
G0 X15.214 Y30.239 F410
G1 X13.566 Y30.697 Z0 F600
G1 X12.376 Y32.161 Z0 F600
G1 X11.735 Y33.123 Z0 F600
G1 X10.957 Y33.077 Z0 F600
; --- FIX Y Backlash ---
G0 X10.957 Y32.577 F410
G1 X10.819 Y29.785 Z0 F600
; --- FIX X Backlash ---
G0 X11.519 Y29.785 F410
G1 X11.84 Y26.077 Z0 F600
; --- FIX Y Backlash ---
G0 X11.84 Y26.577 F410
G1 X12.252 Y27.858 Z0 F600
G1 X12.275 Y29.582 Z0 F600
G1 X12.35 Y31.222 Z0 F600
; --- FIX Y Backlash ---
G0 X12.35 Y30.722 F410
G1 X12.827 Y30.489 Z0 F600
G1 X12.818 Y26.946 Z0 F600
G1 X13.062 Y26.561 Z0 F600
; --- FIX Y Backlash ---
G0 X13.062 Y27.061 F410
G1 X13.463 Y30.126 Z0 F600
G0 Z3.5 F600
; --- FIX Y Backlash ---
G0 X13.463 Y29.626 F410
G0 X27.221 Y29.19 Z3.5
G1 Z0 F600
;Layer C3 Pass 1 of 2
; --- FIX Y Backlash ---
G0 X27.221 Y29.69 F410
G1 X27.358 Y32.894 Z0 F600
; --- FIX X Backlash ---
G0 X26.658 Y32.894 F410
G1 X26.383 Y34.771 Z0 F600
; --- FIX X Backlash ---
G0 X27.083 Y34.771 F410
G1 X27.495 Y36.007 Z0 F600
G1 X27.707 Y36.63 Z0 F600
G1 X27.837 Y37.03 Z0 F600
G1 X28.024 Y37.667 Z0 F600
G1 X28.36 Y38.753 Z0 F600
G1 X28.471 Y39.128 Z0 F600
G1 X28.56 Y39.455 Z0 F600
G1 X28.592 Y39.59 Z0 F600
G1 X28.615 Y39.701 Z0 F600
G1 X28.625 Y39.784 Z0 F600
G1 X28.622 Y39.834 Z0 F600
; --- FIX X Backlash ---
G0 X27.922 Y39.834 F410
G1 X27.436 Y41.363 Z0 F600
G1 X25.971 Y41.5 Z0 F600
; --- FIX Y Backlash ---
G0 X25.971 Y41 F410
G1 X25.841 Y40.89 Z0 F600
G1 X25.525 Y40.615 Z0 F600
G1 X25.266 Y40.38 Z0 F600
G1 X25.008 Y40.132 Z0 F600
G1 X24.782 Y39.895 Z0 F600
G1 X24.692 Y39.789 Z0 F600
G1 X24.622 Y39.694 Z0 F600
G1 X24.577 Y39.615 Z0 F600
G1 X24.562 Y39.553 Z0 F600
G1 Y39.457 Z0 F600
G1 X24.565 Y39.293 Z0 F600
G1 X24.575 Y39.083 Z0 F600
G1 X24.598 Y38.852 Z0 F600
G1 X24.637 Y38.624 Z0 F600
; --- FIX X Backlash ---
G0 X25.337 Y38.624 F410
G1 X25.398 Y38.423 Z0 F600
G1 X25.484 Y38.272 Z0 F600
G1 X25.6 Y38.197 Z0 F600
G1 X26.219 Y38.067 Z0 F600
G1 X26.722 Y37.958 Z0 F600
G1 X26.934 Y37.908 Z0 F600
G1 X27.091 Y37.865 Z0 F600
G1 X27.17 Y37.834 Z0 F600
G1 X27.206 Y37.847 Z0 F600
; --- FIX Y Backlash ---
G0 X27.206 Y38.347 F410
G1 X27.235 Y38.435 Z0 F600
G1 X27.258 Y38.587 Z0 F600
G1 X27.276 Y38.791 Z0 F600
G1 X27.298 Y39.304 Z0 F600
G1 X27.307 Y39.876 Z0 F600
G1 X27.297 Y39.973 Z0 F600
G1 X27.268 Y40.049 Z0 F600
G1 X27.221 Y40.106 Z0 F600
; --- FIX X Backlash ---
G0 X26.521 Y40.106 F410
G1 X26.461 Y40.146 Z0 F600
G1 X26.31 Y40.182 Z0 F600
G1 X26.136 Y40.174 Z0 F600
G1 X25.962 Y40.139 Z0 F600
G1 X25.811 Y40.093 Z0 F600
G1 X25.703 Y40.054 Z0 F600
G1 X25.662 Y40.037 Z0 F600
;Layer C3 Pass 2 of 2
G1 X25.703 Y40.054 Z0 F600
; --- FIX X Backlash ---
G0 X26.403 Y40.054 F410
G1 X26.511 Y40.093 Z0 F600
G1 X26.662 Y40.139 Z0 F600
G1 X26.836 Y40.174 Z0 F600
G1 X27.01 Y40.182 Z0 F600
G1 X27.161 Y40.146 Z0 F600
G1 X27.221 Y40.106 Z0 F600
; --- FIX Y Backlash ---
G0 X27.221 Y39.606 F410
G1 X27.268 Y39.549 Z0 F600
G1 X27.297 Y39.473 Z0 F600
G1 X27.307 Y39.376 Z0 F600
G1 X27.298 Y38.804 Z0 F600
G1 X27.276 Y38.291 Z0 F600
G1 X27.258 Y38.087 Z0 F600
G1 X27.235 Y37.935 Z0 F600
G1 X27.206 Y37.847 Z0 F600
G1 X27.17 Y37.834 Z0 F600
; --- FIX X Backlash ---
G0 X26.47 Y37.834 F410
G1 X26.391 Y37.865 Z0 F600
G1 X26.234 Y37.908 Z0 F600
G1 X26.022 Y37.958 Z0 F600
; --- FIX Y Backlash ---
G0 X26.022 Y38.458 F410
G1 X25.519 Y38.567 Z0 F600
G1 X24.9 Y38.697 Z0 F600
G1 X24.784 Y38.772 Z0 F600
G1 X24.698 Y38.923 Z0 F600
G1 X24.637 Y39.124 Z0 F600
G1 X24.598 Y39.352 Z0 F600
G1 X24.575 Y39.583 Z0 F600
G1 X24.565 Y39.793 Z0 F600
G1 X24.562 Y39.957 Z0 F600
G1 Y40.053 Z0 F600
G1 X24.577 Y40.115 Z0 F600
G1 X24.622 Y40.194 Z0 F600
; --- FIX X Backlash ---
G0 X25.322 Y40.194 F410
G1 X25.392 Y40.289 Z0 F600
G1 X25.482 Y40.395 Z0 F600
G1 X25.708 Y40.632 Z0 F600
G1 X25.966 Y40.88 Z0 F600
G1 X26.225 Y41.115 Z0 F600
G1 X26.541 Y41.39 Z0 F600
G1 X26.671 Y41.5 Z0 F600
; --- FIX Y Backlash ---
G0 X26.671 Y41 F410
G1 X28.136 Y40.863 Z0 F600
G1 X28.622 Y39.334 Z0 F600
G1 X28.625 Y39.284 Z0 F600
G1 X28.615 Y39.201 Z0 F600
G1 X28.592 Y39.09 Z0 F600
G1 X28.56 Y38.955 Z0 F600
; --- FIX X Backlash ---
G0 X27.86 Y38.955 F410
G1 X27.771 Y38.628 Z0 F600
G1 X27.66 Y38.253 Z0 F600
G1 X27.324 Y37.167 Z0 F600
G1 X27.137 Y36.53 Z0 F600
G1 X27.007 Y36.13 Z0 F600
G1 X26.795 Y35.507 Z0 F600
G1 X26.383 Y34.271 Z0 F600
; --- FIX X Backlash ---
G0 X27.083 Y34.271 F410
G1 X27.358 Y32.394 Z0 F600
; --- FIX X Backlash ---
G0 X26.658 Y32.394 F410
G1 X26.521 Y29.19 Z0 F600
G0 Z3.5 F600
; --- FIX X Backlash ---
G0 X27.221 Y29.19 F410
; --- FIX Y Backlash ---
G0 X27.221 Y29.69 F410
G0 X29.967 Y35.045 Z3.5
G1 Z0 F600
;Layer C3 Pass 1 of 2
; --- FIX X Backlash ---
G0 X29.267 Y35.045 F410
; --- FIX Y Backlash ---
G0 X29.267 Y34.545 F410
G1 X29.084 Y33.905 Z0 F600
G1 X28.855 Y30.013 Z0 F600
;Layer C3 Pass 2 of 2
; --- FIX X Backlash ---
G0 X29.555 Y30.013 F410
; --- FIX Y Backlash ---
G0 X29.555 Y30.513 F410
G1 X29.784 Y34.405 Z0 F600
G1 X29.967 Y35.045 Z0 F600
G0 Z3.5 F600
; --- FIX Y Backlash ---
G0 X29.967 Y34.545 F410
G0 X32.394 Y30.105 Z3.5
G1 Z0 F600
;Layer C3 Pass 1 of 2
; --- FIX X Backlash ---
G0 X31.694 Y30.105 F410
; --- FIX Y Backlash ---
G0 X31.694 Y30.605 F410
G1 X31.465 Y33.26 Z0 F600
; --- FIX X Backlash ---
G0 X32.165 Y33.26 F410
G1 X32.302 Y34.862 Z0 F600
;Layer C3 Pass 2 of 2
; --- FIX X Backlash ---
G0 X31.602 Y34.862 F410
; --- FIX Y Backlash ---
G0 X31.602 Y34.362 F410
G1 X31.465 Y32.76 Z0 F600
; --- FIX X Backlash ---
G0 X32.165 Y32.76 F410
G1 X32.394 Y30.105 Z0 F600
G0 Z3.5 F600
; --- FIX Y Backlash ---
G0 X32.394 Y30.605 F410
G0 X34.682 Y35.045 Z3.5
G1 Z0 F600
;Layer C3 Pass 1 of 2
; --- FIX Y Backlash ---
G0 X34.682 Y34.545 F410
G1 X34.741 Y34.205 Z0 F600
G1 X34.877 Y33.435 Z0 F600
G1 X34.955 Y33.008 Z0 F600
G1 X35.03 Y32.614 Z0 F600
G1 X35.094 Y32.302 Z0 F600
G1 X35.12 Y32.192 Z0 F600
G1 X35.14 Y32.119 Z0 F600
G1 X35.156 Y32.05 Z0 F600
G1 X35.168 Y31.948 Z0 F600
G1 X35.178 Y31.819 Z0 F600
G1 X35.186 Y31.667 Z0 F600
G1 X35.195 Y31.318 Z0 F600
G1 Y30.94 Z0 F600
G1 Y30.576 Z0 F600
G1 X35.186 Y29.968 Z0 F600
;Layer C3 Pass 2 of 2
; --- FIX Y Backlash ---
G0 X35.186 Y30.468 F410
G1 X35.196 Y31.076 Z0 F600
G1 Y31.44 Z0 F600
G1 Y31.818 Z0 F600
G1 X35.186 Y32.167 Z0 F600
G1 X35.178 Y32.319 Z0 F600
G1 X35.168 Y32.448 Z0 F600
G1 X35.156 Y32.55 Z0 F600
G1 X35.14 Y32.619 Z0 F600
G1 X35.12 Y32.692 Z0 F600
G1 X35.094 Y32.802 Z0 F600
; --- FIX X Backlash ---
G0 X34.394 Y32.802 F410
G1 X34.33 Y33.114 Z0 F600
G1 X34.255 Y33.508 Z0 F600
G1 X34.177 Y33.935 Z0 F600
G1 X34.041 Y34.705 Z0 F600
G1 X33.982 Y35.045 Z0 F600
G0 Z3.5 F600
; --- FIX X Backlash ---
G0 X34.682 Y35.045 F410
G0 X37.63 Y41.009 Z3.5
G1 Z0 F600
;Layer C3 Pass 1 of 2
; --- FIX Y Backlash ---
G0 X37.63 Y40.509 F410
G1 X37.902 Y40.172 Z0 F600
G1 X38.152 Y39.777 Z0 F600
G1 X38.255 Y39.596 Z0 F600
G1 X38.336 Y39.448 Z0 F600
G1 X38.407 Y39.311 Z0 F600
; --- FIX X Backlash ---
G0 X37.707 Y39.311 F410
G1 X37.577 Y38.243 Z0 F600
G1 X37.447 Y38.171 Z0 F600
G1 X37.321 Y38.095 Z0 F600
G1 X37.189 Y38.004 Z0 F600
G1 X37.075 Y37.91 Z0 F600
G1 X37.004 Y37.82 Z0 F600
G1 X37.001 Y37.744 Z0 F600
; --- FIX X Backlash ---
G0 X37.701 Y37.744 F410
G1 X37.792 Y37.693 Z0 F600
G1 X37.969 Y37.666 Z0 F600
G1 X38.194 Y37.657 Z0 F600
G1 X38.444 Y37.66 Z0 F600
G1 X38.698 Y37.673 Z0 F600
G1 X38.934 Y37.689 Z0 F600
G1 X39.13 Y37.707 Z0 F600
G1 X39.313 Y37.725 Z0 F600
; --- FIX Y Backlash ---
G0 X39.313 Y38.225 F410
G1 X39.532 Y38.451 Z0 F600
G1 X39.661 Y38.589 Z0 F600
G1 X39.794 Y38.737 Z0 F600
G1 X39.914 Y38.881 Z0 F600
G1 X40.007 Y39.006 Z0 F600
G1 X40.058 Y39.099 Z0 F600
G1 X40.113 Y39.26 Z0 F600
G1 X40.187 Y39.435 Z0 F600
G1 X40.285 Y39.604 Z0 F600
G1 X40.414 Y39.747 Z0 F600
G1 X40.521 Y39.786 Z0 F600
G1 X40.683 Y39.79 Z0 F600
G1 X40.878 Y39.766 Z0 F600
G1 X41.085 Y39.726 Z0 F600
G1 X41.284 Y39.679 Z0 F600
G1 X41.452 Y39.633 Z0 F600
G1 X41.611 Y39.585 Z0 F600
G1 X41.662 Y39.615 Z0 F600
G1 X41.745 Y39.702 Z0 F600
G1 X41.768 Y39.766 Z0 F600
G1 X41.762 Y39.844 Z0 F600
G1 X41.714 Y39.935 Z0 F600
; --- FIX X Backlash ---
G0 X41.014 Y39.935 F410
G1 X40.911 Y40.038 Z0 F600
G1 X40.625 Y40.291 Z0 F600
G1 X40.341 Y40.584 Z0 F600
G1 X40.22 Y40.731 Z0 F600
G1 X40.124 Y40.871 Z0 F600
G1 X40.06 Y40.998 Z0 F600
G1 X40.038 Y41.106 Z0 F600
G1 X40.011 Y41.342 Z0 F600
G1 X39.924 Y41.608 Z0 F600
G1 X39.854 Y41.728 Z0 F600
G1 X39.764 Y41.825 Z0 F600
G1 X39.653 Y41.891 Z0 F600
G1 X39.52 Y41.915 Z0 F600
G1 X39.153 Y41.875 Z0 F600
; --- FIX Y Backlash ---
G0 X39.153 Y41.375 F410
G1 X38.727 Y41.286 Z0 F600
G1 X38.532 Y41.238 Z0 F600
G1 X38.373 Y41.197 Z0 F600
G1 X38.225 Y41.156 Z0 F600
G1 X37.577 Y40.638 Z0 F600
; --- FIX X Backlash ---
G0 X38.277 Y40.638 F410
G1 X38.345 Y40.575 Z0 F600
G1 X38.504 Y40.42 Z0 F600
G1 X38.687 Y40.229 Z0 F600
G1 X38.828 Y40.056 Z0 F600
G1 X38.876 Y39.951 Z0 F600
G1 X38.923 Y39.797 Z0 F600
G1 X38.967 Y39.612 Z0 F600
G1 X39.006 Y39.416 Z0 F600
G1 X39.039 Y39.23 Z0 F600
G1 X39.064 Y39.073 Z0 F600
G1 X39.087 Y38.923 Z0 F600
; --- FIX Y Backlash ---
G0 X39.087 Y39.423 F410
G1 X39.637 Y40.167 Z0 F600
G1 X39.831 Y41.041 Z0 F600
; --- FIX X Backlash ---
G0 X39.131 Y41.041 F410
G1 X38.484 Y41.106 Z0 F600
; --- FIX Y Backlash ---
G0 X38.484 Y40.606 F410
G1 X38.419 Y40.509 Z0 F600
;Layer C3 Pass 2 of 2
; --- FIX X Backlash ---
G0 X39.119 Y40.509 F410
; --- FIX Y Backlash ---
G0 X39.119 Y41.009 F410
G1 X39.184 Y41.106 Z0 F600
; --- FIX Y Backlash ---
G0 X39.184 Y40.606 F410
G1 X39.831 Y40.541 Z0 F600
; --- FIX X Backlash ---
G0 X39.131 Y40.541 F410
G1 X38.937 Y39.667 Z0 F600
G1 X38.387 Y38.923 Z0 F600
; --- FIX Y Backlash ---
G0 X38.387 Y39.423 F410
G1 X38.364 Y39.573 Z0 F600
G1 X38.339 Y39.73 Z0 F600
G1 X38.306 Y39.916 Z0 F600
G1 X38.267 Y40.112 Z0 F600
G1 X38.223 Y40.297 Z0 F600
G1 X38.176 Y40.451 Z0 F600
G1 X38.128 Y40.556 Z0 F600
G1 X37.987 Y40.729 Z0 F600
G1 X37.804 Y40.92 Z0 F600
G1 X37.645 Y41.075 Z0 F600
G1 X37.577 Y41.138 Z0 F600
; --- FIX X Backlash ---
G0 X38.277 Y41.138 F410
G1 X38.925 Y41.656 Z0 F600
G1 X39.073 Y41.697 Z0 F600
G1 X39.232 Y41.738 Z0 F600
G1 X39.427 Y41.786 Z0 F600
G1 X39.853 Y41.875 Z0 F600
G1 X40.22 Y41.915 Z0 F600
G1 X40.353 Y41.891 Z0 F600
; --- FIX Y Backlash ---
G0 X40.353 Y41.391 F410
G1 X40.464 Y41.325 Z0 F600
G1 X40.554 Y41.228 Z0 F600
G1 X40.624 Y41.108 Z0 F600
G1 X40.711 Y40.842 Z0 F600
G1 X40.738 Y40.606 Z0 F600
G1 X40.76 Y40.498 Z0 F600
G1 X40.824 Y40.371 Z0 F600
G1 X40.92 Y40.231 Z0 F600
G1 X41.041 Y40.084 Z0 F600
G1 X41.325 Y39.791 Z0 F600
G1 X41.611 Y39.538 Z0 F600
G1 X41.714 Y39.435 Z0 F600
G1 X41.762 Y39.344 Z0 F600
G1 X41.768 Y39.266 Z0 F600
G1 X41.745 Y39.202 Z0 F600
; --- FIX X Backlash ---
G0 X41.045 Y39.202 F410
G1 X40.962 Y39.115 Z0 F600
G1 X40.911 Y39.085 Z0 F600
G1 X40.752 Y39.133 Z0 F600
G1 X40.584 Y39.179 Z0 F600
G1 X40.385 Y39.226 Z0 F600
G1 X40.178 Y39.266 Z0 F600
G1 X39.983 Y39.29 Z0 F600
G1 X39.821 Y39.286 Z0 F600
G1 X39.714 Y39.247 Z0 F600
G1 X39.585 Y39.104 Z0 F600
G1 X39.487 Y38.935 Z0 F600
G1 X39.413 Y38.76 Z0 F600
G1 X39.358 Y38.599 Z0 F600
G1 X39.307 Y38.506 Z0 F600
G1 X39.214 Y38.381 Z0 F600
G1 X39.094 Y38.237 Z0 F600
G1 X38.961 Y38.089 Z0 F600
G1 X38.832 Y37.951 Z0 F600
G1 X38.613 Y37.725 Z0 F600
G1 X38.43 Y37.707 Z0 F600
G1 X38.234 Y37.689 Z0 F600
G1 X37.998 Y37.673 Z0 F600
G1 X37.744 Y37.66 Z0 F600
G1 X37.494 Y37.657 Z0 F600
G1 X37.269 Y37.666 Z0 F600
G1 X37.092 Y37.693 Z0 F600
; --- FIX Y Backlash ---
G0 X37.092 Y38.193 F410
G1 X37.001 Y38.244 Z0 F600
G1 X37.004 Y38.32 Z0 F600
; --- FIX X Backlash ---
G0 X37.704 Y38.32 F410
G1 X37.775 Y38.41 Z0 F600
G1 X37.889 Y38.504 Z0 F600
G1 X38.021 Y38.595 Z0 F600
G1 X38.147 Y38.671 Z0 F600
G1 X38.277 Y38.743 Z0 F600
G1 X38.407 Y39.811 Z0 F600
; --- FIX X Backlash ---
G0 X37.707 Y39.811 F410
G1 X37.636 Y39.948 Z0 F600
G1 X37.555 Y40.096 Z0 F600
G1 X37.452 Y40.277 Z0 F600
G1 X37.202 Y40.672 Z0 F600
G1 X36.93 Y41.009 Z0 F600
;Offset @ 555 mm/min, 90% power

M8
G0 Z3.5 F600
G0 X21.524 Y42.136 Z3.5
G1 Z0 F600
;Layer C1 Pass 1 of 2
G1 X21.467 Y42.162 Z0 F600
G1 X21.343 Y42.145 Z0 F600
; --- FIX X Backlash ---
G0 X22.043 Y42.145 F410
G1 X22.124 Y42.131 Z0 F600
G1 X22.209 Y42.106 Z0 F600
G1 X22.298 Y42.084 Z0 F600
; --- FIX X Backlash ---
G0 X21.598 Y42.084 F410
G1 X21.524 Y42.136 Z0 F600
;Layer C1 Pass 2 of 2
G1 X21.467 Y42.162 Z0 F600
G1 X21.343 Y42.145 Z0 F600
; --- FIX X Backlash ---
G0 X22.043 Y42.145 F410
G1 X22.124 Y42.131 Z0 F600
G1 X22.209 Y42.106 Z0 F600
G1 X22.298 Y42.084 Z0 F600
; --- FIX X Backlash ---
G0 X21.598 Y42.084 F410
G1 X21.524 Y42.136 Z0 F600
G0 Z3.5 F600
G0 X17.629 Y44.657 Z3.5 F600
G1 Z0 F600
;Layer C1 Pass 1 of 2
G1 X17.571 Y44.664 Z0 F600
G1 X17.486 Y44.667 Z0 F600
G1 X17.415 Y44.676 Z0 F600
; --- FIX X Backlash ---
G0 X18.115 Y44.676 F410
G1 X18.214 Y44.653 Z0 F600
G1 X18.32 Y44.639 Z0 F600
G1 X18.329 Y44.657 Z0 F600
;Layer C1 Pass 2 of 2
; --- FIX X Backlash ---
G0 X17.629 Y44.657 F410
G1 X17.571 Y44.664 Z0 F600
G1 X17.486 Y44.667 Z0 F600
G1 X17.415 Y44.676 Z0 F600
; --- FIX X Backlash ---
G0 X18.115 Y44.676 F410
G1 X18.214 Y44.653 Z0 F600
G1 X18.32 Y44.639 Z0 F600
G1 X18.329 Y44.657 Z0 F600
G0 Z3.5 F600
; --- FIX Y Backlash ---
G0 X18.329 Y44.157 F410
G0 X35.779 Y23.717 Z3.5
G1 Z0 F600
;Layer C1 Pass 1 of 2
; --- FIX X Backlash ---
G0 X35.079 Y23.717 F410
G1 X34.977 Z0 F600
G1 X34.935 Y23.712 Z0 F600
G1 X34.939 Y23.709 Z0 F600
G1 X34.971 Y23.706 Z0 F600
; --- FIX X Backlash ---
G0 X35.671 Y23.706 F410
G1 X35.761 Z0 F600
G1 X35.779 Y23.717 Z0 F600
;Layer C1 Pass 2 of 2
; --- FIX X Backlash ---
G0 X35.079 Y23.717 F410
G1 X34.977 Z0 F600
G1 X34.935 Y23.712 Z0 F600
G1 X34.939 Y23.709 Z0 F600
G1 X34.971 Y23.706 Z0 F600
; --- FIX X Backlash ---
G0 X35.671 Y23.706 F410
G1 X35.761 Z0 F600
G1 X35.779 Y23.717 Z0 F600
G0 Z3.5 F600
G0 X38.021 Y19.994 Z3.5
G1 Z0 F600
;Layer C1 Pass 1 of 2
G1 X38.004 Y20.008 Z0 F600
G1 X37.984 Y20.021 Z0 F600
G1 X38.032 Y19.941 Z0 F600
G1 X38.072 Y19.855 Z0 F600
; --- FIX X Backlash ---
G0 X37.372 Y19.855 F410
; --- FIX Y Backlash ---
G0 X37.372 Y20.355 F410
G1 X37.321 Y20.494 Z0 F600
;Layer C1 Pass 2 of 2
G1 X37.304 Y20.508 Z0 F600
G1 X37.284 Y20.521 Z0 F600
; --- FIX Y Backlash ---
G0 X37.284 Y20.021 F410
G1 X37.332 Y19.941 Z0 F600
G1 X37.372 Y19.855 Z0 F600
; --- FIX Y Backlash ---
G0 X37.372 Y20.355 F410
G1 X37.321 Y20.494 Z0 F600
G0 Z3.5 F600
; --- FIX X Backlash ---
G0 X38.021 Y20.494 F410
G0 X42.608 Y26.353 Z3.5
G1 Z0 F600
;Layer C1 Pass 1 of 2
; --- FIX X Backlash ---
G0 X41.908 Y26.353 F410
; --- FIX Y Backlash ---
G0 X41.908 Y25.853 F410
G1 X41.678 Y25.517 Z0 F600
; --- FIX X Backlash ---
G0 X42.378 Y25.517 F410
G1 X42.504 Y24.999 Z0 F600
G1 X42.607 Y24.298 Z0 F600
; --- FIX Y Backlash ---
G0 X42.607 Y24.798 F410
G1 Y26.353 Z0 F600
G0 Z3.5 F600
G0 X42.57 Y27.183 Z3.5
G1 Z0 F600
; --- FIX X Backlash ---
G0 X41.87 Y27.183 F410
; --- FIX Y Backlash ---
G0 X41.87 Y26.683 F410
G1 X41.183 Y25.678 Z0 F600
G1 X41.136 Y25.63 Z0 F600
; --- FIX X Backlash ---
G0 X41.836 Y25.63 F410
G1 X42.013 Y24.903 Z0 F600
G1 X42.126 Y24.131 Z0 F600
G1 X42.174 Y23.28 Z0 F600
G1 X42.13 Y22.647 Z0 F600
G1 X42.715 Y21.646 Z0 F600
G1 X43.029 Y20.635 Z0 F600
G1 X43.111 Y19.925 Z0 F600
; --- FIX Y Backlash ---
G0 X43.111 Y20.425 F410
G1 X43.107 Y23.734 Z0 F600
G1 Y28.294 Z0 F600
; --- FIX Y Backlash ---
G0 X43.107 Y27.794 F410
G1 X43.078 Y27.701 Z0 F600
; --- FIX X Backlash ---
G0 X42.378 Y27.701 F410
G1 X41.87 Y26.683 Z0 F600
G0 Z3.5 F600
G0 X8.174 Y19.466 Z3.5
G1 Z0 F600
G1 X8.147 Y19.481 Z0 F600
G1 Y19.448 Z0 F600
G1 X8.174 Y19.466 Z0 F600
G0 Z3.5 F600
; --- FIX X Backlash ---
G0 X8.874 Y19.466 F410
; --- FIX Y Backlash ---
G0 X8.874 Y19.966 F410
G0 X9.575 Y20.145 Z3.5
G1 Z0 F600
; --- FIX X Backlash ---
G0 X8.875 Y20.145 F410
G1 X8.238 Y20.504 Z0 F600
G1 X7.765 Y20.758 Z0 F600
G1 X7.684 Y20.819 Z0 F600
G1 X7.649 Y20.808 Z0 F600
; --- FIX Y Backlash ---
G0 X7.649 Y20.308 F410
G1 X7.646 Y18.338 Z0 F600
; --- FIX X Backlash ---
G0 X8.346 Y18.338 F410
; --- FIX Y Backlash ---
G0 X8.346 Y18.838 F410
G1 X8.908 Y19.375 Z0 F600
G1 X9.555 Y19.841 Z0 F600
G1 X9.888 Y20.024 Z0 F600
; --- FIX X Backlash ---
G0 X9.188 Y20.024 F410
G1 X8.875 Y20.145 Z0 F600
G0 Z3.5 F600
G0 X7.149 Y21.172 Z3.5
G1 Z0 F600
; --- FIX Y Backlash ---
G0 X7.149 Y20.672 F410
G1 X7.143 Y16.851 Z0 F600
; --- FIX X Backlash ---
G0 X7.843 Y16.851 F410
; --- FIX Y Backlash ---
G0 X7.843 Y17.351 F410
G1 X7.968 Y17.57 Z0 F600
G1 X8.329 Y18.02 Z0 F600
G1 X8.651 Y18.438 Z0 F600
G1 X9.229 Y18.99 Z0 F600
G1 X9.822 Y19.417 Z0 F600
G1 X10.461 Y19.77 Z0 F600
G1 X10.671 Y19.85 Z0 F600
G1 X10.675 Y19.855 Z0 F600
G1 X11.046 Y20.167 Z0 F600
; --- FIX X Backlash ---
G0 X10.346 Y20.167 F410
G1 X9.952 Y20.266 Z0 F600
G1 X9.089 Y20.599 Z0 F600
G1 X8.485 Y20.939 Z0 F600
G1 X8.036 Y21.18 Z0 F600
G1 X7.779 Y21.375 Z0 F600
; --- FIX Y Backlash ---
G0 X7.779 Y20.875 F410
G1 X7.149 Y20.672 Z0 F600
G0 Z3.5 F600
; --- FIX X Backlash ---
G0 X7.849 Y20.672 F410
G0 X42.589 Y16.021 Z3.5
G1 Z0 F600
G1 X42.623 Y15.971 Z0 F600
G1 X43.035 Y15.186 Z0 F600
G1 X43.116 Y14.939 Z0 F600
; --- FIX Y Backlash ---
G0 X43.116 Y15.439 F410
G1 X43.111 Y19.827 Z0 F600
; --- FIX Y Backlash ---
G0 X43.111 Y19.327 F410
G1 X43.094 Y18.923 Z0 F600
; --- FIX X Backlash ---
G0 X42.394 Y18.923 F410
G1 X42.309 Y18.535 Z0 F600
G1 X42.273 Y18.169 Z0 F600
G1 X42.158 Y17.358 Z0 F600
G1 X42.013 Y16.579 Z0 F600
G1 X41.889 Y16.021 Z0 F600
G0 Z3.5 F600
G0 X41.679 Y8.36 Z3.5
G1 Z0 F600
G1 X41.639 Y8.052 Z0 F600
; --- FIX X Backlash ---
G0 X42.339 Y8.052 F410
G1 X43.119 Z0 F600
; --- FIX Y Backlash ---
G0 X43.119 Y8.552 F410
G1 Y10.868 Z0 F600
; --- FIX X Backlash ---
G0 X42.419 Y10.868 F410
; --- FIX Y Backlash ---
G0 X42.419 Y10.368 F410
G1 X42.066 Y9.302 Z0 F600
G1 X41.708 Y8.428 Z0 F600
G1 X41.679 Y8.36 Z0 F600
G0 Z3.5 F600
G0 X40.943 Y7.553 Z3.5
G1 Z0 F600
; --- FIX X Backlash ---
G0 X41.643 Y7.553 F410
G1 X43.62 Z0 F600
; --- FIX Y Backlash ---
G0 X43.62 Y8.053 F410
G1 Y14.205 Z0 F600
G1 X43.607 Y23.735 Z0 F600
G1 Y30.072 Z0 F600
; --- FIX X Backlash ---
G0 X42.907 Y30.072 F410
; --- FIX Y Backlash ---
G0 X42.907 Y29.572 F410
G1 X42.333 Y29.386 Z0 F600
G1 X42.241 Y29.365 Z0 F600
G1 X42.175 Y28.69 Z0 F600
G1 X41.914 Y27.892 Z0 F600
G1 X41.438 Y26.937 Z0 F600
G1 X40.793 Y25.994 Z0 F600
G1 X40.568 Y25.758 Z0 F600
; --- FIX X Backlash ---
G0 X41.268 Y25.758 F410
G1 X41.347 Y25.529 Z0 F600
G1 X41.522 Y24.808 Z0 F600
G1 X41.629 Y24.081 Z0 F600
G1 X41.673 Y23.283 Z0 F600
G1 X41.627 Y22.623 Z0 F600
G1 X41.596 Y22.494 Z0 F600
G1 X41.704 Y22.384 Z0 F600
G1 X42.255 Y21.443 Z0 F600
G1 X42.538 Y20.532 Z0 F600
G1 X42.628 Y19.739 Z0 F600
G1 X42.596 Y18.988 Z0 F600
; --- FIX X Backlash ---
G0 X41.896 Y18.988 F410
G1 X41.813 Y18.61 Z0 F600
G1 X41.777 Y18.229 Z0 F600
G1 X41.664 Y17.439 Z0 F600
G1 X41.523 Y16.678 Z0 F600
G1 X41.356 Y15.925 Z0 F600
; --- FIX X Backlash ---
G0 X42.056 Y15.925 F410
G1 X42.191 Y15.718 Z0 F600
G1 X42.573 Y14.991 Z0 F600
G1 X42.877 Y14.063 Z0 F600
G1 X42.994 Y13.347 Z0 F600
G1 X43.022 Y12.655 Z0 F600
; --- FIX X Backlash ---
G0 X42.322 Y12.655 F410
G1 X42.251 Y11.906 Z0 F600
G1 X42.153 Y11.51 Z0 F600
G1 X41.957 Y10.565 Z0 F600
G1 X41.596 Y9.476 Z0 F600
G1 X41.247 Y8.621 Z0 F600
G1 X41.193 Y8.494 Z0 F600
G1 X41.14 Y8.091 Z0 F600
G1 X40.943 Y7.553 Z0 F600
G0 Z3.5 F600
G0 X40.136 Y7.053 Z3.5
G1 Z0 F600
; --- FIX X Backlash ---
G0 X40.836 Y7.053 F410
G1 X44.12 Z0 F600
; --- FIX Y Backlash ---
G0 X44.12 Y7.553 F410
G1 Y14.205 Z0 F600
G1 X44.107 Y23.735 Z0 F600
G1 Y30.815 Z0 F600
; --- FIX X Backlash ---
G0 X43.407 Y30.815 F410
; --- FIX Y Backlash ---
G0 X43.407 Y30.315 F410
G1 X42.843 Y30.076 Z0 F600
G1 X42.2 Y29.868 Z0 F600
G1 X41.754 Y29.765 Z0 F600
G1 X41.767 Y29.653 Z0 F600
G1 X41.683 Y28.793 Z0 F600
G1 X41.45 Y28.082 Z0 F600
G1 X41.006 Y27.191 Z0 F600
G1 X40.403 Y26.31 Z0 F600
G1 X39.996 Y25.883 Z0 F600
; --- FIX X Backlash ---
G0 X40.696 Y25.883 F410
G1 X40.866 Y25.389 Z0 F600
G1 X41.031 Y24.712 Z0 F600
G1 X41.131 Y24.03 Z0 F600
G1 X41.172 Y23.287 Z0 F600
G1 X41.131 Y22.699 Z0 F600
; --- FIX X Backlash ---
G0 X40.431 Y22.699 F410
G1 X40.345 Y22.341 Z0 F600
; --- FIX X Backlash ---
G0 X41.045 Y22.341 F410
G1 X41.304 Y22.078 Z0 F600
G1 X41.794 Y21.24 Z0 F600
G1 X42.046 Y20.428 Z0 F600
G1 X42.127 Y19.721 Z0 F600
G1 X42.099 Y19.053 Z0 F600
; --- FIX X Backlash ---
G0 X41.399 Y19.053 F410
G1 X41.319 Y18.689 Z0 F600
G1 X41.28 Y18.288 Z0 F600
G1 X41.171 Y17.52 Z0 F600
G1 X41.033 Y16.778 Z0 F600
G1 X40.838 Y15.898 Z0 F600
G1 X40.816 Y15.837 Z0 F600
; --- FIX X Backlash ---
G0 X41.516 Y15.837 F410
G1 X41.759 Y15.464 Z0 F600
G1 X42.111 Y14.795 Z0 F600
G1 X42.39 Y13.945 Z0 F600
G1 X42.496 Y13.296 Z0 F600
G1 X42.521 Y12.669 Z0 F600
; --- FIX X Backlash ---
G0 X41.821 Y12.669 F410
G1 X41.757 Y11.99 Z0 F600
G1 X41.664 Y11.617 Z0 F600
G1 X41.473 Y10.695 Z0 F600
G1 X41.127 Y9.649 Z0 F600
G1 X40.786 Y8.813 Z0 F600
G1 X40.706 Y8.625 Z0 F600
G1 X40.651 Y8.211 Z0 F600
G1 X40.348 Y7.381 Z0 F600
G1 X40.136 Y7.053 Z0 F600
G0 Z3.5 F600
G0 X39.082 Y6.553 Z3.5
G1 Z0 F600
; --- FIX X Backlash ---
G0 X39.782 Y6.553 F410
G1 X44.62 Z0 F600
; --- FIX Y Backlash ---
G0 X44.62 Y7.053 F410
G1 Y14.206 Z0 F600
G1 X44.607 Y23.735 Z0 F600
G1 X44.61 Y31.652 Z0 F600
; --- FIX X Backlash ---
G0 X43.91 Y31.652 F410
G1 X43.843 Y31.607 Z0 F600
; --- FIX Y Backlash ---
G0 X43.843 Y31.107 F410
G1 X43.262 Y30.795 Z0 F600
G1 X42.669 Y30.545 Z0 F600
G1 X42.067 Y30.351 Z0 F600
G1 X41.458 Y30.21 Z0 F600
G1 X41.203 Y30.174 Z0 F600
; --- FIX X Backlash ---
G0 X41.903 Y30.174 F410
G1 X41.964 Y29.648 Z0 F600
; --- FIX X Backlash ---
G0 X41.264 Y29.648 F410
G1 X41.191 Y28.896 Z0 F600
G1 X40.987 Y28.272 Z0 F600
G1 X40.574 Y27.445 Z0 F600
G1 X40.013 Y26.625 Z0 F600
G1 X39.503 Y26.091 Z0 F600
G1 X39.406 Y26.015 Z0 F600
; --- FIX X Backlash ---
G0 X40.106 Y26.015 F410
G1 X40.173 Y25.868 Z0 F600
G1 X40.386 Y25.248 Z0 F600
G1 X40.539 Y24.617 Z0 F600
G1 X40.633 Y23.979 Z0 F600
G1 X40.671 Y23.29 Z0 F600
G1 X40.636 Y22.776 Z0 F600
; --- FIX X Backlash ---
G0 X39.936 Y22.776 F410
G1 X39.812 Y22.259 Z0 F600
G1 X39.787 Y22.196 Z0 F600
; --- FIX X Backlash ---
G0 X40.487 Y22.196 F410
G1 X40.904 Y21.772 Z0 F600
G1 X41.334 Y21.037 Z0 F600
G1 X41.555 Y20.325 Z0 F600
G1 X41.626 Y19.704 Z0 F600
G1 X41.601 Y19.118 Z0 F600
; --- FIX X Backlash ---
G0 X40.901 Y19.118 F410
G1 X40.824 Y18.768 Z0 F600
G1 X40.783 Y18.347 Z0 F600
G1 X40.677 Y17.601 Z0 F600
G1 X40.543 Y16.878 Z0 F600
G1 X40.356 Y16.038 Z0 F600
G1 X40.27 Y15.798 Z0 F600
; --- FIX X Backlash ---
G0 X40.97 Y15.798 F410
G1 X41.039 Y15.65 Z0 F600
G1 X41.087 Y15.58 Z0 F600
G1 X41.328 Y15.211 Z0 F600
G1 X41.649 Y14.599 Z0 F600
G1 X41.903 Y13.826 Z0 F600
G1 X41.998 Y13.246 Z0 F600
G1 X42.021 Y12.683 Z0 F600
; --- FIX X Backlash ---
G0 X41.321 Y12.683 F410
G1 X41.262 Y12.075 Z0 F600
G1 X41.178 Y11.734 Z0 F600
G1 X40.989 Y10.825 Z0 F600
G1 X40.658 Y9.822 Z0 F600
G1 X40.324 Y9.006 Z0 F600
G1 X40.219 Y8.76 Z0 F600
G1 X40.163 Y8.332 Z0 F600
G1 X39.897 Y7.606 Z0 F600
G1 X39.461 Y6.93 Z0 F600
G1 X39.082 Y6.553 Z0 F600
G0 Z3.5 F600
G0 X37.98 Y6.396 Z3.5
G1 Z0 F600
G1 X37.296 Y6.177 Z0 F600
G1 X36.69 Y6.136 Z0 F600
; --- FIX Y Backlash ---
G0 X36.69 Y6.636 F410
G1 X35.674 Y6.719 Z0 F600
G1 X34.878 Y6.813 Z0 F600
G1 X34.291 Y6.871 Z0 F600
G1 X33.797 Y6.88 Z0 F600
G1 X32.865 Y6.869 Z0 F600
G1 X32.094 Y6.855 Z0 F600
G1 X31.544 Y6.816 Z0 F600
; --- FIX Y Backlash ---
G0 X31.544 Y6.316 F410
G1 X31.238 Y6.12 Z0 F600
G1 X31.075 Y6.054 Z0 F600
; --- FIX X Backlash ---
G0 X31.775 Y6.054 F410
G1 X37.193 Z0 F600
G1 X45.12 Y6.051 Z0 F600
; --- FIX Y Backlash ---
G0 X45.12 Y6.551 F410
G1 Y14.206 Z0 F600
G1 X45.107 Y23.735 Z0 F600
G1 X45.11 Y32.635 Z0 F600
; --- FIX X Backlash ---
G0 X44.41 Y32.635 F410
; --- FIX Y Backlash ---
G0 X44.41 Y32.135 F410
G1 X44.105 Y31.883 Z0 F600
G1 X43.586 Y31.537 Z0 F600
G1 X43.047 Y31.247 Z0 F600
G1 X42.494 Y31.014 Z0 F600
G1 X41.934 Y30.833 Z0 F600
G1 X41.366 Y30.702 Z0 F600
G1 X40.797 Y30.62 Z0 F600
G1 X40.575 Y30.606 Z0 F600
; --- FIX X Backlash ---
G0 X41.275 Y30.606 F410
G1 X41.386 Y30.289 Z0 F600
G1 X41.461 Y29.644 Z0 F600
; --- FIX X Backlash ---
G0 X40.761 Y29.644 F410
G1 X40.698 Y29 Z0 F600
G1 X40.523 Y28.462 Z0 F600
G1 X40.142 Y27.699 Z0 F600
G1 X39.624 Y26.941 Z0 F600
G1 X39.166 Y26.462 Z0 F600
G1 X38.788 Y26.165 Z0 F600
; --- FIX X Backlash ---
G0 X39.488 Y26.165 F410
G1 X39.708 Y25.683 Z0 F600
G1 X39.905 Y25.107 Z0 F600
G1 X40.048 Y24.521 Z0 F600
G1 X40.135 Y23.929 Z0 F600
G1 X40.17 Y23.293 Z0 F600
G1 X40.14 Y22.852 Z0 F600
; --- FIX X Backlash ---
G0 X39.44 Y22.852 F410
G1 X39.333 Y22.409 Z0 F600
G1 X39.193 Y22.049 Z0 F600
; --- FIX X Backlash ---
G0 X39.893 Y22.049 F410
G1 X39.989 Y21.988 Z0 F600
G1 X40.504 Y21.465 Z0 F600
G1 X40.874 Y20.834 Z0 F600
G1 X41.063 Y20.221 Z0 F600
G1 X41.125 Y19.686 Z0 F600
G1 X41.103 Y19.182 Z0 F600
; --- FIX X Backlash ---
G0 X40.403 Y19.182 F410
G1 X40.329 Y18.845 Z0 F600
G1 X40.287 Y18.406 Z0 F600
G1 X40.184 Y17.682 Z0 F600
G1 X40.053 Y16.978 Z0 F600
G1 X39.875 Y16.177 Z0 F600
G1 X39.73 Y15.774 Z0 F600
; --- FIX X Backlash ---
G0 X40.43 Y15.774 F410
G1 X40.571 Y15.471 Z0 F600
G1 X40.583 Y15.431 Z0 F600
G1 X40.671 Y15.302 Z0 F600
G1 X40.896 Y14.958 Z0 F600
G1 X41.187 Y14.404 Z0 F600
G1 X41.416 Y13.707 Z0 F600
G1 X41.499 Y13.195 Z0 F600
G1 X41.52 Y12.696 Z0 F600
; --- FIX X Backlash ---
G0 X40.82 Y12.696 F410
G1 X40.768 Y12.159 Z0 F600
G1 X40.69 Y11.841 Z0 F600
G1 X40.506 Y10.954 Z0 F600
G1 X40.189 Y9.996 Z0 F600
G1 X39.863 Y9.199 Z0 F600
G1 X39.732 Y8.893 Z0 F600
G1 X39.674 Y8.451 Z0 F600
G1 X39.447 Y7.83 Z0 F600
G1 X39.07 Y7.246 Z0 F600
G1 X38.586 Y6.765 Z0 F600
G1 X37.98 Y6.396 Z0 F600
G0 Z3.5 F600
G0 X36.493 Y5.554 Z3.5
G1 Z0 F600
; --- FIX X Backlash ---
G0 X37.193 Y5.554 F410
G1 X45.62 Y5.551 Z0 F600
; --- FIX Y Backlash ---
G0 X45.62 Y6.051 F410
G1 Y14.207 Z0 F600
G1 X45.607 Y23.735 Z0 F600
G1 X45.61 Y33.269 Z0 F600
G1 X45.613 Y33.914 Z0 F600
; --- FIX X Backlash ---
G0 X44.913 Y33.914 F410
; --- FIX Y Backlash ---
G0 X44.913 Y33.414 F410
G1 X44.416 Y32.818 Z0 F600
G1 X44.25 Y32.651 Z0 F600
G1 X43.806 Y32.285 Z0 F600
G1 X43.328 Y31.966 Z0 F600
G1 X42.831 Y31.699 Z0 F600
G1 X42.32 Y31.483 Z0 F600
G1 X41.8 Y31.315 Z0 F600
G1 X41.274 Y31.194 Z0 F600
G1 X40.745 Y31.118 Z0 F600
G1 X40.112 Y31.078 Z0 F600
G1 X39.908 Y31.104 Z0 F600
G1 X39.921 Y31 Z0 F600
G1 X39.948 Y30.862 Z0 F600
G1 X39.977 Y30.762 Z0 F600
; --- FIX X Backlash ---
G0 X40.677 Y30.762 F410
G1 X40.77 Y30.538 Z0 F600
G1 X40.896 Y30.176 Z0 F600
G1 X40.958 Y29.639 Z0 F600
; --- FIX X Backlash ---
G0 X40.258 Y29.639 F410
G1 X40.206 Y29.103 Z0 F600
G1 X40.059 Y28.653 Z0 F600
G1 X39.71 Y27.953 Z0 F600
G1 X39.234 Y27.257 Z0 F600
G1 X38.829 Y26.833 Z0 F600
G1 X38.363 Y26.466 Z0 F600
G1 X38.121 Y26.334 Z0 F600
; --- FIX X Backlash ---
G0 X38.821 Y26.334 F410
G1 X39.006 Y26.017 Z0 F600
G1 X39.243 Y25.498 Z0 F600
G1 X39.425 Y24.967 Z0 F600
G1 X39.557 Y24.425 Z0 F600
G1 X39.637 Y23.879 Z0 F600
G1 X39.669 Y23.297 Z0 F600
G1 X39.644 Y22.928 Z0 F600
; --- FIX X Backlash ---
G0 X38.944 Y22.928 F410
G1 X38.855 Y22.559 Z0 F600
G1 X38.6 Y21.904 Z0 F600
G1 X38.57 Y21.851 Z0 F600
; --- FIX X Backlash ---
G0 X39.27 Y21.851 F410
G1 X39.673 Y21.597 Z0 F600
G1 X40.104 Y21.159 Z0 F600
G1 X40.413 Y20.631 Z0 F600
G1 X40.572 Y20.118 Z0 F600
G1 X40.624 Y19.668 Z0 F600
G1 X40.605 Y19.247 Z0 F600
; --- FIX X Backlash ---
G0 X39.905 Y19.247 F410
G1 X39.834 Y18.922 Z0 F600
G1 X39.79 Y18.466 Z0 F600
G1 X39.69 Y17.763 Z0 F600
G1 X39.563 Y17.078 Z0 F600
G1 X39.394 Y16.317 Z0 F600
G1 X39.239 Y15.887 Z0 F600
G1 X39.17 Y15.778 Z0 F600
G1 X39.196 Y15.737 Z0 F600
; --- FIX X Backlash ---
G0 X39.896 Y15.737 F410
G1 X40.103 Y15.292 Z0 F600
G1 X40.126 Y15.213 Z0 F600
G1 X40.255 Y15.024 Z0 F600
G1 X40.464 Y14.704 Z0 F600
G1 X40.725 Y14.208 Z0 F600
G1 X40.928 Y13.588 Z0 F600
G1 X41 Y13.145 Z0 F600
G1 X41.019 Y12.71 Z0 F600
G1 X40.974 Y12.243 Z0 F600
; --- FIX X Backlash ---
G0 X40.274 Y12.243 F410
G1 X40.201 Y11.95 Z0 F600
G1 X40.022 Y11.084 Z0 F600
G1 X39.719 Y10.169 Z0 F600
G1 X39.402 Y9.391 Z0 F600
G1 X39.239 Y9.011 Z0 F600
G1 Y8.963 Z0 F600
G1 X39.186 Y8.571 Z0 F600
G1 X38.996 Y8.054 Z0 F600
G1 X38.679 Y7.563 Z0 F600
G1 X38.275 Y7.161 Z0 F600
G1 X37.771 Y6.854 Z0 F600
G1 X37.201 Y6.672 Z0 F600
G1 X36.694 Y6.638 Z0 F600
; --- FIX Y Backlash ---
G0 X36.694 Y7.138 F410
G1 X35.723 Y7.217 Z0 F600
G1 X34.936 Y7.31 Z0 F600
G1 X34.318 Y7.37 Z0 F600
G1 X33.799 Y7.38 Z0 F600
G1 X32.86 Y7.369 Z0 F600
G1 X32.069 Y7.354 Z0 F600
G1 X31.392 Y7.308 Z0 F600
G1 X31.38 Y7.305 Z0 F600
; --- FIX Y Backlash ---
G0 X31.38 Y6.805 F410
G1 X31.007 Y6.566 Z0 F600
G1 X30.533 Y6.374 Z0 F600
G1 X30.019 Y6.286 Z0 F600
G1 X29.664 Y6.294 Z0 F600
G1 X29.568 Y6.234 Z0 F600
G1 X29.461 Y5.981 Z0 F600
G1 X29.134 Y5.554 Z0 F600
; --- FIX X Backlash ---
G0 X29.834 Y5.554 F410
G1 X37.193 Z0 F600
G0 Z3.5 F600
G0 X46.12 Y5.051 Z3.5
G1 Z0 F600
; --- FIX Y Backlash ---
G0 X46.12 Y5.551 F410
G1 Y14.208 Z0 F600
G1 X46.107 Y23.736 Z0 F600
G1 X46.11 Y33.268 Z0 F600
G1 X46.119 Y35.431 Z0 F600
; --- FIX X Backlash ---
G0 X45.419 Y35.431 F410
; --- FIX Y Backlash ---
G0 X45.419 Y34.931 F410
G1 X45.357 Y34.832 Z0 F600
G1 X44.734 Y33.979 Z0 F600
G1 X44.047 Y33.155 Z0 F600
G1 X43.913 Y33.022 Z0 F600
G1 X43.508 Y32.687 Z0 F600
G1 X43.071 Y32.395 Z0 F600
G1 X42.615 Y32.15 Z0 F600
G1 X42.146 Y31.953 Z0 F600
G1 X41.667 Y31.798 Z0 F600
G1 X41.182 Y31.686 Z0 F600
G1 X40.694 Y31.616 Z0 F600
G1 X40.128 Y31.58 Z0 F600
; --- FIX Y Backlash ---
G0 X40.128 Y32.08 F410
G1 X39.632 Y32.142 Z0 F600
G1 X39.386 Y32.25 Z0 F600
; --- FIX Y Backlash ---
G0 X39.386 Y31.75 F410
G1 X39.383 Y31.642 Z0 F600
G1 X39.403 Y31.109 Z0 F600
G1 X39.426 Y30.922 Z0 F600
G1 X39.461 Y30.746 Z0 F600
G1 X39.504 Y30.599 Z0 F600
; --- FIX X Backlash ---
G0 X40.204 Y30.599 F410
G1 X40.302 Y30.359 Z0 F600
G1 X40.406 Y30.064 Z0 F600
G1 X40.456 Y29.634 Z0 F600
G1 X40.414 Y29.206 Z0 F600
; --- FIX X Backlash ---
G0 X39.714 Y29.206 F410
G1 X39.595 Y28.843 Z0 F600
G1 X39.278 Y28.207 Z0 F600
G1 X38.844 Y27.573 Z0 F600
G1 X38.492 Y27.204 Z0 F600
G1 X38.086 Y26.885 Z0 F600
G1 X37.598 Y26.617 Z0 F600
G1 X37.377 Y26.543 Z0 F600
; --- FIX X Backlash ---
G0 X38.077 Y26.543 F410
G1 X38.295 Y26.244 Z0 F600
G1 X38.562 Y25.787 Z0 F600
G1 X38.777 Y25.313 Z0 F600
G1 X38.944 Y24.826 Z0 F600
G1 X39.065 Y24.33 Z0 F600
G1 X39.139 Y23.829 Z0 F600
G1 X39.168 Y23.3 Z0 F600
G1 X39.148 Y23.004 Z0 F600
; --- FIX X Backlash ---
G0 X38.448 Y23.004 F410
G1 X38.377 Y22.709 Z0 F600
G1 X38.148 Y22.121 Z0 F600
G1 X37.902 Y21.691 Z0 F600
G1 X37.946 Y21.654 Z0 F600
; --- FIX X Backlash ---
G0 X38.646 Y21.654 F410
G1 X38.756 Y21.529 Z0 F600
G1 X38.989 Y21.438 Z0 F600
G1 X39.357 Y21.205 Z0 F600
G1 X39.704 Y20.853 Z0 F600
G1 X39.952 Y20.428 Z0 F600
G1 X40.081 Y20.014 Z0 F600
G1 X40.123 Y19.65 Z0 F600
G1 X40.108 Y19.312 Z0 F600
; --- FIX X Backlash ---
G0 X39.408 Y19.312 F410
G1 X39.34 Y19.003 Z0 F600
G1 X39.294 Y18.525 Z0 F600
G1 X39.196 Y17.843 Z0 F600
G1 X39.073 Y17.178 Z0 F600
G1 X38.913 Y16.457 Z0 F600
G1 X38.788 Y16.109 Z0 F600
G1 X38.577 Y15.778 Z0 F600
; --- FIX X Backlash ---
G0 X39.277 Y15.778 F410
G1 X39.456 Y15.497 Z0 F600
G1 X39.634 Y15.113 Z0 F600
G1 X39.668 Y15 Z0 F600
G1 X39.696 Y14.957 Z0 F600
G1 X39.839 Y14.747 Z0 F600
G1 X40.033 Y14.45 Z0 F600
G1 X40.263 Y14.012 Z0 F600
G1 X40.441 Y13.469 Z0 F600
G1 X40.502 Y13.094 Z0 F600
G1 X40.518 Y12.723 Z0 F600
G1 X40.479 Y12.328 Z0 F600
; --- FIX X Backlash ---
G0 X39.779 Y12.328 F410
G1 X39.713 Y12.057 Z0 F600
G1 X39.538 Y11.213 Z0 F600
G1 X39.25 Y10.342 Z0 F600
G1 X38.94 Y9.584 Z0 F600
G1 X38.743 Y9.122 Z0 F600
G1 X38.738 Y9.006 Z0 F600
G1 X38.697 Y8.691 Z0 F600
G1 X38.546 Y8.278 Z0 F600
G1 X38.288 Y7.879 Z0 F600
G1 X37.965 Y7.557 Z0 F600
G1 X37.562 Y7.312 Z0 F600
G1 X37.107 Y7.167 Z0 F600
G1 X36.697 Y7.139 Z0 F600
; --- FIX Y Backlash ---
G0 X36.697 Y7.639 F410
G1 X35.773 Y7.714 Z0 F600
G1 X34.994 Y7.806 Z0 F600
G1 X34.346 Y7.87 Z0 F600
G1 X33.8 Y7.88 Z0 F600
G1 X32.854 Y7.869 Z0 F600
G1 X32.054 Y7.854 Z0 F600
G1 X31.327 Y7.804 Z0 F600
G1 X31.155 Y7.774 Z0 F600
; --- FIX Y Backlash ---
G0 X31.155 Y7.274 F410
G1 X31.077 Y7.206 Z0 F600
G1 X30.776 Y7.012 Z0 F600
G1 X30.395 Y6.858 Z0 F600
G1 X29.982 Y6.787 Z0 F600
G1 X29.607 Y6.795 Z0 F600
G1 X29.543 Y6.808 Z0 F600
G1 X29.278 Y6.643 Z0 F600
G1 X29.173 Y6.583 Z0 F600
G1 X29.025 Y6.234 Z0 F600
G1 X28.719 Y5.834 Z0 F600
G1 X28.349 Y5.545 Z0 F600
G1 X27.808 Y5.276 Z0 F600
G1 X27.292 Y5.112 Z0 F600
G1 X26.953 Y5.054 Z0 F600
; --- FIX X Backlash ---
G0 X27.653 Y5.054 F410
G1 X37.193 Z0 F600
G1 X46.12 Y5.051 Z0 F600
G0 Z3.5 F600
; --- FIX X Backlash ---
G0 X45.42 Y5.051 F410
; --- FIX Y Backlash ---
G0 X45.42 Y5.551 F410
G0 X8.068 Y7.596 Z3.5
G1 Z0 F600
G1 X7.883 Y8.069 Z0 F600
G1 X7.742 Y8.343 Z0 F600
G1 X7.507 Y8.975 Z0 F600
G1 X7.47 Y9.128 Z0 F600
G1 X7.264 Y9.657 Z0 F600
G1 X7.164 Y9.897 Z0 F600
; --- FIX Y Backlash ---
G0 X7.164 Y9.397 F410
G1 X7.194 Y7.099 Z0 F600
; --- FIX X Backlash ---
G0 X7.894 Y7.099 F410
G1 X8.768 Y7.096 Z0 F600
G0 Z3.5 F600
G0 X9.5 Y6.593 Z3.5
G1 Z0 F600
; --- FIX X Backlash ---
G0 X8.8 Y6.593 F410
; --- FIX Y Backlash ---
G0 X8.8 Y7.093 F410
G1 X8.339 Y8.276 Z0 F600
G1 X8.2 Y8.545 Z0 F600
G1 X7.986 Y9.12 Z0 F600
G1 X7.949 Y9.277 Z0 F600
G1 X7.732 Y9.834 Z0 F600
G1 X7.36 Y10.728 Z0 F600
G1 X7.138 Y11.371 Z0 F600
G1 X6.949 Y12.101 Z0 F600
G1 X6.824 Y12.932 Z0 F600
G1 X6.791 Y14.332 Z0 F600
; --- FIX X Backlash ---
G0 X7.491 Y14.332 F410
G1 X7.582 Y15.28 Z0 F600
G1 X7.748 Y15.959 Z0 F600
G1 X8.005 Y16.622 Z0 F600
G1 X8.383 Y17.289 Z0 F600
G1 X8.718 Y17.705 Z0 F600
G1 X9.024 Y18.103 Z0 F600
G1 X9.549 Y18.604 Z0 F600
G1 X10.09 Y18.994 Z0 F600
G1 X10.671 Y19.315 Z0 F600
G1 X10.979 Y19.432 Z0 F600
G1 X11.037 Y19.505 Z0 F600
G1 X11.566 Y19.95 Z0 F600
G1 X12.1 Y20.267 Z0 F600
G1 X12.519 Y20.436 Z0 F600
; --- FIX X Backlash ---
G0 X11.819 Y20.436 F410
G1 X11.571 Y20.449 Z0 F600
G1 X10.857 Y20.554 Z0 F600
G1 X10.103 Y20.743 Z0 F600
G1 X9.302 Y21.052 Z0 F600
G1 X8.722 Y21.379 Z0 F600
G1 X8.307 Y21.603 Z0 F600
G1 X7.873 Y21.931 Z0 F600
; --- FIX Y Backlash ---
G0 X7.873 Y21.431 F410
G1 X7.315 Y21.25 Z0 F600
; --- FIX Y Backlash ---
G0 X7.315 Y21.75 F410
G1 X6.696 Y23.356 Z0 F600
G1 X6.648 Y23.443 Z0 F600
; --- FIX Y Backlash ---
G0 X6.648 Y22.943 F410
G1 Y20.72 Z0 F600
G1 X6.641 Y15.417 Z0 F600
G1 X6.655 Y10.108 Z0 F600
G1 X6.7 Y6.601 Z0 F600
; --- FIX X Backlash ---
G0 X7.4 Y6.601 F410
G1 X9.5 Y6.593 Z0 F600
G0 Z3.5 F600
G0 X10.03 Y6.609 Z3.5
G1 Z0 F600
; --- FIX X Backlash ---
G0 X9.33 Y6.609 F410
; --- FIX Y Backlash ---
G0 X9.33 Y7.109 F410
G1 X8.795 Y8.482 Z0 F600
G1 X8.659 Y8.748 Z0 F600
G1 X8.466 Y9.265 Z0 F600
G1 X8.428 Y9.425 Z0 F600
G1 X8.196 Y10.019 Z0 F600
G1 X7.828 Y10.905 Z0 F600
G1 X7.617 Y11.515 Z0 F600
G1 X7.44 Y12.202 Z0 F600
G1 X7.323 Y12.975 Z0 F600
G1 X7.292 Y14.313 Z0 F600
; --- FIX X Backlash ---
G0 X7.992 Y14.313 F410
G1 X8.077 Y15.196 Z0 F600
G1 X8.226 Y15.809 Z0 F600
G1 X8.458 Y16.407 Z0 F600
G1 X8.798 Y17.007 Z0 F600
G1 X9.118 Y17.405 Z0 F600
G1 X9.397 Y17.768 Z0 F600
G1 X9.869 Y18.219 Z0 F600
G1 X10.358 Y18.571 Z0 F600
G1 X10.882 Y18.86 Z0 F600
G1 X11.287 Y19.014 Z0 F600
G1 X11.398 Y19.156 Z0 F600
G1 X11.856 Y19.541 Z0 F600
G1 X12.322 Y19.817 Z0 F600
G1 X12.819 Y20.018 Z0 F600
G1 X13.312 Y20.132 Z0 F600
G1 X13.56 Y20.157 Z0 F600
; --- FIX X Backlash ---
G0 X12.86 Y20.157 F410
G1 X12.809 Y20.291 Z0 F600
G1 X12.703 Y20.89 Z0 F600
G1 X12.613 Y20.893 Z0 F600
G1 X11.622 Y20.947 Z0 F600
G1 X10.954 Y21.045 Z0 F600
G1 X10.255 Y21.221 Z0 F600
G1 X9.516 Y21.505 Z0 F600
G1 X8.946 Y21.827 Z0 F600
G1 X8.578 Y22.024 Z0 F600
G1 X8.068 Y22.41 Z0 F600
G1 X7.987 Y22.493 Z0 F600
; --- FIX Y Backlash ---
G0 X7.987 Y21.993 F410
G1 X7.611 Y21.872 Z0 F600
; --- FIX Y Backlash ---
G0 X7.611 Y22.372 F410
G1 X7.15 Y23.569 Z0 F600
G1 X7.022 Y23.799 Z0 F600
G1 X6.818 Y24.285 Z0 F600
G1 X6.674 Y24.774 Z0 F600
G1 X6.662 Y24.836 Z0 F600
G1 X6.438 Y25.42 Z0 F600
G1 X6.275 Y25.942 Z0 F600
G1 X6.191 Y25.933 Z0 F600
G1 X6.145 Y26.245 Z0 F600
; --- FIX Y Backlash ---
G0 X6.145 Y25.745 F410
G1 X6.149 Y20.72 Z0 F600
G1 X6.141 Y15.415 Z0 F600
G1 X6.155 Y10.132 Z0 F600
; --- FIX X Backlash ---
G0 X6.855 Y10.132 F410
G1 X6.907 Y6.11 Z0 F600
G1 X7.182 Y6.102 Z0 F600
G1 X10.577 Y6.089 Z0 F600
; --- FIX X Backlash ---
G0 X9.877 Y6.089 F410
; --- FIX Y Backlash ---
G0 X9.877 Y6.589 F410
G1 X9.801 Y6.889 Z0 F600
G1 X9.77 Y7.157 Z0 F600
G1 X9.709 Y7.224 Z0 F600
; --- FIX Y Backlash ---
G0 X9.709 Y6.724 F410
G1 X9.33 Y6.609 Z0 F600
G0 Z3.5 F600
G0 X6.465 Y5.602 Z3.5
G1 Z0 F600
; --- FIX X Backlash ---
G0 X7.165 Y5.602 F410
G1 X11.179 Y5.587 Z0 F600
; --- FIX X Backlash ---
G0 X10.479 Y5.587 F410
; --- FIX Y Backlash ---
G0 X10.479 Y6.087 F410
G1 X10.422 Y6.492 Z0 F600
G1 X10.414 Y6.508 Z0 F600
G1 X10.294 Y6.979 Z0 F600
G1 X10.248 Y7.376 Z0 F600
G1 X10.244 Y7.381 Z0 F600
G1 X9.943 Y7.708 Z0 F600
G1 X9.871 Y7.796 Z0 F600
; --- FIX Y Backlash ---
G0 X9.871 Y7.296 F410
G1 X9.628 Y7.222 Z0 F600
; --- FIX Y Backlash ---
G0 X9.628 Y7.722 F410
G1 X9.253 Y8.686 Z0 F600
G1 X9.117 Y8.95 Z0 F600
G1 X8.945 Y9.41 Z0 F600
G1 X8.907 Y9.573 Z0 F600
G1 X8.652 Y10.228 Z0 F600
G1 X8.295 Y11.083 Z0 F600
G1 X8.096 Y11.659 Z0 F600
G1 X7.93 Y12.302 Z0 F600
G1 X7.822 Y13.018 Z0 F600
G1 X7.792 Y14.295 Z0 F600
; --- FIX X Backlash ---
G0 X8.492 Y14.295 F410
G1 X8.571 Y15.112 Z0 F600
G1 X8.704 Y15.659 Z0 F600
G1 X8.911 Y16.192 Z0 F600
G1 X9.213 Y16.725 Z0 F600
G1 X9.504 Y17.087 Z0 F600
G1 X9.77 Y17.433 Z0 F600
G1 X10.189 Y17.833 Z0 F600
G1 X10.626 Y18.147 Z0 F600
G1 X11.093 Y18.406 Z0 F600
G1 X11.594 Y18.596 Z0 F600
G1 X11.759 Y18.807 Z0 F600
G1 X12.147 Y19.132 Z0 F600
G1 X12.544 Y19.368 Z0 F600
G1 X12.97 Y19.539 Z0 F600
G1 X13.394 Y19.638 Z0 F600
G1 X13.947 Y19.694 Z0 F600
G1 X14.12 Y19.687 Z0 F600
G1 X14.129 Y19.747 Z0 F600
G1 X14.132 Y19.921 Z0 F600
G1 X14.113 Y20.064 Z0 F600
; --- FIX X Backlash ---
G0 X13.413 Y20.064 F410
G1 X13.35 Y20.275 Z0 F600
G1 X13.293 Y20.425 Z0 F600
G1 X13.189 Y21.013 Z0 F600
G1 X13.196 Y21.376 Z0 F600
G1 X12.634 Y21.392 Z0 F600
G1 X11.672 Y21.445 Z0 F600
G1 X11.052 Y21.536 Z0 F600
G1 X10.405 Y21.698 Z0 F600
G1 X9.73 Y21.959 Z0 F600
G1 X9.205 Y22.255 Z0 F600
G1 X8.848 Y22.446 Z0 F600
G1 X8.399 Y22.787 Z0 F600
G1 X8.128 Y23.063 Z0 F600
; --- FIX Y Backlash ---
G0 X8.128 Y22.563 F410
G1 X7.908 Y22.493 Z0 F600
; --- FIX Y Backlash ---
G0 X7.908 Y22.993 F410
G1 X7.604 Y23.781 Z0 F600
G1 X7.472 Y24.018 Z0 F600
G1 X7.29 Y24.453 Z0 F600
G1 X7.16 Y24.891 Z0 F600
G1 X7.145 Y24.974 Z0 F600
G1 X6.91 Y25.584 Z0 F600
G1 X6.628 Y26.488 Z0 F600
G1 X6.616 Z0 F600
G1 X6.598 Y26.609 Z0 F600
G1 X6.497 Y27.037 Z0 F600
G1 X6.401 Y27.571 Z0 F600
G1 X6.337 Y28.128 Z0 F600
G1 X6.319 Y28.52 Z0 F600
G1 X6.26 Y28.922 Z0 F600
G1 X6.12 Y29.47 Z0 F600
G1 X5.924 Y30.256 Z0 F600
G1 X5.766 Y31.29 Z0 F600
G1 X5.789 Y31.826 Z0 F600
; --- FIX X Backlash ---
G0 X6.489 Y31.826 F410
G1 X6.617 Y32.288 Z0 F600
G1 X6.808 Y32.732 Z0 F600
G1 X6.839 Y32.802 Z0 F600
G1 X6.851 Y33.275 Z0 F600
G1 X6.87 Y33.795 Z0 F600
G1 Y33.861 Z0 F600
; --- FIX X Backlash ---
G0 X6.17 Y33.861 F410
G1 X6.1 Y33.935 Z0 F600
G1 X5.649 Y34.101 Z0 F600
; --- FIX Y Backlash ---
G0 X5.649 Y33.601 F410
G1 Y31.232 Z0 F600
G1 X5.645 Y26.04 Z0 F600
G1 X5.649 Y20.72 Z0 F600
G1 X5.641 Y15.414 Z0 F600
G1 X5.655 Y10.126 Z0 F600
; --- FIX X Backlash ---
G0 X6.355 Y10.126 F410
G1 X6.413 Y5.623 Z0 F600
G1 X6.473 Z0 F600
G1 X7.165 Y5.602 Z0 F600
G0 Z3.5 F600
G0 X11.848 Y5.61 Z3.5
G1 Z0 F600
; --- FIX X Backlash ---
G0 X11.148 Y5.61 F410
; --- FIX Y Backlash ---
G0 X11.148 Y6.11 F410
G1 X11.085 Y6.248 Z0 F600
G1 X10.961 Z0 F600
G1 X10.906 Y6.635 Z0 F600
G1 X10.887 Y6.676 Z0 F600
G1 X10.787 Y7.07 Z0 F600
G1 X10.743 Y7.45 Z0 F600
G1 X10.747 Y7.567 Z0 F600
G1 X10.625 Y7.706 Z0 F600
G1 X10.321 Y8.035 Z0 F600
G1 X10.049 Y8.373 Z0 F600
G1 X9.925 Y8.335 Z0 F600
G1 X9.708 Y8.894 Z0 F600
G1 X9.575 Y9.152 Z0 F600
G1 X9.425 Y9.556 Z0 F600
G1 X9.385 Y9.722 Z0 F600
G1 X9.129 Y10.382 Z0 F600
G1 X8.763 Y11.261 Z0 F600
G1 X8.576 Y11.804 Z0 F600
G1 X8.421 Y12.402 Z0 F600
G1 X8.321 Y13.061 Z0 F600
G1 X8.293 Y14.277 Z0 F600
; --- FIX X Backlash ---
G0 X8.993 Y14.277 F410
G1 X9.065 Y15.029 Z0 F600
G1 X9.182 Y15.508 Z0 F600
G1 X9.364 Y15.977 Z0 F600
G1 X9.628 Y16.443 Z0 F600
G1 X9.894 Y16.773 Z0 F600
G1 X10.143 Y17.097 Z0 F600
G1 X10.51 Y17.448 Z0 F600
G1 X10.894 Y17.725 Z0 F600
G1 X11.304 Y17.951 Z0 F600
G1 X11.902 Y18.178 Z0 F600
G1 X12.121 Y18.457 Z0 F600
G1 X12.437 Y18.723 Z0 F600
G1 X12.767 Y18.918 Z0 F600
G1 X13.121 Y19.061 Z0 F600
G1 X13.476 Y19.144 Z0 F600
G1 X13.962 Y19.192 Z0 F600
G1 X14.398 Y19.174 Z0 F600
G1 X14.541 Y19.155 Z0 F600
G1 X14.562 Y19.379 Z0 F600
G1 X14.592 Y19.466 Z0 F600
G1 X14.628 Y19.706 Z0 F600
G1 X14.632 Y19.952 Z0 F600
G1 X14.603 Y20.171 Z0 F600
; --- FIX X Backlash ---
G0 X13.903 Y20.171 F410
G1 X13.824 Y20.434 Z0 F600
G1 X13.777 Y20.559 Z0 F600
G1 X13.69 Y21.052 Z0 F600
G1 X13.699 Y21.544 Z0 F600
; --- FIX X Backlash ---
G0 X14.399 Y21.544 F410
G1 X14.469 Y21.884 Z0 F600
; --- FIX X Backlash ---
G0 X13.769 Y21.884 F410
G1 X13.55 Y21.866 Z0 F600
G1 X12.655 Y21.892 Z0 F600
G1 X11.722 Y21.943 Z0 F600
G1 X11.149 Y22.027 Z0 F600
G1 X10.557 Y22.176 Z0 F600
G1 X9.944 Y22.412 Z0 F600
G1 X9.46 Y22.685 Z0 F600
G1 X9.119 Y22.869 Z0 F600
G1 X8.73 Y23.163 Z0 F600
G1 X8.401 Y23.499 Z0 F600
G1 X8.294 Y23.643 Z0 F600
G1 X8.204 Y23.614 Z0 F600
G1 X8.057 Y23.996 Z0 F600
G1 X7.922 Y24.238 Z0 F600
G1 X7.761 Y24.621 Z0 F600
G1 X7.647 Y25.008 Z0 F600
G1 X7.628 Y25.111 Z0 F600
G1 X7.383 Y25.749 Z0 F600
G1 X7.105 Y26.639 Z0 F600
G1 X6.987 Y27.139 Z0 F600
G1 X6.895 Y27.644 Z0 F600
G1 X6.835 Y28.168 Z0 F600
G1 X6.817 Y28.568 Z0 F600
G1 X6.751 Y29.02 Z0 F600
G1 X6.605 Y29.592 Z0 F600
G1 X6.414 Y30.354 Z0 F600
G1 X6.267 Y31.317 Z0 F600
G1 X6.286 Y31.748 Z0 F600
; --- FIX X Backlash ---
G0 X6.986 Y31.748 F410
G1 X7.089 Y32.121 Z0 F600
G1 X7.267 Y32.532 Z0 F600
G1 X7.336 Y32.69 Z0 F600
G1 X7.351 Y33.259 Z0 F600
G1 X7.37 Y33.787 Z0 F600
G1 X7.374 Y34.06 Z0 F600
; --- FIX X Backlash ---
G0 X6.674 Y34.06 F410
G1 X6.38 Y34.366 Z0 F600
G1 X6.292 Y34.397 Z0 F600
G1 X5.624 Y34.643 Z0 F600
G1 X5.148 Y34.859 Z0 F600
; --- FIX Y Backlash ---
G0 X5.148 Y34.359 F410
G1 X5.151 Y31.232 Z0 F600
G1 X5.145 Y26.04 Z0 F600
G1 X5.149 Y20.72 Z0 F600
G1 X5.141 Y15.413 Z0 F600
G1 X5.155 Y10.12 Z0 F600
; --- FIX X Backlash ---
G0 X5.855 Y10.12 F410
G1 X5.919 Y5.124 Z0 F600
G1 X6.465 Z0 F600
G1 X7.165 Y5.102 Z0 F600
G1 X12.27 Y5.083 Z0 F600
; --- FIX X Backlash ---
G0 X11.57 Y5.083 F410
; --- FIX Y Backlash ---
G0 X11.57 Y5.583 F410
G1 X11.502 Y5.646 Z0 F600
G1 X11.148 Y6.11 Z0 F600
G0 Z3.5 F600
G0 X10.223 Y8.948 Z3.5
G1 Z0 F600
G1 X10.164 Y9.1 Z0 F600
G1 X10.033 Y9.355 Z0 F600
G1 X9.904 Y9.701 Z0 F600
G1 X9.863 Y9.873 Z0 F600
G1 X9.59 Y10.575 Z0 F600
G1 X9.231 Y11.438 Z0 F600
G1 X9.055 Y11.948 Z0 F600
G1 X8.911 Y12.502 Z0 F600
G1 X8.821 Y13.104 Z0 F600
G1 X8.794 Y14.259 Z0 F600
; --- FIX X Backlash ---
G0 X9.494 Y14.259 F410
G1 X9.559 Y14.945 Z0 F600
G1 X9.66 Y15.358 Z0 F600
G1 X9.817 Y15.762 Z0 F600
G1 X10.043 Y16.162 Z0 F600
G1 X10.283 Y16.46 Z0 F600
G1 X10.516 Y16.762 Z0 F600
G1 X10.83 Y17.063 Z0 F600
G1 X11.162 Y17.301 Z0 F600
G1 X11.515 Y17.496 Z0 F600
G1 X12.126 Y17.729 Z0 F600
G1 X12.207 Y17.75 Z0 F600
G1 X12.22 Y17.774 Z0 F600
G1 X12.482 Y18.107 Z0 F600
G1 X12.728 Y18.314 Z0 F600
G1 X12.989 Y18.469 Z0 F600
G1 X13.271 Y18.583 Z0 F600
G1 X13.558 Y18.649 Z0 F600
G1 X13.977 Y18.691 Z0 F600
G1 X14.354 Y18.676 Z0 F600
G1 X14.647 Y18.636 Z0 F600
G1 X14.843 Y18.604 Z0 F600
G1 X14.902 Y18.596 Z0 F600
G1 X14.97 Y18.632 Z0 F600
G1 X15.031 Y19.032 Z0 F600
G1 X15.054 Y19.272 Z0 F600
G1 X15.079 Y19.345 Z0 F600
G1 X15.127 Y19.666 Z0 F600
G1 X15.133 Y19.983 Z0 F600
G1 X15.094 Y20.275 Z0 F600
; --- FIX X Backlash ---
G0 X14.394 Y20.275 F410
G1 X14.298 Y20.594 Z0 F600
G1 X14.261 Y20.692 Z0 F600
G1 X14.191 Y21.091 Z0 F600
G1 X14.198 Y21.489 Z0 F600
; --- FIX X Backlash ---
G0 X14.898 Y21.489 F410
G1 X14.976 Y21.867 Z0 F600
G1 X15.126 Y22.233 Z0 F600
G1 X15.253 Y22.411 Z0 F600
; --- FIX X Backlash ---
G0 X14.553 Y22.411 F410
G1 X14.32 Y22.59 Z0 F600
; --- FIX Y Backlash ---
G0 X14.32 Y22.09 F410
G1 X14.237 Y22.036 Z0 F600
G1 X13.877 Y21.895 Z0 F600
G1 X13.536 Y21.867 Z0 F600
G1 X12.676 Y21.892 Z0 F600
G1 X11.772 Y21.941 Z0 F600
; --- FIX Y Backlash ---
G0 X11.772 Y22.441 F410
G1 X11.247 Y22.519 Z0 F600
G1 X10.708 Y22.653 Z0 F600
G1 X10.158 Y22.866 Z0 F600
G1 X9.697 Y23.125 Z0 F600
G1 X9.39 Y23.291 Z0 F600
G1 X9.061 Y23.54 Z0 F600
G1 X8.782 Y23.824 Z0 F600
G1 X8.553 Y24.134 Z0 F600
G1 X8.372 Y24.457 Z0 F600
G1 X8.233 Y24.789 Z0 F600
G1 X8.134 Y25.125 Z0 F600
G1 X8.111 Y25.249 Z0 F600
G1 X7.855 Y25.913 Z0 F600
G1 X7.588 Y26.771 Z0 F600
G1 X7.476 Y27.241 Z0 F600
G1 X7.39 Y27.717 Z0 F600
G1 X7.334 Y28.208 Z0 F600
G1 X7.315 Y28.619 Z0 F600
G1 X7.243 Y29.112 Z0 F600
G1 X7.09 Y29.714 Z0 F600
G1 X6.905 Y30.453 Z0 F600
G1 X6.769 Y31.345 Z0 F600
G1 X6.783 Y31.669 Z0 F600
; --- FIX X Backlash ---
G0 X7.483 Y31.669 F410
G1 X7.562 Y31.955 Z0 F600
G1 X7.725 Y32.332 Z0 F600
G1 X7.818 Y32.544 Z0 F600
G1 X7.836 Y32.596 Z0 F600
G1 Y32.62 Z0 F600
G1 X7.851 Y33.244 Z0 F600
G1 X7.871 Y33.801 Z0 F600
G1 X7.877 Y34.273 Z0 F600
; --- FIX X Backlash ---
G0 X7.177 Y34.273 F410
G1 X7.12 Y34.317 Z0 F600
G1 X6.77 Y34.682 Z0 F600
G1 X6.711 Y34.779 Z0 F600
G1 X6.462 Y34.867 Z0 F600
G1 X5.814 Y35.106 Z0 F600
G1 X5.11 Y35.425 Z0 F600
G1 X4.647 Y35.71 Z0 F600
; --- FIX Y Backlash ---
G0 X4.647 Y35.21 F410
G1 X4.651 Y31.232 Z0 F600
G1 X4.645 Y26.04 Z0 F600
G1 X4.649 Y20.72 Z0 F600
G1 X4.641 Y15.411 Z0 F600
G1 X4.655 Y10.113 Z0 F600
; --- FIX X Backlash ---
G0 X5.355 Y10.113 F410
G1 X5.423 Y4.814 Z0 F600
G1 X5.439 Y4.63 Z0 F600
G1 X5.8 Y4.624 Z0 F600
G1 X6.458 Z0 F600
G1 X7.147 Y4.602 Z0 F600
G1 X13.784 Y4.577 Z0 F600
; --- FIX X Backlash ---
G0 X13.084 Y4.577 F410
; --- FIX Y Backlash ---
G0 X13.084 Y5.077 F410
G1 X12.737 Y5.272 Z0 F600
G1 X12.561 Y5.41 Z0 F600
G1 X12.387 Y5.537 Z0 F600
G1 X12.156 Y5.72 Z0 F600
G1 X11.874 Y5.983 Z0 F600
G1 X11.579 Y6.369 Z0 F600
G1 X11.406 Y6.746 Z0 F600
G1 X11.396 Z0 F600
G1 X11.392 Y6.776 Z0 F600
G1 X11.361 Y6.844 Z0 F600
G1 X11.279 Y7.161 Z0 F600
G1 X11.244 Y7.471 Z0 F600
G1 X11.252 Y7.729 Z0 F600
G1 X11.172 Y7.84 Z0 F600
G1 X10.98 Y8.059 Z0 F600
G1 X10.699 Y8.362 Z0 F600
G1 X10.371 Y8.769 Z0 F600
G1 X10.25 Y8.957 Z0 F600
G1 X10.223 Y8.948 Z0 F600
G0 Z3.5 F600
; --- FIX X Backlash ---
G0 X10.923 Y8.948 F410
G0 X31.479 Y45.422 Z3.5
G1 Z0 F600
G1 X31.517 Y45.386 Z0 F600
; --- FIX Y Backlash ---
G0 X31.517 Y44.886 F410
G1 X32.166 Y44.391 Z0 F600
; --- FIX Y Backlash ---
G0 X32.166 Y44.891 F410
G1 X32.358 Y45.155 Z0 F600
G1 X32.606 Y45.422 Z0 F600
; --- FIX X Backlash ---
G0 X31.906 Y45.422 F410
G1 X30.779 Z0 F600
G0 Z3.5 F600
; --- FIX Y Backlash ---
G0 X30.779 Y44.922 F410
G0 X30.167 Y44.807 Z3.5
G1 Z0 F600
; --- FIX X Backlash ---
G0 X30.867 Y44.807 F410
G1 X30.936 Y44.753 Z0 F600
G1 X31.19 Y44.507 Z0 F600
G1 X31.687 Y44.128 Z0 F600
; --- FIX X Backlash ---
G0 X30.987 Y44.128 F410
G1 X30.909 Y44.025 Z0 F600
; --- FIX X Backlash ---
G0 X31.609 Y44.025 F410
G1 X31.839 Y43.7 Z0 F600
G1 X31.896 Y43.598 Z0 F600
G1 X32.163 Y43.285 Z0 F600
; --- FIX Y Backlash ---
G0 X32.163 Y43.785 F410
G1 X32.189 Y43.912 Z0 F600
G1 X32.426 Y44.398 Z0 F600
G1 X32.745 Y44.837 Z0 F600
G1 X33.064 Y45.182 Z0 F600
G1 X33.4 Y45.47 Z0 F600
G1 X33.768 Y45.728 Z0 F600
G1 X34.136 Y45.922 Z0 F600
; --- FIX X Backlash ---
G0 X33.436 Y45.922 F410
G1 X29.303 Z0 F600
; --- FIX X Backlash ---
G0 X30.003 Y45.922 F410
; --- FIX Y Backlash ---
G0 X30.003 Y45.422 F410
G1 X30.358 Y45.203 Z0 F600
G1 X30.457 Y45.126 Z0 F600
; --- FIX Y Backlash ---
G0 X30.457 Y45.626 F410
G1 X30.542 Y45.689 Z0 F600
; --- FIX Y Backlash ---
G0 X30.542 Y45.189 F410
G1 X30.867 Y44.807 Z0 F600
G0 Z3.5 F600
; --- FIX X Backlash ---
G0 X30.167 Y44.807 F410
; --- FIX Y Backlash ---
G0 X30.167 Y45.307 F410
G0 X23.91 Y45.922 Z3.5
G1 Z0 F600
G1 X21.545 Z0 F600
G1 X21.535 Y45.883 Z0 F600
G1 X21.524 Y45.861 Z0 F600
; --- FIX X Backlash ---
G0 X22.224 Y45.861 F410
; --- FIX Y Backlash ---
G0 X22.224 Y45.361 F410
G1 X22.49 Y45.174 Z0 F600
G1 X22.96 Y44.662 Z0 F600
G1 X23.271 Y44.187 Z0 F600
G1 X23.351 Y44.031 Z0 F600
; --- FIX Y Backlash ---
G0 X23.351 Y44.531 F410
G1 X23.621 Y44.964 Z0 F600
G1 X24.097 Y45.505 Z0 F600
G1 X24.61 Y45.922 Z0 F600
G0 Z3.5 F600
; --- FIX Y Backlash ---
G0 X24.61 Y45.422 F410
G0 X25.512 Y45.37 Z3.5
G1 Z0 F600
; --- FIX Y Backlash ---
G0 X25.512 Y45.87 F410
G1 X26.111 Y46.08 Z0 F600
G1 X26.361 Y46.131 Z0 F600
G1 X26.987 Y46.178 Z0 F600
G1 X27.65 Y46.214 Z0 F600
G1 X28.169 Y46.177 Z0 F600
G1 X28.229 Y46.164 Z0 F600
G1 X28.358 Y46.353 Z0 F600
; --- FIX Y Backlash ---
G0 X28.358 Y45.853 F410
G1 X29.125 Y45.378 Z0 F600
G1 X29.364 Y45.271 Z0 F600
G1 X29.652 Y45.052 Z0 F600
G1 X30.072 Y44.792 Z0 F600
G1 X30.448 Y44.499 Z0 F600
G1 X30.463 Y44.51 Z0 F600
G1 X30.521 Y44.443 Z0 F600
G1 X30.607 Y44.375 Z0 F600
G1 X30.863 Y44.127 Z0 F600
G1 X30.988 Y44.032 Z0 F600
G1 X30.971 Y44.01 Z0 F600
G1 X31.169 Y43.78 Z0 F600
G1 X31.416 Y43.433 Z0 F600
G1 X31.483 Y43.313 Z0 F600
G1 X31.811 Y42.927 Z0 F600
G1 X32.314 Y42.33 Z0 F600
G1 X32.554 Y42.003 Z0 F600
; --- FIX Y Backlash ---
G0 X32.554 Y42.503 F410
G1 X32.576 Y43.318 Z0 F600
G1 X32.667 Y43.748 Z0 F600
G1 X32.856 Y44.14 Z0 F600
G1 X33.132 Y44.519 Z0 F600
G1 X33.412 Y44.821 Z0 F600
G1 X33.707 Y45.075 Z0 F600
G1 X34.029 Y45.3 Z0 F600
G1 X34.581 Y45.592 Z0 F600
G1 X35.106 Y45.79 Z0 F600
G1 X35.548 Y45.924 Z0 F600
G1 X35.908 Y46.025 Z0 F600
G1 X36.159 Y46.101 Z0 F600
G1 X36.367 Y46.183 Z0 F600
G1 X36.913 Y46.422 Z0 F600
; --- FIX X Backlash ---
G0 X36.213 Y46.422 F410
G1 X21.159 Z0 F600
; --- FIX Y Backlash ---
G0 X21.159 Y45.922 F410
G1 X21.063 Y45.555 Z0 F600
G1 X21.008 Y45.439 Z0 F600
G1 X20.984 Y45.32 Z0 F600
G1 X20.915 Y45.179 Z0 F600
; --- FIX X Backlash ---
G0 X21.615 Y45.179 F410
G1 X22.158 Y44.796 Z0 F600
G1 X22.564 Y44.354 Z0 F600
G1 X22.838 Y43.936 Z0 F600
G1 X23.01 Y43.599 Z0 F600
G1 X23.119 Y43.367 Z0 F600
G1 X23.198 Y43.203 Z0 F600
G1 X23.225 Y43.154 Z0 F600
G1 X23.379 Y43 Z0 F600
G1 X23.418 Y42.926 Z0 F600
; --- FIX Y Backlash ---
G0 X23.418 Y43.426 F410
G1 X23.442 Y43.533 Z0 F600
G1 X23.687 Y44.124 Z0 F600
G1 X24.023 Y44.665 Z0 F600
G1 X24.445 Y45.144 Z0 F600
G1 X24.943 Y45.549 Z0 F600
G1 X25.512 Y45.87 Z0 F600
G0 Z3.5 F600
; --- FIX X Backlash ---
G0 X24.812 Y45.87 F410
G0 X13.39 Y45.917 Z3.5
G1 Z0 F600
G1 X12.723 Z0 F600
; --- FIX Y Backlash ---
G0 X12.723 Y45.417 F410
G1 X12.733 Y45.308 Z0 F600
G1 X12.775 Y45.254 Z0 F600
; --- FIX X Backlash ---
G0 X13.475 Y45.254 F410
G1 X13.623 Y45.089 Z0 F600
G1 X14.018 Y44.676 Z0 F600
; --- FIX Y Backlash ---
G0 X14.018 Y45.176 F410
G1 X14.161 Y45.308 Z0 F600
; --- FIX X Backlash ---
G0 X13.461 Y45.308 F410
G1 X13.394 Y45.795 Z0 F600
G1 X13.39 Y45.917 Z0 F600
G0 Z3.5 F600
; --- FIX X Backlash ---
G0 X14.09 Y45.917 F410
G0 X14.586 Y46.416 Z3.5
G1 Z0 F600
; --- FIX X Backlash ---
G0 X13.886 Y46.416 F410
G1 X12.375 Y46.42 Z0 F600
G1 X12.209 Y46.413 Z0 F600
; --- FIX Y Backlash ---
G0 X12.209 Y45.913 F410
G1 X12.217 Y45.471 Z0 F600
G1 X12.247 Y45.125 Z0 F600
G1 X12.271 Y45.086 Z0 F600
; --- FIX X Backlash ---
G0 X12.971 Y45.086 F410
G1 X13.089 Y44.936 Z0 F600
G1 X13.268 Y44.737 Z0 F600
G1 X13.745 Y44.238 Z0 F600
G1 X13.963 Y43.991 Z0 F600
; --- FIX Y Backlash ---
G0 X13.963 Y44.491 F410
G1 X14.177 Y44.642 Z0 F600
G1 X14.369 Y44.819 Z0 F600
G1 X14.404 Y44.788 Z0 F600
G1 X14.727 Y44.968 Z0 F600
G1 X14.776 Y44.99 Z0 F600
; --- FIX X Backlash ---
G0 X14.076 Y44.99 F410
G1 X13.958 Y45.368 Z0 F600
G1 X13.893 Y45.839 Z0 F600
G1 X13.876 Y46.286 Z0 F600
G1 X13.886 Y46.416 Z0 F600
G0 Z3.5 F600
; --- FIX X Backlash ---
G0 X14.586 Y46.416 F410
G0 X15.149 Y46.914 Z3.5
G1 Z0 F600
; --- FIX X Backlash ---
G0 X14.449 Y46.914 F410
G1 X12.373 Y46.92 Z0 F600
G1 X11.902 Y46.9 Z0 F600
G1 X11.736 Y46.903 Z0 F600
; --- FIX Y Backlash ---
G0 X11.736 Y46.403 F410
G1 X11.721 Y46.285 Z0 F600
G1 X11.707 Y46.035 Z0 F600
G1 X11.718 Y45.442 Z0 F600
G1 X11.758 Y44.971 Z0 F600
G1 X11.774 Y44.935 Z0 F600
; --- FIX X Backlash ---
G0 X12.474 Y44.935 F410
G1 X12.563 Y44.795 Z0 F600
G1 X12.703 Y44.618 Z0 F600
G1 X12.89 Y44.409 Z0 F600
G1 X13.376 Y43.899 Z0 F600
G1 X13.919 Y43.285 Z0 F600
; --- FIX Y Backlash ---
G0 X13.919 Y43.785 F410
G1 X14.204 Y44.048 Z0 F600
G1 X14.574 Y44.31 Z0 F600
G1 X14.948 Y44.52 Z0 F600
G1 X15.523 Y44.768 Z0 F600
; --- FIX X Backlash ---
G0 X14.823 Y44.768 F410
G1 X14.722 Y44.878 Z0 F600
G1 X14.545 Y45.167 Z0 F600
G1 X14.447 Y45.478 Z0 F600
G1 X14.392 Y45.882 Z0 F600
G1 X14.377 Y46.275 Z0 F600
G1 X14.411 Y46.696 Z0 F600
G1 X14.459 Y46.914 Z0 F600
G1 X14.449 Z0 F600
G0 Z3.5 F600
; --- FIX Y Backlash ---
G0 X14.449 Y46.414 F410
G0 X11.222 Y46.32 Z3.5
G1 Z0 F600
G1 X11.207 Y46.046 Z0 F600
G1 X11.219 Y45.412 Z0 F600
G1 X11.267 Y44.844 Z0 F600
; --- FIX X Backlash ---
G0 X11.967 Y44.844 F410
G1 X12.033 Y44.699 Z0 F600
G1 X12.157 Y44.503 Z0 F600
G1 X12.321 Y44.295 Z0 F600
G1 X12.529 Y44.062 Z0 F600
G1 X13.008 Y43.562 Z0 F600
G1 X13.534 Y42.966 Z0 F600
G1 X13.573 Y42.907 Z0 F600
G1 X13.65 Y42.811 Z0 F600
G1 X13.743 Y42.73 Z0 F600
G1 X13.851 Y42.665 Z0 F600
G1 X13.951 Y42.627 Z0 F600
G1 X14.001 Y42.618 Z0 F600
G1 X14.032 Y42.646 Z0 F600
; --- FIX Y Backlash ---
G0 X14.032 Y43.146 F410
G1 X14.214 Y43.376 Z0 F600
G1 X14.52 Y43.659 Z0 F600
G1 X14.841 Y43.886 Z0 F600
G1 X15.17 Y44.07 Z0 F600
G1 X15.771 Y44.33 Z0 F600
G1 X16.31 Y44.538 Z0 F600
G1 X16.455 Y44.584 Z0 F600
G1 X16.511 Y44.591 Z0 F600
; --- FIX X Backlash ---
G0 X15.811 Y44.591 F410
G1 X15.587 Y44.737 Z0 F600
G1 X15.352 Y44.931 Z0 F600
G1 X15.123 Y45.18 Z0 F600
G1 X15.004 Y45.375 Z0 F600
G1 X14.937 Y45.587 Z0 F600
G1 X14.891 Y45.925 Z0 F600
G1 X14.878 Y46.265 Z0 F600
G1 X14.906 Y46.622 Z0 F600
; --- FIX X Backlash ---
G0 X15.606 Y46.622 F410
G1 X15.689 Y46.998 Z0 F600
G1 X15.851 Y47.383 Z0 F600
G1 X15.869 Y47.409 Z0 F600
; --- FIX X Backlash ---
G0 X15.169 Y47.409 F410
G1 X14.453 Y47.414 Z0 F600
G1 X12.363 Y47.42 Z0 F600
G1 X11.895 Y47.401 Z0 F600
G1 X11.421 Y47.408 Z0 F600
G1 X11.322 Y47.399 Z0 F600
G1 X11.319 Z0 F600
G1 X11.307 Y47.359 Z0 F600
; --- FIX Y Backlash ---
G0 X11.307 Y46.859 F410
G1 X11.257 Y46.605 Z0 F600
G1 X11.222 Y46.32 Z0 F600
G0 Z3.5 F600
; --- FIX X Backlash ---
G0 X11.922 Y46.32 F410
G0 X19.638 Y5.563 Z3.5
G1 Z0 F600
G1 X22.696 Y5.559 Z0 F600
; --- FIX X Backlash ---
G0 X21.996 Y5.559 F410
G1 X21.894 Y5.587 Z0 F600
; --- FIX Y Backlash ---
G0 X21.894 Y6.087 F410
G1 X21.452 Y6.281 Z0 F600
G1 X21.041 Y6.521 Z0 F600
G1 X20.769 Y6.731 Z0 F600
; --- FIX Y Backlash ---
G0 X20.769 Y6.231 F410
G1 X20.305 Y6.07 Z0 F600
G1 X19.682 Y5.994 Z0 F600
G1 X19.307 Y6.002 Z0 F600
G1 X19.259 Y5.981 Z0 F600
G1 X19.019 Y5.662 Z0 F600
G1 X18.938 Y5.563 Z0 F600
G0 Z3.5 F600
G0 X17.707 Y5.063 Z3.5
G1 Z0 F600
; --- FIX X Backlash ---
G0 X18.407 Y5.063 F410
G1 X26.291 Y5.055 Z0 F600
; --- FIX X Backlash ---
G0 X25.591 Y5.055 F410
G1 X25.521 Y5.061 Z0 F600
; --- FIX Y Backlash ---
G0 X25.521 Y5.561 F410
G1 X24.743 Y5.706 Z0 F600
G1 X24.217 Y5.919 Z0 F600
G1 X23.814 Y6.272 Z0 F600
G1 X23.238 Y6.312 Z0 F600
G1 X22.683 Y6.387 Z0 F600
G1 X22.062 Y6.56 Z0 F600
G1 X21.679 Y6.728 Z0 F600
G1 X21.321 Y6.937 Z0 F600
G1 X20.977 Y7.203 Z0 F600
G1 X20.863 Y7.317 Z0 F600
; --- FIX Y Backlash ---
G0 X20.863 Y6.817 F410
G1 X20.758 Y6.757 Z0 F600
G1 X20.192 Y6.56 Z0 F600
G1 X19.657 Y6.495 Z0 F600
G1 X19.268 Y6.503 Z0 F600
G1 X19.216 Y6.508 Z0 F600
G1 X19.039 Y6.431 Z0 F600
G1 X18.956 Y6.402 Z0 F600
G1 X18.903 Y6.339 Z0 F600
G1 X18.624 Y5.97 Z0 F600
G1 X18.398 Y5.688 Z0 F600
G1 X18.093 Y5.371 Z0 F600
G1 X17.707 Y5.063 Z0 F600
G0 Z3.5 F600
G0 X16.454 Y4.565 Z3.5
G1 Z0 F600
; --- FIX X Backlash ---
G0 X17.154 Y4.565 F410
G1 X27.172 Y4.554 Z0 F600
G1 X37.192 Z0 F600
G1 X46.621 Y4.551 Z0 F600
; --- FIX Y Backlash ---
G0 X46.621 Y5.051 F410
G1 X46.618 Y14.208 Z0 F600
G1 X46.607 Y23.736 Z0 F600
G1 X46.61 Y33.267 Z0 F600
G1 X46.627 Y37.273 Z0 F600
; --- FIX X Backlash ---
G0 X45.927 Y37.273 F410
; --- FIX Y Backlash ---
G0 X45.927 Y36.773 F410
G1 X45.492 Y35.978 Z0 F600
G1 X44.943 Y35.114 Z0 F600
G1 X44.34 Y34.287 Z0 F600
G1 X43.677 Y33.493 Z0 F600
G1 X43.576 Y33.392 Z0 F600
G1 X43.209 Y33.088 Z0 F600
G1 X42.813 Y32.824 Z0 F600
G1 X42.399 Y32.602 Z0 F600
G1 X41.971 Y32.421 Z0 F600
G1 X41.534 Y32.28 Z0 F600
G1 X41.09 Y32.178 Z0 F600
G1 X40.643 Y32.113 Z0 F600
G1 X40.143 Y32.082 Z0 F600
G1 X39.766 Y32.129 Z0 F600
; --- FIX Y Backlash ---
G0 X39.766 Y32.629 F410
G1 X39.421 Y32.781 Z0 F600
G1 X39.137 Y32.972 Z0 F600
G1 X39.084 Y33.012 Z0 F600
; --- FIX Y Backlash ---
G0 X39.084 Y32.512 F410
G1 X38.995 Y32.447 Z0 F600
G1 X38.919 Y32.377 Z0 F600
G1 X38.904 Y32.358 Z0 F600
G1 Y32.35 Z0 F600
G1 Y32.332 Z0 F600
G1 X38.883 Y31.642 Z0 F600
G1 X38.904 Y31.07 Z0 F600
G1 X38.932 Y30.843 Z0 F600
G1 X38.976 Y30.623 Z0 F600
; --- FIX X Backlash ---
G0 X39.676 Y30.623 F410
G1 X39.731 Y30.435 Z0 F600
G1 X39.835 Y30.182 Z0 F600
G1 X39.916 Y29.951 Z0 F600
G1 X39.953 Y29.63 Z0 F600
G1 X39.921 Y29.309 Z0 F600
; --- FIX X Backlash ---
G0 X39.221 Y29.309 F410
G1 X39.132 Y29.033 Z0 F600
G1 X38.846 Y28.461 Z0 F600
G1 X38.454 Y27.889 Z0 F600
G1 X38.155 Y27.575 Z0 F600
G1 X37.809 Y27.303 Z0 F600
G1 X37.397 Y27.077 Z0 F600
G1 X37.033 Y26.956 Z0 F600
G1 X36.522 Y26.761 Z0 F600
G1 X36.531 Y26.754 Z0 F600
; --- FIX X Backlash ---
G0 X37.231 Y26.754 F410
G1 X37.591 Y26.36 Z0 F600
G1 X37.876 Y25.97 Z0 F600
G1 X38.117 Y25.557 Z0 F600
G1 X38.313 Y25.127 Z0 F600
G1 X38.464 Y24.686 Z0 F600
G1 X38.574 Y24.234 Z0 F600
G1 X38.641 Y23.778 Z0 F600
G1 X38.667 Y23.304 Z0 F600
G1 X38.652 Y23.081 Z0 F600
; --- FIX X Backlash ---
G0 X37.952 Y23.081 F410
G1 X37.899 Y22.858 Z0 F600
G1 X37.696 Y22.337 Z0 F600
G1 X37.406 Y21.832 Z0 F600
G1 X37.218 Y21.589 Z0 F600
; --- FIX X Backlash ---
G0 X37.918 Y21.589 F410
G1 X37.97 Y21.562 Z0 F600
G1 X38.298 Y21.293 Z0 F600
G1 X38.468 Y21.099 Z0 F600
G1 X38.506 Y21.09 Z0 F600
G1 X38.762 Y20.989 Z0 F600
G1 X39.042 Y20.813 Z0 F600
G1 X39.304 Y20.547 Z0 F600
G1 X39.492 Y20.225 Z0 F600
G1 X39.589 Y19.911 Z0 F600
G1 X39.621 Y19.633 Z0 F600
G1 X39.61 Y19.377 Z0 F600
; --- FIX X Backlash ---
G0 X38.91 Y19.377 F410
G1 X38.857 Y19.135 Z0 F600
G1 X38.848 Y19.109 Z0 F600
G1 X38.797 Y18.584 Z0 F600
G1 X38.703 Y17.924 Z0 F600
G1 X38.583 Y17.277 Z0 F600
G1 X38.432 Y16.596 Z0 F600
G1 X38.336 Y16.331 Z0 F600
G1 X38.16 Y16.055 Z0 F600
G1 X37.929 Y15.824 Z0 F600
G1 X37.909 Y15.811 Z0 F600
G1 X37.945 Y15.776 Z0 F600
; --- FIX X Backlash ---
G0 X38.645 Y15.776 F410
G1 X38.727 Y15.674 Z0 F600
G1 X38.761 Y15.688 Z0 F600
G1 X38.837 Y15.536 Z0 F600
G1 X38.841 Y15.531 Z0 F600
G1 X39.017 Y15.255 Z0 F600
G1 X39.166 Y14.935 Z0 F600
G1 X39.208 Y14.798 Z0 F600
G1 X39.22 Y14.773 Z0 F600
G1 X39.283 Y14.675 Z0 F600
G1 X39.423 Y14.47 Z0 F600
G1 X39.601 Y14.197 Z0 F600
G1 X39.801 Y13.816 Z0 F600
G1 X39.954 Y13.351 Z0 F600
G1 X40.004 Y13.043 Z0 F600
G1 X40.017 Y12.737 Z0 F600
G1 X39.985 Y12.412 Z0 F600
; --- FIX X Backlash ---
G0 X39.285 Y12.412 F410
G1 X39.228 Y12.178 Z0 F600
G1 X39.054 Y11.343 Z0 F600
G1 X38.78 Y10.516 Z0 F600
G1 X38.479 Y9.777 Z0 F600
G1 X38.247 Y9.234 Z0 F600
G1 X38.24 Y9.048 Z0 F600
G1 X38.209 Y8.812 Z0 F600
G1 X38.096 Y8.503 Z0 F600
G1 X37.898 Y8.196 Z0 F600
G1 X37.654 Y7.954 Z0 F600
G1 X37.353 Y7.77 Z0 F600
G1 X37.013 Y7.661 Z0 F600
G1 X36.7 Y7.64 Z0 F600
; --- FIX Y Backlash ---
G0 X36.7 Y8.14 F410
G1 X35.822 Y8.212 Z0 F600
G1 X35.049 Y8.303 Z0 F600
G1 X34.38 Y8.369 Z0 F600
G1 X33.801 Y8.379 Z0 F600
G1 X32.856 Y8.369 Z0 F600
G1 X32.02 Y8.354 Z0 F600
; --- FIX Y Backlash ---
G0 X32.02 Y7.854 F410
G1 X31.271 Y7.801 Z0 F600
G1 X30.93 Y7.743 Z0 F600
G1 X30.774 Y7.605 Z0 F600
G1 X30.545 Y7.458 Z0 F600
G1 X30.257 Y7.341 Z0 F600
G1 X29.945 Y7.288 Z0 F600
G1 X29.66 Y7.294 Z0 F600
G1 X29.447 Y7.334 Z0 F600
G1 X29.428 Y7.325 Z0 F600
G1 X29.022 Y7.073 Z0 F600
G1 X28.748 Y6.917 Z0 F600
G1 X28.737 Y6.835 Z0 F600
G1 X28.589 Y6.488 Z0 F600
G1 X28.361 Y6.188 Z0 F600
G1 X28.081 Y5.97 Z0 F600
G1 X27.62 Y5.741 Z0 F600
G1 X27.173 Y5.599 Z0 F600
G1 X26.738 Y5.524 Z0 F600
G1 X26.305 Y5.501 Z0 F600
; --- FIX Y Backlash ---
G0 X26.305 Y6.001 F410
G1 X25.586 Y6.057 Z0 F600
G1 X24.884 Y6.188 Z0 F600
G1 X24.483 Y6.351 Z0 F600
G1 X24.149 Y6.644 Z0 F600
G1 X24.068 Y6.754 Z0 F600
G1 X24.019 Y6.76 Z0 F600
G1 X23.289 Y6.81 Z0 F600
G1 X22.784 Y6.877 Z0 F600
G1 X22.23 Y7.032 Z0 F600
G1 X21.906 Y7.174 Z0 F600
G1 X21.601 Y7.352 Z0 F600
G1 X21.308 Y7.579 Z0 F600
G1 X21.107 Y7.78 Z0 F600
G1 X21.059 Y7.824 Z0 F600
G1 X21.022 Y7.836 Z0 F600
G1 X20.958 Y7.847 Z0 F600
G1 X20.883 Z0 F600
G1 X20.802 Y7.835 Z0 F600
G1 X20.748 Y7.819 Z0 F600
G1 X20.651 Y7.771 Z0 F600
; --- FIX Y Backlash ---
G0 X20.651 Y7.271 F410
G1 X20.551 Y7.214 Z0 F600
G1 X20.077 Y7.05 Z0 F600
G1 X19.633 Y6.995 Z0 F600
G1 X19.294 Y7.003 Z0 F600
G1 X19.13 Y7.016 Z0 F600
G1 X19.121 Y7.011 Z0 F600
G1 X18.857 Y6.897 Z0 F600
G1 X18.659 Y6.829 Z0 F600
G1 X18.641 Y6.803 Z0 F600
G1 X18.508 Y6.647 Z0 F600
G1 X18.23 Y6.277 Z0 F600
G1 X18.022 Y6.019 Z0 F600
G1 X17.755 Y5.741 Z0 F600
G1 X17.409 Y5.466 Z0 F600
G1 X16.986 Y5.228 Z0 F600
G1 X16.648 Y5.116 Z0 F600
G1 X16.332 Y4.96 Z0 F600
G1 X15.906 Y4.803 Z0 F600
G1 X15.489 Y4.691 Z0 F600
G1 X15.078 Y4.612 Z0 F600
G1 X14.708 Y4.571 Z0 F600
; --- FIX X Backlash ---
G0 X15.408 Y4.571 F410
G1 X17.154 Y4.565 Z0 F600
G0 Z3.5 F600
G0 X27.171 Y4.054 Z3.5
G1 Z0 F600
G1 X37.192 Z0 F600
G1 X47.054 Y4.051 Z0 F600
G1 X47.112 Y4.092 Z0 F600
G1 X47.125 Y4.104 Z0 F600
; --- FIX Y Backlash ---
G0 X47.125 Y4.604 F410
G1 X47.121 Y4.663 Z0 F600
G1 X47.118 Y14.209 Z0 F600
G1 X47.107 Y23.736 Z0 F600
G1 X47.11 Y33.265 Z0 F600
G1 X47.147 Y42.147 Z0 F600
; --- FIX X Backlash ---
G0 X46.447 Y42.147 F410
; --- FIX Y Backlash ---
G0 X46.447 Y41.647 F410
G1 X45.622 Y37.354 Z0 F600
G1 X45.593 Y37.235 Z0 F600
G1 X45.54 Y37.108 Z0 F600
G1 X45.061 Y36.232 Z0 F600
G1 X44.53 Y35.396 Z0 F600
G1 X43.946 Y34.595 Z0 F600
G1 X43.308 Y33.831 Z0 F600
G1 X43.24 Y33.763 Z0 F600
G1 X42.91 Y33.49 Z0 F600
G1 X42.555 Y33.253 Z0 F600
G1 X42.183 Y33.054 Z0 F600
G1 X41.797 Y32.891 Z0 F600
G1 X41.401 Y32.763 Z0 F600
G1 X40.998 Y32.67 Z0 F600
G1 X40.591 Y32.611 Z0 F600
G1 X40.159 Y32.584 Z0 F600
G1 X39.9 Y32.616 Z0 F600
; --- FIX Y Backlash ---
G0 X39.9 Y33.116 F410
G1 X39.663 Y33.22 Z0 F600
G1 X39.427 Y33.379 Z0 F600
G1 X39.127 Y33.606 Z0 F600
G1 X39.119 Y33.611 Z0 F600
G1 X39.022 Y33.563 Z0 F600
; --- FIX Y Backlash ---
G0 X39.022 Y33.063 F410
G1 X38.836 Y32.951 Z0 F600
G1 X38.676 Y32.833 Z0 F600
G1 X38.553 Y32.72 Z0 F600
G1 X38.471 Y32.62 Z0 F600
G1 X38.428 Y32.541 Z0 F600
G1 X38.409 Y32.476 Z0 F600
G1 X38.404 Y32.354 Z0 F600
G1 Y32.331 Z0 F600
G1 X38.382 Y31.635 Z0 F600
G1 X38.405 Y31.032 Z0 F600
G1 X38.438 Y30.764 Z0 F600
; --- FIX X Backlash ---
G0 X39.138 Y30.764 F410
G1 X39.188 Y30.51 Z0 F600
G1 X39.26 Y30.265 Z0 F600
G1 X39.367 Y30.004 Z0 F600
G1 X39.425 Y29.838 Z0 F600
G1 X39.45 Y29.625 Z0 F600
G1 X39.429 Y29.413 Z0 F600
; --- FIX X Backlash ---
G0 X38.729 Y29.413 F410
G1 X38.668 Y29.224 Z0 F600
G1 X38.414 Y28.715 Z0 F600
G1 X38.065 Y28.205 Z0 F600
G1 X37.818 Y27.946 Z0 F600
G1 X37.532 Y27.722 Z0 F600
G1 X37.196 Y27.537 Z0 F600
G1 X36.869 Y27.428 Z0 F600
G1 X36.366 Y27.236 Z0 F600
G1 X35.837 Y27.105 Z0 F600
G1 X35.327 Y27.028 Z0 F600
G1 X34.888 Y26.988 Z0 F600
G1 X34.262 Y26.831 Z0 F600
G1 X33.586 Y26.732 Z0 F600
G1 X32.938 Y26.684 Z0 F600
G1 X32.382 Y26.661 Z0 F600
G1 X32.082 Y26.575 Z0 F600
G1 X31.647 Y26.436 Z0 F600
G1 X31.366 Y26.369 Z0 F600
G1 X31.057 Y26.325 Z0 F600
G1 X30.718 Y26.317 Z0 F600
G1 X30.487 Y26.344 Z0 F600
G1 X29.929 Y26.347 Z0 F600
G1 X29.523 Y26.362 Z0 F600
; --- FIX X Backlash ---
G0 X30.223 Y26.362 F410
G1 X30.614 Y26.176 Z0 F600
G1 X31.008 Y26.062 Z0 F600
G1 X31.171 Y26.043 Z0 F600
G1 X31.332 Z0 F600
G1 X31.481 Y26.069 Z0 F600
; --- FIX Y Backlash ---
G0 X31.481 Y26.569 F410
G1 X31.685 Y26.637 Z0 F600
G1 X32.16 Y26.8 Z0 F600
G1 X32.72 Y26.885 Z0 F600
G1 X33.269 Y26.88 Z0 F600
; --- FIX Y Backlash ---
G0 X33.269 Y26.38 F410
G1 X33.65 Y26.324 Z0 F600
G1 X34.231 Z0 F600
G1 X34.819 Y26.358 Z0 F600
; --- FIX Y Backlash ---
G0 X34.819 Y26.858 F410
G1 X35.369 Y26.942 Z0 F600
G1 X35.931 Y27.101 Z0 F600
G1 X36.152 Y27.147 Z0 F600
G1 X36.426 Y27.127 Z0 F600
; --- FIX Y Backlash ---
G0 X36.426 Y26.627 F410
G1 X36.687 Y26.533 Z0 F600
G1 X36.896 Y26.38 Z0 F600
G1 X37.204 Y26.042 Z0 F600
G1 X37.458 Y25.695 Z0 F600
G1 X37.672 Y25.327 Z0 F600
G1 X37.847 Y24.942 Z0 F600
G1 X37.984 Y24.545 Z0 F600
G1 X38.083 Y24.139 Z0 F600
G1 X38.143 Y23.728 Z0 F600
G1 X38.167 Y23.307 Z0 F600
G1 X38.156 Y23.157 Z0 F600
G1 X38.12 Y23.008 Z0 F600
; --- FIX X Backlash ---
G0 X37.42 Y23.008 F410
G1 X37.243 Y22.553 Z0 F600
G1 X36.989 Y22.111 Z0 F600
G1 X36.815 Y21.885 Z0 F600
G1 X36.617 Y21.68 Z0 F600
G1 X36.388 Y21.493 Z0 F600
G1 X36.287 Y21.431 Z0 F600
; --- FIX X Backlash ---
G0 X36.987 Y21.431 F410
G1 X37.081 Y21.408 Z0 F600
G1 X37.41 Y21.296 Z0 F600
G1 X37.69 Y21.144 Z0 F600
G1 X37.949 Y20.933 Z0 F600
G1 X38.172 Y20.678 Z0 F600
G1 X38.191 Y20.648 Z0 F600
G1 X38.198 Z0 F600
G1 X38.358 Y20.611 Z0 F600
G1 X38.535 Y20.542 Z0 F600
G1 X38.726 Y20.421 Z0 F600
G1 X38.903 Y20.24 Z0 F600
G1 X39.031 Y20.022 Z0 F600
G1 X39.098 Y19.808 Z0 F600
G1 X39.12 Y19.615 Z0 F600
G1 X39.112 Y19.441 Z0 F600
G1 X39.075 Y19.273 Z0 F600
G1 X39.056 Y19.218 Z0 F600
; --- FIX X Backlash ---
G0 X38.356 Y19.218 F410
G1 X38.3 Y18.644 Z0 F600
G1 X38.21 Y18.005 Z0 F600
G1 X38.093 Y17.377 Z0 F600
G1 X37.95 Y16.736 Z0 F600
G1 X37.884 Y16.552 Z0 F600
G1 X37.768 Y16.37 Z0 F600
G1 X37.615 Y16.216 Z0 F600
G1 X37.441 Y16.106 Z0 F600
G1 X37.131 Y15.977 Z0 F600
G1 X37.022 Y15.945 Z0 F600
; --- FIX X Backlash ---
G0 X37.722 Y15.945 F410
G1 X37.969 Y15.739 Z0 F600
G1 X38.273 Y15.44 Z0 F600
G1 X38.434 Y15.24 Z0 F600
G1 X38.577 Y15.015 Z0 F600
G1 X38.698 Y14.755 Z0 F600
G1 X38.742 Y14.61 Z0 F600
G1 X38.781 Y14.531 Z0 F600
G1 X38.877 Y14.382 Z0 F600
G1 X39.007 Y14.192 Z0 F600
G1 X39.169 Y13.943 Z0 F600
G1 X39.339 Y13.621 Z0 F600
G1 X39.467 Y13.231 Z0 F600
G1 X39.506 Y12.993 Z0 F600
G1 X39.516 Y12.75 Z0 F600
G1 X39.491 Y12.496 Z0 F600
; --- FIX X Backlash ---
G0 X38.791 Y12.496 F410
G1 X38.739 Y12.284 Z0 F600
G1 X38.571 Y11.473 Z0 F600
G1 X38.311 Y10.689 Z0 F600
G1 X38.017 Y9.969 Z0 F600
G1 X37.749 Y9.34 Z0 F600
G1 Y9.288 Z0 F600
G1 X37.741 Y9.09 Z0 F600
G1 X37.72 Y8.931 Z0 F600
