G90 ; Force absolute mode
;LightBurn 1.6.04
;Custom GCode device profile, absolute coords
;Bounds: X26.92 Y27.83 to X123.08 Y62.17
G00 G17 G40 G21 G54
M3
G1 Z10 F500
;Cut @ 1500 mm/min, 80% power

M8
G0 Z3.5 F500
G0 X26.952 Y37.387 Z3.5
G1 Z0 F500
;Layer C1
G1 X26.924 Y37.449 Z0 S800 F800
G1 X26.927 Y37.54 Z0 F800
G1 X26.975 Y37.76 Z0 F800
G1 X26.988 Y37.947 Z0 F800
G1 X28.095 Y44.962 Z0 F800
G1 X28.673 Y48.456 Z0 F800
G1 X29.302 Y51.914 Z0 F800
G1 X30.524 Y52.055 Z0 F800
G1 X31.757 Y52.144 Z0 F800
G1 X32.999 Y52.19 Z0 F800
G1 X34.245 Y52.198 Z0 F800
; --- FIX Y Backlash ---
G0 X34.245 Y51.298 F1200
G1 X36.737 Y51.229 Z0 F800
G1 X39.205 Y51.095 Z0 F800
G1 X39.263 Y50.612 Z0 F800
G1 X39.27 Y50.191 Z0 F800
G1 X39.228 Y49.827 Z0 F800
; --- FIX X Backlash ---
G0 X38.328 Y49.827 F1200
G1 X38.241 Y49.517 Z0 F800
G1 X38.112 Y49.256 Z0 F800
G1 X37.944 Y49.041 Z0 F800
G1 X37.74 Y48.868 Z0 F800
G1 X37.505 Y48.733 Z0 F800
G1 X37.241 Y48.632 Z0 F800
G1 X36.952 Y48.561 Z0 F800
G1 X36.64 Y48.515 Z0 F800
G1 X36.31 Y48.492 Z0 F800
G1 X35.607 Z0 F800
G1 X34.869 Y48.537 Z0 F800
; --- FIX Y Backlash ---
G0 X34.869 Y49.437 F1200
G1 X34.124 Y49.489 Z0 F800
G1 X33.397 Y49.517 Z0 F800
G1 X33.049 Y49.513 Z0 F800
G1 X32.716 Y49.491 Z0 F800
G1 X32.401 Y49.447 Z0 F800
; --- FIX Y Backlash ---
G0 X32.401 Y48.547 F1200
G1 X32.107 Y48.477 Z0 F800
G1 X31.837 Y48.378 Z0 F800
G1 X31.596 Y48.246 Z0 F800
G1 X31.387 Y48.075 Z0 F800
G1 X31.212 Y47.864 Z0 F800
G1 X31.075 Y47.607 Z0 F800
G1 X30.979 Y47.3 Z0 F800
G1 X30.928 Y46.94 Z0 F800
G1 Y46.523 Z0 F800
G1 X30.877 Y46.255 Z0 F800
G1 X30.866 Y46.022 Z0 F800
G1 X30.89 Y45.819 Z0 F800
; --- FIX X Backlash ---
G0 X31.79 Y45.819 F1200
G1 X31.848 Y45.646 Z0 F800
G1 X31.937 Y45.5 Z0 F800
G1 X32.054 Y45.38 Z0 F800
G1 X32.197 Y45.283 Z0 F800
G1 X32.364 Y45.207 Z0 F800
G1 X32.761 Y45.11 Z0 F800
G1 X33.225 Y45.073 Z0 F800
G1 X33.737 Y45.08 Z0 F800
G1 X34.279 Y45.114 Z0 F800
G1 X34.833 Y45.16 Z0 F800
G1 X35.379 Y45.199 Z0 F800
G1 X35.899 Y45.217 Z0 F800
G1 X36.375 Y45.197 Z0 F800
G1 X36.589 Y45.168 Z0 F800
G1 X36.786 Y45.123 Z0 F800
G1 X36.962 Y45.06 Z0 F800
G1 X37.116 Y44.977 Z0 F800
G1 X37.244 Y44.873 Z0 F800
G1 X37.345 Y44.744 Z0 F800
G1 X37.415 Y44.59 Z0 F800
G1 X37.454 Y44.407 Z0 F800
G1 X37.508 Y44 Z0 F800
G1 Y43.655 Z0 F800
G1 X37.464 Y43.368 Z0 F800
; --- FIX X Backlash ---
G0 X36.564 Y43.368 F1200
G1 X36.474 Y43.134 Z0 F800
G1 X36.344 Y42.947 Z0 F800
G1 X36.179 Y42.802 Z0 F800
G1 X35.982 Y42.695 Z0 F800
G1 X35.759 Y42.62 Z0 F800
G1 X35.25 Y42.548 Z0 F800
G1 X34.684 Y42.544 Z0 F800
G1 X34.098 Y42.569 Z0 F800
G1 X33.526 Y42.582 Z0 F800
; --- FIX Y Backlash ---
G0 X33.526 Y43.482 F1200
G1 X33.161 Y43.585 Z0 F800
G1 X32.82 Y43.657 Z0 F800
G1 X32.503 Y43.7 Z0 F800
G1 X32.208 Y43.715 Z0 F800
G1 X31.934 Y43.703 Z0 F800
G1 X31.681 Y43.666 Z0 F800
; --- FIX Y Backlash ---
G0 X31.681 Y42.766 F1200
G1 X31.448 Y42.706 Z0 F800
G1 X31.234 Y42.622 Z0 F800
G1 X31.037 Y42.516 Z0 F800
G1 X30.857 Y42.391 Z0 F800
G1 X30.694 Y42.246 Z0 F800
G1 X30.545 Y42.083 Z0 F800
G1 X30.291 Y41.709 Z0 F800
G1 X30.086 Y41.277 Z0 F800
G1 X29.925 Y40.799 Z0 F800
G1 X29.799 Y40.284 Z0 F800
G1 X29.702 Y39.742 Z0 F800
G1 X29.626 Y39.183 Z0 F800
G1 X29.511 Y38.053 Z0 F800
G1 X29.395 Y36.973 Z0 F800
G1 X29.332 Y36.796 Z0 F800
G1 X29.232 Y36.66 Z0 F800
G1 X29.099 Y36.56 Z0 F800
G1 X28.938 Y36.492 Z0 F800
G1 X28.546 Y36.432 Z0 F800
G1 X28.089 Y36.444 Z0 F800
; --- FIX Y Backlash ---
G0 X28.089 Y37.344 F1200
G1 X27.108 Y37.441 Z0 F800
G1 X26.65 Y37.455 Z0 F800
; --- FIX Y Backlash ---
G0 X26.65 Y36.555 F1200
G1 X26.256 Y36.497 Z0 F800
G1 X26.125 Y36.465 Z0 F800
G1 X26.052 Y36.487 Z0 F800
G0 Z3.5 F500
; --- FIX X Backlash ---
G0 X26.952 Y36.487 F1200
; --- FIX Y Backlash ---
G0 X26.952 Y37.387 F1200
G0 X38.602 Y37.593 Z3.5 F1500
G1 Z0 F500
G1 X38.638 Y37.943 Z0 F800
G1 X39.177 Y41.381 Z0 F800
G1 X39.744 Y44.81 Z0 F800
G1 X40.301 Y48.237 Z0 F800
G1 X40.809 Y51.669 Z0 F800
G1 X41.24 Y51.926 Z0 F800
G1 X41.661 Y52.117 Z0 F800
G1 X42.066 Y52.243 Z0 F800
G1 X42.452 Y52.307 Z0 F800
G1 X42.812 Y52.312 Z0 F800
; --- FIX Y Backlash ---
G0 X42.812 Y51.412 F1200
G1 X43.142 Y51.359 Z0 F800
G1 X43.437 Y51.252 Z0 F800
G1 X43.692 Y51.093 Z0 F800
G1 X43.903 Y50.884 Z0 F800
G1 X44.063 Y50.627 Z0 F800
G1 X44.17 Y50.326 Z0 F800
G1 X44.216 Y49.981 Z0 F800
G1 X44.199 Y49.597 Z0 F800
; --- FIX X Backlash ---
G0 X43.299 Y49.597 F1200
G1 X43.212 Y49.175 Z0 F800
G1 X43.052 Y48.717 Z0 F800
G1 X42.812 Y48.226 Z0 F800
G1 X42.339 Y45.308 Z0 F800
G1 X41.851 Y42.392 Z0 F800
G1 X41.379 Y39.478 Z0 F800
G1 X40.959 Y36.562 Z0 F800
G1 X40.561 Y36.586 Z0 F800
G1 X40.12 Y36.571 Z0 F800
G1 X39.656 Y36.535 Z0 F800
G1 X39.189 Y36.497 Z0 F800
G1 X38.74 Y36.475 Z0 F800
G1 X38.329 Y36.488 Z0 F800
G1 X38.144 Y36.513 Z0 F800
G1 X37.977 Y36.554 Z0 F800
; --- FIX Y Backlash ---
G0 X37.977 Y37.454 F1200
G1 X37.828 Y37.513 Z0 F800
G1 X37.702 Y37.593 Z0 F800
G0 Z3.5 F500
; --- FIX X Backlash ---
G0 X38.602 Y37.593 F1200
G0 X44.704 Y38.793 Z3.5
G1 Z0 F500
; --- FIX Y Backlash ---
G0 X44.704 Y37.893 F1200
G1 X44.93 Y37.504 Z0 F800
G1 X45.198 Y37.172 Z0 F800
G1 X45.503 Y36.894 Z0 F800
G1 X45.841 Y36.669 Z0 F800
G1 X46.205 Y36.494 Z0 F800
G1 X46.591 Y36.367 Z0 F800
G1 X46.993 Y36.286 Z0 F800
G1 X47.407 Y36.248 Z0 F800
G1 X47.826 Y36.251 Z0 F800
G1 X48.246 Y36.293 Z0 F800
; --- FIX Y Backlash ---
G0 X48.246 Y37.193 F1200
G1 X48.662 Y37.272 Z0 F800
G1 X49.068 Y37.385 Z0 F800
G1 X49.46 Y37.531 Z0 F800
G1 X49.831 Y37.706 Z0 F800
G1 X50.177 Y37.909 Z0 F800
G1 X50.492 Y38.138 Z0 F800
G1 X50.656 Y38.405 Z0 F800
G1 X50.797 Y38.624 Z0 F800
G1 X50.918 Y38.798 Z0 F800
G1 X51.021 Y38.929 Z0 F800
G1 X51.106 Y39.02 Z0 F800
G1 X51.176 Y39.075 Z0 F800
G1 X51.233 Y39.095 Z0 F800
G1 X51.278 Y39.085 Z0 F800
; --- FIX Y Backlash ---
G0 X51.278 Y38.185 F1200
G1 X51.339 Y38.084 Z0 F800
G1 X51.373 Y37.895 Z0 F800
G1 X51.393 Y37.641 Z0 F800
G1 X51.414 Y37.345 Z0 F800
G1 X51.449 Y37.031 Z0 F800
G1 X51.512 Y36.723 Z0 F800
G1 X51.616 Y36.444 Z0 F800
G1 X51.774 Y36.216 Z0 F800
G1 X51.879 Y36.13 Z0 F800
G1 X52.001 Y36.065 Z0 F800
G1 X52.145 Y36.025 Z0 F800
G1 X52.311 Y36.013 Z0 F800
G1 X52.5 Y36.031 Z0 F800
; --- FIX Y Backlash ---
G0 X52.5 Y36.931 F1200
G1 X52.715 Y36.983 Z0 F800
G1 X52.958 Y37.071 Z0 F800
G1 X53.23 Y37.199 Z0 F800
G1 X53.483 Y37.256 Z0 F800
G1 X53.713 Y37.337 Z0 F800
G1 X53.921 Y37.439 Z0 F800
G1 X54.109 Y37.563 Z0 F800
G1 X54.427 Y37.868 Z0 F800
G1 X54.677 Y38.242 Z0 F800
G1 X54.868 Y38.677 Z0 F800
G1 X55.01 Y39.162 Z0 F800
G1 X55.112 Y39.688 Z0 F800
G1 X55.183 Y40.245 Z0 F800
G1 X55.273 Y41.416 Z0 F800
G1 X55.354 Y42.598 Z0 F800
G1 X55.416 Y43.17 Z0 F800
G1 X55.503 Y43.716 Z0 F800
G1 X55.627 Y44.226 Z0 F800
G1 X55.795 Y44.692 Z0 F800
G1 X56.063 Y45.549 Z0 F800
G1 X56.241 Y46.378 Z0 F800
G1 X56.286 Y46.768 Z0 F800
G1 X56.295 Y47.136 Z0 F800
G1 X56.265 Y47.475 Z0 F800
; --- FIX X Backlash ---
G0 X55.365 Y47.475 F1200
G1 X55.292 Y47.782 Z0 F800
G1 X55.17 Y48.049 Z0 F800
G1 X54.997 Y48.273 Z0 F800
G1 X54.767 Y48.447 Z0 F800
G1 X54.477 Y48.568 Z0 F800
G1 X54.122 Y48.628 Z0 F800
G1 X53.699 Y48.624 Z0 F800
G1 X53.46 Y48.596 Z0 F800
G1 X53.202 Y48.55 Z0 F800
; --- FIX Y Backlash ---
G0 X53.202 Y47.65 F1200
G1 X52.925 Y47.585 Z0 F800
G1 X52.628 Y47.5 Z0 F800
G1 X52.348 Y47.269 Z0 F800
G1 X52.119 Y46.985 Z0 F800
G1 X51.935 Y46.653 Z0 F800
G1 X51.789 Y46.28 Z0 F800
G1 X51.676 Y45.873 Z0 F800
G1 X51.59 Y45.436 Z0 F800
G1 X51.525 Y44.976 Z0 F800
G1 X51.475 Y44.499 Z0 F800
G1 X51.393 Y43.518 Z0 F800
G1 X51.299 Y42.543 Z0 F800
G1 X51.232 Y42.072 Z0 F800
G1 X51.143 Y41.62 Z0 F800
G1 X51.027 Y41.194 Z0 F800
G1 X50.877 Y40.8 Z0 F800
G1 X50.853 Y40.585 Z0 F800
G1 X50.806 Y40.385 Z0 F800
G1 X50.738 Y40.198 Z0 F800
G1 X50.649 Y40.025 Z0 F800
G1 X50.42 Y39.721 Z0 F800
G1 X50.133 Y39.474 Z0 F800
G1 X49.801 Y39.284 Z0 F800
G1 X49.439 Y39.152 Z0 F800
G1 X49.06 Y39.079 Z0 F800
G1 X48.679 Y39.065 Z0 F800
G1 X48.31 Y39.111 Z0 F800
; --- FIX Y Backlash ---
G0 X48.31 Y40.011 F1200
G1 X47.967 Y40.119 Z0 F800
G1 X47.663 Y40.287 Z0 F800
G1 X47.413 Y40.518 Z0 F800
G1 X47.313 Y40.657 Z0 F800
G1 X47.231 Y40.812 Z0 F800
G1 X47.169 Y40.982 Z0 F800
G1 X47.13 Y41.169 Z0 F800
G1 X47.115 Y41.371 Z0 F800
G1 X47.125 Y41.59 Z0 F800
G1 X47.163 Y41.825 Z0 F800
; --- FIX X Backlash ---
G0 X48.063 Y41.825 F1200
G1 X48.13 Y42.076 Z0 F800
G1 X48.108 Y42.548 Z0 F800
G1 X48.156 Y43.075 Z0 F800
G1 X48.256 Y43.641 Z0 F800
G1 X48.391 Y44.234 Z0 F800
G1 X48.696 Y45.445 Z0 F800
G1 X48.936 Y46.596 Z0 F800
G1 X48.989 Y47.115 Z0 F800
G1 X48.973 Y47.577 Z0 F800
G1 X48.935 Y47.783 Z0 F800
; --- FIX X Backlash ---
G0 X48.035 Y47.783 F1200
G1 X47.973 Y47.97 Z0 F800
G1 X47.886 Y48.136 Z0 F800
G1 X47.771 Y48.279 Z0 F800
G1 X47.626 Y48.397 Z0 F800
G1 X47.45 Y48.49 Z0 F800
G1 X47.239 Y48.555 Z0 F800
G1 X46.992 Y48.59 Z0 F800
G1 X46.707 Y48.594 Z0 F800
G1 X46.381 Y48.564 Z0 F800
; --- FIX Y Backlash ---
G0 X46.381 Y47.664 F1200
G1 X46.013 Y47.6 Z0 F800
G1 X45.6 Y47.5 Z0 F800
G1 X44.898 Y47.473 Z0 F800
G1 X44.841 Y47.448 Z0 F800
G1 X44.664 Y46.263 Z0 F800
G1 X44.423 Y45.072 Z0 F800
G1 X44.156 Y43.877 Z0 F800
G1 X43.902 Y42.68 Z0 F800
G1 X43.7 Y41.482 Z0 F800
G1 X43.591 Y40.283 Z0 F800
G1 X43.583 Y39.685 Z0 F800
G1 X43.612 Y39.087 Z0 F800
; --- FIX X Backlash ---
G0 X44.512 Y39.087 F1200
G1 X44.585 Y38.489 Z0 F800
G1 X44.704 Y37.893 Z0 F800
G0 Z3.5 F500
G0 X56.583 Y36.436 Z3.5
G1 Z0 F500
G1 X56.936 Y36.296 Z0 F800
G1 X57.266 Y36.186 Z0 F800
G1 X57.575 Y36.105 Z0 F800
G1 X57.863 Y36.051 Z0 F800
G1 X58.131 Y36.025 Z0 F800
G1 X58.38 Z0 F800
G1 X58.611 Y36.048 Z0 F800
G1 X58.825 Y36.095 Z0 F800
; --- FIX Y Backlash ---
G0 X58.825 Y36.995 F1200
G1 X59.203 Y37.154 Z0 F800
G1 X59.52 Y37.392 Z0 F800
G1 X59.785 Y37.701 Z0 F800
G1 X60.002 Y38.07 Z0 F800
G1 X60.178 Y38.49 Z0 F800
G1 X60.32 Y38.952 Z0 F800
G1 X60.435 Y39.447 Z0 F800
G1 X60.528 Y39.965 Z0 F800
G1 X60.677 Y41.034 Z0 F800
G1 X60.818 Y42.084 Z0 F800
; --- FIX X Backlash ---
G0 X59.918 Y42.084 F1200
G1 X59.865 Y42.453 Z0 F800
G1 X59.878 Y42.869 Z0 F800
; --- FIX X Backlash ---
G0 X60.778 Y42.869 F1200
G1 X60.845 Y43.324 Z0 F800
G1 X60.953 Y43.808 Z0 F800
G1 X61.241 Y44.824 Z0 F800
G1 X61.536 Y45.841 Z0 F800
G1 X61.655 Y46.327 Z0 F800
G1 X61.737 Y46.783 Z0 F800
G1 X61.77 Y47.202 Z0 F800
G1 X61.74 Y47.574 Z0 F800
G1 X61.698 Y47.739 Z0 F800
; --- FIX X Backlash ---
G0 X60.798 Y47.739 F1200
G1 X60.735 Y47.889 Z0 F800
G1 X60.65 Y48.022 Z0 F800
G1 X60.542 Y48.137 Z0 F800
G1 X60.408 Y48.233 Z0 F800
G1 X60.247 Y48.309 Z0 F800
G1 X60.058 Y48.363 Z0 F800
G1 X59.838 Y48.395 Z0 F800
G1 X58.672 Y48.406 Z0 F800
G1 X58.089 Y48.394 Z0 F800
G1 X57.513 Y48.348 Z0 F800
; --- FIX Y Backlash ---
G0 X57.513 Y47.448 F1200
G1 X56.586 Y41.953 Z0 F800
G1 X55.683 Y36.436 Z0 F800
G0 Z3.5 F500
; --- FIX X Backlash ---
G0 X56.583 Y36.436 F1200
; --- FIX Y Backlash ---
G0 X56.583 Y37.336 F1200
G0 X66.158 Y40.699 Z3.5
G1 Z0 F500
; --- FIX X Backlash ---
G0 X65.258 Y40.699 F1200
G1 X65.085 Y41.022 Z0 F800
G1 X64.98 Y41.378 Z0 F800
G1 X64.952 Y41.764 Z0 F800
G1 X64.971 Y41.966 Z0 F800
G1 X65.013 Y42.173 Z0 F800
; --- FIX X Backlash ---
G0 X65.913 Y42.173 F1200
G1 X65.979 Y42.385 Z0 F800
G1 X66.072 Y42.601 Z0 F800
G1 X66.108 Y43.174 Z0 F800
G1 X66.235 Y43.753 Z0 F800
G1 X66.447 Y44.314 Z0 F800
G1 X66.741 Y44.831 Z0 F800
G1 X66.918 Y45.065 Z0 F800
G1 X67.113 Y45.278 Z0 F800
G1 X67.327 Y45.467 Z0 F800
G1 X67.559 Y45.629 Z0 F800
G1 X67.809 Y45.762 Z0 F800
G1 X68.075 Y45.86 Z0 F800
G1 X68.358 Y45.923 Z0 F800
G1 X68.657 Y45.945 Z0 F800
; --- FIX Y Backlash ---
G0 X68.657 Y45.045 F1200
G1 X69.079 Y44.965 Z0 F800
G1 X69.437 Y44.817 Z0 F800
G1 X69.733 Y44.611 Z0 F800
G1 X69.973 Y44.353 Z0 F800
G1 X70.158 Y44.05 Z0 F800
G1 X70.292 Y43.712 Z0 F800
G1 X70.379 Y43.344 Z0 F800
G1 X70.422 Y42.955 Z0 F800
G1 Y42.553 Z0 F800
G1 X70.388 Y42.144 Z0 F800
; --- FIX X Backlash ---
G0 X69.488 Y42.144 F1200
G1 X69.419 Y41.737 Z0 F800
G1 X69.319 Y41.338 Z0 F800
G1 X69.191 Y40.957 Z0 F800
G1 X69.04 Y40.599 Z0 F800
G1 X68.867 Y40.273 Z0 F800
G1 X68.677 Y39.987 Z0 F800
G1 X68.565 Y39.778 Z0 F800
G1 X68.44 Y39.592 Z0 F800
G1 X68.303 Y39.429 Z0 F800
G1 X68.156 Y39.288 Z0 F800
G1 X67.838 Y39.07 Z0 F800
G1 X67.495 Y38.933 Z0 F800
G1 X67.137 Y38.871 Z0 F800
G1 X66.775 Y38.88 Z0 F800
; --- FIX Y Backlash ---
G0 X66.775 Y39.78 F1200
G1 X66.419 Y39.854 Z0 F800
G1 X66.078 Y39.988 Z0 F800
G1 X65.765 Y40.177 Z0 F800
G1 X65.488 Y40.416 Z0 F800
G1 X65.258 Y40.699 Z0 F800
G0 Z3.5 F500
; --- FIX Y Backlash ---
G0 X65.258 Y39.799 F1200
G0 X61.432 Y39.583 Z3.5
G1 Z0 F500
; --- FIX X Backlash ---
G0 X62.332 Y39.583 F1200
G1 X62.402 Y39.23 Z0 F800
G1 X62.504 Y38.878 Z0 F800
G1 X62.637 Y38.531 Z0 F800
G1 X62.797 Y38.193 Z0 F800
G1 X62.984 Y37.867 Z0 F800
G1 X63.195 Y37.558 Z0 F800
G1 X63.429 Y37.27 Z0 F800
G1 X63.684 Y37.007 Z0 F800
G1 X63.958 Y36.773 Z0 F800
G1 X64.249 Y36.571 Z0 F800
G1 X64.555 Y36.407 Z0 F800
G1 X64.874 Y36.283 Z0 F800
G1 X65.205 Y36.205 Z0 F800
G1 X65.546 Y36.175 Z0 F800
G1 X65.895 Y36.199 Z0 F800
; --- FIX Y Backlash ---
G0 X65.895 Y37.099 F1200
G1 X66.25 Y37.18 Z0 F800
; --- FIX Y Backlash ---
G0 X66.25 Y36.28 F1200
G1 X66.522 Y36.18 Z0 F800
G1 X66.809 Y36.171 Z0 F800
; --- FIX Y Backlash ---
G0 X66.809 Y37.071 F1200
G1 X67.104 Y37.139 Z0 F800
G1 X67.404 Y37.269 Z0 F800
G1 X67.995 Y37.656 Z0 F800
G1 X68.544 Y38.114 Z0 F800
G1 X68.789 Y38.331 Z0 F800
G1 X69.009 Y38.522 Z0 F800
G1 X69.198 Y38.672 Z0 F800
G1 X69.352 Y38.764 Z0 F800
G1 X69.466 Y38.786 Z0 F800
; --- FIX Y Backlash ---
G0 X69.466 Y37.886 F1200
G1 X69.533 Y37.821 Z0 F800
G1 X69.549 Y37.752 Z0 F800
G1 Y37.655 Z0 F800
G1 X69.539 Y37.53 Z0 F800
G1 X69.513 Y37.374 Z0 F800
G1 X69.516 Y37.171 Z0 F800
G1 X69.545 Y36.987 Z0 F800
G1 X69.598 Y36.821 Z0 F800
G1 X69.674 Y36.673 Z0 F800
G1 X69.885 Y36.43 Z0 F800
G1 X70.162 Y36.255 Z0 F800
G1 X70.491 Y36.145 Z0 F800
G1 X70.857 Y36.099 Z0 F800
G1 X71.244 Y36.113 Z0 F800
; --- FIX Y Backlash ---
G0 X71.244 Y37.013 F1200
G1 X71.638 Y37.086 Z0 F800
G1 X72.022 Y37.214 Z0 F800
G1 X72.383 Y37.396 Z0 F800
G1 X72.705 Y37.629 Z0 F800
G1 X72.973 Y37.91 Z0 F800
G1 X73.171 Y38.236 Z0 F800
G1 X73.285 Y38.606 Z0 F800
G1 X73.306 Y38.807 Z0 F800
G1 X73.3 Y39.017 Z0 F800
G1 X73.266 Y39.237 Z0 F800
; --- FIX X Backlash ---
G0 X72.366 Y39.237 F1200
G1 X72.301 Y39.467 Z0 F800
; --- FIX X Backlash ---
G0 X73.201 Y39.467 F1200
G1 X73.516 Y41.791 Z0 F800
G1 X73.929 Y44.1 Z0 F800
G1 X74.139 Y45.251 Z0 F800
G1 X74.335 Y46.402 Z0 F800
G1 X74.503 Y47.554 Z0 F800
G1 X74.63 Y48.709 Z0 F800
G1 X74.794 Y49.229 Z0 F800
G1 X74.932 Y49.715 Z0 F800
G1 X75.039 Y50.167 Z0 F800
G1 X75.112 Y50.583 Z0 F800
G1 X75.147 Y50.961 Z0 F800
G1 X75.14 Y51.301 Z0 F800
; --- FIX X Backlash ---
G0 X74.24 Y51.301 F1200
G1 X74.186 Y51.601 Z0 F800
G1 X74.083 Y51.86 Z0 F800
G1 X73.925 Y52.076 Z0 F800
G1 X73.71 Y52.249 Z0 F800
G1 X73.433 Y52.377 Z0 F800
G1 X73.089 Y52.459 Z0 F800
G1 X72.676 Y52.493 Z0 F800
G1 X72.189 Y52.478 Z0 F800
; --- FIX Y Backlash ---
G0 X72.189 Y51.578 F1200
G1 X71.625 Y51.514 Z0 F800
G1 X70.978 Y51.397 Z0 F800
G1 X70.861 Y51.13 Z0 F800
G1 X70.764 Y50.8 Z0 F800
G1 X70.682 Y50.42 Z0 F800
G1 X70.614 Y50.001 Z0 F800
G1 X70.503 Y49.09 Z0 F800
G1 X70.407 Y48.157 Z0 F800
G1 X70.357 Y47.71 Z0 F800
G1 X70.301 Y47.292 Z0 F800
G1 X70.236 Y46.912 Z0 F800
G1 X70.159 Y46.584 Z0 F800
G1 X70.067 Y46.318 Z0 F800
G1 X69.957 Y46.124 Z0 F800
G1 X69.826 Y46.016 Z0 F800
G1 X69.671 Y46.002 Z0 F800
; --- FIX Y Backlash ---
G0 X69.671 Y46.902 F1200
G1 X69.509 Y47.224 Z0 F800
G1 X69.312 Y47.512 Z0 F800
G1 X69.086 Y47.767 Z0 F800
G1 X68.832 Y47.987 Z0 F800
G1 X68.554 Y48.174 Z0 F800
G1 X68.256 Y48.328 Z0 F800
G1 X67.942 Y48.449 Z0 F800
G1 X67.615 Y48.537 Z0 F800
G1 X67.279 Y48.591 Z0 F800
G1 X66.937 Y48.613 Z0 F800
G1 X66.593 Y48.602 Z0 F800
G1 X66.251 Y48.559 Z0 F800
; --- FIX Y Backlash ---
G0 X66.251 Y47.659 F1200
G1 X65.913 Y47.583 Z0 F800
G1 X65.584 Y47.475 Z0 F800
G1 X65.267 Y47.335 Z0 F800
G1 X64.48 Y46.885 Z0 F800
G1 X64.033 Y46.564 Z0 F800
G1 X63.624 Y46.204 Z0 F800
G1 X63.252 Y45.808 Z0 F800
G1 X62.916 Y45.38 Z0 F800
G1 X62.616 Y44.923 Z0 F800
G1 X62.352 Y44.442 Z0 F800
G1 X62.121 Y43.939 Z0 F800
G1 X61.924 Y43.418 Z0 F800
G1 X61.761 Y42.884 Z0 F800
G1 X61.629 Y42.339 Z0 F800
G1 X61.529 Y41.787 Z0 F800
G1 X61.46 Y41.232 Z0 F800
G1 X61.422 Y40.677 Z0 F800
G1 X61.412 Y40.126 Z0 F800
G1 X61.432 Y39.583 Z0 F800
G0 Z3.5 F500
; --- FIX Y Backlash ---
G0 X61.432 Y40.483 F1200
G0 X59.68 Y49.835 Z3.5
G1 Z0 F500
; --- FIX X Backlash ---
G0 X60.58 Y49.835 F1200
G1 X60.778 Y49.856 Z0 F800
G1 X60.982 Y49.909 Z0 F800
G1 X61.193 Y49.998 Z0 F800
G1 X61.407 Y50.125 Z0 F800
G1 X61.626 Y50.292 Z0 F800
G1 X61.848 Y50.501 Z0 F800
G1 X62.02 Y50.687 Z0 F800
G1 X62.158 Y50.891 Z0 F800
G1 X62.264 Y51.109 Z0 F800
G1 X62.337 Y51.336 Z0 F800
G1 X62.377 Y51.568 Z0 F800
G1 X62.386 Y51.801 Z0 F800
G1 X62.362 Y52.029 Z0 F800
; --- FIX X Backlash ---
G0 X61.462 Y52.029 F1200
G1 X61.407 Y52.249 Z0 F800
G1 X61.322 Y52.455 Z0 F800
G1 X61.205 Y52.644 Z0 F800
G1 X61.058 Y52.811 Z0 F800
G1 X60.881 Y52.951 Z0 F800
G1 X60.674 Y53.06 Z0 F800
G1 X60.438 Y53.133 Z0 F800
G1 X60.172 Y53.166 Z0 F800
G1 X59.878 Y53.155 Z0 F800
G1 X59.58 Y53.146 Z0 F800
G1 X59.312 Y53.109 Z0 F800
; --- FIX Y Backlash ---
G0 X59.312 Y52.209 F1200
G1 X59.074 Y52.146 Z0 F800
G1 X58.865 Y52.059 Z0 F800
G1 X58.684 Y51.951 Z0 F800
G1 X58.53 Y51.823 Z0 F800
G1 X58.401 Y51.68 Z0 F800
G1 X58.298 Y51.521 Z0 F800
G1 X58.164 Y51.172 Z0 F800
G1 X58.118 Y50.794 Z0 F800
G1 X58.155 Y50.406 Z0 F800
; --- FIX X Backlash ---
G0 X59.055 Y50.406 F1200
G1 X59.166 Y50.028 Z0 F800
G1 X59.344 Y49.677 Z0 F800
G1 X59.582 Y49.374 Z0 F800
G1 X59.872 Y49.137 Z0 F800
G1 X60.207 Y48.984 Z0 F800
G1 X60.389 Y48.946 Z0 F800
G1 X60.58 Y48.935 Z0 F800
G0 Z3.5 F500
G0 X95.116 Y47.23 Z3.5
G1 Z0 F500
; --- FIX X Backlash ---
G0 X94.216 Y47.23 F1200
G1 X93.865 Y45.172 Z0 F800
G1 X93.465 Y43.134 Z0 F800
G1 X93.498 Y42.67 Z0 F800
G1 X93.458 Y42.146 Z0 F800
G1 X93.363 Y41.576 Z0 F800
G1 X93.23 Y40.975 Z0 F800
G1 X92.921 Y39.736 Z0 F800
G1 X92.671 Y38.545 Z0 F800
G1 X92.611 Y38.003 Z0 F800
G1 X92.618 Y37.516 Z0 F800
G1 X92.652 Y37.298 Z0 F800
; --- FIX X Backlash ---
G0 X93.552 Y37.298 F1200
G1 X93.61 Y37.099 Z0 F800
G1 X93.693 Y36.921 Z0 F800
G1 X93.803 Y36.766 Z0 F800
G1 X93.944 Y36.636 Z0 F800
G1 X94.116 Y36.532 Z0 F800
G1 X94.322 Y36.456 Z0 F800
G1 X94.565 Y36.41 Z0 F800
G1 X94.847 Y36.396 Z0 F800
G1 X95.169 Y36.416 Z0 F800
; --- FIX Y Backlash ---
G0 X95.169 Y37.316 F1200
G1 X95.534 Y37.371 Z0 F800
G1 X95.944 Y37.463 Z0 F800
G1 X96.33 Y37.702 Z0 F800
G1 X96.648 Y38.009 Z0 F800
G1 X96.904 Y38.378 Z0 F800
G1 X97.108 Y38.8 Z0 F800
G1 X97.266 Y39.269 Z0 F800
G1 X97.386 Y39.776 Z0 F800
G1 X97.475 Y40.313 Z0 F800
G1 X97.541 Y40.874 Z0 F800
G1 X97.633 Y42.034 Z0 F800
G1 X97.722 Y43.195 Z0 F800
G1 X97.784 Y43.757 Z0 F800
G1 X97.867 Y44.296 Z0 F800
G1 X97.98 Y44.805 Z0 F800
G1 X98.129 Y45.276 Z0 F800
G1 X98.195 Y45.444 Z0 F800
G1 X98.263 Y45.577 Z0 F800
G1 X98.331 Y45.675 Z0 F800
G1 X98.401 Y45.742 Z0 F800
G1 X98.472 Y45.778 Z0 F800
G1 X98.544 Y45.786 Z0 F800
G1 X98.618 Y45.768 Z0 F800
G1 X98.692 Y45.725 Z0 F800
; --- FIX Y Backlash ---
G0 X98.692 Y44.825 F1200
G1 X98.844 Y44.672 Z0 F800
G1 X98.999 Y44.443 Z0 F800
G1 X99.158 Y44.153 Z0 F800
G1 X99.319 Y43.817 Z0 F800
G1 X99.983 Y42.301 Z0 F800
G1 X100.151 Y41.954 Z0 F800
G1 X100.32 Y41.649 Z0 F800
G1 X100.488 Y41.401 Z0 F800
G1 X100.656 Y41.225 Z0 F800
G1 X101.242 Y40.021 Z0 F800
G1 X101.839 Y38.853 Z0 F800
G1 X102.438 Y37.704 Z0 F800
G1 X103.036 Y36.554 Z0 F800
G1 X103.41 Y36.443 Z0 F800
G1 X103.755 Y36.365 Z0 F800
G1 X104.074 Y36.319 Z0 F800
G1 X104.367 Y36.304 Z0 F800
G1 X104.635 Y36.317 Z0 F800
G1 X104.88 Y36.358 Z0 F800
; --- FIX Y Backlash ---
G0 X104.88 Y37.258 F1200
G1 X105.103 Y37.324 Z0 F800
G1 X105.304 Y37.415 Z0 F800
G1 X105.486 Y37.53 Z0 F800
G1 X105.649 Y37.666 Z0 F800
G1 X105.795 Y37.822 Z0 F800
G1 X105.924 Y37.997 Z0 F800
G1 X106.139 Y38.398 Z0 F800
G1 X106.304 Y38.857 Z0 F800
G1 X106.648 Y41.042 Z0 F800
G1 X106.951 Y43.236 Z0 F800
G1 X107.727 Y47.584 Z0 F800
G1 X108.486 Y51.892 Z0 F800
; --- FIX X Backlash ---
G0 X107.586 Y51.892 F1200
G1 X107.188 Y52.153 Z0 F800
G1 X106.787 Y52.341 Z0 F800
G1 X106.388 Y52.459 Z0 F800
G1 X105.996 Y52.511 Z0 F800
G1 X105.616 Y52.501 Z0 F800
; --- FIX Y Backlash ---
G0 X105.616 Y51.601 F1200
G1 X105.252 Y51.529 Z0 F800
G1 X104.908 Y51.401 Z0 F800
G1 X104.589 Y51.219 Z0 F800
G1 X104.301 Y50.986 Z0 F800
G1 X104.046 Y50.705 Z0 F800
G1 X103.831 Y50.378 Z0 F800
G1 X103.659 Y50.011 Z0 F800
G1 X103.535 Y49.604 Z0 F800
G1 X103.464 Y49.162 Z0 F800
G1 X103.451 Y48.687 Z0 F800
G1 X103.5 Y48.182 Z0 F800
G1 X103.449 Y47.814 Z0 F800
G1 X103.396 Y47.36 Z0 F800
G1 X103.277 Y46.284 Z0 F800
G1 X103.207 Y45.709 Z0 F800
G1 X103.128 Y45.139 Z0 F800
G1 X103.038 Y44.598 Z0 F800
G1 X102.935 Y44.108 Z0 F800
G1 X102.818 Y43.691 Z0 F800
G1 X102.685 Y43.371 Z0 F800
G1 X102.611 Y43.255 Z0 F800
G1 X102.534 Y43.171 Z0 F800
G1 X102.451 Y43.123 Z0 F800
G1 X102.363 Y43.114 Z0 F800
G1 X102.27 Y43.145 Z0 F800
; --- FIX Y Backlash ---
G0 X102.27 Y44.045 F1200
G1 X102.171 Y44.121 Z0 F800
G1 X102.067 Y44.244 Z0 F800
G1 X101.956 Y44.417 Z0 F800
G1 X101.839 Y44.643 Z0 F800
G1 X101.716 Y44.924 Z0 F800
G1 X101.587 Y45.264 Z0 F800
G1 X101.45 Y45.665 Z0 F800
G1 X100.556 Y47.255 Z0 F800
G1 X99.718 Y48.919 Z0 F800
G1 X98.896 Y50.571 Z0 F800
G1 X98.051 Y52.13 Z0 F800
G1 X97.709 Y52.278 Z0 F800
G1 X97.325 Y52.36 Z0 F800
G1 X96.91 Y52.39 Z0 F800
G1 X96.477 Y52.383 Z0 F800
; --- FIX Y Backlash ---
G0 X96.477 Y51.483 F1200
G1 X95.605 Y51.422 Z0 F800
G1 X94.802 Y51.397 Z0 F800
G1 X94.526 Y49.307 Z0 F800
G1 X94.216 Y47.23 Z0 F800
G0 Z3.5 F500
; --- FIX X Backlash ---
G0 X95.116 Y47.23 F1200
G0 X109.454 Y45.548 Z3.5
G1 Z0 F500
; --- FIX X Backlash ---
G0 X108.554 Y45.548 F1200
G1 X108.337 Y44.733 Z0 F800
G1 X108.185 Y43.9 Z0 F800
G1 X108.102 Y43.058 Z0 F800
G1 X108.089 Y42.217 Z0 F800
; --- FIX X Backlash ---
G0 X108.989 Y42.217 F1200
G1 X109.049 Y41.386 Z0 F800
G1 X109.11 Y40.936 Z0 F800
G1 X109.206 Y40.493 Z0 F800
G1 X109.335 Y40.06 Z0 F800
G1 X109.496 Y39.639 Z0 F800
G1 X109.688 Y39.234 Z0 F800
G1 X109.91 Y38.846 Z0 F800
G1 X110.16 Y38.479 Z0 F800
G1 X110.438 Y38.134 Z0 F800
G1 X110.743 Y37.816 Z0 F800
G1 X111.073 Y37.526 Z0 F800
G1 X111.427 Y37.267 Z0 F800
G1 X111.804 Y37.043 Z0 F800
G1 X112.203 Y36.854 Z0 F800
G1 X112.622 Y36.705 Z0 F800
G1 X113.061 Y36.598 Z0 F800
G1 X113.519 Y36.535 Z0 F800
G1 X113.939 Y36.424 Z0 F800
G1 X114.361 Y36.344 Z0 F800
G1 X114.784 Y36.296 Z0 F800
G1 X115.207 Y36.278 Z0 F800
G1 X115.628 Y36.288 Z0 F800
G1 X116.047 Y36.326 Z0 F800
; --- FIX Y Backlash ---
G0 X116.047 Y37.226 F1200
G1 X116.462 Y37.29 Z0 F800
G1 X116.872 Y37.379 Z0 F800
G1 X117.671 Y37.627 Z0 F800
G1 X118.436 Y37.961 Z0 F800
G1 X119.157 Y38.37 Z0 F800
G1 X119.825 Y38.844 Z0 F800
G1 X120.24 Y39.222 Z0 F800
G1 X120.649 Y39.626 Z0 F800
G1 X121.037 Y40.055 Z0 F800
G1 X121.389 Y40.508 Z0 F800
G1 X121.689 Y40.985 Z0 F800
G1 X121.922 Y41.484 Z0 F800
G1 X122.074 Y42.005 Z0 F800
G1 X122.128 Y42.548 Z0 F800
; --- FIX X Backlash ---
G0 X121.228 Y42.548 F1200
G1 X120.685 Y42.731 Z0 F800
G1 X120.196 Y42.832 Z0 F800
G1 X119.755 Y42.857 Z0 F800
G1 X119.356 Y42.817 Z0 F800
; --- FIX Y Backlash ---
G0 X119.356 Y41.917 F1200
G1 X118.99 Y41.82 Z0 F800
G1 X118.653 Y41.674 Z0 F800
G1 X118.338 Y41.489 Z0 F800
G1 X118.037 Y41.274 Z0 F800
G1 X116.851 Y40.282 Z0 F800
G1 X116.526 Y40.045 Z0 F800
G1 X116.177 Y39.831 Z0 F800
G1 X115.796 Y39.648 Z0 F800
G1 X114.883 Y39.336 Z0 F800
G1 X114.408 Y39.265 Z0 F800
G1 X113.958 Y39.283 Z0 F800
; --- FIX Y Backlash ---
G0 X113.958 Y40.183 F1200
G1 X113.534 Y40.283 Z0 F800
G1 X113.141 Y40.456 Z0 F800
G1 X112.782 Y40.694 Z0 F800
G1 X112.46 Y40.988 Z0 F800
G1 X112.178 Y41.331 Z0 F800
G1 X111.941 Y41.714 Z0 F800
G1 X111.75 Y42.13 Z0 F800
G1 X111.61 Y42.569 Z0 F800
G1 X111.523 Y43.024 Z0 F800
G1 X111.494 Y43.487 Z0 F800
G1 X111.525 Y43.949 Z0 F800
; --- FIX X Backlash ---
G0 X112.425 Y43.949 F1200
G1 X112.52 Y44.403 Z0 F800
G1 X112.681 Y44.839 Z0 F800
G1 X112.741 Y45.3 Z0 F800
G1 X112.843 Y45.759 Z0 F800
G1 X112.986 Y46.213 Z0 F800
G1 X113.168 Y46.656 Z0 F800
G1 X113.386 Y47.084 Z0 F800
G1 X113.639 Y47.493 Z0 F800
G1 X113.923 Y47.878 Z0 F800
G1 X114.239 Y48.234 Z0 F800
G1 X114.582 Y48.558 Z0 F800
G1 X114.951 Y48.845 Z0 F800
G1 X115.344 Y49.089 Z0 F800
G1 X115.759 Y49.288 Z0 F800
G1 X116.194 Y49.435 Z0 F800
G1 X116.647 Y49.528 Z0 F800
G1 X117.115 Y49.56 Z0 F800
G1 X117.597 Y49.529 Z0 F800
; --- FIX Y Backlash ---
G0 X117.597 Y48.629 F1200
G1 X118.001 Y48.547 Z0 F800
G1 X118.346 Y48.4 Z0 F800
G1 X118.64 Y48.199 Z0 F800
G1 X118.895 Y47.956 Z0 F800
G1 X119.322 Y47.393 Z0 F800
G1 X119.706 Y46.804 Z0 F800
G1 X119.905 Y46.53 Z0 F800
G1 X120.122 Y46.284 Z0 F800
G1 X120.367 Y46.08 Z0 F800
G1 X120.65 Y45.928 Z0 F800
G1 X120.98 Y45.841 Z0 F800
G1 X121.366 Y45.83 Z0 F800
G1 X121.584 Y45.856 Z0 F800
; --- FIX Y Backlash ---
G0 X121.584 Y46.756 F1200
G1 X121.82 Y46.807 Z0 F800
G1 X122.074 Y46.882 Z0 F800
G1 X122.349 Y46.984 Z0 F800
G1 X122.651 Y47.18 Z0 F800
G1 X122.868 Y47.431 Z0 F800
G1 X123.007 Y47.728 Z0 F800
G1 X123.075 Y48.063 Z0 F800
G1 Y48.427 Z0 F800
; --- FIX X Backlash ---
G0 X122.175 Y48.427 F1200
G1 X122.117 Y48.812 Z0 F800
G1 X122.003 Y49.21 Z0 F800
G1 X121.84 Y49.612 Z0 F800
G1 X121.634 Y50.009 Z0 F800
G1 X121.391 Y50.395 Z0 F800
G1 X121.117 Y50.759 Z0 F800
G1 X120.817 Y51.094 Z0 F800
G1 X120.497 Y51.392 Z0 F800
G1 X120.163 Y51.643 Z0 F800
G1 X119.821 Y51.84 Z0 F800
G1 X119.477 Y51.974 Z0 F800
G1 X118.689 Y52.275 Z0 F800
G1 X117.869 Y52.487 Z0 F800
G1 X117.449 Y52.557 Z0 F800
G1 X117.024 Y52.601 Z0 F800
G1 X116.593 Y52.618 Z0 F800
G1 X116.158 Y52.607 Z0 F800
G1 X115.666 Y52.574 Z0 F800
; --- FIX Y Backlash ---
G0 X115.666 Y51.674 F1200
G1 X115.174 Y51.61 Z0 F800
G1 X114.685 Y51.517 Z0 F800
G1 X114.201 Y51.393 Z0 F800
G1 X113.723 Y51.241 Z0 F800
G1 X113.255 Y51.06 Z0 F800
G1 X112.799 Y50.85 Z0 F800
G1 X112.357 Y50.614 Z0 F800
G1 X111.93 Y50.35 Z0 F800
G1 X111.522 Y50.06 Z0 F800
G1 X111.134 Y49.745 Z0 F800
G1 X110.769 Y49.404 Z0 F800
G1 X110.429 Y49.038 Z0 F800
G1 X110.116 Y48.649 Z0 F800
G1 X109.832 Y48.235 Z0 F800
G1 X109.58 Y47.799 Z0 F800
G1 X109.178 Y47.091 Z0 F800
G1 X108.836 Y46.337 Z0 F800
G1 X108.554 Y45.548 Z0 F800
;Offset @ 1500 mm/min, 80% power

M8
G0 Z3.5 F500
; --- FIX Y Backlash ---
G0 X108.554 Y46.448 F1200
G0 X89.432 Y50.378 Z3.5
G1 Z0 F500
;Layer C3
G1 X89.454 Y50.779 Z0 F800
G1 X89.445 Y51.162 Z0 F800
G1 X89.405 Y51.509 Z0 F800
G1 X89.338 Y51.81 Z0 F800
G1 X89.258 Y52.037 Z0 F800
G1 X89.096 Y52.336 Z0 F800
G1 X88.062 Y54.633 Z0 F800
G1 X87.02 Y56.861 Z0 F800
G1 X86.512 Y58.021 Z0 F800
G1 X86.039 Y59.206 Z0 F800
G1 X85.97 Y59.407 Z0 F800
; --- FIX Y Backlash ---
G0 X85.97 Y58.507 F1200
G1 X85.945 Y58.405 Z0 F800
G1 X85.891 Y58.02 Z0 F800
G1 X85.871 Y57.614 Z0 F800
G1 X85.886 Y57.204 Z0 F800
G1 X85.935 Y56.787 Z0 F800
; --- FIX X Backlash ---
G0 X86.835 Y56.787 F1200
G1 X86.919 Y56.37 Z0 F800
G1 X87.035 Y55.961 Z0 F800
G1 X87.181 Y55.568 Z0 F800
G1 X87.353 Y55.201 Z0 F800
G1 X87.552 Y54.853 Z0 F800
G1 X87.856 Y54.418 Z0 F800
G1 X88.8 Y52.641 Z0 F800
G1 X89.684 Y50.871 Z0 F800
G1 X90.083 Y49.896 Z0 F800
G1 X90.297 Y49.231 Z0 F800
; --- FIX Y Backlash ---
G0 X90.297 Y50.131 F1200
G1 X90.332 Y50.378 Z0 F800
G0 Z3.5 F500
G0 X90.624 Y52.646 Z3.5
G1 Z0 F500
; --- FIX X Backlash ---
G0 X89.724 Y52.646 F1200
G1 X88.704 Y54.912 Z0 F800
G1 X87.658 Y57.15 Z0 F800
G1 X87.157 Y58.291 Z0 F800
G1 X86.695 Y59.45 Z0 F800
G1 X86.288 Y60.635 Z0 F800
G1 X86.123 Y61.241 Z0 F800
; --- FIX Y Backlash ---
G0 X86.123 Y60.341 F1200
G1 X85.927 Y60.113 Z0 F800
G1 X85.697 Y59.762 Z0 F800
G1 X85.509 Y59.381 Z0 F800
G1 X85.362 Y58.969 Z0 F800
G1 X85.256 Y58.534 Z0 F800
G1 X85.193 Y58.089 Z0 F800
G1 X85.17 Y57.623 Z0 F800
G1 X85.187 Y57.149 Z0 F800
; --- FIX X Backlash ---
G0 X86.087 Y57.149 F1200
G1 X86.144 Y56.675 Z0 F800
G1 X86.239 Y56.202 Z0 F800
G1 X86.368 Y55.746 Z0 F800
G1 X86.536 Y55.296 Z0 F800
G1 X86.732 Y54.876 Z0 F800
G1 X86.96 Y54.478 Z0 F800
G1 X87.258 Y54.052 Z0 F800
G1 X88.178 Y52.321 Z0 F800
G1 X89.045 Y50.582 Z0 F800
G1 X89.426 Y49.656 Z0 F800
G1 X89.731 Y48.705 Z0 F800
G1 X89.854 Y48.201 Z0 F800
G1 X89.948 Y47.692 Z0 F800
G1 X90.006 Y47.225 Z0 F800
G1 X90.108 Y47.26 Z0 F800
; --- FIX Y Backlash ---
G0 X90.108 Y48.16 F1200
G1 X90.258 Y48.266 Z0 F800
G1 X90.425 Y48.451 Z0 F800
G1 X90.593 Y48.717 Z0 F800
G1 X90.744 Y49.049 Z0 F800
G1 X90.872 Y49.44 Z0 F800
G1 X90.966 Y49.861 Z0 F800
G1 X91.03 Y50.314 Z0 F800
G1 X91.055 Y50.764 Z0 F800
G1 X91.044 Y51.209 Z0 F800
G1 X90.996 Y51.626 Z0 F800
; --- FIX X Backlash ---
G0 X90.096 Y51.626 F1200
G1 X90.013 Y52.003 Z0 F800
G1 X89.9 Y52.321 Z0 F800
G1 X89.724 Y52.646 Z0 F800
G0 Z3.5 F500
G0 X89.339 Y55.208 Z3.5
G1 Z0 F500
G1 X88.295 Y57.439 Z0 F800
G1 X87.803 Y58.561 Z0 F800
G1 X87.352 Y59.693 Z0 F800
G1 X86.958 Y60.841 Z0 F800
G1 X86.638 Y62.011 Z0 F800
G1 X86.482 Y62.117 Z0 F800
G1 X86.091 Y62.172 Z0 F800
; --- FIX Y Backlash ---
G0 X86.091 Y61.272 F1200
G1 X85.7 Y60.924 Z0 F800
G1 X85.366 Y60.534 Z0 F800
G1 X85.087 Y60.108 Z0 F800
G1 X84.863 Y59.652 Z0 F800
G1 X84.69 Y59.171 Z0 F800
G1 X84.568 Y58.669 Z0 F800
G1 X84.495 Y58.152 Z0 F800
G1 X84.469 Y57.626 Z0 F800
G1 X84.489 Y57.095 Z0 F800
; --- FIX X Backlash ---
G0 X85.389 Y57.095 F1200
G1 X85.452 Y56.564 Z0 F800
G1 X85.557 Y56.039 Z0 F800
G1 X85.703 Y55.526 Z0 F800
G1 X85.888 Y55.029 Z0 F800
G1 X86.11 Y54.553 Z0 F800
G1 X86.368 Y54.103 Z0 F800
G1 X86.66 Y53.686 Z0 F800
G1 X87.556 Y52 Z0 F800
G1 X88.408 Y50.292 Z0 F800
G1 X88.768 Y49.415 Z0 F800
G1 X89.057 Y48.515 Z0 F800
G1 X89.169 Y48.054 Z0 F800
G1 X89.256 Y47.585 Z0 F800
G1 X89.315 Y47.107 Z0 F800
G1 X89.345 Y46.619 Z0 F800
G1 X89.546 Y46.548 Z0 F800
G1 X89.739 Y46.509 Z0 F800
G1 X89.924 Y46.499 Z0 F800
G1 X90.102 Y46.517 Z0 F800
; --- FIX Y Backlash ---
G0 X90.102 Y47.417 F1200
G1 X90.431 Y47.531 Z0 F800
G1 X90.726 Y47.739 Z0 F800
G1 X90.986 Y48.027 Z0 F800
G1 X91.21 Y48.383 Z0 F800
G1 X91.397 Y48.796 Z0 F800
G1 X91.546 Y49.251 Z0 F800
G1 X91.656 Y49.738 Z0 F800
G1 X91.727 Y50.243 Z0 F800
G1 X91.755 Y50.754 Z0 F800
G1 X91.743 Y51.258 Z0 F800
; --- FIX X Backlash ---
G0 X90.843 Y51.258 F1200
G1 X90.787 Y51.743 Z0 F800
G1 X90.687 Y52.196 Z0 F800
G1 X90.542 Y52.605 Z0 F800
G1 X90.351 Y52.958 Z0 F800
G1 X89.339 Y55.208 Z0 F800
G0 Z3.5 F500
; --- FIX Y Backlash ---
G0 X89.339 Y54.308 F1200
G0 X86.036 Y38.235 Z3.5
G1 Z0 F500
; --- FIX Y Backlash ---
G0 X86.036 Y39.135 F1200
G1 X85.906 Y39.897 Z0 F800
G1 X85.727 Y40.643 Z0 F800
G1 X85.493 Y41.39 Z0 F800
G1 X85.216 Y42.098 Z0 F800
G1 X84.888 Y42.789 Z0 F800
G1 X84.512 Y43.452 Z0 F800
G1 X84.093 Y44.079 Z0 F800
G1 X83.54 Y44.781 Z0 F800
G1 X83.054 Y45.47 Z0 F800
G1 X82.598 Y46.159 Z0 F800
G1 X82.166 Y46.868 Z0 F800
G1 X81.759 Y47.592 Z0 F800
G1 X81.38 Y48.333 Z0 F800
G1 X81.03 Y49.088 Z0 F800
G1 X80.71 Y49.86 Z0 F800
G1 X80.704 Y49.877 Z0 F800
; --- FIX X Backlash ---
G0 X81.604 Y49.877 F1200
; --- FIX Y Backlash ---
G0 X81.604 Y48.977 F1200
G1 X81.841 Y47.912 Z0 F800
G1 X82.158 Y46.839 Z0 F800
G1 X82.54 Y45.804 Z0 F800
G1 X82.996 Y44.785 Z0 F800
G1 X83.517 Y43.795 Z0 F800
G1 X84.102 Y42.841 Z0 F800
G1 X84.836 Y41.797 Z0 F800
G1 X85.956 Y39.902 Z0 F800
G1 X86.957 Y38.025 Z0 F800
; --- FIX Y Backlash ---
G0 X86.957 Y38.925 F1200
G1 X86.936 Y39.135 Z0 F800
G0 Z3.5 F500
; --- FIX X Backlash ---
G0 X86.036 Y39.135 F1200
G0 X85.859 Y42.377 Z3.5
G1 Z0 F500
G1 X85.51 Y43.111 Z0 F800
G1 X85.112 Y43.814 Z0 F800
G1 X84.656 Y44.496 Z0 F800
G1 X84.102 Y45.2 Z0 F800
G1 X83.631 Y45.865 Z0 F800
G1 X83.189 Y46.535 Z0 F800
G1 X82.77 Y47.221 Z0 F800
G1 X82.376 Y47.923 Z0 F800
G1 X82.01 Y48.639 Z0 F800
G1 X81.671 Y49.369 Z0 F800
G1 X81.362 Y50.115 Z0 F800
G1 X81.085 Y50.874 Z0 F800
G1 X80.842 Y51.646 Z0 F800
G1 X80.633 Y52.431 Z0 F800
G1 X80.462 Y53.229 Z0 F800
G1 X80.329 Y54.038 Z0 F800
G1 X80.286 Y54.427 Z0 F800
G1 X80.278 Y54.403 Z0 F800
; --- FIX Y Backlash ---
G0 X80.278 Y53.503 F1200
G1 X80.153 Y53.069 Z0 F800
G1 X80.052 Y52.631 Z0 F800
G1 X79.97 Y52.178 Z0 F800
G1 X79.911 Y51.736 Z0 F800
G1 X79.843 Y50.798 Z0 F800
G1 Y49.97 Z0 F800
; --- FIX X Backlash ---
G0 X80.743 Y49.97 F1200
G1 X80.911 Y48.871 Z0 F800
G1 X81.164 Y47.734 Z0 F800
G1 X81.492 Y46.623 Z0 F800
G1 X81.893 Y45.537 Z0 F800
G1 X82.368 Y44.474 Z0 F800
G1 X82.905 Y43.454 Z0 F800
G1 X83.517 Y42.456 Z0 F800
G1 X84.248 Y41.417 Z0 F800
G1 X85.345 Y39.559 Z0 F800
G1 X86.371 Y37.636 Z0 F800
G1 X86.829 Y36.577 Z0 F800
G1 X87.194 Y35.494 Z0 F800
G1 X87.344 Y34.904 Z0 F800
G1 X87.458 Y34.316 Z0 F800
G1 X87.476 Y34.175 Z0 F800
; --- FIX Y Backlash ---
G0 X87.476 Y35.075 F1200
G1 X87.496 Y35.153 Z0 F800
G1 X87.632 Y35.952 Z0 F800
G1 X87.714 Y36.769 Z0 F800
G1 X87.742 Y37.594 Z0 F800
G1 X87.713 Y38.408 Z0 F800
; --- FIX X Backlash ---
G0 X86.813 Y38.408 F1200
G1 X86.731 Y39.222 Z0 F800
G1 X86.592 Y40.041 Z0 F800
G1 X86.402 Y40.831 Z0 F800
G1 X86.155 Y41.619 Z0 F800
G1 X85.859 Y42.377 Z0 F800
G0 Z3.5 F500
G0 X85.224 Y44.906 Z3.5
G1 Z0 F500
G1 X84.663 Y45.619 Z0 F800
G1 X84.209 Y46.26 Z0 F800
G1 X83.78 Y46.91 Z0 F800
G1 X83.374 Y47.575 Z0 F800
G1 X82.993 Y48.253 Z0 F800
G1 X82.639 Y48.946 Z0 F800
G1 X82.312 Y49.651 Z0 F800
G1 X82.015 Y50.369 Z0 F800
G1 X81.748 Y51.099 Z0 F800
G1 X81.514 Y51.841 Z0 F800
G1 X81.314 Y52.594 Z0 F800
G1 X81.15 Y53.359 Z0 F800
G1 X81.023 Y54.133 Z0 F800
G1 X80.935 Y54.917 Z0 F800
G1 X80.888 Y55.71 Z0 F800
G1 X80.882 Y56.512 Z0 F800
G1 X80.9 Y56.906 Z0 F800
; --- FIX Y Backlash ---
G0 X80.9 Y56.006 F1200
G1 X80.646 Y55.722 Z0 F800
G1 X80.388 Y55.372 Z0 F800
G1 X80.155 Y54.993 Z0 F800
G1 X79.946 Y54.584 Z0 F800
G1 X79.766 Y54.161 Z0 F800
G1 X79.609 Y53.712 Z0 F800
G1 X79.475 Y53.245 Z0 F800
G1 X79.366 Y52.771 Z0 F800
G1 X79.279 Y52.287 Z0 F800
G1 X79.214 Y51.807 Z0 F800
G1 X79.143 Y50.828 Z0 F800
G1 Y49.913 Z0 F800
; --- FIX X Backlash ---
G0 X80.043 Y49.913 F1200
G1 X80.222 Y48.742 Z0 F800
G1 X80.484 Y47.562 Z0 F800
G1 X80.827 Y46.404 Z0 F800
G1 X81.245 Y45.271 Z0 F800
G1 X81.738 Y44.168 Z0 F800
G1 X82.298 Y43.104 Z0 F800
G1 X82.931 Y42.072 Z0 F800
G1 X83.659 Y41.037 Z0 F800
G1 X84.734 Y39.216 Z0 F800
G1 X85.74 Y37.331 Z0 F800
G1 X86.175 Y36.325 Z0 F800
G1 X86.522 Y35.295 Z0 F800
G1 X86.661 Y34.751 Z0 F800
G1 X86.767 Y34.204 Z0 F800
G1 X86.839 Y33.646 Z0 F800
G1 X86.873 Y33.093 Z0 F800
G1 X86.898 Y32.405 Z0 F800
G1 X86.976 Y31.733 Z0 F800
G1 X87.03 Y31.435 Z0 F800
G1 X87.099 Y31.15 Z0 F800
G1 X87.117 Y31.093 Z0 F800
; --- FIX Y Backlash ---
G0 X87.117 Y31.993 F1200
G1 X87.174 Y32.097 Z0 F800
G1 X87.279 Y32.31 Z0 F800
G1 X87.378 Y32.531 Z0 F800
G1 X87.714 Y33.358 Z0 F800
G1 X87.976 Y34.172 Z0 F800
G1 X88.18 Y35.006 Z0 F800
G1 X88.327 Y35.863 Z0 F800
G1 X88.413 Y36.718 Z0 F800
G1 X88.442 Y37.588 Z0 F800
G1 X88.412 Y38.46 Z0 F800
; --- FIX X Backlash ---
G0 X87.512 Y38.46 F1200
G1 X87.424 Y39.321 Z0 F800
G1 X87.279 Y40.175 Z0 F800
G1 X87.077 Y41.02 Z0 F800
G1 X86.816 Y41.85 Z0 F800
G1 X86.502 Y42.653 Z0 F800
G1 X86.13 Y43.436 Z0 F800
G1 X85.706 Y44.184 Z0 F800
G1 X85.224 Y44.906 Z0 F800
G0 Z3.5 F500
G0 X84.371 Y47.285 Z3.5
G1 Z0 F500
G1 X83.978 Y47.929 Z0 F800
G1 X83.61 Y48.584 Z0 F800
G1 X83.268 Y49.252 Z0 F800
G1 X82.954 Y49.932 Z0 F800
G1 X82.667 Y50.623 Z0 F800
G1 X82.411 Y51.324 Z0 F800
G1 X82.186 Y52.036 Z0 F800
G1 X81.995 Y52.758 Z0 F800
G1 X81.838 Y53.489 Z0 F800
G1 X81.717 Y54.229 Z0 F800
G1 X81.633 Y54.978 Z0 F800
G1 X81.587 Y55.734 Z0 F800
G1 X81.582 Y56.498 Z0 F800
G1 X81.618 Y57.269 Z0 F800
G1 X81.558 Y58.027 Z0 F800
G1 X81.203 Y58.061 Z0 F800
; --- FIX Y Backlash ---
G0 X81.203 Y57.161 F1200
G1 X80.799 Y56.866 Z0 F800
G1 X80.432 Y56.532 Z0 F800
G1 X80.102 Y56.163 Z0 F800
G1 X79.806 Y55.763 Z0 F800
G1 X79.543 Y55.335 Z0 F800
G1 X79.313 Y54.884 Z0 F800
G1 X79.112 Y54.412 Z0 F800
G1 X78.941 Y53.923 Z0 F800
G1 X78.797 Y53.422 Z0 F800
G1 X78.68 Y52.911 Z0 F800
G1 X78.587 Y52.395 Z0 F800
G1 X78.517 Y51.877 Z0 F800
G1 X78.443 Y50.851 Z0 F800
G1 Y49.863 Z0 F800
; --- FIX X Backlash ---
G0 X79.343 Y49.863 F1200
G1 X79.534 Y48.612 Z0 F800
G1 X79.807 Y47.384 Z0 F800
G1 X80.162 Y46.182 Z0 F800
G1 X80.596 Y45.008 Z0 F800
G1 X81.106 Y43.866 Z0 F800
G1 X81.69 Y42.758 Z0 F800
G1 X82.346 Y41.687 Z0 F800
G1 X83.071 Y40.657 Z0 F800
G1 X84.124 Y38.873 Z0 F800
G1 X85.109 Y37.027 Z0 F800
G1 X85.521 Y36.074 Z0 F800
G1 X85.851 Y35.097 Z0 F800
G1 X85.978 Y34.598 Z0 F800
G1 X86.075 Y34.093 Z0 F800
G1 X86.142 Y33.58 Z0 F800
G1 X86.173 Y33.059 Z0 F800
G1 X86.2 Y32.357 Z0 F800
G1 X86.283 Y31.631 Z0 F800
G1 X86.346 Y31.285 Z0 F800
G1 X86.423 Y30.963 Z0 F800
G1 X86.515 Y30.677 Z0 F800
G1 X86.622 Y30.435 Z0 F800
G1 X86.744 Y30.249 Z0 F800
G1 X86.881 Y30.13 Z0 F800
G1 X87.033 Y30.086 Z0 F800
G1 X87.201 Y30.129 Z0 F800
; --- FIX Y Backlash ---
G0 X87.201 Y31.029 F1200
G1 X87.291 Y31.085 Z0 F800
G1 X87.384 Y31.168 Z0 F800
G1 X87.481 Y31.277 Z0 F800
G1 X87.583 Y31.414 Z0 F800
G1 X87.688 Y31.581 Z0 F800
G1 X87.797 Y31.777 Z0 F800
G1 X87.91 Y32.006 Z0 F800
G1 X88.027 Y32.268 Z0 F800
G1 X88.37 Y33.113 Z0 F800
G1 X88.65 Y33.981 Z0 F800
G1 X88.867 Y34.867 Z0 F800
G1 X89.021 Y35.767 Z0 F800
G1 X89.112 Y36.675 Z0 F800
G1 X89.143 Y37.589 Z0 F800
G1 X89.111 Y38.504 Z0 F800
; --- FIX X Backlash ---
G0 X88.211 Y38.504 F1200
G1 X88.118 Y39.415 Z0 F800
G1 X87.965 Y40.317 Z0 F800
G1 X87.751 Y41.208 Z0 F800
G1 X87.477 Y42.081 Z0 F800
G1 X87.144 Y42.932 Z0 F800
G1 X86.752 Y43.758 Z0 F800
G1 X86.301 Y44.554 Z0 F800
G1 X85.792 Y45.316 Z0 F800
G1 X85.224 Y46.038 Z0 F800
G1 X84.787 Y46.655 Z0 F800
G1 X84.371 Y47.285 Z0 F800
G0 Z3.5 F500
; --- FIX Y Backlash ---
G0 X84.371 Y46.385 F1200
G0 X81.315 Y29.968 Z3.5
G1 Z0 F500
; --- FIX Y Backlash ---
G0 X81.315 Y30.868 F1200
G1 X81.311 Y31.292 Z0 F800
G1 X81.259 Y31.758 Z0 F800
G1 X81.16 Y32.247 Z0 F800
G1 X81.016 Y32.763 Z0 F800
G1 X80.833 Y33.29 Z0 F800
G1 X80.624 Y33.809 Z0 F800
G1 X80.387 Y34.332 Z0 F800
G1 X80.129 Y34.848 Z0 F800
G1 X79.868 Y35.337 Z0 F800
G1 X79.616 Y35.783 Z0 F800
G1 X79.145 Y36.515 Z0 F800
G1 X78.683 Y37.337 Z0 F800
G1 X78.267 Y38.168 Z0 F800
G1 X77.884 Y39.005 Z0 F800
G1 X77.433 Y40.09 Z0 F800
; --- FIX Y Backlash ---
G0 X77.433 Y39.19 F1200
G1 X77.39 Y38.971 Z0 F800
G1 X77.355 Y38.582 Z0 F800
G1 X77.36 Y38.167 Z0 F800
G1 X77.402 Y37.732 Z0 F800
; --- FIX X Backlash ---
G0 X78.302 Y37.732 F1200
G1 X78.381 Y37.292 Z0 F800
G1 X78.497 Y36.853 Z0 F800
G1 X78.646 Y36.416 Z0 F800
G1 X78.824 Y35.996 Z0 F800
G1 X79.028 Y35.594 Z0 F800
G1 X79.253 Y35.223 Z0 F800
G1 X79.501 Y34.876 Z0 F800
G1 X79.826 Y34.483 Z0 F800
G1 X80.177 Y33.989 Z0 F800
G1 X80.492 Y33.481 Z0 F800
G1 X80.779 Y32.955 Z0 F800
G1 X81.257 Y31.934 Z0 F800
G1 X81.669 Y30.915 Z0 F800
G1 X82.034 Y29.956 Z0 F800
G1 X82.174 Y29.6 Z0 F800
; --- FIX Y Backlash ---
G0 X82.174 Y30.5 F1200
G1 X82.215 Y30.868 Z0 F800
G0 Z3.5 F500
G0 X82.585 Y32.969 Z3.5
G1 Z0 F500
; --- FIX X Backlash ---
G0 X81.685 Y32.969 F1200
G1 X81.491 Y33.53 Z0 F800
G1 X81.264 Y34.094 Z0 F800
G1 X81.017 Y34.637 Z0 F800
G1 X80.758 Y35.157 Z0 F800
G1 X80.485 Y35.668 Z0 F800
G1 X80.213 Y36.147 Z0 F800
G1 X79.746 Y36.876 Z0 F800
G1 X79.302 Y37.666 Z0 F800
G1 X78.898 Y38.471 Z0 F800
G1 X78.526 Y39.286 Z0 F800
G1 X77.853 Y40.9 Z0 F800
G1 X77.5 Y41.777 Z0 F800
; --- FIX Y Backlash ---
G0 X77.5 Y40.877 F1200
G1 X77.331 Y40.683 Z0 F800
G1 X77.1 Y40.326 Z0 F800
G1 X76.917 Y39.934 Z0 F800
G1 X76.783 Y39.517 Z0 F800
G1 X76.696 Y39.071 Z0 F800
G1 X76.656 Y38.611 Z0 F800
G1 X76.66 Y38.125 Z0 F800
G1 X76.708 Y37.637 Z0 F800
; --- FIX X Backlash ---
G0 X77.608 Y37.637 F1200
G1 X77.698 Y37.141 Z0 F800
G1 X77.826 Y36.651 Z0 F800
G1 X77.992 Y36.165 Z0 F800
G1 X78.189 Y35.699 Z0 F800
G1 X78.415 Y35.255 Z0 F800
G1 X78.669 Y34.835 Z0 F800
G1 X78.945 Y34.45 Z0 F800
G1 X79.271 Y34.057 Z0 F800
G1 X79.594 Y33.601 Z0 F800
G1 X79.886 Y33.129 Z0 F800
G1 X80.154 Y32.638 Z0 F800
G1 X80.616 Y31.654 Z0 F800
G1 X81.018 Y30.66 Z0 F800
G1 X81.382 Y29.7 Z0 F800
G1 X81.737 Y28.799 Z0 F800
G1 X81.92 Y28.372 Z0 F800
G1 X82.102 Y27.991 Z0 F800
G1 X82.105 Y27.984 Z0 F800
G1 X82.153 Y28.03 Z0 F800
; --- FIX Y Backlash ---
G0 X82.153 Y28.93 F1200
G1 X82.301 Y29.103 Z0 F800
G1 X82.566 Y29.502 Z0 F800
G1 X82.748 Y29.916 Z0 F800
G1 X82.862 Y30.354 Z0 F800
G1 X82.916 Y30.833 Z0 F800
G1 X82.911 Y31.341 Z0 F800
; --- FIX X Backlash ---
G0 X82.011 Y31.341 F1200
G1 X81.952 Y31.864 Z0 F800
G1 X81.84 Y32.413 Z0 F800
G1 X81.685 Y32.969 Z0 F800
G0 Z3.5 F500
G0 X81.094 Y36.013 Z3.5
G1 Z0 F500
G1 X80.814 Y36.507 Z0 F800
G1 X80.346 Y37.237 Z0 F800
G1 X79.92 Y37.994 Z0 F800
G1 X79.529 Y38.773 Z0 F800
G1 X79.167 Y39.565 Z0 F800
G1 X78.501 Y41.166 Z0 F800
G1 X77.866 Y42.74 Z0 F800
G1 X77.549 Y42.773 Z0 F800
; --- FIX Y Backlash ---
G0 X77.549 Y41.873 F1200
G1 X77.124 Y41.511 Z0 F800
G1 X76.771 Y41.106 Z0 F800
G1 X76.485 Y40.664 Z0 F800
G1 X76.264 Y40.191 Z0 F800
G1 X76.104 Y39.691 Z0 F800
G1 X76.002 Y39.171 Z0 F800
G1 X75.955 Y38.635 Z0 F800
G1 X75.96 Y38.09 Z0 F800
; --- FIX X Backlash ---
G0 X76.86 Y38.09 F1200
G1 X76.914 Y37.54 Z0 F800
G1 X77.013 Y36.991 Z0 F800
G1 X77.155 Y36.448 Z0 F800
G1 X77.336 Y35.917 Z0 F800
G1 X77.554 Y35.404 Z0 F800
G1 X77.804 Y34.913 Z0 F800
G1 X78.084 Y34.45 Z0 F800
G1 X78.391 Y34.021 Z0 F800
G1 X78.715 Y33.63 Z0 F800
G1 X79.01 Y33.214 Z0 F800
G1 X79.281 Y32.777 Z0 F800
G1 X79.53 Y32.322 Z0 F800
G1 X79.974 Y31.374 Z0 F800
G1 X80.366 Y30.404 Z0 F800
G1 X80.731 Y29.443 Z0 F800
G1 X81.094 Y28.522 Z0 F800
G1 X81.281 Y28.087 Z0 F800
G1 X81.478 Y27.673 Z0 F800
G1 X81.685 Y27.286 Z0 F800
G1 X81.907 Y26.928 Z0 F800
; --- FIX Y Backlash ---
G0 X81.907 Y27.828 F1200
G1 X82.187 Y28.024 Z0 F800
G1 X82.439 Y28.232 Z0 F800
G1 X82.664 Y28.451 Z0 F800
G1 X82.861 Y28.68 Z0 F800
G1 X83.183 Y29.166 Z0 F800
G1 X83.41 Y29.684 Z0 F800
G1 X83.552 Y30.229 Z0 F800
G1 X83.616 Y30.796 Z0 F800
G1 X83.611 Y31.38 Z0 F800
; --- FIX X Backlash ---
G0 X82.711 Y31.38 F1200
G1 X82.643 Y31.976 Z0 F800
G1 X82.521 Y32.577 Z0 F800
G1 X82.353 Y33.179 Z0 F800
G1 X82.146 Y33.776 Z0 F800
G1 X81.91 Y34.364 Z0 F800
G1 X81.65 Y34.936 Z0 F800
G1 X81.375 Y35.487 Z0 F800
G1 X81.094 Y36.013 Z0 F800
M9
M5
G1 Z10 F500
G1 Z10 F800

