G90 ; Force absolute mode
;LightBurn 1.6.04
;Custom GCode device profile, absolute coords
;Bounds: X15.79 Y13.81 to X60.21 Y58.19
G00 G17 G40 G21 G54
M3
G1 Z10 F600
;Offset @ 555 mm/min, 90% power

M8
G0 Z3.5 F600
G0 X28.546 Y26.588 Z3.5
G1 Z0 F600
;Layer C1
G1 X28.646 Y26.612 Z0 F600
G1 X28.816 Y26.678 Z0 F600
G1 X29.037 Y26.777 Z0 F600
G1 X29.323 Y26.894 Z0 F600
G1 X29.522 Y26.95 Z0 F600
; --- FIX X Backlash ---
G0 X28.822 Y26.95 F410
G1 X28.661 Y27.135 Z0 F600
G1 X28.409 Y27.345 Z0 F600
G1 X28.347 Y27.378 Z0 F600
G1 X28.292 Y27.396 Z0 F600
G1 X28.259 Z0 F600
G1 X28.182 Y27.385 Z0 F600
; --- FIX Y Backlash ---
G0 X28.182 Y26.885 F410
G1 X27.874 Y26.779 Z0 F600
G1 X27.568 Y26.623 Z0 F600
G1 X27.473 Y26.556 Z0 F600
G1 X27.394 Y26.482 Z0 F600
G1 X27.367 Y26.447 Z0 F600
G1 X27.378 Y26.39 Z0 F600
G1 X27.414 Y26.305 Z0 F600
; --- FIX X Backlash ---
G0 X28.114 Y26.305 F410
G1 X28.165 Y26.227 Z0 F600
G1 X28.225 Y26.166 Z0 F600
G1 X28.288 Y26.125 Z0 F600
G1 X28.349 Y26.101 Z0 F600
G1 X28.448 Y26.087 Z0 F600
G1 X28.546 Z0 F600
G0 Z3.5 F600
G0 X29.453 Y26.015 Z3.5 F600
G1 Z0 F600
; --- FIX Y Backlash ---
G0 X29.453 Y26.515 F410
G1 X29.75 Y26.599 Z0 F600
G1 X30.088 Y26.621 Z0 F600
G1 X30.31 Y26.571 Z0 F600
; --- FIX X Backlash ---
G0 X29.61 Y26.571 F410
G1 X29.213 Y27.11 Z0 F600
G1 X28.939 Y27.425 Z0 F600
G1 X28.637 Y27.677 Z0 F600
G1 X28.505 Y27.748 Z0 F600
G1 X28.37 Y27.791 Z0 F600
G1 X28.239 Y27.801 Z0 F600
G1 X28.085 Y27.775 Z0 F600
; --- FIX Y Backlash ---
G0 X28.085 Y27.275 F410
G1 X27.715 Y27.147 Z0 F600
G1 X27.361 Y26.967 Z0 F600
G1 X27.218 Y26.865 Z0 F600
G1 X27.1 Y26.755 Z0 F600
G1 X27.004 Y26.632 Z0 F600
G1 X26.961 Y26.551 Z0 F600
G1 Y26.439 Z0 F600
G1 X26.994 Y26.273 Z0 F600
; --- FIX X Backlash ---
G0 X27.694 Y26.273 F410
G1 X27.759 Y26.117 Z0 F600
G1 X27.854 Y25.973 Z0 F600
G1 X27.968 Y25.857 Z0 F600
G1 X28.102 Y25.767 Z0 F600
G1 X28.247 Y25.711 Z0 F600
G1 X28.425 Y25.687 Z0 F600
G1 X28.596 Z0 F600
G1 X28.768 Y25.73 Z0 F600
; --- FIX Y Backlash ---
G0 X28.768 Y26.23 F410
G1 X28.965 Y26.307 Z0 F600
G1 X29.194 Y26.409 Z0 F600
G1 X29.453 Y26.515 Z0 F600
G0 Z3.5 F600
; --- FIX Y Backlash ---
G0 X29.453 Y26.015 F410
G0 X37.603 Y17.256 Z3.5
G1 Z0 F600
G1 Y17.252 Z0 F600
G1 X37.59 Y17.045 Z0 F600
G1 X37.581 Y16.812 Z0 F600
G1 X37.585 Y16.656 Z0 F600
G1 X37.596 Y16.648 Z0 F600
; --- FIX Y Backlash ---
G0 X37.596 Y17.148 F410
G1 X37.856 Y17.356 Z0 F600
G1 X37.89 Y17.391 Z0 F600
; --- FIX X Backlash ---
G0 X37.19 Y17.391 F410
G1 X37.021 Y17.556 Z0 F600
G1 X36.903 Y17.756 Z0 F600
G0 Z3.5 F600
G0 X36.574 Y18.12 Z3.5
G1 Z0 F600
; --- FIX Y Backlash ---
G0 X36.574 Y17.62 F410
G1 X36.504 Y17.305 Z0 F600
G1 X36.491 Y17.068 Z0 F600
G1 X36.481 Y16.81 Z0 F600
G1 X36.487 Y16.578 Z0 F600
G1 X36.502 Y16.466 Z0 F600
; --- FIX X Backlash ---
G0 X37.202 Y16.466 F410
G1 X37.294 Y16.366 Z0 F600
G1 X37.477 Y16.251 Z0 F600
G1 X37.544 Y16.229 Z0 F600
G1 X37.616 Y16.22 Z0 F600
G1 X37.681 Y16.226 Z0 F600
G1 X37.726 Y16.24 Z0 F600
; --- FIX Y Backlash ---
G0 X37.726 Y16.74 F410
G1 X38.124 Y17.058 Z0 F600
G1 X38.523 Y17.465 Z0 F600
; --- FIX X Backlash ---
G0 X37.823 Y17.465 F410
G1 X37.531 Y17.618 Z0 F600
G1 X37.339 Y17.805 Z0 F600
G1 X37.211 Y18.022 Z0 F600
G1 X37.132 Y18.26 Z0 F600
G1 X37.096 Y18.684 Z0 F600
; --- FIX X Backlash ---
G0 X37.796 Y18.684 F410
G1 X37.847 Y19.023 Z0 F600
G1 X37.854 Y19.267 Z0 F600
G1 X37.809 Y19.497 Z0 F600
G1 X37.786 Y19.544 Z0 F600
G1 X37.764 Y19.571 Z0 F600
G1 X37.754 Y19.577 Z0 F600
; --- FIX X Backlash ---
G0 X37.054 Y19.577 F410
G1 X36.928 Y19.544 Z0 F600
; --- FIX Y Backlash ---
G0 X36.928 Y19.044 F410
G1 X36.78 Y18.947 Z0 F600
G1 X36.743 Y18.905 Z0 F600
G1 X36.714 Y18.857 Z0 F600
G1 X36.7 Y18.813 Z0 F600
G1 X36.696 Y18.727 Z0 F600
G1 X36.691 Y18.362 Z0 F600
G1 X36.644 Y17.981 Z0 F600
G1 X36.574 Y17.62 Z0 F600
G0 Z3.5 F600
; --- FIX Y Backlash ---
G0 X36.574 Y18.12 F410
G0 X33.26 Y24.361 Z3.5
G1 Z0 F600
G1 Y24.386 Z0 F600
G1 X33.292 Y24.632 Z0 F600
G1 X33.313 Y24.691 Z0 F600
G1 X33.283 Y24.681 Z0 F600
; --- FIX Y Backlash ---
G0 X33.283 Y24.181 F410
G1 X32.943 Y24.114 Z0 F600
G1 X32.939 Z0 F600
; --- FIX X Backlash ---
G0 X33.639 Y24.114 F410
G1 X33.757 Y24.039 Z0 F600
G1 X33.96 Y23.861 Z0 F600
G0 Z3.5 F600
G0 X34.435 Y23.548 Z3.5
G1 Z0 F600
; --- FIX X Backlash ---
G0 X33.735 Y23.548 F410
; --- FIX Y Backlash ---
G0 X33.735 Y24.048 F410
G1 X33.676 Y24.213 Z0 F600
G1 X33.661 Y24.377 Z0 F600
G1 X33.683 Y24.538 Z0 F600
; --- FIX X Backlash ---
G0 X34.383 Y24.538 F410
G1 X34.437 Y24.692 Z0 F600
G1 X34.621 Y24.971 Z0 F600
G1 X34.869 Y25.195 Z0 F600
G1 X35.369 Y25.585 Z0 F600
G1 X35.879 Y25.972 Z0 F600
G1 X36.145 Y26.146 Z0 F600
G1 X36.422 Y26.298 Z0 F600
G1 X36.712 Y26.42 Z0 F600
G1 X37.019 Y26.506 Z0 F600
G1 X37.265 Y26.524 Z0 F600
G1 X37.507 Y26.502 Z0 F600
G1 X37.747 Y26.455 Z0 F600
; --- FIX Y Backlash ---
G0 X37.747 Y25.955 F410
G1 X37.984 Y25.894 Z0 F600
G1 X38.461 Y25.779 Z0 F600
G1 X38.95 Y25.756 Z0 F600
G1 X39.288 Y25.751 Z0 F600
G1 X39.628 Y25.768 Z0 F600
G1 X39.792 Y25.799 Z0 F600
; --- FIX Y Backlash ---
G0 X39.792 Y26.299 F410
G1 X39.946 Y26.354 Z0 F600
G1 X40.09 Y26.438 Z0 F600
G1 X40.647 Y26.949 Z0 F600
G1 X41.036 Y27.379 Z0 F600
G1 X41.207 Y27.612 Z0 F600
G1 X41.359 Y27.857 Z0 F600
G1 X41.488 Y28.116 Z0 F600
G1 X41.591 Y28.39 Z0 F600
G1 X41.827 Y29.05 Z0 F600
G1 X42.013 Y29.735 Z0 F600
G1 X42.119 Y30.071 Z0 F600
G1 X42.25 Y30.394 Z0 F600
G1 X42.42 Y30.698 Z0 F600
G1 X42.64 Y30.976 Z0 F600
G1 X42.961 Y31.253 Z0 F600
G1 X43.32 Y31.504 Z0 F600
G1 X43.486 Y31.639 Z0 F600
G1 X43.63 Y31.791 Z0 F600
G1 X43.741 Y31.966 Z0 F600
G1 X43.807 Y32.174 Z0 F600
G1 X43.826 Y32.47 Z0 F600
G1 X43.776 Y32.758 Z0 F600
; --- FIX X Backlash ---
G0 X43.076 Y32.758 F410
G1 X43.022 Y32.892 Z0 F600
G1 X42.947 Y33.014 Z0 F600
G1 X42.848 Y33.122 Z0 F600
G1 X42.725 Y33.212 Z0 F600
G1 X42.509 Y33.333 Z0 F600
G1 X42.278 Y33.411 Z0 F600
G1 X42.035 Y33.452 Z0 F600
G1 X41.787 Y33.459 Z0 F600
; --- FIX Y Backlash ---
G0 X41.787 Y32.959 F410
G1 X41.291 Y32.89 Z0 F600
G1 X40.824 Y32.738 Z0 F600
G1 X40.54 Y32.596 Z0 F600
G1 X40.236 Y32.454 Z0 F600
G1 X40.081 Y32.411 Z0 F600
G1 X39.928 Y32.403 Z0 F600
G1 X39.779 Y32.439 Z0 F600
; --- FIX Y Backlash ---
G0 X39.779 Y32.939 F410
G1 X39.637 Y33.033 Z0 F600
G1 X39.525 Y33.146 Z0 F600
G1 X39.446 Y33.277 Z0 F600
G1 X39.393 Y33.422 Z0 F600
G1 X39.357 Y33.576 Z0 F600
G1 X39.311 Y33.893 Z0 F600
G1 X39.246 Y34.195 Z0 F600
; --- FIX Y Backlash ---
G0 X39.246 Y33.695 F410
G1 X39.065 Y33.57 Z0 F600
G1 X38.969 Y33.4 Z0 F600
G1 X38.939 Y33.2 Z0 F600
G1 X38.956 Y32.982 Z0 F600
G1 X38.974 Y32.637 Z0 F600
G1 X39.021 Y32.277 Z0 F600
; --- FIX X Backlash ---
G0 X39.721 Y32.277 F410
G1 X39.772 Y32.108 Z0 F600
G1 X39.849 Y31.957 Z0 F600
G1 X39.959 Y31.83 Z0 F600
G1 X40.109 Y31.733 Z0 F600
G1 X40.28 Y31.683 Z0 F600
G1 X40.445 Y31.679 Z0 F600
G1 X40.602 Y31.714 Z0 F600
; --- FIX Y Backlash ---
G0 X40.602 Y32.214 F410
G1 X40.752 Y32.281 Z0 F600
G1 X41.032 Y32.475 Z0 F600
G1 X41.451 Y32.848 Z0 F600
G1 X41.638 Y32.981 Z0 F600
G1 X41.84 Y33.092 Z0 F600
G1 X42.052 Y33.175 Z0 F600
G1 X42.271 Y33.225 Z0 F600
G1 X42.493 Y33.233 Z0 F600
G1 X42.715 Y33.196 Z0 F600
; --- FIX Y Backlash ---
G0 X42.715 Y32.696 F410
G1 X42.933 Y32.607 Z0 F600
G1 X43.108 Y32.5 Z0 F600
G1 X43.244 Y32.354 Z0 F600
G1 X43.338 Y32.178 Z0 F600
G1 X43.389 Y31.984 Z0 F600
G1 X43.393 Y31.786 Z0 F600
G1 X43.348 Y31.594 Z0 F600
; --- FIX X Backlash ---
G0 X42.648 Y31.594 F410
G1 X42.553 Y31.419 Z0 F600
G1 X42.406 Y31.273 Z0 F600
G1 X42.092 Y31.011 Z0 F600
G1 X41.787 Y30.734 Z0 F600
G1 X41.651 Y30.583 Z0 F600
G1 X41.53 Y30.42 Z0 F600
G1 X41.431 Y30.242 Z0 F600
G1 X41.359 Y30.045 Z0 F600
G1 X41.124 Y29.295 Z0 F600
G1 X40.893 Y28.542 Z0 F600
G1 X40.758 Y28.173 Z0 F600
G1 X40.6 Y27.815 Z0 F600
G1 X40.412 Y27.472 Z0 F600
G1 X40.184 Y27.147 Z0 F600
G1 X39.855 Y26.753 Z0 F600
G1 X39.497 Y26.376 Z0 F600
G1 X39.301 Y26.208 Z0 F600
G1 X39.093 Y26.061 Z0 F600
G1 X38.868 Y25.94 Z0 F600
G1 X38.626 Y25.852 Z0 F600
G1 X38.36 Y25.827 Z0 F600
G1 X38.101 Y25.855 Z0 F600
; --- FIX Y Backlash ---
G0 X38.101 Y26.355 F410
G1 X37.848 Y26.421 Z0 F600
G1 X37.597 Y26.506 Z0 F600
G1 X37.346 Y26.594 Z0 F600
G1 X37.093 Y26.667 Z0 F600
G1 X36.835 Y26.708 Z0 F600
G1 X36.57 Y26.701 Z0 F600
G1 X36.337 Y26.71 Z0 F600
G1 X36.112 Y26.684 Z0 F600
; --- FIX Y Backlash ---
G0 X36.112 Y26.184 F410
G1 X35.892 Y26.127 Z0 F600
G1 X35.679 Y26.047 Z0 F600
G1 X35.269 Y25.835 Z0 F600
G1 X34.88 Y25.593 Z0 F600
G1 X34.424 Y25.251 Z0 F600
G1 X33.951 Y24.922 Z0 F600
G1 X33.704 Y24.779 Z0 F600
G1 X33.447 Y24.659 Z0 F600
G1 X33.18 Y24.568 Z0 F600
G1 X32.899 Y24.513 Z0 F600
G1 X32.494 Y24.502 Z0 F600
; --- FIX Y Backlash ---
G0 X32.494 Y25.002 F410
G1 X32.096 Y25.056 Z0 F600
G1 X31.713 Y25.173 Z0 F600
G1 X31.349 Y25.353 Z0 F600
G1 X31.044 Y25.521 Z0 F600
G1 X30.777 Y25.732 Z0 F600
G1 X30.54 Y25.976 Z0 F600
G1 X30.325 Y26.242 Z0 F600
G1 X29.93 Y26.81 Z0 F600
G1 X29.524 Y27.362 Z0 F600
G1 X29.221 Y27.71 Z0 F600
G1 X28.861 Y28.01 Z0 F600
G1 X28.661 Y28.118 Z0 F600
G1 X28.447 Y28.186 Z0 F600
G1 X28.222 Y28.204 Z0 F600
G1 X27.984 Y28.163 Z0 F600
; --- FIX Y Backlash ---
G0 X27.984 Y27.663 F410
G1 X27.559 Y27.516 Z0 F600
G1 X27.152 Y27.309 Z0 F600
G1 X26.967 Y27.178 Z0 F600
G1 X26.804 Y27.026 Z0 F600
G1 X26.667 Y26.851 Z0 F600
G1 X26.561 Y26.651 Z0 F600
G1 Y26.4 Z0 F600
G1 X26.61 Y26.156 Z0 F600
; --- FIX X Backlash ---
G0 X27.31 Y26.156 F410
G1 X27.405 Y25.927 Z0 F600
G1 X27.541 Y25.721 Z0 F600
G1 X27.712 Y25.546 Z0 F600
G1 X27.916 Y25.41 Z0 F600
G1 X28.146 Y25.321 Z0 F600
G1 X28.398 Y25.286 Z0 F600
G1 X28.647 Y25.29 Z0 F600
; --- FIX Y Backlash ---
G0 X28.647 Y25.79 F410
G1 X28.887 Y25.847 Z0 F600
G1 X29.121 Y25.938 Z0 F600
G1 X29.352 Y26.042 Z0 F600
G1 X29.583 Y26.136 Z0 F600
G1 X29.817 Y26.202 Z0 F600
G1 X30.057 Y26.218 Z0 F600
; --- FIX Y Backlash ---
G0 X30.057 Y25.718 F410
G1 X30.304 Y25.662 Z0 F600
G1 X30.788 Y25.275 Z0 F600
G1 X31.243 Y24.842 Z0 F600
G1 X31.478 Y24.638 Z0 F600
G1 X31.728 Y24.458 Z0 F600
G1 X31.999 Y24.312 Z0 F600
G1 X32.301 Y24.214 Z0 F600
G1 X32.804 Y24.068 Z0 F600
G1 X33.296 Y23.858 Z0 F600
G1 X33.517 Y23.718 Z0 F600
G1 X33.711 Y23.548 Z0 F600
G1 X33.869 Y23.343 Z0 F600
G1 X33.984 Y23.1 Z0 F600
G1 X34.003 Y22.863 Z0 F600
; --- FIX X Backlash ---
G0 X33.303 Y22.863 F410
G1 X33.251 Y22.645 Z0 F600
G1 X33.139 Y22.451 Z0 F600
G1 X32.98 Y22.286 Z0 F600
G1 X32.785 Y22.156 Z0 F600
G1 X32.567 Y22.066 Z0 F600
G1 X32.338 Y22.023 Z0 F600
G1 X32.11 Y22.032 Z0 F600
G1 X31.811 Y22.078 Z0 F600
; --- FIX Y Backlash ---
G0 X31.811 Y22.578 F410
G1 X31.526 Y22.663 Z0 F600
G1 X31.252 Y22.777 Z0 F600
G1 X30.986 Y22.912 Z0 F600
G1 X30.46 Y23.203 Z0 F600
G1 X29.924 Y23.463 Z0 F600
G1 X29.507 Y23.536 Z0 F600
G1 X29.051 Y23.522 Z0 F600
; --- FIX Y Backlash ---
G0 X29.051 Y23.022 F410
G1 X28.847 Y22.961 Z0 F600
G1 X28.68 Y22.854 Z0 F600
G1 X28.566 Y22.691 Z0 F600
G1 X28.519 Y22.465 Z0 F600
G1 X28.544 Y22.115 Z0 F600
; --- FIX X Backlash ---
G0 X29.244 Y22.115 F410
G1 X29.318 Y21.771 Z0 F600
G1 X29.44 Y21.44 Z0 F600
G1 X29.604 Y21.128 Z0 F600
G1 X29.808 Y20.841 Z0 F600
G1 X30.047 Y20.583 Z0 F600
G1 X30.319 Y20.362 Z0 F600
G1 X30.62 Y20.183 Z0 F600
G1 X31.305 Y20.039 Z0 F600
G1 X32.001 Y19.979 Z0 F600
G1 X32.699 Y20.003 Z0 F600
; --- FIX Y Backlash ---
G0 X32.699 Y20.503 F410
G1 X33.391 Y20.611 Z0 F600
G1 X33.62 Z0 F600
G1 X33.855 Y20.581 Z0 F600
; --- FIX Y Backlash ---
G0 X33.855 Y20.081 F410
G1 X34.088 Y20.016 Z0 F600
G1 X34.306 Y19.917 Z0 F600
G1 X34.499 Y19.785 Z0 F600
G1 X34.657 Y19.619 Z0 F600
G1 X34.77 Y19.42 Z0 F600
G1 X34.826 Y19.187 Z0 F600
G1 X34.794 Y19.012 Z0 F600
; --- FIX X Backlash ---
G0 X34.094 Y19.012 F410
G1 X34.031 Y18.851 Z0 F600
G1 X33.944 Y18.699 Z0 F600
G1 X33.84 Y18.554 Z0 F600
G1 X33.614 Y18.272 Z0 F600
G1 X33.415 Y17.98 Z0 F600
G1 X33.308 Y17.76 Z0 F600
G1 X33.241 Y17.528 Z0 F600
G1 X33.21 Y17.289 Z0 F600
G1 X33.205 Y17.045 Z0 F600
G1 X33.255 Y16.553 Z0 F600
; --- FIX X Backlash ---
G0 X33.955 Y16.553 F410
G1 X34.04 Y16.075 Z0 F600
G1 X34.161 Y15.759 Z0 F600
G1 X34.32 Y15.466 Z0 F600
G1 X34.511 Y15.191 Z0 F600
G1 X34.725 Y14.931 Z0 F600
G1 X35.194 Y14.439 Z0 F600
G1 X35.667 Y13.963 Z0 F600
G1 X35.825 Y13.802 Z0 F600
G1 X36 Y13.663 Z0 F600
G1 X36.189 Y13.546 Z0 F600
G1 X36.391 Y13.453 Z0 F600
G1 X36.82 Y13.334 Z0 F600
G1 X37.267 Y13.307 Z0 F600
G1 X37.768 Y13.321 Z0 F600
; --- FIX Y Backlash ---
G0 X37.768 Y13.821 F410
G1 X38.254 Y13.927 Z0 F600
G1 X38.716 Y14.115 Z0 F600
G1 X39.144 Y14.376 Z0 F600
G1 X39.417 Y14.581 Z0 F600
G1 X39.66 Y14.816 Z0 F600
G1 X39.876 Y15.076 Z0 F600
G1 X40.068 Y15.356 Z0 F600
G1 X40.394 Y15.957 Z0 F600
G1 X40.661 Y16.58 Z0 F600
G1 X40.781 Y17 Z0 F600
G1 X40.832 Y17.435 Z0 F600
G1 X40.817 Y17.874 Z0 F600
; --- FIX X Backlash ---
G0 X40.117 Y17.874 F410
G1 X40.045 Y18.303 Z0 F600
G1 X39.904 Y18.403 Z0 F600
G1 X39.72 Y18.415 Z0 F600
G1 X39.525 Y18.379 Z0 F600
G1 X39.35 Y18.339 Z0 F600
; --- FIX Y Backlash ---
G0 X39.35 Y17.839 F410
G1 X38.994 Y17.71 Z0 F600
G1 X38.643 Y17.554 Z0 F600
G1 X38.287 Y17.421 Z0 F600
G1 X37.917 Y17.367 Z0 F600
; --- FIX Y Backlash ---
G0 X37.917 Y17.867 F410
G1 X37.768 Y17.945 Z0 F600
G1 X37.656 Y18.054 Z0 F600
G1 X37.577 Y18.188 Z0 F600
G1 X37.527 Y18.341 Z0 F600
G1 X37.499 Y18.671 Z0 F600
G1 X37.546 Y18.989 Z0 F600
G1 X37.555 Y19.3 Z0 F600
G1 X37.492 Y19.624 Z0 F600
G1 X37.424 Y19.765 Z0 F600
G1 X37.328 Y19.879 Z0 F600
G1 X37.2 Y19.957 Z0 F600
G1 X37.038 Y19.987 Z0 F600
; --- FIX Y Backlash ---
G0 X37.038 Y19.487 F410
G1 X36.762 Y19.414 Z0 F600
G1 X36.517 Y19.252 Z0 F600
G1 X36.419 Y19.144 Z0 F600
G1 X36.346 Y19.021 Z0 F600
G1 X36.303 Y18.885 Z0 F600
G1 X36.296 Y18.739 Z0 F600
G1 X36.291 Y18.389 Z0 F600
G1 X36.249 Y18.043 Z0 F600
G1 X36.182 Y17.701 Z0 F600
G1 X36.107 Y17.36 Z0 F600
G1 X36.092 Y17.09 Z0 F600
G1 X36.081 Y16.816 Z0 F600
G1 X36.087 Y16.546 Z0 F600
G1 X36.122 Y16.288 Z0 F600
; --- FIX X Backlash ---
G0 X36.822 Y16.288 F410
G1 X37.037 Y16.055 Z0 F600
G1 X37.306 Y15.887 Z0 F600
G1 X37.454 Y15.838 Z0 F600
G1 X37.606 Y15.818 Z0 F600
G1 X37.762 Y15.831 Z0 F600
; --- FIX Y Backlash ---
G0 X37.762 Y16.331 F410
G1 X37.918 Y16.381 Z0 F600
G1 X38.393 Y16.761 Z0 F600
G1 X38.828 Y17.204 Z0 F600
G1 X39.052 Y17.412 Z0 F600
G1 X39.294 Y17.591 Z0 F600
G1 X39.561 Y17.727 Z0 F600
G1 X39.863 Y17.802 Z0 F600
G1 X40.035 Y17.787 Z0 F600
; --- FIX Y Backlash ---
G0 X40.035 Y17.287 F410
G1 X40.19 Y17.221 Z0 F600
G1 X40.324 Y17.112 Z0 F600
G1 X40.43 Y16.973 Z0 F600
G1 X40.502 Y16.813 Z0 F600
G1 X40.536 Y16.644 Z0 F600
G1 X40.525 Y16.475 Z0 F600
; --- FIX X Backlash ---
G0 X39.825 Y16.475 F410
G1 X39.764 Y16.316 Z0 F600
G1 X39.598 Y15.853 Z0 F600
G1 X39.381 Y15.409 Z0 F600
G1 X39.116 Y14.991 Z0 F600
G1 X38.806 Y14.605 Z0 F600
G1 X38.456 Y14.257 Z0 F600
G1 X38.069 Y13.953 Z0 F600
G1 X37.647 Y13.699 Z0 F600
G1 X37.196 Y13.5 Z0 F600
G1 X36.803 Y13.45 Z0 F600
G1 X36.408 Y13.456 Z0 F600
G1 X36.215 Y13.488 Z0 F600
; --- FIX Y Backlash ---
G0 X36.215 Y13.988 F410
G1 X36.029 Y14.043 Z0 F600
G1 X35.85 Y14.126 Z0 F600
G1 X35.683 Y14.239 Z0 F600
G1 X35.127 Y14.69 Z0 F600
G1 X34.604 Y15.183 Z0 F600
G1 X34.125 Y15.717 Z0 F600
G1 X33.695 Y16.29 Z0 F600
G1 X33.588 Y16.489 Z0 F600
G1 X33.507 Y16.699 Z0 F600
G1 X33.449 Y16.917 Z0 F600
G1 X33.414 Y17.142 Z0 F600
G1 X33.407 Y17.595 Z0 F600
; --- FIX X Backlash ---
G0 X34.107 Y17.595 F410
G1 X34.176 Y18.04 Z0 F600
G1 X34.377 Y18.418 Z0 F600
G1 X34.653 Y18.75 Z0 F600
G1 X34.935 Y19.078 Z0 F600
G1 X35.156 Y19.44 Z0 F600
G1 X35.181 Y19.792 Z0 F600
; --- FIX X Backlash ---
G0 X34.481 Y19.792 F410
G1 X34.408 Y20.139 Z0 F600
G1 X34.33 Y20.292 Z0 F600
G1 X34.221 Y20.423 Z0 F600
G1 X34.08 Y20.523 Z0 F600
G1 X33.904 Y20.586 Z0 F600
G1 X33.568 Y20.662 Z0 F600
G1 X33.229 Y20.702 Z0 F600
G1 X32.887 Y20.714 Z0 F600
G1 X32.544 Y20.704 Z0 F600
; --- FIX Y Backlash ---
G0 X32.544 Y20.204 F410
G1 X31.857 Y20.151 Z0 F600
G1 X31.174 Y20.103 Z0 F600
G1 X30.909 Y20.118 Z0 F600
G1 X30.651 Y20.163 Z0 F600
; --- FIX Y Backlash ---
G0 X30.651 Y20.663 F410
G1 X30.401 Y20.738 Z0 F600
G1 X30.161 Y20.841 Z0 F600
G1 X29.934 Y20.97 Z0 F600
G1 X29.723 Y21.124 Z0 F600
G1 X29.529 Y21.302 Z0 F600
G1 X29.357 Y21.501 Z0 F600
G1 X29.121 Y21.823 Z0 F600
G1 X28.942 Y22.197 Z0 F600
G1 X28.896 Y22.392 Z0 F600
G1 X28.89 Y22.587 Z0 F600
G1 X28.934 Y22.777 Z0 F600
; --- FIX X Backlash ---
G0 X29.634 Y22.777 F410
G1 X29.735 Y22.958 Z0 F600
G1 X29.886 Y23.087 Z0 F600
G1 X30.055 Y23.162 Z0 F600
G1 X30.235 Y23.189 Z0 F600
G1 X30.422 Y23.179 Z0 F600
; --- FIX Y Backlash ---
G0 X30.422 Y22.679 F410
G1 X30.795 Y22.57 Z0 F600
G1 X31.13 Y22.397 Z0 F600
G1 X31.624 Y22.157 Z0 F600
G1 X32.144 Y21.984 Z0 F600
G1 X32.68 Y21.889 Z0 F600
G1 X33.224 Y21.881 Z0 F600
G1 X33.541 Y21.89 Z0 F600
; --- FIX Y Backlash ---
G0 X33.541 Y22.39 F410
G1 X33.843 Y22.47 Z0 F600
G1 X34.114 Y22.622 Z0 F600
G1 X34.337 Y22.848 Z0 F600
G1 X34.454 Y22.974 Z0 F600
G1 X34.534 Y23.114 Z0 F600
G1 X34.58 Y23.265 Z0 F600
G1 X34.596 Y23.422 Z0 F600
G1 X34.554 Y23.743 Z0 F600
; --- FIX X Backlash ---
G0 X33.854 Y23.743 F410
G1 X33.735 Y24.048 Z0 F600
G0 Z3.5 F600
; --- FIX X Backlash ---
G0 X34.435 Y24.048 F410
; --- FIX Y Backlash ---
G0 X34.435 Y23.548 F410
G0 X37.739 Y21.977 Z3.5
G1 Z0 F600
G1 X37.765 Y21.991 Z0 F600
; --- FIX Y Backlash ---
G0 X37.765 Y22.491 F410
G1 X37.839 Y22.552 Z0 F600
G1 X37.918 Y22.644 Z0 F600
G1 X37.993 Y22.756 Z0 F600
G1 X38.174 Y23.124 Z0 F600
G1 X38.376 Y23.607 Z0 F600
G1 X38.337 Y23.612 Z0 F600
; --- FIX X Backlash ---
G0 X37.637 Y23.612 F410
G1 X37.439 Y23.619 Z0 F600
G1 X37.259 Y23.608 Z0 F600
G1 X37.101 Y23.578 Z0 F600
G1 X37.02 Y23.55 Z0 F600
G1 X36.997 Y23.533 Z0 F600
; --- FIX Y Backlash ---
G0 X36.997 Y23.033 F410
G1 X36.939 Y22.967 Z0 F600
G1 X36.879 Y22.875 Z0 F600
G1 X36.826 Y22.765 Z0 F600
G1 X36.716 Y22.416 Z0 F600
G1 X36.654 Y22.106 Z0 F600
G1 Y22.087 Z0 F600
G1 X36.66 Y22.081 Z0 F600
; --- FIX X Backlash ---
G0 X37.36 Y22.081 F410
G1 X37.412 Y22.043 Z0 F600
G1 X37.501 Y22.003 Z0 F600
G1 X37.612 Y21.978 Z0 F600
G1 X37.716 Y21.973 Z0 F600
G1 X37.739 Y21.977 Z0 F600
G0 Z3.5 F600
; --- FIX Y Backlash ---
G0 X37.739 Y22.477 F410
G0 X38.339 Y22.555 Z3.5
G1 Z0 F600
G1 X38.542 Y22.965 Z0 F600
G1 X38.74 Y23.441 Z0 F600
G1 X38.954 Y23.712 Z0 F600
G1 X39.208 Y23.898 Z0 F600
; --- FIX X Backlash ---
G0 X38.508 Y23.898 F410
G1 X38.191 Y23.947 Z0 F600
G1 X37.673 Y24.011 Z0 F600
G1 X37.434 Y24.02 Z0 F600
G1 X37.207 Y24.005 Z0 F600
G1 X36.996 Y23.965 Z0 F600
; --- FIX Y Backlash ---
G0 X36.996 Y23.465 F410
G1 X36.827 Y23.406 Z0 F600
G1 X36.725 Y23.328 Z0 F600
G1 X36.619 Y23.21 Z0 F600
G1 X36.529 Y23.072 Z0 F600
G1 X36.453 Y22.91 Z0 F600
G1 X36.328 Y22.517 Z0 F600
G1 X36.251 Y22.138 Z0 F600
G1 X36.258 Y21.993 Z0 F600
G1 X36.3 Y21.888 Z0 F600
; --- FIX X Backlash ---
G0 X37 Y21.888 F410
G1 X37.083 Y21.788 Z0 F600
G1 X37.211 Y21.694 Z0 F600
G1 X37.376 Y21.622 Z0 F600
G1 X37.56 Y21.579 Z0 F600
G1 X37.737 Y21.571 Z0 F600
G1 X37.871 Y21.593 Z0 F600
; --- FIX Y Backlash ---
G0 X37.871 Y22.093 F410
G1 X37.993 Y22.159 Z0 F600
G1 X38.121 Y22.267 Z0 F600
G1 X38.236 Y22.4 Z0 F600
G1 X38.339 Y22.555 Z0 F600
G0 Z3.5 F600
G0 X50.614 Y22.804 Z3.5
G1 Z0 F600
G1 X50.639 Y22.763 Z0 F600
; --- FIX Y Backlash ---
G0 X50.639 Y22.263 F410
G1 X50.774 Y22.105 Z0 F600
G1 X50.921 Y21.943 Z0 F600
G1 X51.02 Y21.858 Z0 F600
G1 X51.041 Y21.864 Z0 F600
; --- FIX Y Backlash ---
G0 X51.041 Y22.364 F410
G1 X51.061 Y22.767 Z0 F600
; --- FIX X Backlash ---
G0 X50.361 Y22.767 F410
G1 X50.309 Y22.756 Z0 F600
G1 X49.914 Y22.804 Z0 F600
G0 Z3.5 F600
G0 X49.445 Y22.799 Z3.5
G1 Z0 F600
; --- FIX X Backlash ---
G0 X50.145 Y22.799 F410
; --- FIX Y Backlash ---
G0 X50.145 Y22.299 F410
G1 X50.315 Y22.026 Z0 F600
G1 X50.468 Y21.848 Z0 F600
G1 X50.643 Y21.654 Z0 F600
G1 X50.796 Y21.523 Z0 F600
G1 X50.926 Y21.456 Z0 F600
G1 X50.987 Y21.451 Z0 F600
G1 X51.094 Y21.463 Z0 F600
G1 X51.202 Y21.495 Z0 F600
G1 X51.296 Y21.543 Z0 F600
; --- FIX Y Backlash ---
G0 X51.296 Y22.043 F410
G1 X51.364 Y22.098 Z0 F600
G1 X51.409 Y22.156 Z0 F600
G1 X51.431 Y22.211 Z0 F600
G1 X51.439 Y22.329 Z0 F600
G1 X51.463 Y22.799 Z0 F600
G1 X51.466 Y23.299 Z0 F600
G1 Y23.326 Z0 F600
; --- FIX X Backlash ---
G0 X50.766 Y23.326 F410
; --- FIX Y Backlash ---
G0 X50.766 Y22.826 F410
G1 X50.602 Y22.728 Z0 F600
G1 X50.291 Y22.661 Z0 F600
G1 X49.981 Y22.699 Z0 F600
; --- FIX Y Backlash ---
G0 X49.981 Y23.199 F410
G1 X49.726 Y23.314 Z0 F600
G1 X49.531 Y23.472 Z0 F600
G1 X49.383 Y23.638 Z0 F600
G1 X49.175 Y23.917 Z0 F600
G1 X48.96 Y24.135 Z0 F600
G1 X48.903 Y24.187 Z0 F600
G1 X48.87 Y24.203 Z0 F600
G1 X48.823 Y24.213 Z0 F600
G1 X48.779 Z0 F600
G1 X48.738 Y24.201 Z0 F600
G1 X48.715 Y24.187 Z0 F600
G1 X48.701 Y24.172 Z0 F600
G1 X48.686 Y24.142 Z0 F600
; --- FIX Y Backlash ---
G0 X48.686 Y23.642 F410
G1 X48.655 Y23.487 Z0 F600
G1 X48.651 Y23.32 Z0 F600
G1 X48.658 Y23.283 Z0 F600
G1 X48.672 Y23.247 Z0 F600
G1 X48.687 Y23.224 Z0 F600
; --- FIX X Backlash ---
G0 X49.387 Y23.224 F410
G1 X49.454 Y23.161 Z0 F600
G1 X49.708 Y22.891 Z0 F600
G1 X49.939 Y22.599 Z0 F600
G1 X50.145 Y22.299 Z0 F600
G0 Z3.5 F600
; --- FIX X Backlash ---
G0 X49.445 Y22.299 F410
; --- FIX Y Backlash ---
G0 X49.445 Y22.799 F410
G0 X42.752 Y24.876 Z3.5
G1 Z0 F600
G1 X42.652 Y24.96 Z0 F600
G1 X42.494 Y25.146 Z0 F600
G1 X42.468 Y25.199 Z0 F600
G1 X42.454 Y25.171 Z0 F600
; --- FIX Y Backlash ---
G0 X42.454 Y24.671 F410
G1 X42.251 Y24.364 Z0 F600
G1 X42.247 Y24.36 Z0 F600
; --- FIX X Backlash ---
G0 X42.947 Y24.36 F410
G1 X43.25 Y24.386 Z0 F600
G1 X43.452 Y24.376 Z0 F600
G0 Z3.5 F600
G0 X44.343 Y24.293 Z3.5
G1 Z0 F600
; --- FIX X Backlash ---
G0 X43.643 Y24.293 F410
; --- FIX Y Backlash ---
G0 X43.643 Y24.793 F410
G1 X43.353 Y24.961 Z0 F600
G1 X43.062 Y25.139 Z0 F600
G1 X42.935 Y25.245 Z0 F600
G1 X42.83 Y25.368 Z0 F600
G1 X42.757 Y25.515 Z0 F600
G1 X42.72 Y25.689 Z0 F600
G1 X42.725 Y26.248 Z0 F600
; --- FIX X Backlash ---
G0 X43.425 Y26.248 F410
G1 X43.485 Y26.804 Z0 F600
G1 X43.583 Y27.357 Z0 F600
G1 X43.702 Y27.903 Z0 F600
G1 X43.826 Y28.276 Z0 F600
G1 X44.02 Y28.615 Z0 F600
G1 X44.143 Y28.765 Z0 F600
G1 X44.284 Y28.898 Z0 F600
G1 X44.442 Y29.013 Z0 F600
G1 X44.618 Y29.106 Z0 F600
G1 X45.078 Y29.368 Z0 F600
G1 X45.503 Y29.686 Z0 F600
G1 X45.875 Y30.062 Z0 F600
G1 X46.175 Y30.497 Z0 F600
G1 X46.23 Y30.93 Z0 F600
G1 X46.241 Y31.372 Z0 F600
G1 X46.229 Y31.816 Z0 F600
G1 X46.213 Y32.26 Z0 F600
; --- FIX X Backlash ---
G0 X45.513 Y32.26 F410
G1 X45.406 Y32.658 Z0 F600
G1 X45.26 Y33.042 Z0 F600
G1 X45.088 Y33.414 Z0 F600
G1 X44.899 Y33.78 Z0 F600
G1 X44.511 Y34.51 Z0 F600
G1 X44.183 Y35.262 Z0 F600
G1 X44.149 Y35.738 Z0 F600
G1 X44.182 Y36.215 Z0 F600
G1 X44.222 Y36.692 Z0 F600
G1 X44.209 Y37.167 Z0 F600
G1 X44.083 Y37.435 Z0 F600
G1 X43.886 Y37.666 Z0 F600
G1 X43.766 Y37.756 Z0 F600
G1 X43.634 Y37.824 Z0 F600
G1 X43.493 Y37.864 Z0 F600
G1 X43.344 Y37.874 Z0 F600
G1 X43.303 Y37.871 Z0 F600
G1 X43.262 Y37.864 Z0 F600
G1 X43.128 Z0 F600
G1 X42.954 Y37.842 Z0 F600
; --- FIX Y Backlash ---
G0 X42.954 Y37.342 F410
G1 X42.792 Y37.286 Z0 F600
G1 X42.641 Y37.202 Z0 F600
G1 X42.501 Y37.096 Z0 F600
G1 X42.244 Y36.846 Z0 F600
G1 X42.014 Y36.585 Z0 F600
G1 X41.814 Y36.235 Z0 F600
G1 X41.618 Y35.658 Z0 F600
G1 X41.541 Y35.473 Z0 F600
G1 X41.442 Y35.3 Z0 F600
G1 X41.312 Y35.146 Z0 F600
G1 X41.152 Y35.074 Z0 F600
G1 X40.991 Y35.053 Z0 F600
G1 X40.832 Y35.074 Z0 F600
; --- FIX Y Backlash ---
G0 X40.832 Y35.574 F410
G1 X40.675 Y35.627 Z0 F600
G1 X40.378 Y35.799 Z0 F600
G1 X40.114 Y36.001 Z0 F600
G1 X40.033 Y36.07 Z0 F600
G1 X39.976 Y36.094 Z0 F600
G1 X39.937 Y36.082 Z0 F600
G1 X39.915 Y36.041 Z0 F600
; --- FIX Y Backlash ---
G0 X39.915 Y35.541 F410
G1 X39.904 Y35.403 Z0 F600
G1 X39.915 Y35.245 Z0 F600
; --- FIX X Backlash ---
G0 X40.615 Y35.245 F410
G1 X40.926 Y34.933 Z0 F600
G1 X41.247 Y34.605 Z0 F600
G1 X41.422 Y34.467 Z0 F600
G1 X41.612 Y34.363 Z0 F600
G1 X41.822 Y34.306 Z0 F600
G1 X42.056 Z0 F600
; --- FIX Y Backlash ---
G0 X42.056 Y34.806 F410
G1 X42.187 Y34.856 Z0 F600
G1 X42.301 Y34.929 Z0 F600
G1 X42.398 Y35.022 Z0 F600
G1 X42.479 Y35.132 Z0 F600
G1 X42.585 Y35.385 Z0 F600
G1 X42.621 Y35.658 Z0 F600
G1 X42.667 Y36.118 Z0 F600
G1 X42.746 Y36.585 Z0 F600
G1 X42.819 Y36.804 Z0 F600
G1 X42.924 Y37.003 Z0 F600
G1 X43.072 Y37.175 Z0 F600
G1 X43.269 Y37.314 Z0 F600
G1 X43.438 Y37.418 Z0 F600
G1 X43.625 Y37.475 Z0 F600
G1 X43.821 Y37.488 Z0 F600
G1 X44.014 Y37.458 Z0 F600
; --- FIX Y Backlash ---
G0 X44.014 Y36.958 F410
G1 X44.194 Y36.887 Z0 F600
G1 X44.352 Y36.777 Z0 F600
G1 X44.475 Y36.629 Z0 F600
G1 X44.554 Y36.445 Z0 F600
G1 X44.584 Y36.02 Z0 F600
G1 X44.573 Y35.591 Z0 F600
G1 X44.565 Y35.164 Z0 F600
G1 X44.608 Y34.748 Z0 F600
G1 X44.812 Y34.311 Z0 F600
G1 X45.043 Y33.89 Z0 F600
G1 X45.282 Y33.472 Z0 F600
G1 X45.508 Y33.048 Z0 F600
G1 X45.669 Y32.657 Z0 F600
G1 X45.802 Y32.253 Z0 F600
G1 X45.905 Y31.839 Z0 F600
G1 X45.973 Y31.418 Z0 F600
G1 X46.004 Y30.995 Z0 F600
G1 X45.993 Y30.572 Z0 F600
; --- FIX X Backlash ---
G0 X45.293 Y30.572 F410
G1 X45.237 Y30.152 Z0 F600
G1 X45.132 Y29.74 Z0 F600
G1 X44.958 Y29.49 Z0 F600
G1 X44.739 Y29.294 Z0 F600
G1 X44.489 Y29.135 Z0 F600
G1 X44.221 Y28.995 Z0 F600
G1 X43.948 Y28.859 Z0 F600
G1 X43.686 Y28.711 Z0 F600
G1 X43.446 Y28.534 Z0 F600
G1 X43.244 Y28.311 Z0 F600
G1 X43.029 Y28.042 Z0 F600
G1 X42.866 Y27.749 Z0 F600
G1 X42.745 Y27.436 Z0 F600
G1 X42.656 Y27.109 Z0 F600
G1 X42.537 Y26.434 Z0 F600
G1 X42.432 Y25.765 Z0 F600
G1 X42.358 Y25.457 Z0 F600
G1 X42.249 Y25.157 Z0 F600
G1 X42.107 Y24.872 Z0 F600
G1 X41.932 Y24.607 Z0 F600
G1 X41.725 Y24.369 Z0 F600
G1 X41.487 Y24.164 Z0 F600
G1 X41.218 Y23.997 Z0 F600
G1 X40.921 Y23.875 Z0 F600
G1 X40.403 Y23.705 Z0 F600
G1 X39.865 Y23.628 Z0 F600
G1 X39.323 Y23.646 Z0 F600
; --- FIX Y Backlash ---
G0 X39.323 Y24.146 F410
G1 X38.79 Y24.259 Z0 F600
G1 X38.252 Y24.342 Z0 F600
G1 X37.702 Y24.41 Z0 F600
G1 X37.429 Y24.42 Z0 F600
G1 X37.158 Y24.403 Z0 F600
G1 X36.892 Y24.353 Z0 F600
; --- FIX Y Backlash ---
G0 X36.892 Y23.853 F410
G1 X36.633 Y23.762 Z0 F600
G1 X36.451 Y23.622 Z0 F600
G1 X36.301 Y23.455 Z0 F600
G1 X36.178 Y23.265 Z0 F600
G1 X36.08 Y23.058 Z0 F600
G1 X35.94 Y22.616 Z0 F600
G1 X35.85 Y22.17 Z0 F600
G1 X35.861 Y21.908 Z0 F600
; --- FIX X Backlash ---
G0 X36.561 Y21.908 F410
G1 X36.652 Y21.681 Z0 F600
G1 X36.808 Y21.493 Z0 F600
G1 X37.012 Y21.345 Z0 F600
G1 X37.249 Y21.241 Z0 F600
G1 X37.504 Y21.182 Z0 F600
G1 X37.76 Y21.17 Z0 F600
G1 X38.003 Y21.208 Z0 F600
; --- FIX Y Backlash ---
G0 X38.003 Y21.708 F410
G1 X38.219 Y21.827 Z0 F600
G1 X38.401 Y21.979 Z0 F600
G1 X38.556 Y22.159 Z0 F600
G1 X38.688 Y22.358 Z0 F600
G1 X38.903 Y22.794 Z0 F600
G1 X39.088 Y23.236 Z0 F600
G1 X39.234 Y23.422 Z0 F600
G1 X39.413 Y23.552 Z0 F600
G1 X39.615 Y23.636 Z0 F600
G1 X39.835 Y23.682 Z0 F600
G1 X40.301 Y23.698 Z0 F600
G1 X40.752 Y23.674 Z0 F600
G1 X41.046 Y23.678 Z0 F600
G1 X41.326 Y23.732 Z0 F600
G1 X41.596 Y23.826 Z0 F600
G1 X41.857 Y23.945 Z0 F600
G1 X42.371 Y24.218 Z0 F600
G1 X42.893 Y24.454 Z0 F600
G1 X43.258 Y24.485 Z0 F600
G1 X43.639 Y24.466 Z0 F600
G1 X43.818 Y24.421 Z0 F600
; --- FIX Y Backlash ---
G0 X43.818 Y23.921 F410
G1 X43.978 Y23.844 Z0 F600
G1 X44.113 Y23.728 Z0 F600
G1 X44.216 Y23.566 Z0 F600
G1 X44.274 Y23.342 Z0 F600
G1 X44.281 Y23.117 Z0 F600
G1 X44.24 Y22.898 Z0 F600
; --- FIX X Backlash ---
G0 X43.54 Y22.898 F410
G1 X43.457 Y22.69 Z0 F600
G1 X43.337 Y22.498 Z0 F600
G1 X43.186 Y22.328 Z0 F600
G1 X43.008 Y22.185 Z0 F600
G1 X42.81 Y22.074 Z0 F600
G1 X42.166 Y21.805 Z0 F600
G1 X41.484 Y21.607 Z0 F600
G1 X41.153 Y21.493 Z0 F600
G1 X40.84 Y21.348 Z0 F600
G1 X40.554 Y21.154 Z0 F600
G1 X40.305 Y20.896 Z0 F600
G1 X40.19 Y20.676 Z0 F600
G1 X40.136 Y20.427 Z0 F600
G1 X40.144 Y20.305 Z0 F600
G1 X40.18 Y20.192 Z0 F600
; --- FIX X Backlash ---
G0 X40.88 Y20.192 F410
G1 X40.949 Y20.092 Z0 F600
G1 X41.055 Y20.012 Z0 F600
G1 X41.333 Y19.788 Z0 F600
G1 X41.642 Y19.602 Z0 F600
G1 X41.975 Y19.458 Z0 F600
G1 X42.324 Y19.36 Z0 F600
G1 X42.681 Y19.313 Z0 F600
G1 X43.04 Y19.321 Z0 F600
; --- FIX Y Backlash ---
G0 X43.04 Y19.821 F410
G1 X43.391 Y19.886 Z0 F600
G1 X43.728 Y20.013 Z0 F600
G1 X44.291 Y20.4 Z0 F600
G1 X44.801 Y20.854 Z0 F600
G1 X45.256 Y21.363 Z0 F600
G1 X45.655 Y21.917 Z0 F600
G1 X45.917 Y22.131 Z0 F600
G1 X46.22 Y22.3 Z0 F600
G1 X46.548 Y22.4 Z0 F600
G1 X46.887 Y22.409 Z0 F600
; --- FIX Y Backlash ---
G0 X46.887 Y21.909 F410
G1 X47.064 Y21.846 Z0 F600
G1 X47.206 Y21.745 Z0 F600
G1 X47.316 Y21.613 Z0 F600
G1 X47.401 Y21.458 Z0 F600
G1 X47.51 Y21.109 Z0 F600
G1 X47.618 Y20.467 Z0 F600
G1 X47.689 Y20.181 Z0 F600
G1 X47.815 Y19.921 Z0 F600
G1 X48.023 Y19.708 Z0 F600
G1 X48.422 Y19.32 Z0 F600
G1 X48.874 Y18.995 Z0 F600
G1 X49.119 Y18.866 Z0 F600
G1 X49.375 Y18.765 Z0 F600
G1 X49.644 Y18.696 Z0 F600
G1 X49.924 Y18.662 Z0 F600
G1 X50.533 Y18.619 Z0 F600
G1 X51.145 Y18.61 Z0 F600
G1 X51.755 Y18.644 Z0 F600
; --- FIX Y Backlash ---
G0 X51.755 Y19.144 F410
G1 X52.359 Y19.227 Z0 F600
G1 X52.674 Y19.386 Z0 F600
G1 X52.966 Y19.584 Z0 F600
G1 X53.231 Y19.816 Z0 F600
G1 X53.466 Y20.079 Z0 F600
G1 X53.669 Y20.368 Z0 F600
G1 X53.836 Y20.678 Z0 F600
G1 X53.965 Y21.007 Z0 F600
G1 X54.054 Y21.349 Z0 F600
G1 X54.127 Y21.699 Z0 F600
G1 X54.151 Y22.05 Z0 F600
G1 X54.131 Y22.401 Z0 F600
; --- FIX X Backlash ---
G0 X53.431 Y22.401 F410
G1 X53.375 Y22.75 Z0 F600
G1 X53.182 Y23.437 Z0 F600
G1 X52.928 Y24.096 Z0 F600
G1 X52.713 Y24.482 Z0 F600
G1 X52.449 Y24.842 Z0 F600
G1 X52.138 Y25.158 Z0 F600
G1 X51.776 Y25.409 Z0 F600
G1 X51.633 Y25.404 Z0 F600
G1 X51.511 Y25.355 Z0 F600
; --- FIX Y Backlash ---
G0 X51.511 Y24.855 F410
G1 X51.408 Y24.77 Z0 F600
G1 X51.321 Y24.659 Z0 F600
G1 X51.185 Y24.395 Z0 F600
G1 X51.08 Y24.137 Z0 F600
G1 X50.952 Y23.811 Z0 F600
G1 X50.809 Y23.468 Z0 F600
G1 X50.716 Y23.316 Z0 F600
G1 X50.6 Y23.191 Z0 F600
G1 X50.454 Y23.105 Z0 F600
G1 X50.273 Y23.066 Z0 F600
G1 X50.091 Y23.088 Z0 F600
; --- FIX Y Backlash ---
G0 X50.091 Y23.588 F410
G1 X49.938 Y23.658 Z0 F600
G1 X49.808 Y23.763 Z0 F600
G1 X49.693 Y23.892 Z0 F600
G1 X49.479 Y24.178 Z0 F600
G1 X49.237 Y24.424 Z0 F600
G1 X49.128 Y24.521 Z0 F600
G1 X49 Y24.584 Z0 F600
G1 X48.861 Y24.614 Z0 F600
G1 X48.719 Y24.61 Z0 F600
G1 X48.585 Y24.574 Z0 F600
; --- FIX Y Backlash ---
G0 X48.585 Y24.074 F410
G1 X48.465 Y24.004 Z0 F600
G1 X48.368 Y23.903 Z0 F600
G1 X48.303 Y23.77 Z0 F600
G1 X48.257 Y23.532 Z0 F600
G1 X48.25 Y23.29 Z0 F600
G1 X48.271 Y23.174 Z0 F600
G1 X48.312 Y23.065 Z0 F600
; --- FIX X Backlash ---
G0 X49.012 Y23.065 F410
G1 X49.078 Y22.966 Z0 F600
G1 X49.17 Y22.878 Z0 F600
G1 X49.405 Y22.629 Z0 F600
G1 X49.617 Y22.361 Z0 F600
G1 X49.811 Y22.08 Z0 F600
G1 X49.992 Y21.79 Z0 F600
G1 X50.171 Y21.579 Z0 F600
G1 X50.361 Y21.37 Z0 F600
G1 X50.572 Y21.188 Z0 F600
G1 X50.814 Y21.063 Z0 F600
G1 X50.992 Y21.049 Z0 F600
G1 X51.174 Y21.069 Z0 F600
; --- FIX Y Backlash ---
G0 X51.174 Y21.569 F410
G1 X51.351 Y21.622 Z0 F600
G1 X51.514 Y21.706 Z0 F600
G1 X51.654 Y21.818 Z0 F600
G1 X51.76 Y21.957 Z0 F600
G1 X51.825 Y22.121 Z0 F600
G1 X51.838 Y22.309 Z0 F600
G1 X51.863 Y22.792 Z0 F600
G1 X51.866 Y23.282 Z0 F600
G1 X51.904 Y23.764 Z0 F600
G1 X52.035 Y24.228 Z0 F600
G1 X52.112 Y24.37 Z0 F600
G1 X52.22 Y24.485 Z0 F600
G1 X52.351 Y24.57 Z0 F600
G1 X52.497 Y24.623 Z0 F600
G1 X52.649 Y24.641 Z0 F600
G1 X52.802 Y24.62 Z0 F600
; --- FIX Y Backlash ---
G0 X52.802 Y24.12 F410
G1 X52.945 Y24.059 Z0 F600
G1 X53.071 Y23.953 Z0 F600
G1 X53.26 Y23.718 Z0 F600
G1 X53.414 Y23.462 Z0 F600
G1 X53.538 Y23.19 Z0 F600
G1 X53.635 Y22.904 Z0 F600
G1 X53.764 Y22.312 Z0 F600
G1 X53.829 Y21.715 Z0 F600
G1 Y21.357 Z0 F600
G1 X53.802 Y20.993 Z0 F600
; --- FIX X Backlash ---
G0 X53.102 Y20.993 F410
G1 X53.039 Y20.632 Z0 F600
G1 X52.938 Y20.282 Z0 F600
G1 X52.795 Y19.952 Z0 F600
G1 X52.605 Y19.649 Z0 F600
G1 X52.365 Y19.384 Z0 F600
G1 X52.069 Y19.163 Z0 F600
G1 X51.826 Y19.053 Z0 F600
G1 X51.573 Y18.979 Z0 F600
G1 X51.313 Y18.936 Z0 F600
G1 X51.048 Y18.914 Z0 F600
G1 X49.981 Y18.896 Z0 F600
G1 X49.314 Y18.919 Z0 F600
; --- FIX Y Backlash ---
G0 X49.314 Y19.419 F410
G1 X48.65 Y19.532 Z0 F600
G1 X48.335 Y19.638 Z0 F600
G1 X48.041 Y19.786 Z0 F600
G1 X47.774 Y19.98 Z0 F600
G1 X47.54 Y20.229 Z0 F600
G1 X47.371 Y20.446 Z0 F600
G1 X47.258 Y20.684 Z0 F600
G1 X47.188 Y20.938 Z0 F600
G1 X47.146 Y21.202 Z0 F600
G1 X47.094 Y21.742 Z0 F600
G1 X46.993 Y22.263 Z0 F600
G1 X46.892 Y22.412 Z0 F600
G1 X46.764 Y22.546 Z0 F600
G1 X46.616 Y22.659 Z0 F600
G1 X46.453 Y22.744 Z0 F600
G1 X46.281 Y22.794 Z0 F600
G1 X46.104 Y22.803 Z0 F600
G1 X45.929 Y22.765 Z0 F600
; --- FIX Y Backlash ---
G0 X45.929 Y22.265 F410
G1 X45.761 Y22.172 Z0 F600
G1 X45.301 Y21.857 Z0 F600
G1 X44.877 Y21.497 Z0 F600
G1 X44.499 Y21.09 Z0 F600
G1 X44.175 Y20.636 Z0 F600
G1 X43.98 Y20.406 Z0 F600
G1 X43.762 Y20.192 Z0 F600
G1 X43.522 Y20.002 Z0 F600
G1 X43.263 Y19.84 Z0 F600
G1 X42.988 Y19.715 Z0 F600
G1 X42.7 Y19.633 Z0 F600
G1 X42.401 Y19.6 Z0 F600
G1 X42.093 Y19.624 Z0 F600
G1 X41.673 Y19.667 Z0 F600
; --- FIX Y Backlash ---
G0 X41.673 Y20.167 F410
G1 X41.247 Y20.279 Z0 F600
G1 X41.057 Y20.374 Z0 F600
G1 X40.897 Y20.503 Z0 F600
G1 X40.777 Y20.67 Z0 F600
G1 X40.706 Y20.882 Z0 F600
G1 X40.687 Y21.022 Z0 F600
G1 X40.699 Y21.156 Z0 F600
G1 X40.738 Y21.282 Z0 F600
; --- FIX X Backlash ---
G0 X41.438 Y21.282 F410
G1 X41.502 Y21.398 Z0 F600
G1 X41.689 Y21.588 Z0 F600
G1 X41.934 Y21.708 Z0 F600
G1 X42.318 Y21.85 Z0 F600
G1 X42.708 Y21.976 Z0 F600
G1 X43.088 Y22.122 Z0 F600
G1 X43.446 Y22.325 Z0 F600
G1 X43.808 Y22.572 Z0 F600
G1 X44.148 Y22.857 Z0 F600
G1 X44.44 Y23.186 Z0 F600
G1 X44.656 Y23.564 Z0 F600
G1 X44.702 Y23.898 Z0 F600
G1 X44.689 Y24.241 Z0 F600
G1 X44.649 Y24.403 Z0 F600
; --- FIX X Backlash ---
G0 X43.949 Y24.403 F410
G1 X43.881 Y24.552 Z0 F600
G1 X43.781 Y24.684 Z0 F600
G1 X43.643 Y24.793 Z0 F600
G0 Z3.5 F600
G0 X37.337 Y35.656 Z3.5
G1 Z0 F600
; --- FIX X Backlash ---
G0 X38.037 Y35.656 F410
G1 X38.14 Y35.674 Z0 F600
G1 X38.177 Y35.692 Z0 F600
G1 X38.225 Y35.733 Z0 F600
G1 X38.272 Y35.798 Z0 F600
G1 X38.311 Y35.885 Z0 F600
G1 X38.329 Y35.975 Z0 F600
G1 Y36.058 Z0 F600
G1 X38.301 Y36.17 Z0 F600
G1 X38.284 Y36.21 Z0 F600
G1 X38.267 Y36.236 Z0 F600
G1 X38.242 Y36.263 Z0 F600
G1 X38.205 Y36.292 Z0 F600
G1 X38.156 Y36.317 Z0 F600
G1 X38.109 Y36.333 Z0 F600
; --- FIX X Backlash ---
G0 X37.409 Y36.333 F410
G1 X37.352 Y36.344 Z0 F600
G1 X37.274 Z0 F600
G1 X37.173 Y36.339 Z0 F600
G1 X37.129 Y36.326 Z0 F600
G1 X37.079 Y36.299 Z0 F600
G1 X37.032 Y36.26 Z0 F600
; --- FIX Y Backlash ---
G0 X37.032 Y35.76 F410
G1 X36.989 Y35.707 Z0 F600
G1 X36.962 Y35.657 Z0 F600
G1 X36.947 Y35.606 Z0 F600
G1 X36.941 Y35.514 Z0 F600
G1 X36.945 Y35.406 Z0 F600
G1 X36.961 Y35.351 Z0 F600
G1 X36.993 Y35.293 Z0 F600
; --- FIX X Backlash ---
G0 X37.693 Y35.293 F410
G1 X37.744 Y35.237 Z0 F600
G1 X37.806 Y35.192 Z0 F600
G1 X37.873 Y35.163 Z0 F600
G1 X37.93 Y35.151 Z0 F600
G1 X38.037 Y35.156 Z0 F600
G0 Z3.5 F600
G0 X38.621 Y35.098 Z3.5
G1 Z0 F600
; --- FIX Y Backlash ---
G0 X38.621 Y35.598 F410
G1 X38.692 Y35.76 Z0 F600
G1 X38.729 Y35.937 Z0 F600
G1 Y36.11 Z0 F600
G1 X38.683 Y36.292 Z0 F600
G1 X38.639 Y36.397 Z0 F600
; --- FIX X Backlash ---
G0 X37.939 Y36.397 F410
G1 X37.882 Y36.486 Z0 F600
G1 X37.809 Y36.563 Z0 F600
G1 X37.719 Y36.63 Z0 F600
G1 X37.621 Y36.683 Z0 F600
G1 X37.508 Y36.722 Z0 F600
G1 X37.393 Y36.743 Z0 F600
G1 X37.261 Y36.746 Z0 F600
G1 X37.102 Y36.735 Z0 F600
G1 X36.975 Y36.698 Z0 F600
; --- FIX Y Backlash ---
G0 X36.975 Y36.198 F410
G1 X36.853 Y36.132 Z0 F600
G1 X36.746 Y36.042 Z0 F600
G1 X36.655 Y35.931 Z0 F600
G1 X36.59 Y35.808 Z0 F600
G1 X36.551 Y35.679 Z0 F600
G1 X36.54 Y35.523 Z0 F600
G1 X36.547 Y35.339 Z0 F600
G1 X36.59 Y35.194 Z0 F600
; --- FIX X Backlash ---
G0 X37.29 Y35.194 F410
G1 X37.367 Y35.058 Z0 F600
G1 X37.474 Y34.939 Z0 F600
G1 X37.604 Y34.844 Z0 F600
G1 X37.75 Y34.779 Z0 F600
G1 X37.902 Y34.75 Z0 F600
G1 X38.078 Y34.757 Z0 F600
G1 X38.264 Y34.79 Z0 F600
; --- FIX Y Backlash ---
G0 X38.264 Y35.29 F410
G1 X38.4 Y35.356 Z0 F600
G1 X38.521 Y35.46 Z0 F600
G1 X38.621 Y35.598 Z0 F600
G0 Z3.5 F600
G0 X39.127 Y36.16 Z3.5
G1 Z0 F600
; --- FIX X Backlash ---
G0 X38.427 Y36.16 F410
G1 X38.364 Y36.417 Z0 F600
G1 X38.295 Y36.585 Z0 F600
G1 X38.197 Y36.734 Z0 F600
G1 X38.077 Y36.862 Z0 F600
G1 X37.936 Y36.968 Z0 F600
G1 X37.779 Y37.051 Z0 F600
G1 X37.611 Y37.11 Z0 F600
G1 X37.435 Y37.142 Z0 F600
G1 X37.255 Y37.146 Z0 F600
G1 X37.031 Y37.131 Z0 F600
; --- FIX Y Backlash ---
G0 X37.031 Y36.631 F410
G1 X36.82 Y36.569 Z0 F600
G1 X36.628 Y36.464 Z0 F600
G1 X36.46 Y36.324 Z0 F600
G1 X36.321 Y36.155 Z0 F600
G1 X36.218 Y35.961 Z0 F600
G1 X36.155 Y35.75 Z0 F600
G1 X36.139 Y35.527 Z0 F600
G1 X36.149 Y35.274 Z0 F600
; --- FIX X Backlash ---
G0 X36.849 Y35.274 F410
G1 X36.919 Y35.037 Z0 F600
G1 X37.04 Y34.823 Z0 F600
G1 X37.205 Y34.641 Z0 F600
G1 X37.403 Y34.496 Z0 F600
G1 X37.628 Y34.396 Z0 F600
G1 X37.871 Y34.348 Z0 F600
G1 X38.123 Y34.359 Z0 F600
G1 X38.389 Y34.405 Z0 F600
; --- FIX Y Backlash ---
G0 X38.389 Y34.905 F410
G1 X38.622 Y35.019 Z0 F600
G1 X38.817 Y35.187 Z0 F600
G1 X38.97 Y35.397 Z0 F600
G1 X39.076 Y35.638 Z0 F600
G1 X39.13 Y35.896 Z0 F600
G1 X39.127 Y36.16 Z0 F600
G0 Z3.5 F600
; --- FIX X Backlash ---
G0 X38.427 Y36.16 F410
; --- FIX Y Backlash ---
G0 X38.427 Y35.66 F410
G0 X24.929 Y35.228 Z3.5
G1 Z0 F600
; --- FIX Y Backlash ---
G0 X24.929 Y35.728 F410
G1 X24.925 Y36.019 Z0 F600
G1 X24.865 Y36.253 Z0 F600
G1 X24.844 Y36.294 Z0 F600
G1 X24.816 Y36.329 Z0 F600
G1 X24.793 Y36.349 Z0 F600
G1 X24.704 Y36.392 Z0 F600
G1 X24.457 Y36.498 Z0 F600
G1 X24.23 Y36.574 Z0 F600
G1 X24.009 Y36.625 Z0 F600
G1 X23.894 Y36.636 Z0 F600
G1 X23.882 Y36.624 Z0 F600
G1 X23.85 Y36.578 Z0 F600
; --- FIX Y Backlash ---
G0 X23.85 Y36.078 F410
G1 X23.819 Y36.004 Z0 F600
G1 X23.797 Y35.915 Z0 F600
G1 X23.79 Y35.831 Z0 F600
G1 X23.799 Y35.746 Z0 F600
G1 X23.802 Y35.734 Z0 F600
G1 Y35.729 Z0 F600
G1 X23.823 Y35.703 Z0 F600
G1 X23.861 Y35.663 Z0 F600
; --- FIX X Backlash ---
G0 X24.561 Y35.663 F410
G1 X24.749 Y35.509 Z0 F600
G1 X24.897 Y35.405 Z0 F600
G1 X25.159 Y35.303 Z0 F600
G1 X25.549 Y35.125 Z0 F600
G1 X25.617 Y35.083 Z0 F600
; --- FIX Y Backlash ---
G0 X25.617 Y35.583 F410
G1 X25.629 Y35.728 Z0 F600
G0 Z3.5 F600
G0 X25.711 Y36.687 Z3.5
G1 Z0 F600
; --- FIX X Backlash ---
G0 X25.011 Y36.687 F410
G1 X24.866 Y36.758 Z0 F600
G1 X24.606 Y36.87 Z0 F600
G1 X24.333 Y36.961 Z0 F600
G1 X24.077 Y37.02 Z0 F600
G1 X23.854 Y37.042 Z0 F600
G1 X23.757 Y37.02 Z0 F600
; --- FIX Y Backlash ---
G0 X23.757 Y36.52 F410
G1 X23.661 Y36.466 Z0 F600
G1 X23.575 Y36.385 Z0 F600
G1 X23.496 Y36.268 Z0 F600
G1 X23.438 Y36.133 Z0 F600
G1 X23.4 Y35.979 Z0 F600
G1 X23.389 Y35.824 Z0 F600
G1 X23.404 Y35.676 Z0 F600
G1 X23.425 Y35.593 Z0 F600
G1 X23.459 Y35.525 Z0 F600
; --- FIX X Backlash ---
G0 X24.159 Y35.525 F410
G1 X24.217 Y35.444 Z0 F600
G1 X24.29 Y35.367 Z0 F600
G1 X24.502 Y35.193 Z0 F600
G1 X24.708 Y35.049 Z0 F600
G1 X25.003 Y34.935 Z0 F600
G1 X25.36 Y34.771 Z0 F600
G1 X25.553 Y34.653 Z0 F600
G1 X25.734 Y34.508 Z0 F600
G1 X25.898 Y34.326 Z0 F600
G1 X25.909 Y34.308 Z0 F600
; --- FIX Y Backlash ---
G0 X25.909 Y34.808 F410
G1 X25.983 Y35.185 Z0 F600
G1 X26.029 Y35.714 Z0 F600
G1 X26.024 Y36.071 Z0 F600
; --- FIX X Backlash ---
G0 X25.324 Y36.071 F410
G1 X25.24 Y36.398 Z0 F600
G1 X25.182 Y36.51 Z0 F600
G1 X25.105 Y36.609 Z0 F600
G1 X25.011 Y36.687 Z0 F600
G0 Z3.5 F600
; --- FIX Y Backlash ---
G0 X25.011 Y36.187 F410
G0 X24.126 Y22.876 Z3.5
G1 Z0 F600
G1 X23.985 Y22.754 Z0 F600
G1 X23.796 Y22.583 Z0 F600
G1 X23.695 Y22.48 Z0 F600
G1 X23.7 Y22.45 Z0 F600
; --- FIX X Backlash ---
G0 X24.4 Y22.45 F410
G1 X24.714 Y22.421 Z0 F600
G1 X24.777 Z0 F600
; --- FIX Y Backlash ---
G0 X24.777 Y22.921 F410
G1 X24.769 Y22.981 Z0 F600
G1 X24.807 Y23.321 Z0 F600
G1 X24.826 Y23.376 Z0 F600
G0 Z3.5 F600
G0 X24.917 Y23.909 Z3.5
G1 Z0 F600
; --- FIX X Backlash ---
G0 X24.217 Y23.909 F410
; --- FIX Y Backlash ---
G0 X24.217 Y23.409 F410
G1 X23.897 Y23.208 Z0 F600
G1 X23.713 Y23.047 Z0 F600
G1 X23.527 Y22.88 Z0 F600
G1 X23.356 Y22.706 Z0 F600
G1 X23.293 Y22.622 Z0 F600
G1 X23.29 Y22.468 Z0 F600
G1 X23.335 Y22.228 Z0 F600
G1 X23.364 Y22.164 Z0 F600
G1 X23.399 Y22.118 Z0 F600
G1 X23.437 Y22.088 Z0 F600
; --- FIX X Backlash ---
G0 X24.137 Y22.088 F410
G1 X24.189 Y22.067 Z0 F600
G1 X24.696 Y22.021 Z0 F600
G1 X25.277 Y22.025 Z0 F600
G1 X25.299 Z0 F600
; --- FIX X Backlash ---
G0 X24.599 Y22.025 F410
; --- FIX Y Backlash ---
G0 X24.599 Y22.525 F410
G1 X24.508 Y22.733 Z0 F600
G1 X24.472 Y22.988 Z0 F600
G1 X24.499 Y23.232 Z0 F600
; --- FIX X Backlash ---
G0 X25.199 Y23.232 F410
G1 X25.276 Y23.457 Z0 F600
G1 X25.393 Y23.655 Z0 F600
G1 X25.54 Y23.827 Z0 F600
G1 X25.713 Y23.972 Z0 F600
G1 X25.864 Y24.058 Z0 F600
G1 X25.983 Y24.139 Z0 F600
G1 X26.075 Y24.229 Z0 F600
G1 X26.153 Y24.339 Z0 F600
G1 X26.199 Y24.439 Z0 F600
G1 X26.213 Y24.517 Z0 F600
G1 X26.209 Y24.551 Z0 F600
G1 X26.196 Y24.573 Z0 F600
G1 X26.165 Y24.598 Z0 F600
; --- FIX X Backlash ---
G0 X25.465 Y24.598 F410
G1 X25.39 Y24.611 Z0 F600
G1 X25.232 Y24.631 Z0 F600
G1 X25.108 Y24.634 Z0 F600
G1 X25.097 Z0 F600
; --- FIX Y Backlash ---
G0 X25.097 Y24.134 F410
G1 X24.89 Y23.929 Z0 F600
G1 X24.56 Y23.656 Z0 F600
G1 X24.217 Y23.409 Z0 F600
G0 Z3.5 F600
; --- FIX X Backlash ---
G0 X24.917 Y23.409 F410
; --- FIX Y Backlash ---
G0 X24.917 Y23.909 F410
G0 X37.218 Y31.992 Z3.5
G1 Z0 F600
G1 X37.215 Y31.999 Z0 F600
G1 X37.218 Y31.992 Z0 F600
G0 Z3.5 F600
; --- FIX X Backlash ---
G0 X36.518 Y31.992 F410
; --- FIX Y Backlash ---
G0 X36.518 Y31.492 F410
G0 X26.518 Y30.313 Z3.5
G1 Z0 F600
; --- FIX Y Backlash ---
G0 X26.518 Y30.813 F410
G1 X26.316 Y30.934 Z0 F600
G1 X26.181 Y31.033 Z0 F600
; --- FIX Y Backlash ---
G0 X26.181 Y30.533 F410
G1 X26.202 Y30.455 Z0 F600
G1 X26.227 Y30.093 Z0 F600
G1 X26.224 Y30.075 Z0 F600
; --- FIX X Backlash ---
G0 X26.924 Y30.075 F410
; --- FIX Y Backlash ---
G0 X26.924 Y30.575 F410
G1 X27.078 Y30.721 Z0 F600
G1 X27.218 Y30.813 Z0 F600
G0 Z3.5 F600
G0 X27.516 Y31.102 Z3.5
G1 Z0 F600
; --- FIX X Backlash ---
G0 X26.816 Y31.102 F410
G1 X26.537 Y31.268 Z0 F600
G1 X26.281 Y31.456 Z0 F600
G1 X26.068 Y31.682 Z0 F600
G1 X25.892 Y31.937 Z0 F600
G1 X25.749 Y32.216 Z0 F600
G1 X25.542 Y32.815 Z0 F600
G1 X25.408 Y33.425 Z0 F600
G1 X25.456 Y33.997 Z0 F600
; --- FIX X Backlash ---
G0 X26.156 Y33.997 F410
G1 X26.38 Y35.125 Z0 F600
G1 X26.43 Y35.7 Z0 F600
G1 X26.423 Y36.125 Z0 F600
; --- FIX X Backlash ---
G0 X25.723 Y36.125 F410
G1 X25.617 Y36.54 Z0 F600
G1 X25.521 Y36.727 Z0 F600
G1 X25.393 Y36.89 Z0 F600
G1 X25.231 Y37.024 Z0 F600
G1 X25.032 Y37.122 Z0 F600
G1 X24.744 Y37.245 Z0 F600
G1 X24.446 Y37.345 Z0 F600
G1 X24.14 Y37.416 Z0 F600
G1 X23.829 Y37.447 Z0 F600
; --- FIX Y Backlash ---
G0 X23.829 Y36.947 F410
G1 X23.611 Y36.896 Z0 F600
G1 X23.423 Y36.792 Z0 F600
G1 X23.267 Y36.644 Z0 F600
G1 X23.145 Y36.463 Z0 F600
G1 X23.057 Y36.259 Z0 F600
G1 X23.004 Y36.041 Z0 F600
G1 X22.988 Y35.82 Z0 F600
G1 X23.008 Y35.605 Z0 F600
G1 X23.048 Y35.453 Z0 F600
; --- FIX X Backlash ---
G0 X23.748 Y35.453 F410
G1 X23.816 Y35.315 Z0 F600
G1 X23.907 Y35.19 Z0 F600
G1 X24.015 Y35.075 Z0 F600
G1 X24.263 Y34.873 Z0 F600
G1 X24.517 Y34.694 Z0 F600
G1 X24.847 Y34.566 Z0 F600
G1 X25.172 Y34.417 Z0 F600
G1 X25.323 Y34.325 Z0 F600
G1 X25.458 Y34.216 Z0 F600
G1 X25.576 Y34.086 Z0 F600
G1 X25.671 Y33.931 Z0 F600
G1 X25.693 Y33.431 Z0 F600
G1 Y32.927 Z0 F600
G1 X25.714 Y32.427 Z0 F600
G1 X25.802 Y31.937 Z0 F600
G1 X26.054 Y31.43 Z0 F600
G1 X26.326 Y30.92 Z0 F600
G1 X26.435 Y30.658 Z0 F600
G1 X26.505 Y30.39 Z0 F600
G1 X26.524 Y30.112 Z0 F600
G1 X26.478 Y29.824 Z0 F600
G1 X26.437 Y29.655 Z0 F600
; --- FIX X Backlash ---
G0 X25.737 Y29.655 F410
G1 X25.657 Y29.51 Z0 F600
G1 X25.546 Y29.391 Z0 F600
G1 X25.411 Y29.298 Z0 F600
G1 X25.258 Y29.235 Z0 F600
G1 X25.094 Y29.202 Z0 F600
G1 X24.926 Z0 F600
G1 X24.76 Y29.231 Z0 F600
; --- FIX Y Backlash ---
G0 X24.76 Y29.731 F410
G1 X24.494 Y29.834 Z0 F600
G1 X24.268 Y29.99 Z0 F600
G1 X24.078 Y30.188 Z0 F600
G1 X23.918 Y30.418 Z0 F600
G1 X23.676 Y30.936 Z0 F600
G1 X23.508 Y31.466 Z0 F600
G1 X23.397 Y31.89 Z0 F600
G1 X23.233 Y32.302 Z0 F600
G1 X23.126 Y32.496 Z0 F600
G1 X22.998 Y32.677 Z0 F600
G1 X22.849 Y32.842 Z0 F600
G1 X22.675 Y32.988 Z0 F600
G1 X22.444 Y33.112 Z0 F600
G1 X22.184 Y33.14 Z0 F600
G1 X22.058 Y33.116 Z0 F600
; --- FIX Y Backlash ---
G0 X22.058 Y32.616 F410
G1 X21.942 Y32.563 Z0 F600
G1 X21.842 Y32.482 Z0 F600
G1 X21.496 Y31.998 Z0 F600
G1 X21.297 Y31.588 Z0 F600
G1 X21.228 Y31.371 Z0 F600
G1 X21.184 Y31.149 Z0 F600
G1 X21.165 Y30.921 Z0 F600
G1 X21.176 Y30.69 Z0 F600
G1 X21.172 Y30.169 Z0 F600
G1 X21.215 Y29.922 Z0 F600
; --- FIX X Backlash ---
G0 X21.915 Y29.922 F410
G1 X22.05 Y29.701 Z0 F600
G1 X22.429 Y29.174 Z0 F600
G1 X22.858 Y28.686 Z0 F600
G1 X23.337 Y28.249 Z0 F600
G1 X23.867 Y27.872 Z0 F600
G1 X24.101 Y27.625 Z0 F600
G1 X24.279 Y27.331 Z0 F600
G1 X24.396 Y27.008 Z0 F600
G1 X24.447 Y26.673 Z0 F600
G1 X24.411 Y26.511 Z0 F600
; --- FIX X Backlash ---
G0 X23.711 Y26.511 F410
G1 X23.64 Y26.372 Z0 F600
G1 X23.541 Y26.255 Z0 F600
G1 X23.418 Y26.16 Z0 F600
G1 X23.127 Y26.028 Z0 F600
G1 X22.816 Y25.966 Z0 F600
G1 X22.427 Y25.9 Z0 F600
G1 X22.044 Y25.803 Z0 F600
G1 X21.863 Y25.73 Z0 F600
G1 X21.693 Y25.637 Z0 F600
G1 X21.538 Y25.519 Z0 F600
G1 X21.401 Y25.371 Z0 F600
G1 X21.204 Y25.171 Z0 F600
G1 X21.026 Y24.957 Z0 F600
G1 X20.867 Y24.727 Z0 F600
G1 X20.732 Y24.484 Z0 F600
G1 X20.622 Y24.23 Z0 F600
G1 X20.539 Y23.965 Z0 F600
G1 X20.486 Y23.692 Z0 F600
G1 X20.464 Y23.411 Z0 F600
G1 X20.436 Y22.324 Z0 F600
G1 X20.479 Y21.243 Z0 F600
; --- FIX X Backlash ---
G0 X21.179 Y21.243 F410
G1 X21.327 Y20.931 Z0 F600
G1 X21.509 Y20.636 Z0 F600
G1 X21.722 Y20.362 Z0 F600
G1 X21.964 Y20.115 Z0 F600
G1 X22.232 Y19.898 Z0 F600
G1 X22.525 Y19.718 Z0 F600
G1 X22.84 Y19.577 Z0 F600
G1 X23.521 Y19.382 Z0 F600
G1 X23.87 Y19.336 Z0 F600
G1 X24.222 Z0 F600
G1 X24.574 Y19.375 Z0 F600
; --- FIX Y Backlash ---
G0 X24.574 Y19.875 F410
G1 X25.268 Y20.042 Z0 F600
G1 X25.934 Y20.284 Z0 F600
G1 X26.372 Y20.517 Z0 F600
G1 X26.794 Y20.792 Z0 F600
G1 X26.986 Y20.952 Z0 F600
G1 X27.158 Y21.13 Z0 F600
G1 X27.304 Y21.329 Z0 F600
G1 X27.419 Y21.549 Z0 F600
G1 Y21.653 Z0 F600
G1 X27.387 Y21.746 Z0 F600
; --- FIX X Backlash ---
G0 X26.687 Y21.746 F410
G1 X26.628 Y21.827 Z0 F600
G1 X26.549 Y21.897 Z0 F600
G1 X26.361 Y22.016 Z0 F600
G1 X26.181 Y22.111 Z0 F600
G1 X25.869 Y22.247 Z0 F600
G1 X25.543 Y22.359 Z0 F600
G1 X25.23 Y22.493 Z0 F600
G1 X24.961 Y22.695 Z0 F600
G1 X24.897 Y22.843 Z0 F600
G1 X24.875 Y22.994 Z0 F600
G1 X24.892 Y23.144 Z0 F600
; --- FIX X Backlash ---
G0 X25.592 Y23.144 F410
G1 X25.642 Y23.288 Z0 F600
G1 X25.72 Y23.422 Z0 F600
G1 X25.822 Y23.542 Z0 F600
G1 X25.943 Y23.642 Z0 F600
G1 X26.078 Y23.72 Z0 F600
G1 X26.238 Y23.828 Z0 F600
G1 X26.382 Y23.971 Z0 F600
G1 X26.501 Y24.138 Z0 F600
G1 X26.583 Y24.319 Z0 F600
G1 X26.618 Y24.503 Z0 F600
G1 X26.595 Y24.681 Z0 F600
; --- FIX X Backlash ---
G0 X25.895 Y24.681 F410
G1 X25.803 Y24.841 Z0 F600
G1 X25.632 Y24.974 Z0 F600
G1 X25.451 Y25.007 Z0 F600
G1 X25.262 Y25.031 Z0 F600
G1 X25.077 Y25.034 Z0 F600
G1 X24.907 Y25.005 Z0 F600
; --- FIX Y Backlash ---
G0 X24.907 Y24.505 F410
G1 X24.622 Y24.227 Z0 F600
G1 X24.316 Y23.973 Z0 F600
G1 X23.993 Y23.741 Z0 F600
G1 X23.657 Y23.529 Z0 F600
G1 X23.45 Y23.349 Z0 F600
G1 X23.244 Y23.164 Z0 F600
G1 X23.053 Y22.968 Z0 F600
G1 X22.895 Y22.76 Z0 F600
G1 X22.889 Y22.435 Z0 F600
; --- FIX X Backlash ---
G0 X23.589 Y22.435 F410
G1 X23.651 Y22.107 Z0 F600
G1 X23.717 Y21.96 Z0 F600
G1 X23.811 Y21.834 Z0 F600
G1 X23.936 Y21.737 Z0 F600
G1 X24.098 Y21.674 Z0 F600
G1 X24.677 Y21.621 Z0 F600
G1 X25.271 Y21.625 Z0 F600
G1 X25.564 Y21.614 Z0 F600
G1 X25.851 Y21.574 Z0 F600
G1 X26.125 Y21.491 Z0 F600
G1 X26.386 Y21.351 Z0 F600
G1 X26.489 Y21.265 Z0 F600
G1 X26.564 Y21.16 Z0 F600
G1 X26.612 Y21.043 Z0 F600
G1 X26.634 Y20.918 Z0 F600
G1 X26.627 Y20.792 Z0 F600
G1 X26.593 Y20.669 Z0 F600
; --- FIX X Backlash ---
G0 X25.893 Y20.669 F410
G1 X25.831 Y20.556 Z0 F600
G1 X25.741 Y20.457 Z0 F600
G1 X25.561 Y20.273 Z0 F600
G1 X25.359 Y20.125 Z0 F600
G1 X25.137 Y20.007 Z0 F600
G1 X24.902 Y19.914 Z0 F600
G1 X24.407 Y19.782 Z0 F600
G1 X23.91 Y19.685 Z0 F600
G1 X23.534 Y19.662 Z0 F600
G1 X23.148 Z0 F600
G1 X22.759 Y19.693 Z0 F600
; --- FIX Y Backlash ---
G0 X22.759 Y20.193 F410
G1 X22.378 Y20.261 Z0 F600
G1 X22.012 Y20.372 Z0 F600
G1 X21.672 Y20.535 Z0 F600
G1 X21.364 Y20.754 Z0 F600
G1 X21.099 Y21.038 Z0 F600
G1 X20.935 Y21.319 Z0 F600
G1 X20.82 Y21.617 Z0 F600
G1 X20.745 Y21.928 Z0 F600
G1 X20.703 Y22.248 Z0 F600
G1 X20.684 Y22.9 Z0 F600
G1 X20.696 Y23.544 Z0 F600
; --- FIX X Backlash ---
G0 X21.396 Y23.544 F410
G1 X21.449 Y24.187 Z0 F600
G1 X21.595 Y24.822 Z0 F600
G1 X21.716 Y25.119 Z0 F600
G1 X21.878 Y25.393 Z0 F600
G1 X22.084 Y25.637 Z0 F600
G1 X22.342 Y25.843 Z0 F600
G1 X22.565 Y25.978 Z0 F600
G1 X22.803 Y26.066 Z0 F600
G1 X23.051 Y26.119 Z0 F600
G1 X23.306 Y26.151 Z0 F600
G1 X23.821 Y26.198 Z0 F600
G1 X24.316 Y26.308 Z0 F600
G1 X24.456 Y26.419 Z0 F600
G1 X24.58 Y26.552 Z0 F600
G1 X24.685 Y26.702 Z0 F600
G1 X24.762 Y26.864 Z0 F600
G1 X24.806 Y27.034 Z0 F600
G1 X24.811 Y27.207 Z0 F600
G1 X24.77 Y27.378 Z0 F600
; --- FIX X Backlash ---
G0 X24.07 Y27.378 F410
G1 X23.976 Y27.544 Z0 F600
G1 X23.651 Y28.012 Z0 F600
G1 X23.273 Y28.437 Z0 F600
G1 X22.852 Y28.82 Z0 F600
G1 X22.396 Y29.161 Z0 F600
G1 X22.002 Y29.541 Z0 F600
G1 X21.68 Y29.987 Z0 F600
G1 X21.561 Y30.231 Z0 F600
G1 X21.478 Y30.489 Z0 F600
G1 X21.436 Y30.757 Z0 F600
G1 X21.442 Y31.037 Z0 F600
G1 X21.463 Y31.472 Z0 F600
; --- FIX X Backlash ---
G0 X22.163 Y31.472 F410
G1 X22.242 Y31.916 Z0 F600
G1 X22.319 Y32.12 Z0 F600
G1 X22.429 Y32.302 Z0 F600
G1 X22.58 Y32.452 Z0 F600
G1 X22.776 Y32.563 Z0 F600
G1 X22.935 Y32.597 Z0 F600
G1 X23.09 Y32.592 Z0 F600
G1 X23.238 Y32.554 Z0 F600
; --- FIX Y Backlash ---
G0 X23.238 Y32.054 F410
G1 X23.375 Y31.986 Z0 F600
G1 X23.498 Y31.892 Z0 F600
G1 X23.602 Y31.776 Z0 F600
G1 X23.686 Y31.643 Z0 F600
G1 X23.744 Y31.496 Z0 F600
G1 X23.882 Y31.085 Z0 F600
G1 X24.023 Y30.674 Z0 F600
G1 X24.194 Y30.276 Z0 F600
G1 X24.424 Y29.907 Z0 F600
G1 X24.673 Y29.586 Z0 F600
G1 X24.943 Y29.276 Z0 F600
G1 X25.25 Y29.01 Z0 F600
G1 X25.605 Y28.819 Z0 F600
G1 X25.954 Y28.783 Z0 F600
G1 X26.309 Y28.809 Z0 F600
G1 X26.474 Y28.858 Z0 F600
; --- FIX Y Backlash ---
G0 X26.474 Y29.358 F410
G1 X26.623 Y29.438 Z0 F600
G1 X26.749 Y29.555 Z0 F600
G1 X26.847 Y29.711 Z0 F600
G1 X27.004 Y30.013 Z0 F600
G1 X27.206 Y30.291 Z0 F600
G1 X27.327 Y30.406 Z0 F600
G1 X27.465 Y30.497 Z0 F600
G1 X27.621 Y30.557 Z0 F600
G1 X27.796 Y30.579 Z0 F600
G1 X28.367 Y30.554 Z0 F600
; --- FIX Y Backlash ---
G0 X28.367 Y30.054 F410
G1 X28.936 Y29.985 Z0 F600
G1 X29.499 Y29.879 Z0 F600
G1 X30.055 Y29.747 Z0 F600
G1 X30.262 Y29.679 Z0 F600
G1 X30.452 Y29.583 Z0 F600
G1 X30.625 Y29.462 Z0 F600
G1 X30.784 Y29.321 Z0 F600
G1 X31.053 Y28.991 Z0 F600
G1 X31.263 Y28.618 Z0 F600
G1 X31.545 Y28.186 Z0 F600
G1 X31.874 Y27.777 Z0 F600
G1 X32.063 Y27.599 Z0 F600
G1 X32.269 Y27.449 Z0 F600
G1 X32.497 Y27.334 Z0 F600
G1 X32.748 Y27.261 Z0 F600
G1 X33.346 Y27.252 Z0 F600
G1 X33.945 Y27.26 Z0 F600
G1 X34.241 Y27.287 Z0 F600
; --- FIX Y Backlash ---
G0 X34.241 Y27.787 F410
G1 X34.533 Y27.838 Z0 F600
G1 X34.818 Y27.921 Z0 F600
G1 X35.097 Y28.042 Z0 F600
G1 X35.664 Y28.301 Z0 F600
G1 X36.208 Y28.609 Z0 F600
G1 X36.758 Y28.903 Z0 F600
G1 X37.345 Y29.117 Z0 F600
G1 X37.595 Y29.159 Z0 F600
G1 X37.847 Z0 F600
G1 X38.099 Y29.138 Z0 F600
G1 X38.351 Y29.103 Z0 F600
G1 X38.603 Y29.07 Z0 F600
G1 X38.854 Y29.054 Z0 F600
G1 X39.102 Y29.068 Z0 F600
G1 X39.348 Y29.126 Z0 F600
G1 X39.549 Y29.297 Z0 F600
G1 X39.728 Y29.494 Z0 F600
G1 X39.796 Y29.604 Z0 F600
G1 X39.842 Y29.723 Z0 F600
G1 X39.862 Y29.851 Z0 F600
G1 X39.85 Y29.988 Z0 F600
G1 X39.844 Y30.288 Z0 F600
; --- FIX X Backlash ---
G0 X39.144 Y30.288 F410
G1 X39.053 Y30.564 Z0 F600
G1 X38.891 Y30.811 Z0 F600
G1 X38.676 Y31.018 Z0 F600
G1 X38.375 Y31.286 Z0 F600
G1 X38.025 Y31.473 Z0 F600
G1 X37.649 Y31.615 Z0 F600
G1 X37.271 Y31.749 Z0 F600
G1 X37.116 Y31.823 Z0 F600
G1 X36.996 Y31.934 Z0 F600
G1 X36.912 Y32.072 Z0 F600
G1 X36.864 Y32.228 Z0 F600
G1 X36.854 Y32.392 Z0 F600
G1 X36.882 Y32.554 Z0 F600
; --- FIX X Backlash ---
G0 X37.582 Y32.554 F410
G1 X37.65 Y32.705 Z0 F600
G1 X37.759 Y32.834 Z0 F600
G1 X37.955 Y33.094 Z0 F600
G1 X38.119 Y33.375 Z0 F600
; --- FIX X Backlash ---
G0 X37.419 Y33.375 F410
G1 X37.258 Y33.379 Z0 F600
G1 X37.102 Y33.366 Z0 F600
; --- FIX Y Backlash ---
G0 X37.102 Y32.866 F410
G1 X36.966 Y32.81 Z0 F600
G1 X36.861 Y32.686 Z0 F600
G1 X36.589 Y32.411 Z0 F600
G1 X36.316 Y32.114 Z0 F600
G1 X36.207 Y31.953 Z0 F600
G1 X36.132 Y31.78 Z0 F600
G1 X36.101 Y31.594 Z0 F600
G1 X36.126 Y31.393 Z0 F600
; --- FIX X Backlash ---
G0 X36.826 Y31.393 F410
G1 X36.88 Y31.262 Z0 F600
G1 X36.957 Y31.149 Z0 F600
G1 X37.053 Y31.056 Z0 F600
G1 X37.165 Y30.982 Z0 F600
G1 X37.42 Y30.887 Z0 F600
G1 X38.103 Y30.832 Z0 F600
G1 X38.515 Y30.774 Z0 F600
G1 X38.711 Y30.718 Z0 F600
G1 X38.895 Y30.636 Z0 F600
G1 X39.061 Y30.52 Z0 F600
G1 X39.206 Y30.363 Z0 F600
G1 X39.341 Y30.211 Z0 F600
G1 X39.436 Y30.031 Z0 F600
G1 X39.487 Y29.834 Z0 F600
G1 X39.496 Y29.632 Z0 F600
G1 X39.46 Y29.435 Z0 F600
; --- FIX X Backlash ---
G0 X38.76 Y29.435 F410
G1 X38.682 Y29.252 Z0 F600
G1 X38.559 Y29.096 Z0 F600
G1 X38.39 Y28.977 Z0 F600
G1 X37.868 Y28.906 Z0 F600
G1 X37.333 Y28.931 Z0 F600
G1 X37.067 Y28.939 Z0 F600
G1 X36.804 Y28.923 Z0 F600
G1 X36.548 Y28.869 Z0 F600
G1 X36.3 Y28.759 Z0 F600
G1 X35.82 Y28.521 Z0 F600
G1 X35.359 Y28.25 Z0 F600
G1 X34.892 Y27.989 Z0 F600
G1 X34.396 Y27.785 Z0 F600
G1 X33.803 Y27.607 Z0 F600
G1 X33.19 Y27.527 Z0 F600
G1 X32.568 Y27.516 Z0 F600
G1 X31.95 Y27.546 Z0 F600
; --- FIX Y Backlash ---
G0 X31.95 Y28.046 F410
G1 X31.694 Y28.104 Z0 F600
G1 X31.471 Y28.215 Z0 F600
G1 X31.279 Y28.37 Z0 F600
G1 X31.112 Y28.558 Z0 F600
G1 X30.837 Y28.995 Z0 F600
G1 X30.61 Y29.447 Z0 F600
G1 X30.3 Y29.853 Z0 F600
G1 X29.92 Y30.197 Z0 F600
G1 X29.707 Y30.338 Z0 F600
G1 X29.48 Y30.455 Z0 F600
G1 X29.241 Y30.544 Z0 F600
G1 X28.99 Y30.604 Z0 F600
G1 X28.364 Y30.732 Z0 F600
G1 X27.728 Y30.831 Z0 F600
G1 X27.415 Y30.894 Z0 F600
G1 X27.11 Y30.981 Z0 F600
G1 X26.816 Y31.102 Z0 F600
G0 Z3.5 F600
; --- FIX X Backlash ---
G0 X27.516 Y31.102 F410
G0 X29.098 Y44.574 Z3.5
G1 Z0 F600
G1 X29.237 Y44.717 Z0 F600
G1 X29.348 Y44.861 Z0 F600
G1 X29.386 Y44.929 Z0 F600
G1 X29.391 Y44.958 Z0 F600
G1 X29.387 Y45.077 Z0 F600
G1 X29.364 Y45.204 Z0 F600
G1 X29.322 Y45.335 Z0 F600
; --- FIX X Backlash ---
G0 X28.622 Y45.335 F410
G1 X28.451 Y45.674 Z0 F600
G1 X28.275 Y45.918 Z0 F600
G1 X28.234 Y45.913 Z0 F600
G1 X28.147 Y45.886 Z0 F600
G1 X28.061 Y45.842 Z0 F600
G1 X27.995 Y45.792 Z0 F600
; --- FIX Y Backlash ---
G0 X27.995 Y45.292 F410
G1 X27.944 Y45.235 Z0 F600
G1 X27.918 Y45.191 Z0 F600
G1 X27.905 Y45.151 Z0 F600
G1 X27.9 Y45.067 Z0 F600
G1 X27.909 Y44.938 Z0 F600
G1 X27.945 Y44.8 Z0 F600
; --- FIX X Backlash ---
G0 X28.645 Y44.8 F410
G1 X28.717 Y44.606 Z0 F600
G1 X28.82 Y44.344 Z0 F600
G1 X28.927 Y44.032 Z0 F600
G1 X28.945 Y43.941 Z0 F600
; --- FIX Y Backlash ---
G0 X28.945 Y44.441 F410
G1 X29.098 Y44.574 Z0 F600
G0 Z3.5 F600
G0 X29.787 Y45.117 Z3.5
G1 Z0 F600
G1 X29.753 Y45.303 Z0 F600
; --- FIX X Backlash ---
G0 X29.053 Y45.303 F410
G1 X28.993 Y45.488 Z0 F600
G1 X28.796 Y45.88 Z0 F600
G1 X28.549 Y46.222 Z0 F600
G1 X28.497 Y46.268 Z0 F600
G1 X28.437 Y46.303 Z0 F600
G1 X28.38 Y46.32 Z0 F600
G1 X28.307 Y46.325 Z0 F600
G1 X28.151 Y46.306 Z0 F600
G1 X27.995 Y46.258 Z0 F600
; --- FIX Y Backlash ---
G0 X27.995 Y45.758 F410
G1 X27.85 Y45.684 Z0 F600
G1 X27.721 Y45.586 Z0 F600
G1 X27.62 Y45.474 Z0 F600
G1 X27.549 Y45.354 Z0 F600
G1 X27.509 Y45.225 Z0 F600
G1 X27.499 Y45.06 Z0 F600
G1 X27.513 Y44.872 Z0 F600
; --- FIX X Backlash ---
G0 X28.213 Y44.872 F410
G1 X28.263 Y44.679 Z0 F600
G1 X28.345 Y44.459 Z0 F600
G1 X28.445 Y44.206 Z0 F600
G1 X28.54 Y43.928 Z0 F600
G1 X28.603 Y43.614 Z0 F600
G1 X28.596 Y43.266 Z0 F600
G1 X28.566 Y43.172 Z0 F600
; --- FIX Y Backlash ---
G0 X28.566 Y43.672 F410
G1 X28.746 Y43.797 Z0 F600
G1 X29.185 Y44.12 Z0 F600
G1 X29.372 Y44.281 Z0 F600
G1 X29.542 Y44.457 Z0 F600
G1 X29.679 Y44.635 Z0 F600
G1 X29.771 Y44.796 Z0 F600
G1 X29.792 Y44.935 Z0 F600
G1 X29.787 Y45.117 Z0 F600
G0 Z3.5 F600
; --- FIX X Backlash ---
G0 X29.087 Y45.117 F410
; --- FIX Y Backlash ---
G0 X29.087 Y44.617 F410
G0 X19.031 Y35.87 Z3.5
G1 Z0 F600
G1 X18.836 Y35.887 Z0 F600
G1 X18.594 Y35.896 Z0 F600
G1 X18.447 Z0 F600
G1 Y35.893 Z0 F600
; --- FIX X Backlash ---
G0 X19.147 Y35.893 F410
G1 X19.405 Y35.601 Z0 F600
; --- FIX Y Backlash ---
G0 X19.405 Y36.101 F410
G1 X19.504 Y36.211 Z0 F600
G1 X19.731 Y36.37 Z0 F600
G0 Z3.5 F600
G0 X20.272 Y36.679 Z3.5
G1 Z0 F600
; --- FIX X Backlash ---
G0 X19.572 Y36.679 F410
G1 X19.216 Y36.755 Z0 F600
G1 X18.867 Y36.786 Z0 F600
G1 X18.594 Y36.795 Z0 F600
G1 X18.346 Z0 F600
G1 X18.278 Y36.784 Z0 F600
G1 X18.232 Y36.768 Z0 F600
G1 X18.205 Y36.75 Z0 F600
G1 X18.166 Y36.704 Z0 F600
; --- FIX Y Backlash ---
G0 X18.166 Y36.204 F410
G1 X18.067 Y36.04 Z0 F600
G1 X18.019 Y35.866 Z0 F600
G1 Y35.823 Z0 F600
G1 X18.027 Y35.778 Z0 F600
G1 X18.042 Y35.748 Z0 F600
; --- FIX X Backlash ---
G0 X18.742 Y35.748 F410
G1 X18.798 Y35.683 Z0 F600
G1 X19.17 Y35.263 Z0 F600
G1 X19.467 Y34.964 Z0 F600
; --- FIX Y Backlash ---
G0 X19.467 Y35.464 F410
G1 X19.605 Y35.727 Z0 F600
G1 X19.771 Y35.909 Z0 F600
G1 X19.964 Y36.044 Z0 F600
G1 X20.19 Y36.142 Z0 F600
G1 X20.612 Y36.206 Z0 F600
; --- FIX Y Backlash ---
G0 X20.612 Y35.706 F410
G1 X20.957 Y35.646 Z0 F600
G1 X21.221 Y35.627 Z0 F600
G1 X21.473 Y35.663 Z0 F600
G1 X21.533 Y35.688 Z0 F600
G1 X21.564 Y35.711 Z0 F600
G1 X21.573 Y35.725 Z0 F600
G1 X21.581 Y35.758 Z0 F600
; --- FIX Y Backlash ---
G0 X21.581 Y36.258 F410
G1 X21.576 Y36.31 Z0 F600
G1 X21.552 Y36.381 Z0 F600
G1 X21.51 Y36.453 Z0 F600
; --- FIX X Backlash ---
G0 X20.81 Y36.453 F410
G1 X20.754 Y36.515 Z0 F600
G1 X20.69 Y36.563 Z0 F600
G1 X20.624 Y36.592 Z0 F600
G1 X20.564 Y36.603 Z0 F600
G1 X20.428 Y36.592 Z0 F600
G1 X19.988 Y36.601 Z0 F600
G1 X19.572 Y36.679 Z0 F600
G0 Z3.5 F600
; --- FIX X Backlash ---
G0 X20.272 Y36.679 F410
G0 X26.345 Y40.007 Z3.5
G1 Z0 F600
G1 X26.43 Y40.016 Z0 F600
G1 X26.676 Y39.984 Z0 F600
G1 X26.698 Y39.977 Z0 F600
; --- FIX X Backlash ---
G0 X25.998 Y39.977 F410
G1 X25.932 Y40.363 Z0 F600
; --- FIX Y Backlash ---
G0 X25.932 Y39.863 F410
G1 X25.79 Y39.656 Z0 F600
G1 X25.645 Y39.507 Z0 F600
G0 Z3.5 F600
G0 X25.091 Y38.956 Z3.5
G1 Z0 F600
; --- FIX X Backlash ---
G0 X25.791 Y38.956 F410
; --- FIX Y Backlash ---
G0 X25.791 Y39.456 F410
G1 X26.1 Y39.577 Z0 F600
G1 X26.426 Y39.613 Z0 F600
G1 X26.585 Y39.592 Z0 F600
G1 X26.738 Y39.542 Z0 F600
; --- FIX Y Backlash ---
G0 X26.738 Y39.042 F410
G1 X26.878 Y38.958 Z0 F600
G1 X27.002 Y38.838 Z0 F600
G1 X27.403 Y38.368 Z0 F600
G1 X27.785 Y37.878 Z0 F600
G1 X28.129 Y37.364 Z0 F600
G1 X28.423 Y36.82 Z0 F600
G1 X28.5 Y36.602 Z0 F600
G1 X28.535 Y36.381 Z0 F600
G1 Y36.16 Z0 F600
G1 X28.508 Y35.937 Z0 F600
; --- FIX X Backlash ---
G0 X27.808 Y35.937 F410
G1 X27.703 Y35.495 Z0 F600
G1 X27.58 Y35.062 Z0 F600
G1 X27.553 Y34.664 Z0 F600
G1 X27.538 Y34.26 Z0 F600
G1 X27.574 Y33.863 Z0 F600
; --- FIX X Backlash ---
G0 X28.274 Y33.863 F410
G1 X28.399 Y33.486 Z0 F600
G1 X28.695 Y33.127 Z0 F600
G1 X29.017 Y32.787 Z0 F600
G1 X29.365 Y32.476 Z0 F600
G1 X29.741 Y32.202 Z0 F600
G1 X30.312 Y31.93 Z0 F600
G1 X30.905 Y31.715 Z0 F600
G1 X31.512 Y31.536 Z0 F600
G1 X32.121 Y31.371 Z0 F600
G1 X32.362 Y31.275 Z0 F600
G1 X32.584 Y31.15 Z0 F600
G1 X32.789 Y31.002 Z0 F600
G1 X32.979 Y30.833 Z0 F600
G1 X33.321 Y30.452 Z0 F600
G1 X33.622 Y30.04 Z0 F600
G1 X33.786 Y29.856 Z0 F600
G1 X33.99 Y29.733 Z0 F600
G1 X34.22 Y29.677 Z0 F600
G1 X34.465 Y29.691 Z0 F600
G1 X34.693 Z0 F600
; --- FIX Y Backlash ---
G0 X34.693 Y30.191 F410
G1 X34.904 Y30.252 Z0 F600
G1 X35.088 Y30.371 Z0 F600
G1 X35.229 Y30.55 Z0 F600
G1 X35.37 Y30.825 Z0 F600
G1 X35.45 Y31.114 Z0 F600
G1 X35.477 Y31.413 Z0 F600
G1 X35.457 Y31.714 Z0 F600
; --- FIX X Backlash ---
G0 X34.757 Y31.714 F410
G1 X34.697 Y32.015 Z0 F600
G1 X34.606 Y32.31 Z0 F600
G1 X34.489 Y32.593 Z0 F600
G1 X34.355 Y32.861 Z0 F600
G1 X34.255 Y33.12 Z0 F600
G1 X34.24 Y33.398 Z0 F600
G1 X34.273 Y33.529 Z0 F600
; --- FIX X Backlash ---
G0 X34.973 Y33.529 F410
G1 X35.034 Y33.646 Z0 F600
G1 X35.128 Y33.743 Z0 F600
G1 X35.257 Y33.814 Z0 F600
G1 X35.487 Y33.896 Z0 F600
G1 X35.737 Y33.945 Z0 F600
G1 X35.98 Y33.991 Z0 F600
G1 X36.187 Y34.062 Z0 F600
; --- FIX X Backlash ---
G0 X35.487 Y34.062 F410
G1 X35.373 Y34.198 Z0 F600
G1 X35.236 Y34.287 Z0 F600
G1 X35.077 Y34.326 Z0 F600
G1 X34.896 Y34.314 Z0 F600
G1 X34.523 Z0 F600
G1 X34.134 Y34.279 Z0 F600
G1 X33.953 Y34.231 Z0 F600
; --- FIX Y Backlash ---
G0 X33.953 Y33.731 F410
G1 X33.79 Y33.653 Z0 F600
G1 X33.653 Y33.536 Z0 F600
G1 X33.548 Y33.373 Z0 F600
G1 X33.491 Y33.193 Z0 F600
G1 Y33.023 Z0 F600
G1 X33.534 Y32.86 Z0 F600
; --- FIX X Backlash ---
G0 X34.234 Y32.86 F410
G1 X34.313 Y32.705 Z0 F600
G1 X34.531 Y32.414 Z0 F600
G1 X34.902 Y31.976 Z0 F600
G1 X35.027 Y31.787 Z0 F600
G1 X35.129 Y31.583 Z0 F600
G1 X35.203 Y31.371 Z0 F600
G1 X35.241 Y31.152 Z0 F600
G1 Y30.933 Z0 F600
G1 X35.193 Y30.716 Z0 F600
; --- FIX X Backlash ---
G0 X34.493 Y30.716 F410
G1 X34.394 Y30.507 Z0 F600
G1 X34.282 Y30.356 Z0 F600
G1 X34.136 Y30.234 Z0 F600
G1 X33.966 Y30.146 Z0 F600
G1 X33.782 Y30.096 Z0 F600
G1 X33.595 Y30.088 Z0 F600
G1 X33.416 Y30.125 Z0 F600
; --- FIX Y Backlash ---
G0 X33.416 Y30.625 F410
G1 X33.254 Y30.714 Z0 F600
G1 X33.119 Y30.857 Z0 F600
G1 X32.823 Y31.188 Z0 F600
G1 X32.519 Y31.514 Z0 F600
G1 X32.354 Y31.661 Z0 F600
G1 X32.176 Y31.789 Z0 F600
G1 X31.982 Y31.892 Z0 F600
G1 X31.767 Y31.964 Z0 F600
G1 X30.966 Y32.196 Z0 F600
G1 X30.169 Y32.455 Z0 F600
G1 X29.782 Y32.612 Z0 F600
G1 X29.411 Y32.797 Z0 F600
G1 X29.058 Y33.018 Z0 F600
G1 X28.728 Y33.279 Z0 F600
G1 X28.33 Y33.644 Z0 F600
G1 X27.954 Y34.054 Z0 F600
G1 X27.803 Y34.28 Z0 F600
G1 X27.693 Y34.522 Z0 F600
G1 X27.633 Y34.781 Z0 F600
G1 Y35.06 Z0 F600
; --- FIX X Backlash ---
G0 X28.333 Y35.06 F410
G1 X28.449 Y35.491 Z0 F600
G1 X28.594 Y35.916 Z0 F600
G1 X28.656 Y36.13 Z0 F600
G1 X28.701 Y36.347 Z0 F600
G1 X28.719 Y36.568 Z0 F600
G1 X28.702 Y36.795 Z0 F600
G1 X28.706 Y37.067 Z0 F600
G1 X28.664 Y37.328 Z0 F600
; --- FIX X Backlash ---
G0 X27.964 Y37.328 F410
G1 X27.878 Y37.578 Z0 F600
G1 X27.747 Y37.816 Z0 F600
G1 X27.363 Y38.451 Z0 F600
G1 X26.909 Y39.065 Z0 F600
G1 X26.698 Y39.381 Z0 F600
G1 X26.519 Y39.712 Z0 F600
G1 X26.389 Y40.064 Z0 F600
G1 X26.324 Y40.444 Z0 F600
G1 X26.327 Y40.85 Z0 F600
; --- FIX X Backlash ---
G0 X27.027 Y40.85 F410
G1 X27.093 Y41.249 Z0 F600
G1 X27.216 Y41.632 Z0 F600
G1 X27.392 Y41.997 Z0 F600
G1 X27.615 Y42.337 Z0 F600
G1 X27.88 Y42.646 Z0 F600
G1 X28.181 Y42.918 Z0 F600
G1 X28.974 Y43.469 Z0 F600
G1 X29.434 Y43.807 Z0 F600
G1 X29.648 Y43.992 Z0 F600
G1 X29.844 Y44.194 Z0 F600
G1 X30.015 Y44.416 Z0 F600
G1 X30.155 Y44.663 Z0 F600
G1 X30.192 Y44.911 Z0 F600
G1 X30.186 Y45.158 Z0 F600
G1 X30.142 Y45.401 Z0 F600
; --- FIX X Backlash ---
G0 X29.442 Y45.401 F410
G1 X29.365 Y45.639 Z0 F600
G1 X29.138 Y46.089 Z0 F600
G1 X28.847 Y46.492 Z0 F600
G1 X28.732 Y46.594 Z0 F600
G1 X28.598 Y46.671 Z0 F600
G1 X28.452 Y46.717 Z0 F600
G1 X28.298 Y46.727 Z0 F600
G1 X28.067 Y46.699 Z0 F600
; --- FIX Y Backlash ---
G0 X28.067 Y46.199 F410
G1 X27.843 Y46.129 Z0 F600
G1 X27.635 Y46.023 Z0 F600
G1 X27.45 Y45.883 Z0 F600
G1 X27.296 Y45.712 Z0 F600
G1 X27.181 Y45.516 Z0 F600
G1 X27.113 Y45.297 Z0 F600
G1 X27.098 Y45.06 Z0 F600
G1 X27.117 Y44.807 Z0 F600
; --- FIX X Backlash ---
G0 X27.817 Y44.807 F410
G1 X27.881 Y44.558 Z0 F600
G1 X27.973 Y44.313 Z0 F600
G1 X28.069 Y44.068 Z0 F600
G1 X28.153 Y43.824 Z0 F600
G1 X28.202 Y43.579 Z0 F600
G1 X28.197 Y43.331 Z0 F600
; --- FIX X Backlash ---
G0 X27.497 Y43.331 F410
G1 X27.417 Y43.08 Z0 F600
G1 X27.025 Y42.61 Z0 F600
G1 X26.595 Y42.165 Z0 F600
G1 X26.395 Y41.934 Z0 F600
G1 X26.22 Y41.686 Z0 F600
G1 X26.084 Y41.416 Z0 F600
G1 X25.85 Y40.615 Z0 F600
G1 X25.628 Y40.127 Z0 F600
G1 X25.48 Y39.911 Z0 F600
G1 X25.3 Y39.726 Z0 F600
G1 X25.088 Y39.583 Z0 F600
G1 X24.837 Y39.49 Z0 F600
G1 X24.609 Y39.487 Z0 F600
; --- FIX Y Backlash ---
G0 X24.609 Y39.987 F410
G1 X24.402 Y40.048 Z0 F600
G1 X24.22 Y40.162 Z0 F600
G1 X24.068 Y40.319 Z0 F600
G1 X23.95 Y40.507 Z0 F600
G1 X23.871 Y40.717 Z0 F600
G1 X23.836 Y40.937 Z0 F600
G1 X23.85 Y41.156 Z0 F600
; --- FIX X Backlash ---
G0 X24.55 Y41.156 F410
G1 X24.6 Y41.466 Z0 F600
G1 X24.688 Y41.764 Z0 F600
G1 X24.805 Y42.051 Z0 F600
G1 X24.941 Y42.331 Z0 F600
G1 X25.236 Y42.883 Z0 F600
G1 X25.496 Y43.447 Z0 F600
G1 X25.516 Y43.705 Z0 F600
G1 X25.533 Y43.969 Z0 F600
G1 X25.52 Y44.229 Z0 F600
; --- FIX X Backlash ---
G0 X24.82 Y44.229 F410
G1 X24.749 Y44.473 Z0 F600
G1 X24.675 Y44.577 Z0 F600
G1 X24.588 Y44.657 Z0 F600
G1 X24.488 Y44.713 Z0 F600
G1 X24.38 Y44.749 Z0 F600
G1 X24.147 Y44.77 Z0 F600
G1 X23.91 Y44.741 Z0 F600
; --- FIX Y Backlash ---
G0 X23.91 Y44.241 F410
G1 X23.62 Y44.188 Z0 F600
G1 X23.339 Y44.098 Z0 F600
G1 X23.07 Y43.974 Z0 F600
G1 X22.816 Y43.819 Z0 F600
G1 X22.581 Y43.637 Z0 F600
G1 X22.367 Y43.43 Z0 F600
G1 X22.179 Y43.202 Z0 F600
G1 X22.02 Y42.956 Z0 F600
G1 X21.859 Y42.264 Z0 F600
G1 X21.779 Y41.557 Z0 F600
G1 X21.772 Y41.202 Z0 F600
G1 X21.79 Y40.847 Z0 F600
G1 X21.833 Y40.495 Z0 F600
; --- FIX X Backlash ---
G0 X22.533 Y40.495 F410
G1 X22.604 Y40.146 Z0 F600
G1 X22.595 Y39.74 Z0 F600
; --- FIX X Backlash ---
G0 X21.895 Y39.74 F410
G1 X21.795 Y39.335 Z0 F600
G1 X21.707 Y39.149 Z0 F600
G1 X21.592 Y38.982 Z0 F600
G1 X21.447 Y38.842 Z0 F600
G1 X21.272 Y38.734 Z0 F600
G1 X21.137 Y38.691 Z0 F600
G1 X21.002 Y38.677 Z0 F600
G1 X20.869 Y38.688 Z0 F600
G1 X20.738 Y38.722 Z0 F600
; --- FIX Y Backlash ---
G0 X20.738 Y39.222 F410
G1 X20.495 Y39.344 Z0 F600
G1 X20.286 Y39.522 Z0 F600
G1 X19.991 Y39.728 Z0 F600
G1 X19.685 Y39.925 Z0 F600
G1 X19.525 Y40.002 Z0 F600
G1 X19.359 Y40.057 Z0 F600
G1 X19.186 Y40.081 Z0 F600
G1 X19.004 Y40.067 Z0 F600
G1 X18.446 Y40.048 Z0 F600
; --- FIX Y Backlash ---
G0 X18.446 Y39.548 F410
G1 X17.897 Y39.445 Z0 F600
G1 X17.635 Y39.356 Z0 F600
G1 X17.384 Y39.239 Z0 F600
G1 X17.149 Y39.091 Z0 F600
G1 X16.932 Y38.91 Z0 F600
G1 X16.501 Y38.52 Z0 F600
G1 X16.071 Y38.118 Z0 F600
G1 X15.668 Y37.691 Z0 F600
G1 X15.315 Y37.223 Z0 F600
G1 X15.155 Y36.76 Z0 F600
G1 X15.091 Y36.271 Z0 F600
G1 X15.111 Y35.776 Z0 F600
; --- FIX X Backlash ---
G0 X15.811 Y35.776 F410
G1 X15.905 Y35.295 Z0 F600
G1 X16.022 Y34.996 Z0 F600
G1 X16.163 Y34.705 Z0 F600
G1 X16.326 Y34.426 Z0 F600
G1 X16.513 Y34.164 Z0 F600
G1 X16.723 Y33.92 Z0 F600
G1 X16.957 Y33.701 Z0 F600
G1 X17.214 Y33.507 Z0 F600
G1 X17.495 Y33.344 Z0 F600
G1 X18.038 Y33.051 Z0 F600
G1 X18.614 Y32.817 Z0 F600
G1 X18.912 Y32.733 Z0 F600
G1 X19.216 Y32.676 Z0 F600
G1 X19.525 Y32.65 Z0 F600
G1 X19.838 Y32.66 Z0 F600
G1 X20.066 Z0 F600
; --- FIX Y Backlash ---
G0 X20.066 Y33.16 F410
G1 X20.279 Y33.248 Z0 F600
G1 X20.362 Y33.319 Z0 F600
G1 X20.421 Y33.409 Z0 F600
G1 X20.448 Y33.515 Z0 F600
G1 X20.437 Y33.636 Z0 F600
; --- FIX X Backlash ---
G0 X19.737 Y33.636 F410
G1 X19.615 Y34.076 Z0 F600
G1 X19.424 Y34.494 Z0 F600
G1 X19.246 Y34.914 Z0 F600
G1 X19.163 Y35.358 Z0 F600
; --- FIX X Backlash ---
G0 X19.863 Y35.358 F410
G1 X19.936 Y35.496 Z0 F600
G1 X20.037 Y35.607 Z0 F600
G1 X20.16 Y35.693 Z0 F600
G1 X20.301 Y35.754 Z0 F600
G1 X20.608 Y35.8 Z0 F600
; --- FIX Y Backlash ---
G0 X20.608 Y35.3 F410
G1 X20.909 Y35.249 Z0 F600
G1 X21.235 Y35.226 Z0 F600
G1 X21.579 Y35.274 Z0 F600
; --- FIX Y Backlash ---
G0 X21.579 Y35.774 F410
G1 X21.731 Y35.837 Z0 F600
G1 X21.856 Y35.931 Z0 F600
G1 X21.945 Y36.06 Z0 F600
G1 X21.986 Y36.23 Z0 F600
G1 X21.97 Y36.394 Z0 F600
; --- FIX X Backlash ---
G0 X21.27 Y36.394 F410
G1 X21.217 Y36.549 Z0 F600
G1 X21.134 Y36.691 Z0 F600
G1 X21.024 Y36.813 Z0 F600
G1 X20.892 Y36.91 Z0 F600
G1 X20.744 Y36.976 Z0 F600
G1 X20.584 Y37.006 Z0 F600
G1 X20.416 Y36.993 Z0 F600
G1 X20.029 Y37 Z0 F600
G1 X19.651 Y37.071 Z0 F600
G1 X19.274 Y37.151 Z0 F600
G1 X18.889 Y37.186 Z0 F600
G1 X18.607 Y37.195 Z0 F600
G1 X18.316 Z0 F600
G1 X18.178 Y37.173 Z0 F600
G1 X18.05 Y37.128 Z0 F600
; --- FIX Y Backlash ---
G0 X18.05 Y36.628 F410
G1 X17.936 Y36.552 Z0 F600
G1 X17.841 Y36.438 Z0 F600
G1 X17.696 Y36.198 Z0 F600
G1 X17.62 Y35.924 Z0 F600
G1 Y35.786 Z0 F600
G1 X17.644 Y35.652 Z0 F600
; --- FIX X Backlash ---
G0 X18.344 Y35.652 F410
G1 X18.403 Y35.528 Z0 F600
G1 X18.499 Y35.417 Z0 F600
G1 X18.878 Y34.99 Z0 F600
G1 X19.289 Y34.576 Z0 F600
G1 X19.475 Y34.357 Z0 F600
G1 X19.633 Y34.124 Z0 F600
G1 X19.75 Y33.868 Z0 F600
G1 X19.813 Y33.583 Z0 F600
G1 X19.799 Y33.426 Z0 F600
; --- FIX X Backlash ---
G0 X19.099 Y33.426 F410
G1 X19.04 Y33.299 Z0 F600
G1 X18.945 Y33.2 Z0 F600
G1 X18.822 Y33.128 Z0 F600
G1 X18.532 Y33.054 Z0 F600
G1 X18.24 Y33.06 Z0 F600
G1 X17.983 Y33.093 Z0 F600
; --- FIX Y Backlash ---
G0 X17.983 Y33.593 F410
G1 X17.735 Y33.66 Z0 F600
G1 X17.495 Y33.755 Z0 F600
G1 X17.264 Y33.874 Z0 F600
G1 X16.826 Y34.16 Z0 F600
G1 X16.418 Y34.476 Z0 F600
G1 X16.168 Y34.719 Z0 F600
G1 X15.929 Y34.985 Z0 F600
G1 X15.712 Y35.271 Z0 F600
G1 X15.524 Y35.577 Z0 F600
G1 X15.375 Y35.898 Z0 F600
G1 X15.275 Y36.233 Z0 F600
G1 X15.233 Y36.581 Z0 F600
G1 X15.259 Y36.938 Z0 F600
; --- FIX X Backlash ---
G0 X15.959 Y36.938 F410
G1 X16.042 Y37.202 Z0 F600
G1 X16.158 Y37.449 Z0 F600
G1 X16.3 Y37.682 Z0 F600
G1 X16.464 Y37.903 Z0 F600
G1 X16.831 Y38.321 Z0 F600
G1 X17.209 Y38.718 Z0 F600
G1 X17.612 Y39.082 Z0 F600
G1 X18.041 Y39.426 Z0 F600
G1 X18.269 Y39.575 Z0 F600
G1 X18.507 Y39.701 Z0 F600
G1 X18.759 Y39.797 Z0 F600
G1 X19.025 Y39.857 Z0 F600
G1 X19.408 Y39.885 Z0 F600
G1 X19.791 Y39.863 Z0 F600
G1 X19.976 Y39.825 Z0 F600
; --- FIX Y Backlash ---
G0 X19.976 Y39.325 F410
G1 X20.154 Y39.263 Z0 F600
G1 X20.322 Y39.174 Z0 F600
G1 X20.479 Y39.055 Z0 F600
G1 X20.792 Y38.809 Z0 F600
G1 X21.101 Y38.541 Z0 F600
G1 X21.264 Y38.427 Z0 F600
G1 X21.438 Y38.343 Z0 F600
G1 X21.628 Y38.3 Z0 F600
G1 X21.98 Y38.317 Z0 F600
G1 X22.115 Y38.353 Z0 F600
; --- FIX Y Backlash ---
G0 X22.115 Y38.853 F410
G1 X22.237 Y38.913 Z0 F600
G1 X22.346 Y38.995 Z0 F600
G1 X22.515 Y39.212 Z0 F600
G1 X22.605 Y39.479 Z0 F600
G1 X22.703 Y40.001 Z0 F600
G1 X22.745 Y40.53 Z0 F600
G1 X22.726 Y41.06 Z0 F600
; --- FIX X Backlash ---
G0 X22.026 Y41.06 F410
G1 X21.94 Y41.584 Z0 F600
G1 X21.91 Y41.87 Z0 F600
G1 Y42.158 Z0 F600
G1 X21.936 Y42.445 Z0 F600
; --- FIX X Backlash ---
G0 X22.636 Y42.445 F410
G1 X22.696 Y42.726 Z0 F600
G1 X22.788 Y42.996 Z0 F600
G1 X22.914 Y43.251 Z0 F600
G1 X23.076 Y43.487 Z0 F600
G1 X23.275 Y43.7 Z0 F600
G1 X23.602 Y43.995 Z0 F600
G1 X23.981 Y44.245 Z0 F600
G1 X24.185 Y44.333 Z0 F600
G1 X24.396 Y44.383 Z0 F600
G1 X24.613 Y44.389 Z0 F600
G1 X24.833 Y44.342 Z0 F600
; --- FIX Y Backlash ---
G0 X24.833 Y43.842 F410
G1 X24.98 Y43.742 Z0 F600
G1 X25.09 Y43.614 Z0 F600
G1 X25.163 Y43.464 Z0 F600
G1 X25.203 Y43.299 Z0 F600
G1 X25.209 Y43.126 Z0 F600
G1 X25.186 Y42.954 Z0 F600
; --- FIX X Backlash ---
G0 X24.486 Y42.954 F410
G1 X24.434 Y42.788 Z0 F600
G1 X24.357 Y42.635 Z0 F600
G1 X24.042 Y42.039 Z0 F600
G1 X23.906 Y41.731 Z0 F600
G1 X23.811 Y41.405 Z0 F600
G1 X23.719 Y40.962 Z0 F600
G1 X23.666 Y40.508 Z0 F600
G1 X23.676 Y40.056 Z0 F600
; --- FIX X Backlash ---
G0 X24.376 Y40.056 F410
G1 X24.475 Y39.616 Z0 F600
G1 X24.58 Y39.449 Z0 F600
G1 X24.709 Y39.288 Z0 F600
G1 X24.859 Y39.141 Z0 F600
G1 X25.025 Y39.019 Z0 F600
G1 X25.206 Y38.929 Z0 F600
G1 X25.396 Y38.883 Z0 F600
G1 X25.592 Y38.889 Z0 F600
; --- FIX Y Backlash ---
G0 X25.592 Y39.389 F410
G1 X25.791 Y39.456 Z0 F600
G0 Z3.5 F600
; --- FIX X Backlash ---
G0 X25.091 Y39.456 F410
G0 X24.671 Y49.195 Z3.5
G1 Z0 F600
G1 X24.536 Y49.355 Z0 F600
G1 X24.392 Y49.517 Z0 F600
G1 X24.308 Y49.587 Z0 F600
G1 X24.296 Y49.593 Z0 F600
G1 X24.265 Z0 F600
G1 X24.256 Z0 F600
G1 X24.244 Y49.547 Z0 F600
; --- FIX Y Backlash ---
G0 X24.244 Y49.047 F410
G1 X24.227 Y48.725 Z0 F600
G1 Y48.705 Z0 F600
; --- FIX X Backlash ---
G0 X24.927 Y48.705 F410
G1 X24.998 Y48.716 Z0 F600
G1 X25.374 Y48.67 Z0 F600
G1 X25.39 Y48.664 Z0 F600
G1 X25.371 Y48.695 Z0 F600
G0 Z3.5 F600
; --- FIX X Backlash ---
G0 X24.671 Y48.695 F410
; --- FIX Y Backlash ---
G0 X24.671 Y49.195 F410
G0 X24.246 Y49.996 Z3.5
G1 Z0 F600
G1 X24.085 Y49.972 Z0 F600
; --- FIX Y Backlash ---
G0 X24.085 Y49.472 F410
G1 X23.968 Y49.42 Z0 F600
G1 X23.913 Y49.367 Z0 F600
G1 X23.847 Y49.106 Z0 F600
G1 X23.827 Y48.731 Z0 F600
G1 X23.834 Y48.302 Z0 F600
G1 X23.829 Y48.155 Z0 F600
; --- FIX X Backlash ---
G0 X24.529 Y48.155 F410
; --- FIX Y Backlash ---
G0 X24.529 Y48.655 F410
G1 X24.705 Y48.762 Z0 F600
G1 X25.007 Y48.813 Z0 F600
G1 X25.272 Y48.78 Z0 F600
; --- FIX Y Backlash ---
G0 X25.272 Y48.28 F410
G1 X25.504 Y48.185 Z0 F600
G1 X25.704 Y48.047 Z0 F600
G1 X25.98 Y47.757 Z0 F600
G1 X26.159 Y47.5 Z0 F600
G1 X26.301 Y47.363 Z0 F600
G1 X26.468 Y47.264 Z0 F600
G1 X26.505 Y47.253 Z0 F600
G1 X26.523 Z0 F600
G1 X26.547 Y47.27 Z0 F600
; --- FIX Y Backlash ---
G0 X26.547 Y47.77 F410
G1 X26.616 Y47.862 Z0 F600
G1 X26.649 Y47.98 Z0 F600
G1 Y48.125 Z0 F600
G1 X26.618 Y48.226 Z0 F600
; --- FIX X Backlash ---
G0 X25.918 Y48.226 F410
G1 X25.712 Y48.453 Z0 F600
G1 X25.446 Y48.767 Z0 F600
G1 X25.195 Y49.105 Z0 F600
G1 X24.996 Y49.43 Z0 F600
G1 X24.843 Y49.612 Z0 F600
G1 X24.671 Y49.806 Z0 F600
G1 X24.521 Y49.931 Z0 F600
G1 X24.389 Y49.99 Z0 F600
G1 X24.246 Y49.996 Z0 F600
G0 Z3.5 F600
; --- FIX X Backlash ---
G0 X24.946 Y49.996 F410
; --- FIX Y Backlash ---
G0 X24.946 Y49.496 F410
G0 X37.583 Y47.861 Z3.5
G1 Z0 F600
G1 X37.594 Z0 F600
G1 X37.816 Y47.847 Z0 F600
G1 X38.012 Y47.857 Z0 F600
G1 X38.182 Y47.89 Z0 F600
G1 X38.275 Y47.925 Z0 F600
G1 X38.289 Y47.937 Z0 F600
; --- FIX Y Backlash ---
G0 X38.289 Y48.437 F410
G1 X38.351 Y48.511 Z0 F600
G1 X38.416 Y48.615 Z0 F600
G1 X38.468 Y48.725 Z0 F600
G1 X38.577 Y49.067 Z0 F600
G1 X38.639 Y49.391 Z0 F600
G1 Y49.404 Z0 F600
G1 X38.634 Y49.411 Z0 F600
G1 X38.617 Y49.426 Z0 F600
G1 X38.591 Y49.44 Z0 F600
G1 X38.562 Y49.451 Z0 F600
; --- FIX X Backlash ---
G0 X37.862 Y49.451 F410
G1 X37.764 Y49.466 Z0 F600
G1 X37.603 Y49.485 Z0 F600
G1 X37.53 Y49.481 Z0 F600
G1 X37.527 Z0 F600
G1 X37.47 Y49.437 Z0 F600
; --- FIX Y Backlash ---
G0 X37.47 Y48.937 F410
G1 X37.391 Y48.861 Z0 F600
G1 X37.33 Y48.779 Z0 F600
G1 X37.266 Y48.668 Z0 F600
G1 X37.185 Y48.496 Z0 F600
G1 X37.007 Y48.086 Z0 F600
G1 X36.883 Y47.861 Z0 F600
G0 Z3.5 F600
G0 X36.853 Y47.461 Z3.5
G1 Z0 F600
; --- FIX X Backlash ---
G0 X37.553 Y47.461 F410
G1 X37.814 Y47.446 Z0 F600
G1 X38.061 Y47.459 Z0 F600
G1 X38.293 Y47.504 Z0 F600
; --- FIX Y Backlash ---
G0 X38.293 Y48.004 F410
G1 X38.481 Y48.075 Z0 F600
G1 X38.572 Y48.153 Z0 F600
G1 X38.678 Y48.279 Z0 F600
G1 X38.767 Y48.421 Z0 F600
G1 X38.842 Y48.58 Z0 F600
G1 X38.965 Y48.969 Z0 F600
G1 X39.038 Y49.347 Z0 F600
G1 X39.041 Y49.454 Z0 F600
G1 X39.022 Y49.534 Z0 F600
G1 X38.984 Y49.613 Z0 F600
; --- FIX X Backlash ---
G0 X38.284 Y49.613 F410
G1 X38.226 Y49.687 Z0 F600
G1 X38.15 Y49.753 Z0 F600
G1 X38.06 Y49.805 Z0 F600
G1 X37.959 Y49.841 Z0 F600
G1 X37.819 Y49.862 Z0 F600
G1 X37.615 Y49.887 Z0 F600
G1 X37.455 Y49.877 Z0 F600
G1 X37.338 Y49.839 Z0 F600
; --- FIX Y Backlash ---
G0 X37.338 Y49.339 F410
G1 X37.21 Y49.241 Z0 F600
G1 X37.091 Y49.127 Z0 F600
G1 X36.996 Y49.001 Z0 F600
G1 X36.908 Y48.848 Z0 F600
G1 X36.827 Y48.675 Z0 F600
G1 X36.648 Y48.263 Z0 F600
G1 X36.384 Y47.788 Z0 F600
G1 X36.102 Y47.594 Z0 F600
G1 X36.078 Y47.583 Z0 F600
; --- FIX X Backlash ---
G0 X36.778 Y47.583 F410
G1 X36.977 Y47.548 Z0 F600
G1 X37.553 Y47.461 Z0 F600
G0 Z3.5 F600
; --- FIX X Backlash ---
G0 X36.853 Y47.461 F410
G0 X32.33 Y46.586 Z3.5
G1 Z0 F600
G1 X32.206 Y46.551 Z0 F600
G1 X31.866 Y46.572 Z0 F600
; --- FIX X Backlash ---
G0 X32.566 Y46.572 F410
G1 X32.755 Y46.376 Z0 F600
G1 X32.823 Y46.257 Z0 F600
; --- FIX Y Backlash ---
G0 X32.823 Y46.757 F410
G1 X32.994 Y47.043 Z0 F600
G1 X33.03 Y47.086 Z0 F600
G0 Z3.5 F600
G0 X33.534 Y47.711 Z3.5
G1 Z0 F600
; --- FIX X Backlash ---
G0 X32.834 Y47.711 F410
; --- FIX Y Backlash ---
G0 X32.834 Y47.211 F410
G1 X32.506 Y47.053 Z0 F600
G1 X32.162 Y46.954 Z0 F600
G1 X31.852 Y46.974 Z0 F600
; --- FIX Y Backlash ---
G0 X31.852 Y47.474 F410
G1 X31.547 Y47.537 Z0 F600
G1 X31.405 Y47.594 Z0 F600
G1 X31.277 Y47.673 Z0 F600
G1 X31.166 Y47.778 Z0 F600
G1 X31.075 Y47.913 Z0 F600
G1 X31.008 Y48.115 Z0 F600
G1 X30.992 Y48.321 Z0 F600
G1 X31.023 Y48.525 Z0 F600
; --- FIX X Backlash ---
G0 X31.723 Y48.525 F410
G1 X31.793 Y48.722 Z0 F600
G1 X31.899 Y48.906 Z0 F600
G1 X32.035 Y49.07 Z0 F600
G1 X32.194 Y49.21 Z0 F600
G1 X32.372 Y49.319 Z0 F600
G1 X32.826 Y49.554 Z0 F600
G1 X33.308 Y49.719 Z0 F600
G1 X33.799 Y49.862 Z0 F600
G1 X34.28 Y50.03 Z0 F600
G1 X34.608 Y50.238 Z0 F600
G1 X34.913 Y50.501 Z0 F600
G1 X35.032 Y50.654 Z0 F600
G1 X35.117 Y50.823 Z0 F600
G1 X35.157 Y51.006 Z0 F600
G1 X35.143 Y51.206 Z0 F600
; --- FIX X Backlash ---
G0 X34.443 Y51.206 F410
G1 X34.306 Y51.387 Z0 F600
G1 X34.146 Y51.548 Z0 F600
G1 X33.967 Y51.689 Z0 F600
G1 X33.774 Y51.812 Z0 F600
G1 X33.354 Y52.002 Z0 F600
G1 X32.916 Y52.12 Z0 F600
G1 X32.628 Y52.13 Z0 F600
G1 X32.337 Y52.143 Z0 F600
G1 X32.049 Y52.135 Z0 F600
; --- FIX Y Backlash ---
G0 X32.049 Y51.635 F410
G1 X31.774 Y51.583 Z0 F600
G1 X31.152 Y51.189 Z0 F600
G1 X30.588 Y50.718 Z0 F600
G1 X30.087 Y50.18 Z0 F600
G1 X29.652 Y49.586 Z0 F600
G1 X29.358 Y49.341 Z0 F600
G1 X29.013 Y49.149 Z0 F600
G1 X28.829 Y49.088 Z0 F600
G1 X28.64 Y49.059 Z0 F600
G1 X28.45 Y49.064 Z0 F600
G1 X28.262 Y49.113 Z0 F600
; --- FIX Y Backlash ---
G0 X28.262 Y49.613 F410
G1 X28.084 Y49.736 Z0 F600
G1 X27.955 Y49.893 Z0 F600
G1 X27.867 Y50.076 Z0 F600
G1 X27.807 Y50.278 Z0 F600
G1 X27.736 Y50.706 Z0 F600
G1 X27.658 Y51.114 Z0 F600
G1 X27.6 Y51.308 Z0 F600
G1 X27.508 Y51.482 Z0 F600
G1 X27.392 Y51.642 Z0 F600
G1 X27.256 Y51.789 Z0 F600
G1 X26.953 Y52.061 Z0 F600
G1 X26.654 Y52.326 Z0 F600
G1 X26.389 Y52.511 Z0 F600
G1 X26.105 Y52.646 Z0 F600
G1 X25.804 Y52.739 Z0 F600
G1 X25.492 Y52.797 Z0 F600
G1 X24.851 Y52.843 Z0 F600
G1 X24.216 Y52.847 Z0 F600
G1 X23.812 Y52.84 Z0 F600
G1 X23.405 Z0 F600
G1 X23.206 Y52.826 Z0 F600
G1 X23.013 Y52.788 Z0 F600
; --- FIX Y Backlash ---
G0 X23.013 Y52.288 F410
G1 X22.827 Y52.22 Z0 F600
G1 X22.65 Y52.113 Z0 F600
G1 X22.404 Y51.945 Z0 F600
G1 X22.173 Y51.757 Z0 F600
G1 X21.958 Y51.549 Z0 F600
G1 X21.766 Y51.322 Z0 F600
G1 X21.598 Y51.077 Z0 F600
G1 X21.458 Y50.816 Z0 F600
G1 X21.35 Y50.539 Z0 F600
G1 X21.278 Y50.247 Z0 F600
G1 X21.189 Y49.854 Z0 F600
G1 X21.156 Y49.459 Z0 F600
G1 X21.174 Y49.066 Z0 F600
; --- FIX X Backlash ---
G0 X21.874 Y49.066 F410
G1 X21.935 Y48.675 Z0 F600
G1 X22.158 Y47.91 Z0 F600
G1 X22.472 Y47.179 Z0 F600
G1 X22.683 Y46.857 Z0 F600
G1 X22.921 Y46.548 Z0 F600
G1 X23.196 Y46.278 Z0 F600
G1 X23.519 Y46.072 Z0 F600
G1 X23.643 Y46.063 Z0 F600
G1 X23.75 Y46.097 Z0 F600
; --- FIX Y Backlash ---
G0 X23.75 Y46.597 F410
G1 X23.842 Y46.665 Z0 F600
G1 X23.922 Y46.756 Z0 F600
G1 X24.052 Y46.979 Z0 F600
G1 X24.157 Y47.193 Z0 F600
G1 X24.29 Y47.516 Z0 F600
G1 X24.41 Y47.858 Z0 F600
G1 X24.484 Y48.02 Z0 F600
G1 X24.577 Y48.165 Z0 F600
G1 X24.695 Y48.287 Z0 F600
G1 X24.847 Y48.38 Z0 F600
G1 X25.016 Y48.408 Z0 F600
G1 X25.17 Y48.389 Z0 F600
; --- FIX Y Backlash ---
G0 X25.17 Y47.889 F410
G1 X25.313 Y47.831 Z0 F600
G1 X25.443 Y47.742 Z0 F600
G1 X25.669 Y47.503 Z0 F600
G1 X25.853 Y47.24 Z0 F600
G1 X26.055 Y47.043 Z0 F600
G1 X26.309 Y46.893 Z0 F600
G1 X26.444 Y46.854 Z0 F600
G1 X26.58 Z0 F600
G1 X26.71 Y46.892 Z0 F600
; --- FIX Y Backlash ---
G0 X26.71 Y47.392 F410
G1 X26.832 Y47.484 Z0 F600
G1 X26.981 Y47.682 Z0 F600
G1 X27.05 Y47.928 Z0 F600
G1 X27.046 Y48.188 Z0 F600
; --- FIX X Backlash ---
G0 X26.346 Y48.188 F410
G1 X26.276 Y48.426 Z0 F600
G1 X26.013 Y48.716 Z0 F600
G1 X25.76 Y49.016 Z0 F600
G1 X25.527 Y49.33 Z0 F600
G1 X25.322 Y49.664 Z0 F600
G1 X25.142 Y49.878 Z0 F600
G1 X24.95 Y50.093 Z0 F600
G1 X24.735 Y50.274 Z0 F600
G1 X24.483 Y50.386 Z0 F600
G1 X24.224 Y50.397 Z0 F600
G1 X23.972 Y50.359 Z0 F600
; --- FIX Y Backlash ---
G0 X23.972 Y49.859 F410
G1 X23.743 Y49.757 Z0 F600
G1 X23.553 Y49.578 Z0 F600
G1 X23.449 Y49.167 Z0 F600
G1 X23.427 Y48.739 Z0 F600
G1 X23.434 Y48.305 Z0 F600
G1 X23.42 Y47.877 Z0 F600
G1 X23.372 Y47.554 Z0 F600
G1 X23.248 Y47.237 Z0 F600
G1 X23.155 Y47.099 Z0 F600
G1 X23.041 Y46.985 Z0 F600
G1 X22.904 Y46.903 Z0 F600
G1 X22.742 Y46.859 Z0 F600
; --- FIX Y Backlash ---
G0 X22.742 Y47.359 F410
G1 X22.524 Y47.413 Z0 F600
G1 X22.332 Y47.514 Z0 F600
G1 X22.166 Y47.652 Z0 F600
G1 X22.024 Y47.821 Z0 F600
G1 X21.801 Y48.214 Z0 F600
G1 X21.651 Y48.626 Z0 F600
G1 X21.55 Y48.997 Z0 F600
G1 X21.484 Y49.375 Z0 F600
G1 X21.452 Y49.759 Z0 F600
G1 X21.457 Y50.145 Z0 F600
G1 X21.497 Y50.527 Z0 F600
; --- FIX X Backlash ---
G0 X22.197 Y50.527 F410
G1 X22.273 Y50.904 Z0 F600
G1 X22.387 Y51.271 Z0 F600
G1 X22.537 Y51.624 Z0 F600
G1 X22.681 Y51.818 Z0 F600
G1 X22.845 Y51.997 Z0 F600
G1 X23.026 Y52.157 Z0 F600
G1 X23.224 Y52.294 Z0 F600
G1 X23.436 Y52.406 Z0 F600
G1 X23.661 Y52.491 Z0 F600
G1 X23.896 Y52.544 Z0 F600
G1 X24.14 Y52.564 Z0 F600
G1 X24.937 Y52.599 Z0 F600
G1 X25.742 Y52.592 Z0 F600
G1 X26.14 Y52.551 Z0 F600
; --- FIX Y Backlash ---
G0 X26.14 Y52.051 F410
G1 X26.529 Y51.974 Z0 F600
G1 X26.906 Y51.852 Z0 F600
G1 X27.268 Y51.675 Z0 F600
G1 X27.469 Y51.537 Z0 F600
G1 X27.647 Y51.375 Z0 F600
G1 X27.802 Y51.191 Z0 F600
G1 X27.931 Y50.989 Z0 F600
G1 X28.034 Y50.772 Z0 F600
G1 X28.11 Y50.543 Z0 F600
G1 X28.158 Y50.307 Z0 F600
G1 X28.175 Y50.064 Z0 F600
G1 X28.195 Y49.733 Z0 F600
G1 X28.243 Y49.402 Z0 F600
G1 X28.291 Y49.246 Z0 F600
G1 X28.364 Y49.104 Z0 F600
G1 X28.467 Y48.978 Z0 F600
G1 X28.605 Y48.873 Z0 F600
G1 X28.761 Y48.762 Z0 F600
G1 X28.928 Y48.701 Z0 F600
G1 X29.1 Y48.684 Z0 F600
G1 X29.274 Y48.705 Z0 F600
; --- FIX Y Backlash ---
G0 X29.274 Y49.205 F410
G1 X29.611 Y49.337 Z0 F600
G1 X29.901 Y49.553 Z0 F600
G1 X30.226 Y49.808 Z0 F600
G1 X30.53 Y50.085 Z0 F600
G1 X30.803 Y50.391 Z0 F600
G1 X31.034 Y50.734 Z0 F600
G1 X31.22 Y50.968 Z0 F600
G1 X31.429 Y51.188 Z0 F600
G1 X31.659 Y51.388 Z0 F600
G1 X31.908 Y51.561 Z0 F600
G1 X32.174 Y51.699 Z0 F600
G1 X32.456 Y51.797 Z0 F600
G1 X32.75 Y51.847 Z0 F600
G1 X33.057 Y51.843 Z0 F600
G1 X33.488 Y51.819 Z0 F600
; --- FIX Y Backlash ---
G0 X33.488 Y51.319 F410
G1 X33.93 Y51.235 Z0 F600
G1 X34.133 Y51.156 Z0 F600
G1 X34.315 Y51.045 Z0 F600
G1 X34.467 Y50.897 Z0 F600
G1 X34.581 Y50.705 Z0 F600
G1 X34.615 Y50.542 Z0 F600
G1 X34.608 Y50.38 Z0 F600
G1 X34.565 Y50.227 Z0 F600
; --- FIX X Backlash ---
G0 X33.865 Y50.227 F410
G1 X33.789 Y50.085 Z0 F600
G1 X33.686 Y49.959 Z0 F600
G1 X33.56 Y49.855 Z0 F600
G1 X33.416 Y49.777 Z0 F600
G1 X32.712 Y49.557 Z0 F600
G1 X32.18 Y49.337 Z0 F600
G1 X31.684 Y49.054 Z0 F600
G1 X31.245 Y48.693 Z0 F600
G1 X30.983 Y48.437 Z0 F600
G1 X30.757 Y48.148 Z0 F600
G1 X30.672 Y47.989 Z0 F600
G1 X30.613 Y47.821 Z0 F600
G1 X30.585 Y47.643 Z0 F600
G1 X30.596 Y47.453 Z0 F600
G1 X30.593 Y47.295 Z0 F600
G1 X30.62 Y47.145 Z0 F600
; --- FIX X Backlash ---
G0 X31.32 Y47.145 F410
G1 X31.373 Y47.005 Z0 F600
G1 X31.449 Y46.876 Z0 F600
G1 X31.66 Y46.662 Z0 F600
G1 X32.213 Y46.362 Z0 F600
G1 X32.433 Y46.134 Z0 F600
G1 X32.511 Y45.998 Z0 F600
G1 X32.564 Y45.849 Z0 F600
G1 X32.589 Y45.692 Z0 F600
G1 X32.583 Y45.527 Z0 F600
; --- FIX X Backlash ---
G0 X31.883 Y45.527 F410
G1 X31.826 Y44.897 Z0 F600
G1 X31.745 Y44.266 Z0 F600
G1 X31.614 Y43.646 Z0 F600
G1 X31.404 Y43.049 Z0 F600
G1 X31.26 Y42.828 Z0 F600
G1 X31.082 Y42.645 Z0 F600
G1 X30.878 Y42.49 Z0 F600
G1 X30.657 Y42.353 Z0 F600
G1 X30.201 Y42.092 Z0 F600
G1 X29.785 Y41.781 Z0 F600
G1 X29.514 Y41.534 Z0 F600
G1 X29.272 Y41.251 Z0 F600
G1 X29.178 Y41.096 Z0 F600
G1 X29.111 Y40.931 Z0 F600
G1 X29.077 Y40.755 Z0 F600
G1 X29.083 Y40.57 Z0 F600
G1 X29.077 Y40.012 Z0 F600
G1 X29.086 Y39.452 Z0 F600
G1 X29.111 Y39.176 Z0 F600
G1 X29.16 Y38.903 Z0 F600
; --- FIX X Backlash ---
G0 X29.86 Y38.903 F410
G1 X29.938 Y38.637 Z0 F600
G1 X30.052 Y38.378 Z0 F600
G1 X30.291 Y37.852 Z0 F600
G1 X30.573 Y37.346 Z0 F600
G1 X30.854 Y36.841 Z0 F600
G1 X31.085 Y36.313 Z0 F600
G1 X31.151 Y36.066 Z0 F600
G1 X31.172 Y35.819 Z0 F600
G1 X31.161 Y35.57 Z0 F600
G1 X31.131 Y35.321 Z0 F600
; --- FIX X Backlash ---
G0 X30.431 Y35.321 F410
G1 X30.364 Y34.823 Z0 F600
G1 X30.374 Y34.327 Z0 F600
; --- FIX X Backlash ---
G0 X31.074 Y34.327 F410
G1 X31.144 Y34.156 Z0 F600
G1 X31.243 Y33.999 Z0 F600
G1 X31.366 Y33.86 Z0 F600
G1 X31.51 Y33.746 Z0 F600
G1 X31.67 Y33.66 Z0 F600
G1 X31.844 Y33.608 Z0 F600
G1 X32.027 Y33.594 Z0 F600
G1 X32.215 Y33.623 Z0 F600
; --- FIX Y Backlash ---
G0 X32.215 Y34.123 F410
G1 X32.485 Y34.21 Z0 F600
G1 X32.73 Y34.342 Z0 F600
G1 X32.949 Y34.514 Z0 F600
G1 X33.143 Y34.717 Z0 F600
G1 X33.31 Y34.946 Z0 F600
G1 X33.45 Y35.194 Z0 F600
G1 X33.563 Y35.454 Z0 F600
G1 X33.647 Y35.718 Z0 F600
G1 X33.755 Y36 Z0 F600
G1 X33.93 Y36.256 Z0 F600
G1 X34.042 Y36.353 Z0 F600
G1 X34.169 Y36.417 Z0 F600
G1 X34.313 Y36.439 Z0 F600
G1 X34.472 Y36.412 Z0 F600
; --- FIX Y Backlash ---
G0 X34.472 Y35.912 F410
G1 X34.709 Y35.804 Z0 F600
G1 X34.926 Y35.66 Z0 F600
G1 X35.138 Y35.506 Z0 F600
G1 X35.36 Y35.369 Z0 F600
; --- FIX Y Backlash ---
G0 X35.36 Y35.869 F410
G1 Y36.164 Z0 F600
G1 X35.324 Y36.294 Z0 F600
; --- FIX X Backlash ---
G0 X34.624 Y36.294 F410
G1 X34.513 Y36.391 Z0 F600
G1 X34.239 Y36.68 Z0 F600
G1 X33.936 Y36.963 Z0 F600
G1 X33.769 Y37.075 Z0 F600
G1 X33.591 Y37.152 Z0 F600
G1 X33.4 Y37.185 Z0 F600
G1 X33.194 Y37.16 Z0 F600
; --- FIX Y Backlash ---
G0 X33.194 Y36.66 F410
G1 X33.065 Y36.602 Z0 F600
G1 X32.954 Y36.522 Z0 F600
G1 X32.862 Y36.424 Z0 F600
G1 X32.787 Y36.312 Z0 F600
G1 X32.692 Y36.054 Z0 F600
G1 X32.667 Y35.778 Z0 F600
G1 X32.627 Y35.315 Z0 F600
G1 X32.538 Y34.848 Z0 F600
G1 X32.458 Y34.631 Z0 F600
G1 X32.343 Y34.435 Z0 F600
G1 X32.189 Y34.267 Z0 F600
G1 X31.986 Y34.135 Z0 F600
G1 X31.782 Y34.025 Z0 F600
G1 X31.561 Y33.987 Z0 F600
G1 X31.338 Y34.011 Z0 F600
; --- FIX Y Backlash ---
G0 X31.338 Y34.511 F410
G1 X31.127 Y34.592 Z0 F600
G1 X30.942 Y34.721 Z0 F600
G1 X30.799 Y34.892 Z0 F600
G1 X30.71 Y35.096 Z0 F600
G1 X30.693 Y35.326 Z0 F600
G1 X30.731 Y35.733 Z0 F600
G1 X30.765 Y36.143 Z0 F600
G1 X30.762 Y36.345 Z0 F600
G1 X30.737 Y36.545 Z0 F600
G1 X30.681 Y36.74 Z0 F600
G1 X30.588 Y36.929 Z0 F600
G1 X30.236 Y37.62 Z0 F600
G1 X29.86 Y38.302 Z0 F600
G1 X29.689 Y38.65 Z0 F600
G1 X29.541 Y39.006 Z0 F600
G1 X29.428 Y39.375 Z0 F600
G1 X29.36 Y39.761 Z0 F600
G1 X29.331 Y40.243 Z0 F600
G1 X29.313 Y40.729 Z0 F600
G1 X29.336 Y41.211 Z0 F600
; --- FIX X Backlash ---
G0 X30.036 Y41.211 F410
G1 X30.131 Y41.684 Z0 F600
G1 X30.31 Y41.951 Z0 F600
G1 X30.538 Y42.163 Z0 F600
G1 X30.801 Y42.335 Z0 F600
G1 X31.084 Y42.487 Z0 F600
G1 X31.371 Y42.635 Z0 F600
G1 X31.647 Y42.797 Z0 F600
G1 X31.898 Y42.989 Z0 F600
G1 X32.108 Y43.229 Z0 F600
G1 X32.258 Y43.425 Z0 F600
G1 X32.381 Y43.636 Z0 F600
G1 X32.483 Y43.858 Z0 F600
G1 X32.565 Y44.089 Z0 F600
G1 X32.686 Y44.568 Z0 F600
G1 X32.767 Y45.051 Z0 F600
G1 X32.804 Y45.418 Z0 F600
G1 X32.875 Y45.787 Z0 F600
G1 X32.983 Y46.148 Z0 F600
G1 X33.132 Y46.493 Z0 F600
G1 X33.322 Y46.812 Z0 F600
G1 X33.557 Y47.094 Z0 F600
G1 X33.84 Y47.332 Z0 F600
G1 X34.172 Y47.515 Z0 F600
G1 X34.688 Y47.712 Z0 F600
G1 X35.226 Y47.843 Z0 F600
G1 X35.499 Y47.873 Z0 F600
G1 X35.772 Z0 F600
G1 X36.045 Y47.835 Z0 F600
; --- FIX Y Backlash ---
G0 X36.045 Y47.335 F410
G1 X36.314 Y47.259 Z0 F600
G1 X36.907 Y47.154 Z0 F600
G1 X37.511 Y47.063 Z0 F600
G1 X37.813 Y47.046 Z0 F600
G1 X38.11 Y47.061 Z0 F600
; --- FIX Y Backlash ---
G0 X38.11 Y47.561 F410
G1 X38.403 Y47.618 Z0 F600
G1 X38.688 Y47.726 Z0 F600
G1 X38.858 Y47.872 Z0 F600
G1 X39.001 Y48.042 Z0 F600
G1 X39.119 Y48.23 Z0 F600
G1 X39.215 Y48.435 Z0 F600
G1 X39.353 Y48.868 Z0 F600
G1 X39.437 Y49.305 Z0 F600
G1 X39.441 Y49.492 Z0 F600
G1 X39.402 Y49.667 Z0 F600
; --- FIX X Backlash ---
G0 X38.702 Y49.667 F410
G1 X38.626 Y49.825 Z0 F600
G1 X38.517 Y49.964 Z0 F600
G1 X38.383 Y50.081 Z0 F600
G1 X38.227 Y50.17 Z0 F600
G1 X38.056 Y50.23 Z0 F600
G1 X37.876 Y50.258 Z0 F600
G1 X37.627 Y50.289 Z0 F600
G1 X37.38 Y50.274 Z0 F600
; --- FIX Y Backlash ---
G0 X37.38 Y49.774 F410
G1 X37.15 Y49.699 Z0 F600
G1 X36.949 Y49.545 Z0 F600
G1 X36.79 Y49.393 Z0 F600
G1 X36.661 Y49.221 Z0 F600
G1 X36.554 Y49.035 Z0 F600
G1 X36.462 Y48.839 Z0 F600
G1 X36.289 Y48.44 Z0 F600
G1 X36.08 Y48.064 Z0 F600
G1 X35.91 Y47.947 Z0 F600
G1 X35.724 Y47.87 Z0 F600
G1 X35.527 Y47.825 Z0 F600
G1 X35.322 Y47.803 Z0 F600
G1 X34.903 Y47.795 Z0 F600
G1 X34.495 Y47.778 Z0 F600
G1 X34.228 Z0 F600
G1 X33.967 Y47.752 Z0 F600
G1 X33.717 Y47.682 Z0 F600
G1 X33.484 Y47.551 Z0 F600
G1 X33.156 Y47.391 Z0 F600
G1 X32.834 Y47.211 Z0 F600
G0 Z3.5 F600
; --- FIX X Backlash ---
G0 X33.534 Y47.211 F410
; --- FIX Y Backlash ---
G0 X33.534 Y47.711 F410
G0 X38.401 Y54.279 Z3.5
G1 Z0 F600
G1 X38.427 Y54.561 Z0 F600
G1 X38.422 Y54.816 Z0 F600
G1 Y54.822 Z0 F600
G1 X38.418 Z0 F600
G1 X38.392 Y54.838 Z0 F600
; --- FIX X Backlash ---
G0 X37.692 Y54.838 F410
; --- FIX Y Backlash ---
G0 X37.692 Y54.338 F410
G1 X37.405 Y54.08 Z0 F600
; --- FIX X Backlash ---
G0 X38.105 Y54.08 F410
G1 X38.24 Y53.955 Z0 F600
G1 X38.389 Y53.722 Z0 F600
; --- FIX Y Backlash ---
G0 X38.389 Y54.222 F410
G1 X38.401 Y54.279 Z0 F600
G0 Z3.5 F600
G0 X38.628 Y55.165 Z3.5
G1 Z0 F600
; --- FIX X Backlash ---
G0 X37.928 Y55.165 F410
G1 X37.779 Y55.245 Z0 F600
G1 X37.649 Y55.267 Z0 F600
G1 X37.614 Y55.264 Z0 F600
G1 X37.571 Y55.251 Z0 F600
G1 X37.535 Y55.232 Z0 F600
G1 X37.476 Y55.182 Z0 F600
; --- FIX Y Backlash ---
G0 X37.476 Y54.682 F410
G1 X37.05 Y54.298 Z0 F600
G1 X36.761 Y54.013 Z0 F600
; --- FIX X Backlash ---
G0 X37.461 Y54.013 F410
G1 X37.736 Y53.876 Z0 F600
G1 X37.931 Y53.696 Z0 F600
G1 X38.065 Y53.486 Z0 F600
G1 X38.152 Y53.251 Z0 F600
G1 X38.2 Y52.831 Z0 F600
G1 X38.155 Y52.466 Z0 F600
G1 X38.13 Y52.224 Z0 F600
G1 X38.171 Y52.016 Z0 F600
G1 X38.196 Y51.964 Z0 F600
G1 X38.229 Y51.923 Z0 F600
G1 X38.259 Y51.902 Z0 F600
G1 X38.269 Y51.898 Z0 F600
G1 X38.302 Y51.903 Z0 F600
G1 X38.38 Y51.931 Z0 F600
G1 X38.452 Y51.975 Z0 F600
; --- FIX Y Backlash ---
G0 X38.452 Y52.475 F410
G1 X38.522 Y52.54 Z0 F600
G1 X38.574 Y52.61 Z0 F600
G1 X38.609 Y52.686 Z0 F600
G1 X38.627 Y52.765 Z0 F600
G1 Y53.24 Z0 F600
G1 X38.672 Y53.599 Z0 F600
G1 X38.797 Y54.222 Z0 F600
G1 X38.828 Y54.549 Z0 F600
G1 X38.821 Y54.863 Z0 F600
G1 X38.799 Y54.964 Z0 F600
G1 X38.766 Y55.041 Z0 F600
G1 X38.719 Y55.1 Z0 F600
; --- FIX X Backlash ---
G0 X38.019 Y55.1 F410
G1 X37.928 Y55.165 Z0 F600
G0 Z3.5 F600
; --- FIX X Backlash ---
G0 X38.628 Y55.165 F410
; --- FIX Y Backlash ---
G0 X38.628 Y54.665 F410
G0 X46.456 Y44.547 Z3.5
G1 Z0 F600
G1 X46.611 Y44.371 Z0 F600
G1 X46.784 Y44.206 Z0 F600
G1 X46.945 Y44.1 Z0 F600
G1 X46.975 Y44.087 Z0 F600
G1 X47.008 Y44.08 Z0 F600
G1 X47.022 Z0 F600
G1 X47.058 Y44.084 Z0 F600
; --- FIX Y Backlash ---
G0 X47.058 Y44.584 F410
G1 X47.375 Y44.681 Z0 F600
G1 X47.678 Y44.824 Z0 F600
G1 X47.778 Y44.889 Z0 F600
G1 X47.876 Y44.971 Z0 F600
G1 X47.926 Y45.024 Z0 F600
G1 X47.919 Y45.078 Z0 F600
G1 X47.885 Y45.17 Z0 F600
; --- FIX X Backlash ---
G0 X47.185 Y45.17 F410
G1 X47.128 Y45.26 Z0 F600
G1 X47.061 Y45.328 Z0 F600
G1 X46.999 Y45.367 Z0 F600
G1 X46.952 Y45.381 Z0 F600
G1 X46.881 Z0 F600
; --- FIX Y Backlash ---
G0 X46.881 Y44.881 F410
G1 X46.55 Y44.813 Z0 F600
G1 X46.127 Y44.659 Z0 F600
G1 X45.846 Y44.567 Z0 F600
G1 X45.756 Y44.547 Z0 F600
G0 Z3.5 F600
G0 X45.261 Y44.503 Z3.5
G1 Z0 F600
; --- FIX X Backlash ---
G0 X45.961 Y44.503 F410
G1 X46.322 Y44.093 Z0 F600
G1 X46.532 Y43.893 Z0 F600
G1 X46.76 Y43.743 Z0 F600
G1 X46.85 Y43.706 Z0 F600
G1 X46.948 Y43.682 Z0 F600
G1 X47.042 Y43.677 Z0 F600
G1 X47.148 Y43.693 Z0 F600
; --- FIX Y Backlash ---
G0 X47.148 Y44.193 F410
G1 X47.516 Y44.305 Z0 F600
G1 X47.873 Y44.474 Z0 F600
G1 X48.017 Y44.568 Z0 F600
G1 X48.153 Y44.681 Z0 F600
G1 X48.265 Y44.801 Z0 F600
G1 X48.319 Y44.879 Z0 F600
G1 X48.333 Y45 Z0 F600
G1 X48.31 Y45.175 Z0 F600
; --- FIX X Backlash ---
G0 X47.61 Y45.175 F410
G1 X47.545 Y45.35 Z0 F600
G1 X47.443 Y45.51 Z0 F600
G1 X47.313 Y45.642 Z0 F600
G1 X47.17 Y45.732 Z0 F600
G1 X47.016 Y45.78 Z0 F600
G1 X46.844 Y45.783 Z0 F600
; --- FIX Y Backlash ---
G0 X46.844 Y45.283 F410
G1 X46.438 Y45.198 Z0 F600
G1 X45.996 Y45.038 Z0 F600
G1 X45.739 Y44.953 Z0 F600
G1 X45.455 Y44.89 Z0 F600
G1 X45.143 Y44.869 Z0 F600
G1 X44.993 Y44.891 Z0 F600
; --- FIX X Backlash ---
G0 X45.693 Y44.891 F410
G1 X45.961 Y44.503 Z0 F600
G0 Z3.5 F600
; --- FIX X Backlash ---
G0 X45.261 Y44.503 F410
; --- FIX Y Backlash ---
G0 X45.261 Y45.003 F410
G0 X41.692 Y47.345 Z3.5
G1 Z0 F600
G1 X41.5 Y47.468 Z0 F600
G1 X41.31 Y47.648 Z0 F600
; --- FIX Y Backlash ---
G0 X41.31 Y47.148 F410
G1 X41.317 Y47.084 Z0 F600
G1 X41.301 Y46.853 Z0 F600
G1 X41.281 Y46.783 Z0 F600
G1 X41.294 Y46.787 Z0 F600
; --- FIX X Backlash ---
G0 X41.994 Y46.787 F410
; --- FIX Y Backlash ---
G0 X41.994 Y47.287 F410
G1 X42.348 Y47.345 Z0 F600
G1 X42.392 Z0 F600
G0 Z3.5 F600
; --- FIX X Backlash ---
G0 X41.692 Y47.345 F410
; --- FIX Y Backlash ---
G0 X41.692 Y46.845 F410
G0 X35.098 Y38.809 Z3.5
G1 Z0 F600
G1 X35.086 Y38.822 Z0 F600
G1 X35.013 Y38.861 Z0 F600
G1 X35.005 Y38.865 Z0 F600
; --- FIX X Backlash ---
G0 X35.705 Y38.865 F410
G1 X35.798 Y38.809 Z0 F600
G0 Z3.5 F600
G0 X36.307 Y38.399 Z3.5
G1 Z0 F600
; --- FIX Y Backlash ---
G0 X36.307 Y38.899 F410
G1 X36.266 Y39.235 Z0 F600
G1 X36.217 Y39.391 Z0 F600
; --- FIX X Backlash ---
G0 X35.517 Y39.391 F410
G1 X35.441 Y39.529 Z0 F600
G1 X35.331 Y39.643 Z0 F600
G1 X35.181 Y39.726 Z0 F600
G1 X35.024 Y39.785 Z0 F600
G1 X34.87 Y39.798 Z0 F600
G1 X34.722 Y39.773 Z0 F600
; --- FIX Y Backlash ---
G0 X34.722 Y39.273 F410
G1 X34.578 Y39.217 Z0 F600
G1 X34.312 Y39.042 Z0 F600
G1 X34.076 Y38.832 Z0 F600
G1 X33.714 Y38.54 Z0 F600
G1 X33.297 Y38.323 Z0 F600
G1 X33.076 Y38.261 Z0 F600
G1 X32.849 Y38.24 Z0 F600
G1 X32.621 Y38.267 Z0 F600
; --- FIX Y Backlash ---
G0 X32.621 Y38.767 F410
G1 X32.394 Y38.848 Z0 F600
G1 X32.203 Y38.963 Z0 F600
G1 X32.06 Y39.124 Z0 F600
G1 X31.965 Y39.317 Z0 F600
G1 X31.92 Y39.529 Z0 F600
G1 X31.926 Y39.745 Z0 F600
; --- FIX X Backlash ---
G0 X32.626 Y39.745 F410
G1 X32.684 Y39.953 Z0 F600
G1 X32.795 Y40.138 Z0 F600
G1 X32.96 Y40.287 Z0 F600
G1 X33.476 Y40.688 Z0 F600
G1 X33.697 Y40.92 Z0 F600
G1 X33.84 Y41.215 Z0 F600
G1 X34.134 Y42.066 Z0 F600
G1 X34.399 Y42.935 Z0 F600
G1 X34.554 Y43.358 Z0 F600
G1 X34.738 Y43.767 Z0 F600
G1 X34.967 Y44.153 Z0 F600
G1 X35.251 Y44.51 Z0 F600
G1 X35.602 Y44.889 Z0 F600
G1 X35.98 Y45.259 Z0 F600
G1 X36.187 Y45.417 Z0 F600
G1 X36.408 Y45.544 Z0 F600
G1 X36.648 Y45.629 Z0 F600
G1 X36.909 Y45.664 Z0 F600
; --- FIX Y Backlash ---
G0 X36.909 Y45.164 F410
G1 X37.406 Y45.068 Z0 F600
G1 X37.892 Y44.91 Z0 F600
G1 X38.135 Y44.837 Z0 F600
G1 X38.381 Y44.784 Z0 F600
G1 X38.632 Y44.762 Z0 F600
G1 X38.89 Y44.783 Z0 F600
G1 X39.125 Y44.793 Z0 F600
G1 X39.352 Y44.837 Z0 F600
; --- FIX Y Backlash ---
G0 X39.352 Y45.337 F410
G1 X39.572 Y45.409 Z0 F600
G1 X39.785 Y45.503 Z0 F600
G1 X40.193 Y45.739 Z0 F600
G1 X40.579 Y46.002 Z0 F600
G1 X41.046 Y46.36 Z0 F600
G1 X41.548 Y46.681 Z0 F600
G1 X41.813 Y46.806 Z0 F600
G1 X42.09 Y46.897 Z0 F600
G1 X42.378 Y46.945 Z0 F600
G1 X42.678 Y46.941 Z0 F600
G1 X42.944 Z0 F600
G1 X43.205 Y46.91 Z0 F600
; --- FIX Y Backlash ---
G0 X43.205 Y46.41 F410
G1 X43.46 Y46.345 Z0 F600
G1 X43.708 Y46.253 Z0 F600
G1 X44.176 Y46 Z0 F600
G1 X44.599 Y45.684 Z0 F600
G1 X44.979 Y45.229 Z0 F600
G1 X45.312 Y44.74 Z0 F600
G1 X45.646 Y44.256 Z0 F600
G1 X46.034 Y43.816 Z0 F600
G1 X46.283 Y43.578 Z0 F600
G1 X46.571 Y43.389 Z0 F600
G1 X46.727 Y43.324 Z0 F600
G1 X46.891 Y43.285 Z0 F600
G1 X47.061 Y43.276 Z0 F600
G1 X47.237 Y43.302 Z0 F600
; --- FIX Y Backlash ---
G0 X47.237 Y43.802 F410
G1 X47.661 Y43.931 Z0 F600
G1 X48.068 Y44.124 Z0 F600
G1 X48.256 Y44.246 Z0 F600
G1 X48.427 Y44.388 Z0 F600
G1 X48.579 Y44.55 Z0 F600
G1 X48.705 Y44.734 Z0 F600
G1 X48.736 Y45.003 Z0 F600
G1 X48.7 Y45.272 Z0 F600
; --- FIX X Backlash ---
G0 X48 Y45.272 F410
G1 X47.905 Y45.529 Z0 F600
G1 X47.758 Y45.761 Z0 F600
G1 X47.566 Y45.955 Z0 F600
G1 X47.339 Y46.099 Z0 F600
G1 X47.082 Y46.179 Z0 F600
G1 X46.805 Y46.184 Z0 F600
; --- FIX Y Backlash ---
G0 X46.805 Y45.684 F410
G1 X46.33 Y45.584 Z0 F600
G1 X45.865 Y45.416 Z0 F600
G1 X45.633 Y45.339 Z0 F600
G1 X45.398 Y45.287 Z0 F600
G1 X45.159 Y45.271 Z0 F600
G1 X44.913 Y45.306 Z0 F600
; --- FIX Y Backlash ---
G0 X44.913 Y45.806 F410
G1 X44.552 Y46.143 Z0 F600
G1 X44.2 Y46.496 Z0 F600
G1 X43.834 Y46.83 Z0 F600
G1 X43.43 Y47.111 Z0 F600
G1 X42.855 Y47.297 Z0 F600
G1 X42.271 Y47.495 Z0 F600
G1 X41.998 Y47.623 Z0 F600
G1 X41.748 Y47.784 Z0 F600
G1 X41.531 Y47.989 Z0 F600
G1 X41.356 Y48.247 Z0 F600
G1 X41.287 Y48.474 Z0 F600
G1 X41.297 Y48.695 Z0 F600
; --- FIX X Backlash ---
G0 X41.997 Y48.695 F410
G1 X42.072 Y48.902 Z0 F600
G1 X42.202 Y49.087 Z0 F600
G1 X42.374 Y49.242 Z0 F600
G1 X42.576 Y49.358 Z0 F600
G1 X42.796 Y49.427 Z0 F600
G1 X43.022 Y49.441 Z0 F600
G1 X43.325 Y49.422 Z0 F600
; --- FIX Y Backlash ---
G0 X43.325 Y48.922 F410
G1 X43.615 Y48.859 Z0 F600
G1 X43.895 Y48.763 Z0 F600
G1 X44.167 Y48.641 Z0 F600
G1 X44.696 Y48.356 Z0 F600
G1 X45.223 Y48.077 Z0 F600
G1 X45.546 Y47.986 Z0 F600
G1 X45.886 Y47.94 Z0 F600
G1 X46.223 Y47.959 Z0 F600
; --- FIX Y Backlash ---
G0 X46.223 Y48.459 F410
G1 X46.539 Y48.565 Z0 F600
G1 X46.664 Y48.683 Z0 F600
G1 X46.741 Y48.824 Z0 F600
G1 X46.778 Y48.98 Z0 F600
G1 X46.784 Y49.148 Z0 F600
; --- FIX X Backlash ---
G0 X46.084 Y49.148 F410
G1 X46.03 Y49.494 Z0 F600
G1 X45.942 Y49.815 Z0 F600
G1 X45.748 Y50.243 Z0 F600
G1 X45.484 Y50.636 Z0 F600
G1 X45.158 Y50.979 Z0 F600
G1 X44.78 Y51.255 Z0 F600
G1 X44.188 Y51.403 Z0 F600
G1 X43.584 Y51.49 Z0 F600
G1 X42.975 Y51.51 Z0 F600
; --- FIX Y Backlash ---
G0 X42.975 Y51.01 F410
G1 X42.368 Y50.956 Z0 F600
G1 X42.12 Y50.898 Z0 F600
G1 X41.859 Y50.873 Z0 F600
G1 X41.594 Y50.881 Z0 F600
G1 X41.335 Y50.926 Z0 F600
; --- FIX Y Backlash ---
G0 X41.335 Y51.426 F410
G1 X41.089 Y51.51 Z0 F600
G1 X40.867 Y51.636 Z0 F600
G1 X40.676 Y51.805 Z0 F600
G1 X40.528 Y52.022 Z0 F600
G1 X40.478 Y52.222 Z0 F600
G1 X40.489 Y52.409 Z0 F600
; --- FIX X Backlash ---
G0 X41.189 Y52.409 F410
G1 X41.247 Y52.586 Z0 F600
G1 X41.34 Y52.755 Z0 F600
G1 X41.581 Y53.077 Z0 F600
G1 X41.81 Y53.389 Z0 F600
G1 X41.949 Y53.642 Z0 F600
G1 X42.04 Y53.909 Z0 F600
G1 X42.086 Y54.188 Z0 F600
G1 X42.096 Y54.472 Z0 F600
; --- FIX X Backlash ---
G0 X41.396 Y54.472 F410
G1 X41.329 Y55.045 Z0 F600
G1 X41.19 Y55.596 Z0 F600
G1 X41.037 Y55.898 Z0 F600
G1 X40.857 Y56.182 Z0 F600
G1 X40.653 Y56.449 Z0 F600
G1 X40.43 Y56.704 Z0 F600
G1 X39.952 Y57.186 Z0 F600
G1 X39.465 Y57.651 Z0 F600
G1 X39.186 Y57.88 Z0 F600
G1 X38.875 Y58.049 Z0 F600
G1 X38.539 Y58.154 Z0 F600
G1 X38.185 Y58.193 Z0 F600
G1 X38.081 Z0 F600
G1 X37.977 Y58.186 Z0 F600
G1 X37.625 Y58.175 Z0 F600
; --- FIX Y Backlash ---
G0 X37.625 Y57.675 F410
G1 X37.279 Y57.62 Z0 F600
G1 X36.942 Y57.524 Z0 F600
G1 X36.618 Y57.39 Z0 F600
G1 X36.309 Y57.222 Z0 F600
G1 X36.02 Y57.021 Z0 F600
G1 X35.754 Y56.792 Z0 F600
G1 X35.514 Y56.538 Z0 F600
G1 X35.106 Y55.907 Z0 F600
G1 X34.764 Y55.233 Z0 F600
G1 X34.631 Y54.881 Z0 F600
G1 X34.53 Y54.521 Z0 F600
G1 X34.468 Y54.154 Z0 F600
G1 X34.45 Y53.779 Z0 F600
G1 X34.447 Y53.529 Z0 F600
; --- FIX X Backlash ---
G0 X35.147 Y53.529 F410
G1 X35.213 Y53.271 Z0 F600
G1 X35.276 Y53.165 Z0 F600
G1 X35.363 Y53.086 Z0 F600
G1 X35.474 Y53.048 Z0 F600
G1 X35.612 Y53.058 Z0 F600
; --- FIX Y Backlash ---
G0 X35.612 Y53.558 F410
G1 X36.057 Y53.675 Z0 F600
G1 X36.482 Y53.859 Z0 F600
G1 X36.91 Y54.032 Z0 F600
G1 X37.356 Y54.118 Z0 F600
; --- FIX Y Backlash ---
G0 X37.356 Y53.618 F410
G1 X37.506 Y53.543 Z0 F600
G1 X37.622 Y53.437 Z0 F600
G1 X37.705 Y53.307 Z0 F600
G1 X37.76 Y53.158 Z0 F600
G1 X37.797 Y52.833 Z0 F600
G1 X37.758 Y52.515 Z0 F600
G1 X37.726 Y52.206 Z0 F600
G1 X37.788 Y51.889 Z0 F600
G1 X37.857 Y51.748 Z0 F600
G1 X37.953 Y51.629 Z0 F600
G1 X38.077 Y51.541 Z0 F600
G1 X38.229 Y51.491 Z0 F600
G1 X38.396 Y51.511 Z0 F600
; --- FIX Y Backlash ---
G0 X38.396 Y52.011 F410
G1 X38.553 Y52.068 Z0 F600
G1 X38.696 Y52.156 Z0 F600
G1 X38.819 Y52.27 Z0 F600
G1 X38.919 Y52.405 Z0 F600
G1 X38.99 Y52.557 Z0 F600
G1 X39.027 Y52.72 Z0 F600
G1 Y53.215 Z0 F600
G1 X39.067 Y53.534 Z0 F600
G1 X39.194 Y54.167 Z0 F600
G1 X39.228 Y54.533 Z0 F600
G1 X39.22 Y54.91 Z0 F600
G1 X39.182 Y55.087 Z0 F600
; --- FIX X Backlash ---
G0 X38.482 Y55.087 F410
G1 X38.411 Y55.25 Z0 F600
G1 X38.299 Y55.391 Z0 F600
G1 X38.139 Y55.506 Z0 F600
G1 X37.911 Y55.627 Z0 F600
G1 X37.663 Y55.67 Z0 F600
G1 X37.54 Y55.659 Z0 F600
G1 X37.42 Y55.624 Z0 F600
; --- FIX Y Backlash ---
G0 X37.42 Y55.124 F410
G1 X37.309 Y55.064 Z0 F600
G1 X37.208 Y54.979 Z0 F600
G1 X36.773 Y54.587 Z0 F600
G1 X36.348 Y54.167 Z0 F600
G1 X36.123 Y53.98 Z0 F600
G1 X35.881 Y53.826 Z0 F600
G1 X35.614 Y53.718 Z0 F600
G1 X35.317 Y53.669 Z0 F600
G1 X35.149 Y53.716 Z0 F600
; --- FIX Y Backlash ---
G0 X35.149 Y54.216 F410
G1 X35.013 Y54.309 Z0 F600
G1 X34.91 Y54.436 Z0 F600
G1 X34.839 Y54.588 Z0 F600
