
G0 Z10 F500;      ; Move to clearance level - Z motion limited to 500
; G0 X-10 Y-10 F1200; Homing
; G0 X-5 Y-5 F1200; go in
; G10 P0 L20 X0 Y0; set to zero
G1 F1200;           ; Set feed rate to 1000
G90 ; Absolute positioning
G21 ; Millimeters
;LightBurn 1.6.04
;Custom GCode device profile, absolute coords
;Bounds: X11.1 Y89.29 to X44.9 Y120.71
G00 G17 G40 G21 G54
G90
M4
;Cut @ 1500 mm/min, 90% power

M8

; Washing sequence (no color)
G1 Z10 F1000;        ; Raise brush to safe height
G0 X5 Y5 F1200;     ; Rapid move to brush cleaning position
G1 Z-1 F800;         ; Lower brush for cleaning - controlled movement
G1 X10 Y12 Z8 F1200;     ; Rapid move to brush cleaning position
G1 Z-1 F800;         ; Lower brush for cleaning - controlled movement
G1 X25 Y14 Z6 F800;     ; Move across cleaning area - controlled movement
G1 Z8 F800;         ; Maintain brush height - controlled movement
G0 X5 Y5 F1200;     ; Rapid move to brush cleaning position
G1 Z-1 F800;         ; Lower brush for cleaning - controlled movement
G1 X15 Y12 Z8 F1200;     ; Rapid move to brush cleaning position
G1 Z-1 F800;         ; Lower brush for cleaning - controlled movement
G1 X25 Y14 Z6 F800;     ; Move across cleaning area - controlled movement
G1 Z10 F800;         ; Maintain brush height - controlled movement
G1 F1200;           ; Set feed rate to 1000

; Color picking sequence
G1 Z10 F1000;         ; Raise brush to safe height
G0 X41 Y5 F1200;    ; Rapid move to color 1 position
G1 Z0 F1000;         ; Lower into color - controlled movement
G1 X40.102Y7.295Z0S800F1200
G1 X40.026Y7.642Z0F1200
G1 X40Y8Z0F1200
G1 X40.026Y8.358Z0F1200
G1 X40.102Y8.705Z0F1200
G1 X40.225Y9.041Z0F1200
G1 X40.393Y9.362Z0F1200
G1 X40.603Y9.668Z0F1200
G1 X40.854Y9.957Z0F1200
G1 X41.142Y10.226Z0F1200
G1 X41.464Y10.475Z0F1200
G1 X41.82Y10.701Z0F1200
G1 X42.204Y10.902Z0F1200
G1 X42.617Y11.078Z0F1200
G1 X43.054Y11.225Z0F1200
G1 X43.513Y11.343Z0F1200
G1 X43.992Y11.429Z0F1200
G1 X44.489Y11.482Z0F1200
G1 X45Y11.5Z0F1200
G1 X45.511Y11.482Z0F1200
G1 X46.008Y11.429Z0F1200
G1 X46.487Y11.343Z0F1200
G1 X46.946Y11.225Z0F1200
G1 X47.383Y11.078Z0F1200
G1 X47.796Y10.902Z0F1200
G1 X48.18Y10.701Z0F1200
G1 X48.536Y10.475Z0F1200
G1 X48.858Y10.226Z0F1200
G1 X49.146Y9.957Z0F1200
G1 X49.397Y9.668Z0F1200
G1 X49.607Y9.362Z0F1200
G1 X49.775Y9.041Z0F1200
G1 X49.898Y8.705Z0F1200
G1 X49.974Y8.358Z0F1200
G1 X50Y8Z0F1200
G1 X49.974Y7.642Z0F1200
G1 X49.898Y7.295Z0F1200
G1 X49.775Y6.959Z0F1200
G1 X49.607Y6.638Z0F1200
G1 X49.397Y6.332Z0F1200
G1 X49.146Y6.043Z0F1200
G1 X48.858Y5.774Z0F1200
G1 X48.536Y5.525Z0F1200
G1 X48.18Y5.299Z0F1200
G1 X47.796Y5.098Z0F1200
G1 X47.383Y4.922Z0F1200
G1 X46.946Y4.775Z0F1200
G1 X46.487Y4.657Z0F1200
G1 X46.008Y4.571Z0F1200
G1 X45.511Y4.518Z0F1200
G1 X45Y4.5Z0F1200
G1 X44.489Y4.518Z0F1200
G1 X43.992Y4.571Z0F1200
G1 X43.513Y4.657Z0F1200
G1 X43.054Y4.775Z0F1200
G1 X42.617Y4.922Z0F1200
G1 X42.204Y5.098Z0F1200
G1 X41.82Y5.299Z0F1200
G1 X41.464Y5.525Z0F1200
G1 X41.142Y5.774Z0F1200
G1 X40.854Y6.043Z0F1200
G1 X40.603Y6.332Z0F1200
G1 X40.393Y6.638Z0F1200
G1 X40.225Y6.959Z0F1200
G1 Z7 F800;         ; Raise from color - controlled movement
G1 X34 Y8 Z1 F1200;     ; Movement in paint - controlled movement
G1 X24 Y18 Z8 F500;     ; Move in paint - controlled movement
G1 F1200;           ; Set feed rate to 1000
G0 Z3.5 F1000
G0 X26.808 Y103.845 Z3.500
G1 Z0 F1000
;Layer C1
; --- FIX Y Backlash: -0.800mm ---
G0 X26.808 Y103.045 F1000
G1 X26.893 Y102.961 Z0.000 F1000
G1 X26.948 Y102.876 Z0.000 F1000
G1 X26.975 Y102.792 Z0.000 F1000
G1 X26.975 Y102.710 Z0.000 F1000
; --- FIX X Backlash: -0.700mm ---
G0 X26.275 Y102.710 F1000
G1 X26.218 Y102.552 Z0.000 F1000
G1 X26.093 Y102.411 Z0.000 F1000
G1 X25.923 Y102.293 Z0.000 F1000
G1 X25.731 Y102.205 Z0.000 F1000
G1 X25.539 Y102.155 Z0.000 F1000
G1 X25.369 Y102.149 Z0.000 F1000
G1 X25.172 Y102.188 Z0.000 F1000
; --- FIX Y Backlash: 0.800mm ---
G0 X25.172 Y102.988 F1000
G1 X24.993 Y103.054 Z0.000 F1000
G1 X24.833 Y103.143 Z0.000 F1000
G1 X24.691 Y103.254 Z0.000 F1000
G1 X24.460 Y103.529 Z0.000 F1000
G1 X24.298 Y103.859 Z0.000 F1000
G1 X24.205 Y104.223 Z0.000 F1000
G1 X24.178 Y104.602 Z0.000 F1000
G1 X24.216 Y104.976 Z0.000 F1000
; --- FIX X Backlash: 0.700mm ---
G0 X24.916 Y104.976 F1000
G1 X25.017 Y105.324 Z0.000 F1000
G1 X25.150 Y105.604 Z0.000 F1000
G1 X25.313 Y105.856 Z0.000 F1000
G1 X25.501 Y106.080 Z0.000 F1000
G1 X25.713 Y106.276 Z0.000 F1000
G1 X25.946 Y106.445 Z0.000 F1000
G1 X26.195 Y106.587 Z0.000 F1000
G1 X26.460 Y106.701 Z0.000 F1000
G1 X26.736 Y106.788 Z0.000 F1000
G1 X27.021 Y106.849 Z0.000 F1000
G1 X27.313 Y106.882 Z0.000 F1000
G1 X27.607 Y106.889 Z0.000 F1000
G1 X27.902 Y106.870 Z0.000 F1000
G1 X28.194 Y106.825 Z0.000 F1000
; --- FIX Y Backlash: -0.800mm ---
G0 X28.194 Y106.025 F1000
G1 X28.481 Y105.953 Z0.000 F1000
G1 X28.760 Y105.855 Z0.000 F1000
G1 X29.027 Y105.732 Z0.000 F1000
G1 X29.391 Y105.514 Z0.000 F1000
G1 X29.718 Y105.261 Z0.000 F1000
G1 X30.007 Y104.977 Z0.000 F1000
G1 X30.258 Y104.666 Z0.000 F1000
G1 X30.473 Y104.331 Z0.000 F1000
G1 X30.650 Y103.976 Z0.000 F1000
G1 X30.790 Y103.604 Z0.000 F1000
G1 X30.893 Y103.219 Z0.000 F1000
G1 X30.959 Y102.824 Z0.000 F1000
G1 X30.988 Y102.423 Z0.000 F1000
G1 X30.980 Y102.019 Z0.000 F1000
G1 X30.935 Y101.617 Z0.000 F1000
; --- FIX X Backlash: -0.700mm ---
G0 X30.235 Y101.617 F1000
G1 X30.154 Y101.218 Z0.000 F1000
G1 X30.037 Y100.828 Z0.000 F1000
G1 X29.882 Y100.450 Z0.000 F1000
G1 X29.692 Y100.086 Z0.000 F1000
G1 X29.391 Y99.637 Z0.000 F1000
G1 X29.050 Y99.235 Z0.000 F1000
G1 X28.673 Y98.881 Z0.000 F1000
G1 X28.263 Y98.573 Z0.000 F1000
G1 X27.826 Y98.313 Z0.000 F1000
G1 X27.364 Y98.100 Z0.000 F1000
G1 X26.884 Y97.934 Z0.000 F1000
G1 X26.389 Y97.815 Z0.000 F1000
G1 X25.883 Y97.744 Z0.000 F1000
G1 X25.371 Y97.719 Z0.000 F1000
G1 X24.858 Y97.742 Z0.000 F1000
; --- FIX Y Backlash: 0.800mm ---
G0 X24.858 Y98.542 F1000
G1 X24.346 Y98.613 Z0.000 F1000
G1 X23.841 Y98.730 Z0.000 F1000
G1 X23.348 Y98.895 Z0.000 F1000
G1 X22.869 Y99.106 Z0.000 F1000
G1 X22.410 Y99.366 Z0.000 F1000
G1 X21.876 Y99.747 Z0.000 F1000
G1 X21.398 Y100.175 Z0.000 F1000
G1 X20.977 Y100.646 Z0.000 F1000
G1 X20.614 Y101.154 Z0.000 F1000
G1 X20.307 Y101.695 Z0.000 F1000
G1 X20.058 Y102.262 Z0.000 F1000
G1 X19.866 Y102.850 Z0.000 F1000
G1 X19.731 Y103.456 Z0.000 F1000
G1 X19.654 Y104.073 Z0.000 F1000
G1 X19.635 Y104.696 Z0.000 F1000
G1 X19.673 Y105.320 Z0.000 F1000
; --- FIX X Backlash: 0.700mm ---
G0 X20.373 Y105.320 F1000
G1 X20.470 Y105.941 Z0.000 F1000
G1 X20.624 Y106.553 Z0.000 F1000
G1 X20.835 Y107.150 Z0.000 F1000
G1 X21.105 Y107.728 Z0.000 F1000
G1 X21.433 Y108.282 Z0.000 F1000
G1 X21.895 Y108.903 Z0.000 F1000
G1 X22.411 Y109.457 Z0.000 F1000
G1 X22.975 Y109.944 Z0.000 F1000
G1 X23.581 Y110.364 Z0.000 F1000
G1 X24.224 Y110.716 Z0.000 F1000
G1 X24.897 Y111.002 Z0.000 F1000
G1 X25.595 Y111.220 Z0.000 F1000
G1 X26.310 Y111.370 Z0.000 F1000
G1 X27.039 Y111.453 Z0.000 F1000
G1 X27.774 Y111.467 Z0.000 F1000
; --- FIX Y Backlash: -0.800mm ---
G0 X27.774 Y110.667 F1000
G1 X28.509 Y110.613 Z0.000 F1000
G1 X29.239 Y110.491 Z0.000 F1000
G1 X29.958 Y110.300 Z0.000 F1000
G1 X30.659 Y110.041 Z0.000 F1000
G1 X31.337 Y109.713 Z0.000 F1000
G1 X31.985 Y109.315 Z0.000 F1000
G1 X32.692 Y108.774 Z0.000 F1000
G1 X33.322 Y108.171 Z0.000 F1000
G1 X33.876 Y107.514 Z0.000 F1000
G1 X34.352 Y106.809 Z0.000 F1000
G1 X34.751 Y106.064 Z0.000 F1000
G1 X35.073 Y105.285 Z0.000 F1000
G1 X35.317 Y104.478 Z0.000 F1000
G1 X35.483 Y103.652 Z0.000 F1000
G1 X35.571 Y102.812 Z0.000 F1000
G1 X35.580 Y101.965 Z0.000 F1000
; --- FIX X Backlash: -0.700mm ---
G0 X34.880 Y101.965 F1000
G1 X34.811 Y101.119 Z0.000 F1000
G1 X34.663 Y100.280 Z0.000 F1000
G1 X34.435 Y99.454 Z0.000 F1000
G1 X34.128 Y98.649 Z0.000 F1000
G1 X33.742 Y97.872 Z0.000 F1000
G1 X33.275 Y97.128 Z0.000 F1000
G1 X32.973 Y96.721 Z0.000 F1000
G1 X32.653 Y96.335 Z0.000 F1000
G1 X32.316 Y95.971 Z0.000 F1000
G1 X31.963 Y95.629 Z0.000 F1000
G1 X31.595 Y95.308 Z0.000 F1000
G1 X31.213 Y95.009 Z0.000 F1000
G1 X30.818 Y94.731 Z0.000 F1000
G1 X30.410 Y94.476 Z0.000 F1000
G1 X29.562 Y94.030 Z0.000 F1000
G1 X28.677 Y93.672 Z0.000 F1000
G1 X27.762 Y93.402 Z0.000 F1000
G1 X26.825 Y93.220 Z0.000 F1000
G1 X25.873 Y93.126 Z0.000 F1000
G1 X24.915 Y93.122 Z0.000 F1000
; --- FIX Y Backlash: 0.800mm ---
G0 X24.915 Y93.922 F1000
G1 X23.958 Y94.007 Z0.000 F1000
G1 X23.009 Y94.182 Z0.000 F1000
G1 X22.076 Y94.446 Z0.000 F1000
G1 X21.167 Y94.801 Z0.000 F1000
G1 X20.290 Y95.246 Z0.000 F1000
G1 X19.452 Y95.782 Z0.000 F1000
G1 X19.001 Y96.123 Z0.000 F1000
G1 X18.573 Y96.484 Z0.000 F1000
G1 X18.170 Y96.863 Z0.000 F1000
G1 X17.790 Y97.260 Z0.000 F1000
G1 X17.435 Y97.674 Z0.000 F1000
G1 X17.104 Y98.103 Z0.000 F1000
G1 X16.797 Y98.547 Z0.000 F1000
G1 X16.514 Y99.005 Z0.000 F1000
G1 X16.256 Y99.474 Z0.000 F1000
G1 X16.022 Y99.955 Z0.000 F1000
G1 X15.812 Y100.446 Z0.000 F1000
G1 X15.627 Y100.947 Z0.000 F1000
G1 X15.467 Y101.455 Z0.000 F1000
G1 X15.331 Y101.970 Z0.000 F1000
G1 X15.220 Y102.492 Z0.000 F1000
G1 X15.133 Y103.018 Z0.000 F1000
G1 X15.034 Y104.082 Z0.000 F1000
G1 X15.034 Y105.152 Z0.000 F1000
G1 X15.073 Y105.687 Z0.000 F1000
; --- FIX X Backlash: 0.700mm ---
G0 X15.773 Y105.687 F1000
G1 X15.836 Y106.220 Z0.000 F1000
G1 X15.923 Y106.751 Z0.000 F1000
G1 X16.036 Y107.279 Z0.000 F1000
G1 X16.174 Y107.801 Z0.000 F1000
G1 X16.338 Y108.318 Z0.000 F1000
G1 X16.526 Y108.829 Z0.000 F1000
G1 X16.740 Y109.331 Z0.000 F1000
G1 X16.980 Y109.824 Z0.000 F1000
G1 X17.244 Y110.308 Z0.000 F1000
G1 X17.534 Y110.780 Z0.000 F1000
G1 X17.850 Y111.240 Z0.000 F1000
G1 X18.230 Y111.736 Z0.000 F1000
G1 X18.631 Y112.206 Z0.000 F1000
G1 X19.053 Y112.649 Z0.000 F1000
G1 X19.495 Y113.065 Z0.000 F1000
G1 X19.954 Y113.455 Z0.000 F1000
G1 X20.431 Y113.818 Z0.000 F1000
G1 X20.923 Y114.155 Z0.000 F1000
G1 X21.430 Y114.465 Z0.000 F1000
G1 X21.950 Y114.748 Z0.000 F1000
G1 X22.483 Y115.004 Z0.000 F1000
G1 X23.027 Y115.232 Z0.000 F1000
G1 X23.581 Y115.434 Z0.000 F1000
G1 X24.143 Y115.609 Z0.000 F1000
G1 X24.714 Y115.757 Z0.000 F1000
G1 X25.290 Y115.877 Z0.000 F1000
G1 X25.872 Y115.970 Z0.000 F1000
G1 X26.458 Y116.036 Z0.000 F1000
G1 X27.047 Y116.075 Z0.000 F1000
G1 X27.638 Y116.086 Z0.000 F1000
G1 X28.229 Y116.069 Z0.000 F1000
G1 X28.820 Y116.025 Z0.000 F1000
; --- FIX Y Backlash: -0.800mm ---
G0 X28.820 Y115.225 F1000
G1 X29.409 Y115.153 Z0.000 F1000
G1 X29.995 Y115.053 Z0.000 F1000
G1 X30.577 Y114.926 Z0.000 F1000
G1 X31.153 Y114.771 Z0.000 F1000
G1 X31.724 Y114.587 Z0.000 F1000
G1 X32.286 Y114.376 Z0.000 F1000
G1 X32.840 Y114.137 Z0.000 F1000
G1 X33.384 Y113.870 Z0.000 F1000
G1 X33.916 Y113.574 Z0.000 F1000
G1 X34.437 Y113.251 Z0.000 F1000
G1 X34.944 Y112.899 Z0.000 F1000
G1 X35.484 Y112.480 Z0.000 F1000
G1 X35.995 Y112.038 Z0.000 F1000
G1 X36.478 Y111.573 Z0.000 F1000
G1 X36.931 Y111.088 Z0.000 F1000
G1 X37.356 Y110.583 Z0.000 F1000
G1 X37.751 Y110.059 Z0.000 F1000
G1 X38.117 Y109.518 Z0.000 F1000
G1 X38.454 Y108.961 Z0.000 F1000
G1 X38.762 Y108.390 Z0.000 F1000
G1 X39.040 Y107.806 Z0.000 F1000
G1 X39.288 Y107.209 Z0.000 F1000
G1 X39.507 Y106.602 Z0.000 F1000
G1 X39.696 Y105.985 Z0.000 F1000
G1 X39.855 Y105.360 Z0.000 F1000
G1 X39.985 Y104.728 Z0.000 F1000
G1 X40.085 Y104.091 Z0.000 F1000
G1 X40.155 Y103.449 Z0.000 F1000
G1 X40.195 Y102.804 Z0.000 F1000
G1 X40.204 Y102.157 Z0.000 F1000
G1 X40.184 Y101.510 Z0.000 F1000
; --- FIX X Backlash: -0.700mm ---
G0 X39.484 Y101.510 F1000
G1 X39.433 Y100.863 Z0.000 F1000
G1 X39.352 Y100.219 Z0.000 F1000
G1 X39.241 Y99.578 Z0.000 F1000
G1 X39.099 Y98.942 Z0.000 F1000
G1 X38.926 Y98.311 Z0.000 F1000
G1 X38.723 Y97.688 Z0.000 F1000
G1 X38.489 Y97.073 Z0.000 F1000
G1 X38.225 Y96.468 Z0.000 F1000
G1 X37.930 Y95.873 Z0.000 F1000
G1 X37.603 Y95.292 Z0.000 F1000
G1 X37.246 Y94.723 Z0.000 F1000
G1 X36.858 Y94.170 Z0.000 F1000
G1 X36.401 Y93.585 Z0.000 F1000
G1 X35.918 Y93.032 Z0.000 F1000
G1 X35.411 Y92.510 Z0.000 F1000
G1 X34.881 Y92.019 Z0.000 F1000
G1 X34.330 Y91.560 Z0.000 F1000
G1 X33.759 Y91.132 Z0.000 F1000
G1 X33.170 Y90.737 Z0.000 F1000
G1 X32.564 Y90.373 Z0.000 F1000
G1 X31.942 Y90.041 Z0.000 F1000
G1 X31.305 Y89.741 Z0.000 F1000
G1 X30.656 Y89.473 Z0.000 F1000
G1 X29.995 Y89.237 Z0.000 F1000
G1 X29.324 Y89.034 Z0.000 F1000
G1 X28.644 Y88.862 Z0.000 F1000
G1 X27.957 Y88.724 Z0.000 F1000
G1 X27.264 Y88.617 Z0.000 F1000
G1 X26.566 Y88.543 Z0.000 F1000
G1 X25.865 Y88.502 Z0.000 F1000
G1 X25.163 Y88.494 Z0.000 F1000
G1 X24.460 Y88.518 Z0.000 F1000
; --- FIX Y Backlash: 0.800mm ---
G0 X24.460 Y89.318 F1000
G1 X23.757 Y89.375 Z0.000 F1000
G1 X23.058 Y89.465 Z0.000 F1000
G1 X22.361 Y89.589 Z0.000 F1000
G1 X21.671 Y89.745 Z0.000 F1000
G1 X20.986 Y89.935 Z0.000 F1000
G1 X20.309 Y90.158 Z0.000 F1000
G1 X19.642 Y90.414 Z0.000 F1000
G1 X18.986 Y90.704 Z0.000 F1000
G1 X18.341 Y91.027 Z0.000 F1000
G1 X17.710 Y91.384 Z0.000 F1000
G1 X17.094 Y91.775 Z0.000 F1000
G1 X16.494 Y92.199 Z0.000 F1000
G1 X15.865 Y92.695 Z0.000 F1000
G1 X15.269 Y93.219 Z0.000 F1000
G1 X14.708 Y93.769 Z0.000 F1000
G1 X14.180 Y94.343 Z0.000 F1000
G1 X13.686 Y94.939 Z0.000 F1000
G1 X13.227 Y95.557 Z0.000 F1000
G1 X12.802 Y96.195 Z0.000 F1000
G1 X12.411 Y96.851 Z0.000 F1000
G1 X12.054 Y97.524 Z0.000 F1000
G1 X11.732 Y98.212 Z0.000 F1000
G1 X11.445 Y98.914 Z0.000 F1000
G1 X11.192 Y99.628 Z0.000 F1000
G1 X10.974 Y100.353 Z0.000 F1000
G1 X10.791 Y101.088 Z0.000 F1000
G1 X10.643 Y101.830 Z0.000 F1000
G1 X10.530 Y102.579 Z0.000 F1000
G1 X10.452 Y103.333 Z0.000 F1000
G1 X10.409 Y104.089 Z0.000 F1000
G1 X10.402 Y104.848 Z0.000 F1000
G1 X10.430 Y105.607 Z0.000 F1000
; --- FIX X Backlash: 0.700mm ---
G0 X11.130 Y105.607 F1000
G1 X11.194 Y106.365 Z0.000 F1000
G1 X11.293 Y107.120 Z0.000 F1000
G1 X11.428 Y107.872 Z0.000 F1000
G1 X11.599 Y108.617 Z0.000 F1000
G1 X11.806 Y109.355 Z0.000 F1000
G1 X12.049 Y110.085 Z0.000 F1000
G1 X12.328 Y110.805 Z0.000 F1000
G1 X12.643 Y111.513 Z0.000 F1000
G1 X12.994 Y112.208 Z0.000 F1000
G1 X13.382 Y112.888 Z0.000 F1000
G1 X13.806 Y113.552 Z0.000 F1000
G1 X14.267 Y114.199 Z0.000 F1000
G1 X14.802 Y114.872 Z0.000 F1000
G1 X15.367 Y115.510 Z0.000 F1000
G1 X15.959 Y116.111 Z0.000 F1000
G1 X16.577 Y116.676 Z0.000 F1000
G1 X17.219 Y117.204 Z0.000 F1000
G1 X17.884 Y117.696 Z0.000 F1000
G1 X18.570 Y118.150 Z0.000 F1000
G1 X19.276 Y118.568 Z0.000 F1000
G1 X20.000 Y118.950 Z0.000 F1000
G1 X20.740 Y119.294 Z0.000 F1000
G1 X21.494 Y119.601 Z0.000 F1000
G1 X22.262 Y119.870 Z0.000 F1000
G1 X23.042 Y120.103 Z0.000 F1000
G1 X23.831 Y120.297 Z0.000 F1000
G1 X24.628 Y120.455 Z0.000 F1000
G1 X25.433 Y120.574 Z0.000 F1000
G1 X26.242 Y120.656 Z0.000 F1000
G1 X27.055 Y120.700 Z0.000 F1000
G1 X27.870 Y120.706 Z0.000 F1000
G1 X28.685 Y120.674 Z0.000 F1000
; --- FIX Y Backlash: -0.800mm ---
G0 X28.685 Y119.874 F1000
G1 X29.498 Y119.804 Z0.000 F1000
G1 X30.309 Y119.696 Z0.000 F1000
G1 X31.115 Y119.549 Z0.000 F1000
G1 X31.915 Y119.363 Z0.000 F1000
G1 X32.708 Y119.139 Z0.000 F1000
G1 X33.491 Y118.877 Z0.000 F1000
G1 X34.263 Y118.575 Z0.000 F1000
G1 X35.022 Y118.235 Z0.000 F1000
G1 X35.767 Y117.855 Z0.000 F1000
G1 X36.497 Y117.437 Z0.000 F1000
G1 X37.209 Y116.979 Z0.000 F1000
G1 X37.902 Y116.482 Z0.000 F1000
G1 X38.753 Y115.794 Z0.000 F1000
G1 X39.555 Y115.056 Z0.000 F1000
G1 X40.306 Y114.273 Z0.000 F1000
G1 X41.004 Y113.446 Z0.000 F1000
G1 X41.650 Y112.580 Z0.000 F1000
G1 X42.241 Y111.677 Z0.000 F1000
G1 X42.777 Y110.741 Z0.000 F1000
G1 X43.255 Y109.775 Z0.000 F1000
G1 X43.675 Y108.782 Z0.000 F1000
G1 X44.035 Y107.765 Z0.000 F1000
G1 X44.335 Y106.727 Z0.000 F1000
G1 X44.572 Y105.672 Z0.000 F1000
G1 X44.746 Y104.603 Z0.000 F1000
G1 X44.855 Y103.523 Z0.000 F1000
G1 X44.898 Y102.435 Z0.000 F1000
G1 X44.874 Y101.342 Z0.000 F1000
M9

G90
G1 Z10 F800

M2 ; End of G-code


; Return to 2,0 wash and park
G1 Z10 F1000;        ; Raise brush to safe height
G0 X5 Y5 F1200;     ; Rapid move to brush cleaning position
G1 Z-1 F800;         ; Lower brush for cleaning - controlled movement
G1 X10 Y12 Z8 F1200;     ; Rapid move to brush cleaning position
G1 Z-1 F800;         ; Lower brush for cleaning - controlled movement
G1 X25 Y14 Z6 F800;     ; Move across cleaning area - controlled movement
G0 X5 Y5 F1200;     ; Rapid move to brush cleaning position
G1 Z-1 F800;         ; Lower brush for cleaning - controlled movement
G1 X15 Y12 Z8 F1200;     ; Rapid move to brush cleaning position
G1 Z-1 F800;         ; Lower brush for cleaning - controlled movement
G1 X25 Y14 Z6 F800;     ; Move across cleaning area - controlled movement
G1 Z10 F800;         ; Maintain brush height - controlled movement
G0 X20 Y130 Z10 F500;; Move to parking position with Z at safe height
M2;                 ; End program
