
G0 Z10 F500;      ; Move to clearance level
; G0 X-10 Y-10 F1200; Homing
; G0 X-5 Y-5 F1200; go in
; G10 P0 L20 X0 Y0; set to zero
G1 F1200;           ; Set feed rate
G90 ; Force absolute mode
;LightBurn 1.6.04
;Custom GCode device profile, absolute coords
;Bounds: X45.67 Y39.24 to X104.33 Y106.15
G00 G17 G40 G21 G54
M3
G1 Z10 F1000

; Color picking sequence
G1 Z10 F1000;         ; Raise brush
G0 X41 Y5 F1200;    ; Rapid move to color 1
G1 Z10 F1000;         ; Raise brush
G0 X41 Y5 F1200;    ; Rapid move to color 1
G1 Z0 F1000;         ; Lower into color
G1 X40.102 Y7.295 Z0 S800 F1200
G1 X40.026 Y7.642 Z0 F1200
G1 X40 Y8 Z0 F1200
G1 X40.026 Y8.358 Z0 F1200
G1 X40.102 Y8.705 Z0 F1200
G1 X40.225 Y9.041 Z0 F1200
G1 X40.393 Y9.362 Z0 F1200
G1 X40.603 Y9.668 Z0 F1200
G1 X40.854 Y9.957 Z0 F1200
G1 X41.142 Y10.226 Z0 F1200
G1 X41.464 Y10.475 Z0 F1200
G1 X41.82 Y10.701 Z0 F1200
G1 X42.204 Y10.902 Z0 F1200
G1 X42.617 Y11.078 Z0 F1200
G1 X43.054 Y11.225 Z0 F1200
G1 X43.513 Y11.343 Z0 F1200
G1 X43.992 Y11.429 Z0 F1200
G1 X44.489 Y11.482 Z0 F1200
G1 X45 Y11.5 Z0 F1200
G1 X45.511 Y11.482 Z0 F1200
G1 X46.008 Y11.429 Z0 F1200
G1 X46.487 Y11.343 Z0 F1200
G1 X46.946 Y11.225 Z0 F1200
G1 X47.383 Y11.078 Z0 F1200
G1 X47.796 Y10.902 Z0 F1200
G1 X48.18 Y10.701 Z0 F1200
G1 X48.536 Y10.475 Z0 F1200
G1 X48.858 Y10.226 Z0 F1200
G1 X49.146 Y9.957 Z0 F1200
G1 X49.397 Y9.668 Z0 F1200
G1 X49.607 Y9.362 Z0 F1200
G1 X49.775 Y9.041 Z0 F1200
G1 X49.898 Y8.705 Z0 F1200
G1 X49.974 Y8.358 Z0 F1200
G1 X50 Y8 Z0 F1200
G1 X49.974 Y7.642 Z0 F1200
G1 X49.898 Y7.295 Z0 F1200
G1 X49.775 Y6.959 Z0 F1200
G1 X49.607 Y6.638 Z0 F1200
G1 X49.397 Y6.332 Z0 F1200
G1 X49.146 Y6.043 Z0 F1200
G1 X48.858 Y5.774 Z0 F1200
G1 X48.536 Y5.525 Z0 F1200
G1 X48.18 Y5.299 Z0 F1200
G1 X47.796 Y5.098 Z0 F1200
G1 X47.383 Y4.922 Z0 F1200
G1 X46.946 Y4.775 Z0 F1200
G1 X46.487 Y4.657 Z0 F1200
G1 X46.008 Y4.571 Z0 F1200
G1 X45.511 Y4.518 Z0 F1200
G1 X45 Y4.5 Z0 F1200
G1 X44.489 Y4.518 Z0 F1200
G1 X43.992 Y4.571 Z0 F1200
G1 X43.513 Y4.657 Z0 F1200
G1 X43.054 Y4.775 Z0 F1200
G1 X42.617 Y4.922 Z0 F1200
G1 X42.204 Y5.098 Z0 F1200
G1 X41.82 Y5.299 Z0 F1200
G1 X41.464 Y5.525 Z0 F1200
G1 X41.142 Y5.774 Z0 F1200
G1 X40.854 Y6.043 Z0 F1200
G1 X40.603 Y6.332 Z0 F1200
G1 X40.393 Y6.638 Z0 F1200
G1 X40.225 Y6.959 Z0 F1200
G1 Z7 F800;         ; Raise from color
G1 X34 Y8 Z1 F1200;     ; Movement in paint
G1 X24 Y18 Z8 F500;     ; Move in paint
G1 F1200;           ; Set feed rate
G0 Z2.5 F1000 ; Safety Lift
;Scan @ 1500 mm/min, 90% power

M8
G0 Z3.5 F1000
G0 X63.584 Y53.048 Z3.5
G1 Z0 F1000
;Layer C1
G0 Z2.5 F500 ; Lift S=0
G1 X65.334 S0 F1600
G0 Z0 F500 ; Drop S>0
G1 X66.488 S900 F1600
G0 Z2.5 F500 ; Lift S=0
G1 X83.544 S0 F1600
G0 Z0 F500 ; Drop S>0
G1 X84.628 S900 F1600
G0 Z2.5 F500 ; Lift S=0
G1 X86.378 S0 F1600
G1 X87.57 Y53.948 Z2.5 F1600
G1 X85.82 Z2.5 F1600
G0 Z0 F500 ; Drop S>0
G1 X82.957 S900 F1600
G0 Z2.5 F500 ; Lift S=0
G1 X67.071 S0 F1600
G0 Z0 F500 ; Drop S>0
G1 X64.149 S900 F1600
G0 Z2.5 F500 ; Lift S=0
G1 X62.399 S0 F1600
G1 X60.465 Y54.848 Z2.5 F1600
G1 X62.215 Z2.5 F1600
G0 Z0 F500 ; Drop S>0
G1 X67.658 S900 F1600
G0 Z2.5 F500 ; Lift S=0
G1 X82.359 S0 F1600
G0 Z0 F500 ; Drop S>0
G1 X87.792 S900 F1600
G0 Z2.5 F500 ; Lift S=0
G1 X89.542 S0 F1600
G1 X89.764 Y55.748 Z2.5 F1600
G1 X88.014 Z2.5 F1600
G0 Z0 F500 ; Drop S>0
G1 X81.762 S900 F1600
G0 Z2.5 F500 ; Lift S=0
G1 X68.248 S0 F1600
G0 Z0 F500 ; Drop S>0
G1 X61.995 S900 F1600
G0 Z2.5 F500 ; Lift S=0
G1 X60.245 S0 F1600
G1 X60.756 Y56.648 Z2.5 F1600
G1 X62.506 Z2.5 F1600
G0 Z0 F500 ; Drop S>0
G1 X68.843 S900 F1600
G0 Z2.5 F500 ; Lift S=0
G1 X81.158 S0 F1600
G0 Z0 F500 ; Drop S>0
G1 X87.505 S900 F1600
G0 Z2.5 F500 ; Lift S=0
G1 X89.255 S0 F1600
G1 X88.744 Y57.548 Z2.5 F1600
G1 X86.994 Z2.5 F1600
G0 Z0 F500 ; Drop S>0
G1 X80.545 S900 F1600
G0 Z2.5 F500 ; Lift S=0
G1 X69.457 S0 F1600
G0 Z0 F500 ; Drop S>0
G1 X62.996 S900 F1600
G0 Z2.5 F500 ; Lift S=0
G1 X61.246 S0 F1600
G1 X61.752 Y58.448 Z2.5 F1600
G1 X63.502 Z2.5 F1600
G0 Z0 F500 ; Drop S>0
G1 X70.083 S900 F1600
G0 Z2.5 F500 ; Lift S=0
G1 X79.917 S0 F1600
G0 Z0 F500 ; Drop S>0
G1 X86.496 S900 F1600
G0 Z2.5 F500 ; Lift S=0
G1 X88.246 S0 F1600
G1 X87.764 Y59.348 Z2.5 F1600
G1 X86.014 Z2.5 F1600
G0 Z0 F500 ; Drop S>0
G1 X79.268 S900 F1600
G0 Z2.5 F500 ; Lift S=0
G1 X70.72 S0 F1600
G0 Z0 F500 ; Drop S>0
G1 X63.974 S900 F1600
G0 Z2.5 F500 ; Lift S=0
G1 X62.224 S0 F1600
G1 X62.7 Y60.248 Z2.5 F1600
G1 X64.45 Z2.5 F1600
G0 Z0 F500 ; Drop S>0
G1 X71.222 S900 F1600
G0 Z2.5 F500 ; Lift S=0
G1 X78.692 S0 F1600
G0 Z0 F500 ; Drop S>0
G1 X85.554 S900 F1600
G0 Z2.5 F500 ; Lift S=0
G1 X87.304 S0 F1600
G1 X86.853 Y61.148 Z2.5 F1600
G1 X85.103 Z2.5 F1600
G0 Z0 F500 ; Drop S>0
G1 X80.099 S900 F1600
G0 Z2.5 F500 ; Lift S=0

; Color picking sequence
G1 Z10 F1000;         ; Raise brush
G0 X41 Y5 F1200;    ; Rapid move to color 1
G1 Z10 F1000;         ; Raise brush
G0 X41 Y5 F1200;    ; Rapid move to color 1
G1 Z0 F1000;         ; Lower into color
G1 X40.102 Y7.295 Z0 S800 F1200
G1 X40.026 Y7.642 Z0 F1200
G1 X40 Y8 Z0 F1200
G1 X40.026 Y8.358 Z0 F1200
G1 X40.102 Y8.705 Z0 F1200
G1 X40.225 Y9.041 Z0 F1200
G1 X40.393 Y9.362 Z0 F1200
G1 X40.603 Y9.668 Z0 F1200
G1 X40.854 Y9.957 Z0 F1200
G1 X41.142 Y10.226 Z0 F1200
G1 X41.464 Y10.475 Z0 F1200
G1 X41.82 Y10.701 Z0 F1200
G1 X42.204 Y10.902 Z0 F1200
G1 X42.617 Y11.078 Z0 F1200
G1 X43.054 Y11.225 Z0 F1200
G1 X43.513 Y11.343 Z0 F1200
G1 X43.992 Y11.429 Z0 F1200
G1 X44.489 Y11.482 Z0 F1200
G1 X45 Y11.5 Z0 F1200
G1 X45.511 Y11.482 Z0 F1200
G1 X46.008 Y11.429 Z0 F1200
G1 X46.487 Y11.343 Z0 F1200
G1 X46.946 Y11.225 Z0 F1200
G1 X47.383 Y11.078 Z0 F1200
G1 X47.796 Y10.902 Z0 F1200
G1 X48.18 Y10.701 Z0 F1200
G1 X48.536 Y10.475 Z0 F1200
G1 X48.858 Y10.226 Z0 F1200
G1 X49.146 Y9.957 Z0 F1200
G1 X49.397 Y9.668 Z0 F1200
G1 X49.607 Y9.362 Z0 F1200
G1 X49.775 Y9.041 Z0 F1200
G1 X49.898 Y8.705 Z0 F1200
G1 X49.974 Y8.358 Z0 F1200
G1 X50 Y8 Z0 F1200
G1 X49.974 Y7.642 Z0 F1200
G1 X49.898 Y7.295 Z0 F1200
G1 X49.775 Y6.959 Z0 F1200
G1 X49.607 Y6.638 Z0 F1200
G1 X49.397 Y6.332 Z0 F1200
G1 X49.146 Y6.043 Z0 F1200
G1 X48.858 Y5.774 Z0 F1200
G1 X48.536 Y5.525 Z0 F1200
G1 X48.18 Y5.299 Z0 F1200
G1 X47.796 Y5.098 Z0 F1200
G1 X47.383 Y4.922 Z0 F1200
G1 X46.946 Y4.775 Z0 F1200
G1 X46.487 Y4.657 Z0 F1200
G1 X46.008 Y4.571 Z0 F1200
G1 X45.511 Y4.518 Z0 F1200
G1 X45 Y4.5 Z0 F1200
G1 X44.489 Y4.518 Z0 F1200
G1 X43.992 Y4.571 Z0 F1200
G1 X43.513 Y4.657 Z0 F1200
G1 X43.054 Y4.775 Z0 F1200
G1 X42.617 Y4.922 Z0 F1200
G1 X42.204 Y5.098 Z0 F1200
G1 X41.82 Y5.299 Z0 F1200
G1 X41.464 Y5.525 Z0 F1200
G1 X41.142 Y5.774 Z0 F1200
G1 X40.854 Y6.043 Z0 F1200
G1 X40.603 Y6.332 Z0 F1200
G1 X40.393 Y6.638 Z0 F1200
G1 X40.225 Y6.959 Z0 F1200
G1 Z7 F800;         ; Raise from color
G1 X34 Y8 Z1 F1200;     ; Movement in paint
G1 X24 Y18 Z8 F500;     ; Move in paint
G1 F1200;           ; Set feed rate
G0 Z2.5 F1000 ; Safety Lift
G0 X80.099 Y61.148 F1200 ; Return to pos
G1 X69.837 S0 F1600
G0 Z0 F500 ; Drop S>0
G1 X64.886 S900 F1600
G0 Z2.5 F500 ; Lift S=0
G1 X63.136 S0 F1600
G1 X63.567 Y62.048 Z2.5 F1600
G1 X65.317 Z2.5 F1600
G0 Z0 F500 ; Drop S>0
G1 X68.354 S900 F1600
G0 Z2.5 F500 ; Lift S=0
G1 X70.856 S0 F1600
G0 Z0 F500 ; Drop S>0
G1 X73.305 S900 F1600
G0 Z2.5 F500 ; Lift S=0
G1 X76.655 S0 F1600
G0 Z0 F500 ; Drop S>0
G1 X79.102 S900 F1600
G0 Z2.5 F500 ; Lift S=0
G1 X81.552 S0 F1600
G0 Z0 F500 ; Drop S>0
G1 X84.68 S900 F1600
G0 Z2.5 F500 ; Lift S=0
G1 X86.43 S0 F1600
G1 X86.003 Y62.948 Z2.5 F1600
G1 X84.253 Z2.5 F1600
G0 Z0 F500 ; Drop S>0
G1 X83.063 S900 F1600
G0 Z2.5 F500 ; Lift S=0
G1 X80.581 S0 F1600
G0 Z0 F500 ; Drop S>0
G1 X75.857 S900 F1600
G0 Z2.5 F500 ; Lift S=0
G1 X74.132 S0 F1600
G0 Z0 F500 ; Drop S>0
G1 X69.38 S900 F1600
G0 Z2.5 F500 ; Lift S=0
G1 X66.87 S0 F1600
G0 Z0 F500 ; Drop S>0
G1 X65.743 S900 F1600
G0 Z2.5 F500 ; Lift S=0
G1 X63.993 S0 F1600
G1 X66.135 Y63.848 Z2.5 F1600
G1 X67.885 Z2.5 F1600
G0 Z0 F500 ; Drop S>0
G1 X74.901 S900 F1600
G0 Z2.5 F500 ; Lift S=0
G1 X76.459 S0 F1600
G0 Z0 F500 ; Drop S>0
G1 X82.065 S900 F1600
G0 Z2.5 F500 ; Lift S=0
G1 X83.815 S0 F1600
G1 X85.213 Y64.748 Z2.5 F1600
G1 X83.463 Z2.5 F1600
G0 Z0 F500 ; Drop S>0
G1 X77.11 S900 F1600
G0 Z2.5 F500 ; Lift S=0
G1 X75.617 S0 F1600
G0 Z0 F500 ; Drop S>0
G1 X66.507 S900 F1600
G0 Z2.5 F500 ; Lift S=0
G1 X64.757 S0 F1600
G1 X64.976 Y65.648 Z2.5 F1600
G1 X66.726 Z2.5 F1600
G0 Z0 F500 ; Drop S>0
G1 X76.259 S900 F1600
G0 Z2.5 F500 ; Lift S=0
G1 X77.724 S0 F1600
G0 Z0 F500 ; Drop S>0
G1 X83.301 S900 F1600
G0 Z2.5 F500 ; Lift S=0
G1 X85.051 S0 F1600
G1 X84.752 Y66.548 Z2.5 F1600
G1 X83.002 Z2.5 F1600
G0 Z0 F500 ; Drop S>0
G1 X78.308 S900 F1600
G0 Z2.5 F500 ; Lift S=0
G1 X76.852 S0 F1600
G0 Z0 F500 ; Drop S>0
G1 X67.01 S900 F1600
G0 Z2.5 F500 ; Lift S=0
G1 X65.26 S0 F1600
G1 X65.564 Y67.448 Z2.5 F1600
G1 X67.314 Z2.5 F1600
G0 Z0 F500 ; Drop S>0
G1 X77.399 S900 F1600
G0 Z2.5 F500 ; Lift S=0
G1 X78.842 S0 F1600
G0 Z0 F500 ; Drop S>0
G1 X82.688 S900 F1600
G0 Z2.5 F500 ; Lift S=0
G1 X84.438 S0 F1600
G1 X84.099 Y68.348 Z2.5 F1600
G1 X82.349 Z2.5 F1600
G0 Z0 F500 ; Drop S>0
G1 X79.319 S900 F1600
G0 Z2.5 F500 ; Lift S=0

; Color picking sequence
G1 Z10 F1000;         ; Raise brush
G0 X41 Y5 F1200;    ; Rapid move to color 1
G1 Z10 F1000;         ; Raise brush
G0 X41 Y5 F1200;    ; Rapid move to color 1
G1 Z0 F1000;         ; Lower into color
G1 X40.102 Y7.295 Z0 S800 F1200
G1 X40.026 Y7.642 Z0 F1200
G1 X40 Y8 Z0 F1200
G1 X40.026 Y8.358 Z0 F1200
G1 X40.102 Y8.705 Z0 F1200
G1 X40.225 Y9.041 Z0 F1200
G1 X40.393 Y9.362 Z0 F1200
G1 X40.603 Y9.668 Z0 F1200
G1 X40.854 Y9.957 Z0 F1200
G1 X41.142 Y10.226 Z0 F1200
G1 X41.464 Y10.475 Z0 F1200
G1 X41.82 Y10.701 Z0 F1200
G1 X42.204 Y10.902 Z0 F1200
G1 X42.617 Y11.078 Z0 F1200
G1 X43.054 Y11.225 Z0 F1200
G1 X43.513 Y11.343 Z0 F1200
G1 X43.992 Y11.429 Z0 F1200
G1 X44.489 Y11.482 Z0 F1200
G1 X45 Y11.5 Z0 F1200
G1 X45.511 Y11.482 Z0 F1200
G1 X46.008 Y11.429 Z0 F1200
G1 X46.487 Y11.343 Z0 F1200
G1 X46.946 Y11.225 Z0 F1200
G1 X47.383 Y11.078 Z0 F1200
G1 X47.796 Y10.902 Z0 F1200
G1 X48.18 Y10.701 Z0 F1200
G1 X48.536 Y10.475 Z0 F1200
G1 X48.858 Y10.226 Z0 F1200
G1 X49.146 Y9.957 Z0 F1200
G1 X49.397 Y9.668 Z0 F1200
G1 X49.607 Y9.362 Z0 F1200
G1 X49.775 Y9.041 Z0 F1200
G1 X49.898 Y8.705 Z0 F1200
G1 X49.974 Y8.358 Z0 F1200
G1 X50 Y8 Z0 F1200
G1 X49.974 Y7.642 Z0 F1200
G1 X49.898 Y7.295 Z0 F1200
G1 X49.775 Y6.959 Z0 F1200
G1 X49.607 Y6.638 Z0 F1200
G1 X49.397 Y6.332 Z0 F1200
G1 X49.146 Y6.043 Z0 F1200
G1 X48.858 Y5.774 Z0 F1200
G1 X48.536 Y5.525 Z0 F1200
G1 X48.18 Y5.299 Z0 F1200
G1 X47.796 Y5.098 Z0 F1200
G1 X47.383 Y4.922 Z0 F1200
G1 X46.946 Y4.775 Z0 F1200
G1 X46.487 Y4.657 Z0 F1200
G1 X46.008 Y4.571 Z0 F1200
G1 X45.511 Y4.518 Z0 F1200
G1 X45 Y4.5 Z0 F1200
G1 X44.489 Y4.518 Z0 F1200
G1 X43.992 Y4.571 Z0 F1200
G1 X43.513 Y4.657 Z0 F1200
G1 X43.054 Y4.775 Z0 F1200
G1 X42.617 Y4.922 Z0 F1200
G1 X42.204 Y5.098 Z0 F1200
G1 X41.82 Y5.299 Z0 F1200
G1 X41.464 Y5.525 Z0 F1200
G1 X41.142 Y5.774 Z0 F1200
G1 X40.854 Y6.043 Z0 F1200
G1 X40.603 Y6.332 Z0 F1200
G1 X40.393 Y6.638 Z0 F1200
G1 X40.225 Y6.959 Z0 F1200
G1 Z7 F800;         ; Raise from color
G1 X34 Y8 Z1 F1200;     ; Movement in paint
G1 X24 Y18 Z8 F500;     ; Move in paint
G1 F1200;           ; Set feed rate
G0 Z2.5 F1000 ; Safety Lift
G0 X79.319 Y68.348 F1200 ; Return to pos
G1 X77.912 S0 F1600
G0 Z0 F500 ; Drop S>0
G1 X67.643 S900 F1600
G0 Z2.5 F500 ; Lift S=0
G1 X65.893 S0 F1600
G1 X66.265 Y69.248 Z2.5 F1600
G1 X68.015 Z2.5 F1600
G0 Z0 F500 ; Drop S>0
G1 X78.398 S900 F1600
G0 Z2.5 F500 ; Lift S=0
G1 X79.792 S0 F1600
G0 Z0 F500 ; Drop S>0
G1 X81.99 S900 F1600
G0 Z2.5 F500 ; Lift S=0
G1 X83.74 S0 F1600
G1 X83.373 Y70.148 Z2.5 F1600
G1 X81.623 Z2.5 F1600
G0 Z0 F500 ; Drop S>0
G1 X80.259 S900 F1600
G0 Z2.5 F500 ; Lift S=0
G1 X78.864 S0 F1600
G0 Z0 F500 ; Drop S>0
G1 X68.429 S900 F1600
G0 Z2.5 F500 ; Lift S=0
G1 X66.679 S0 F1600
G1 X67.139 Y71.048 Z2.5 F1600
G1 X68.889 Z2.5 F1600
G0 Z0 F500 ; Drop S>0
G1 X79.313 S900 F1600
G0 Z2.5 F500 ; Lift S=0
G1 X80.717 S0 F1600
G0 Z0 F500 ; Drop S>0
G1 X81.257 S900 F1600
G0 Z2.5 F500 ; Lift S=0
G1 X83.007 S0 F1600
G1 X81.496 Y71.948 Z2.5 F1600
G1 X79.746 Z2.5 F1600
G0 Z0 F500 ; Drop S>0
G1 X69.391 S900 F1600
G0 Z2.5 F500 ; Lift S=0
G1 X67.641 S0 F1600
G1 X68.183 Y72.848 Z2.5 F1600
G1 X69.933 Z2.5 F1600
G0 Z0 F500 ; Drop S>0
G1 X80.17 S900 F1600
G0 Z2.5 F500 ; Lift S=0
G1 X81.92 S0 F1600
G1 X82.336 Y73.748 Z2.5 F1600
G1 X80.586 Z2.5 F1600
G0 Z0 F500 ; Drop S>0
G1 X70.506 S900 F1600
G0 Z2.5 F500 ; Lift S=0
G1 X68.756 S0 F1600
G1 X67.286 Y74.648 Z2.5 F1600
G1 X69.036 Z2.5 F1600
G0 Z0 F500 ; Drop S>0
G1 X69.642 S900 F1600
G0 Z2.5 F500 ; Lift S=0
G1 X71.102 S0 F1600
G0 Z0 F500 ; Drop S>0
G1 X80.995 S900 F1600
G0 Z2.5 F500 ; Lift S=0
G1 X82.745 S0 F1600
G1 X83.147 Y75.548 Z2.5 F1600
G1 X81.397 Z2.5 F1600
G0 Z0 F500 ; Drop S>0
G1 X71.717 S900 F1600
G0 Z2.5 F500 ; Lift S=0
G1 X70.204 S0 F1600
G0 Z0 F500 ; Drop S>0
G1 X68.619 S900 F1600
G0 Z2.5 F500 ; Lift S=0
G1 X66.869 S0 F1600
G1 X66.465 Y76.448 Z2.5 F1600
G1 X68.215 Z2.5 F1600
G0 Z0 F500 ; Drop S>0
G1 X70.808 S900 F1600
G0 Z2.5 F500 ; Lift S=0

; Color picking sequence
G1 Z10 F1000;         ; Raise brush
G0 X41 Y5 F1200;    ; Rapid move to color 1
G1 Z10 F1000;         ; Raise brush
G0 X41 Y5 F1200;    ; Rapid move to color 1
G1 Z0 F1000;         ; Lower into color
G1 X40.102 Y7.295 Z0 S800 F1200
G1 X40.026 Y7.642 Z0 F1200
G1 X40 Y8 Z0 F1200
G1 X40.026 Y8.358 Z0 F1200
G1 X40.102 Y8.705 Z0 F1200
G1 X40.225 Y9.041 Z0 F1200
G1 X40.393 Y9.362 Z0 F1200
G1 X40.603 Y9.668 Z0 F1200
G1 X40.854 Y9.957 Z0 F1200
G1 X41.142 Y10.226 Z0 F1200
G1 X41.464 Y10.475 Z0 F1200
G1 X41.82 Y10.701 Z0 F1200
G1 X42.204 Y10.902 Z0 F1200
G1 X42.617 Y11.078 Z0 F1200
G1 X43.054 Y11.225 Z0 F1200
G1 X43.513 Y11.343 Z0 F1200
G1 X43.992 Y11.429 Z0 F1200
G1 X44.489 Y11.482 Z0 F1200
G1 X45 Y11.5 Z0 F1200
G1 X45.511 Y11.482 Z0 F1200
G1 X46.008 Y11.429 Z0 F1200
G1 X46.487 Y11.343 Z0 F1200
G1 X46.946 Y11.225 Z0 F1200
G1 X47.383 Y11.078 Z0 F1200
G1 X47.796 Y10.902 Z0 F1200
G1 X48.18 Y10.701 Z0 F1200
G1 X48.536 Y10.475 Z0 F1200
G1 X48.858 Y10.226 Z0 F1200
G1 X49.146 Y9.957 Z0 F1200
G1 X49.397 Y9.668 Z0 F1200
G1 X49.607 Y9.362 Z0 F1200
G1 X49.775 Y9.041 Z0 F1200
G1 X49.898 Y8.705 Z0 F1200
G1 X49.974 Y8.358 Z0 F1200
G1 X50 Y8 Z0 F1200
G1 X49.974 Y7.642 Z0 F1200
G1 X49.898 Y7.295 Z0 F1200
G1 X49.775 Y6.959 Z0 F1200
G1 X49.607 Y6.638 Z0 F1200
G1 X49.397 Y6.332 Z0 F1200
G1 X49.146 Y6.043 Z0 F1200
G1 X48.858 Y5.774 Z0 F1200
G1 X48.536 Y5.525 Z0 F1200
G1 X48.18 Y5.299 Z0 F1200
G1 X47.796 Y5.098 Z0 F1200
G1 X47.383 Y4.922 Z0 F1200
G1 X46.946 Y4.775 Z0 F1200
G1 X46.487 Y4.657 Z0 F1200
G1 X46.008 Y4.571 Z0 F1200
G1 X45.511 Y4.518 Z0 F1200
G1 X45 Y4.5 Z0 F1200
G1 X44.489 Y4.518 Z0 F1200
G1 X43.992 Y4.571 Z0 F1200
G1 X43.513 Y4.657 Z0 F1200
G1 X43.054 Y4.775 Z0 F1200
G1 X42.617 Y4.922 Z0 F1200
G1 X42.204 Y5.098 Z0 F1200
G1 X41.82 Y5.299 Z0 F1200
G1 X41.464 Y5.525 Z0 F1200
G1 X41.142 Y5.774 Z0 F1200
G1 X40.854 Y6.043 Z0 F1200
G1 X40.603 Y6.332 Z0 F1200
G1 X40.393 Y6.638 Z0 F1200
G1 X40.225 Y6.959 Z0 F1200
G1 Z7 F800;         ; Raise from color
G1 X34 Y8 Z1 F1200;     ; Movement in paint
G1 X24 Y18 Z8 F500;     ; Move in paint
G1 F1200;           ; Set feed rate
G0 Z2.5 F1000 ; Safety Lift
G0 X70.808 Y76.448 F1200 ; Return to pos
G1 X72.344 S0 F1600
G0 Z0 F500 ; Drop S>0
G1 X81.796 S900 F1600
G0 Z2.5 F500 ; Lift S=0
G1 X83.546 S0 F1600
G1 X83.945 Y77.348 Z2.5 F1600
G1 X82.195 Z2.5 F1600
G0 Z0 F500 ; Drop S>0
G1 X72.976 S900 F1600
G0 Z2.5 F500 ; Lift S=0
G1 X71.428 S0 F1600
G0 Z0 F500 ; Drop S>0
G1 X67.815 S900 F1600
G0 Z2.5 F500 ; Lift S=0
G1 X66.065 S0 F1600
G1 X65.664 Y78.248 Z2.5 F1600
G1 X67.414 Z2.5 F1600
G0 Z0 F500 ; Drop S>0
G1 X72.058 S900 F1600
G0 Z2.5 F500 ; Lift S=0
G1 X73.608 S0 F1600
G0 Z0 F500 ; Drop S>0
G1 X82.594 S900 F1600
G0 Z2.5 F500 ; Lift S=0
G1 X84.344 S0 F1600
G1 X84.743 Y79.148 Z2.5 F1600
G1 X82.993 Z2.5 F1600
G0 Z0 F500 ; Drop S>0
G1 X74.239 S900 F1600
G0 Z2.5 F500 ; Lift S=0
G1 X72.692 S0 F1600
G0 Z0 F500 ; Drop S>0
G1 X67.029 S900 F1600
G0 Z2.5 F500 ; Lift S=0
G1 X65.279 S0 F1600
G1 X64.881 Y80.048 Z2.5 F1600
G1 X66.631 Z2.5 F1600
G0 Z0 F500 ; Drop S>0
G1 X73.324 S900 F1600
G0 Z2.5 F500 ; Lift S=0
G1 X74.87 S0 F1600
G0 Z0 F500 ; Drop S>0
G1 X83.394 S900 F1600
G0 Z2.5 F500 ; Lift S=0
G1 X85.144 S0 F1600
G1 X85.539 Y80.948 Z2.5 F1600
G1 X83.789 Z2.5 F1600
G0 Z0 F500 ; Drop S>0
G1 X75.507 S900 F1600
G0 Z2.5 F500 ; Lift S=0
G1 X73.936 S0 F1600
G0 Z0 F500 ; Drop S>0
G1 X66.229 S900 F1600
G0 Z2.5 F500 ; Lift S=0
G1 X64.479 S0 F1600
G1 X64.083 Y81.848 Z2.5 F1600
G1 X65.833 Z2.5 F1600
G0 Z0 F500 ; Drop S>0
G1 X73.794 S900 F1600
G0 Z2.5 F500 ; Lift S=0
G1 X76.145 S0 F1600
G0 Z0 F500 ; Drop S>0
G1 X84.184 S900 F1600
G0 Z2.5 F500 ; Lift S=0
G1 X85.934 S0 F1600
G1 X86.328 Y82.748 Z2.5 F1600
G1 X84.578 Z2.5 F1600
G0 Z0 F500 ; Drop S>0
G1 X76.788 S900 F1600
G0 Z2.5 F500 ; Lift S=0

; Color picking sequence
G1 Z10 F1000;         ; Raise brush
G0 X41 Y5 F1200;    ; Rapid move to color 1
G1 Z10 F1000;         ; Raise brush
G0 X41 Y5 F1200;    ; Rapid move to color 1
G1 Z0 F1000;         ; Lower into color
G1 X40.102 Y7.295 Z0 S800 F1200
G1 X40.026 Y7.642 Z0 F1200
G1 X40 Y8 Z0 F1200
G1 X40.026 Y8.358 Z0 F1200
G1 X40.102 Y8.705 Z0 F1200
G1 X40.225 Y9.041 Z0 F1200
G1 X40.393 Y9.362 Z0 F1200
G1 X40.603 Y9.668 Z0 F1200
G1 X40.854 Y9.957 Z0 F1200
G1 X41.142 Y10.226 Z0 F1200
G1 X41.464 Y10.475 Z0 F1200
G1 X41.82 Y10.701 Z0 F1200
G1 X42.204 Y10.902 Z0 F1200
G1 X42.617 Y11.078 Z0 F1200
G1 X43.054 Y11.225 Z0 F1200
G1 X43.513 Y11.343 Z0 F1200
G1 X43.992 Y11.429 Z0 F1200
G1 X44.489 Y11.482 Z0 F1200
G1 X45 Y11.5 Z0 F1200
G1 X45.511 Y11.482 Z0 F1200
G1 X46.008 Y11.429 Z0 F1200
G1 X46.487 Y11.343 Z0 F1200
G1 X46.946 Y11.225 Z0 F1200
G1 X47.383 Y11.078 Z0 F1200
G1 X47.796 Y10.902 Z0 F1200
G1 X48.18 Y10.701 Z0 F1200
G1 X48.536 Y10.475 Z0 F1200
G1 X48.858 Y10.226 Z0 F1200
G1 X49.146 Y9.957 Z0 F1200
G1 X49.397 Y9.668 Z0 F1200
G1 X49.607 Y9.362 Z0 F1200
G1 X49.775 Y9.041 Z0 F1200
G1 X49.898 Y8.705 Z0 F1200
G1 X49.974 Y8.358 Z0 F1200
G1 X50 Y8 Z0 F1200
G1 X49.974 Y7.642 Z0 F1200
G1 X49.898 Y7.295 Z0 F1200
G1 X49.775 Y6.959 Z0 F1200
G1 X49.607 Y6.638 Z0 F1200
G1 X49.397 Y6.332 Z0 F1200
G1 X49.146 Y6.043 Z0 F1200
G1 X48.858 Y5.774 Z0 F1200
G1 X48.536 Y5.525 Z0 F1200
G1 X48.18 Y5.299 Z0 F1200
G1 X47.796 Y5.098 Z0 F1200
G1 X47.383 Y4.922 Z0 F1200
G1 X46.946 Y4.775 Z0 F1200
G1 X46.487 Y4.657 Z0 F1200
G1 X46.008 Y4.571 Z0 F1200
G1 X45.511 Y4.518 Z0 F1200
G1 X45 Y4.5 Z0 F1200
G1 X44.489 Y4.518 Z0 F1200
G1 X43.992 Y4.571 Z0 F1200
G1 X43.513 Y4.657 Z0 F1200
G1 X43.054 Y4.775 Z0 F1200
G1 X42.617 Y4.922 Z0 F1200
G1 X42.204 Y5.098 Z0 F1200
G1 X41.82 Y5.299 Z0 F1200
G1 X41.464 Y5.525 Z0 F1200
G1 X41.142 Y5.774 Z0 F1200
G1 X40.854 Y6.043 Z0 F1200
G1 X40.603 Y6.332 Z0 F1200
G1 X40.393 Y6.638 Z0 F1200
G1 X40.225 Y6.959 Z0 F1200
G1 Z7 F800;         ; Raise from color
G1 X34 Y8 Z1 F1200;     ; Movement in paint
G1 X24 Y18 Z8 F500;     ; Move in paint
G1 F1200;           ; Set feed rate
G0 Z2.5 F1000 ; Safety Lift
G0 X76.788 Y82.748 F1200 ; Return to pos
G1 X73.154 S0 F1600
G0 Z0 F500 ; Drop S>0
G1 X65.436 S900 F1600
G0 Z2.5 F500 ; Lift S=0
G1 X63.686 S0 F1600
G1 X63.289 Y83.648 Z2.5 F1600
G1 X65.039 Z2.5 F1600
G0 Z0 F500 ; Drop S>0
G1 X72.504 S900 F1600
G0 Z2.5 F500 ; Lift S=0
G1 X77.439 S0 F1600
G0 Z0 F500 ; Drop S>0
G1 X84.973 S900 F1600
G0 Z2.5 F500 ; Lift S=0
G1 X86.723 S0 F1600
G1 X87.118 Y84.548 Z2.5 F1600
G1 X85.368 Z2.5 F1600
G0 Z0 F500 ; Drop S>0
G1 X78.095 S900 F1600
G0 Z2.5 F500 ; Lift S=0
G1 X71.863 S0 F1600
G0 Z0 F500 ; Drop S>0
G1 X64.643 S900 F1600
G0 Z2.5 F500 ; Lift S=0
G1 X62.893 S0 F1600
G1 X62.494 Y85.448 Z2.5 F1600
G1 X64.244 Z2.5 F1600
G0 Z0 F500 ; Drop S>0
G1 X71.225 S900 F1600
G0 Z2.5 F500 ; Lift S=0
G1 X78.743 S0 F1600
G0 Z0 F500 ; Drop S>0
G1 X85.762 S900 F1600
G0 Z2.5 F500 ; Lift S=0
G1 X87.512 S0 F1600
G1 X87.907 Y86.348 Z2.5 F1600
G1 X86.157 Z2.5 F1600
G0 Z0 F500 ; Drop S>0
G1 X79.387 S900 F1600
G0 Z2.5 F500 ; Lift S=0
G1 X70.583 S0 F1600
G0 Z0 F500 ; Drop S>0
G1 X63.844 S900 F1600
G0 Z2.5 F500 ; Lift S=0
G1 X62.094 S0 F1600
G1 X61.698 Y87.248 Z2.5 F1600
G1 X63.448 Z2.5 F1600
G0 Z0 F500 ; Drop S>0
G1 X69.942 S900 F1600
G0 Z2.5 F500 ; Lift S=0
G1 X80.032 S0 F1600
G0 Z0 F500 ; Drop S>0
G1 X86.551 S900 F1600
G0 Z2.5 F500 ; Lift S=0
G1 X88.301 S0 F1600
G1 X88.694 Y88.148 Z2.5 F1600
G1 X86.944 Z2.5 F1600
G0 Z0 F500 ; Drop S>0
G1 X80.677 S900 F1600
G0 Z2.5 F500 ; Lift S=0
G1 X69.3 S0 F1600
G0 Z0 F500 ; Drop S>0
G1 X63.052 S900 F1600
G0 Z2.5 F500 ; Lift S=0
G1 X61.302 S0 F1600
G1 X60.906 Y89.048 Z2.5 F1600
G1 X62.656 Z2.5 F1600
G0 Z0 F500 ; Drop S>0
G1 X68.658 S900 F1600
G0 Z2.5 F500 ; Lift S=0
G1 X81.322 S0 F1600
G0 Z0 F500 ; Drop S>0
G1 X87.338 S900 F1600
G0 Z2.5 F500 ; Lift S=0

; Color picking sequence
G1 Z10 F1000;         ; Raise brush
G0 X41 Y5 F1200;    ; Rapid move to color 1
G1 Z10 F1000;         ; Raise brush
G0 X41 Y5 F1200;    ; Rapid move to color 1
G1 Z0 F1000;         ; Lower into color
G1 X40.102 Y7.295 Z0 S800 F1200
G1 X40.026 Y7.642 Z0 F1200
G1 X40 Y8 Z0 F1200
G1 X40.026 Y8.358 Z0 F1200
G1 X40.102 Y8.705 Z0 F1200
G1 X40.225 Y9.041 Z0 F1200
G1 X40.393 Y9.362 Z0 F1200
G1 X40.603 Y9.668 Z0 F1200
G1 X40.854 Y9.957 Z0 F1200
G1 X41.142 Y10.226 Z0 F1200
G1 X41.464 Y10.475 Z0 F1200
G1 X41.82 Y10.701 Z0 F1200
G1 X42.204 Y10.902 Z0 F1200
G1 X42.617 Y11.078 Z0 F1200
G1 X43.054 Y11.225 Z0 F1200
G1 X43.513 Y11.343 Z0 F1200
G1 X43.992 Y11.429 Z0 F1200
G1 X44.489 Y11.482 Z0 F1200
G1 X45 Y11.5 Z0 F1200
G1 X45.511 Y11.482 Z0 F1200
G1 X46.008 Y11.429 Z0 F1200
G1 X46.487 Y11.343 Z0 F1200
G1 X46.946 Y11.225 Z0 F1200
G1 X47.383 Y11.078 Z0 F1200
G1 X47.796 Y10.902 Z0 F1200
G1 X48.18 Y10.701 Z0 F1200
G1 X48.536 Y10.475 Z0 F1200
G1 X48.858 Y10.226 Z0 F1200
G1 X49.146 Y9.957 Z0 F1200
G1 X49.397 Y9.668 Z0 F1200
G1 X49.607 Y9.362 Z0 F1200
G1 X49.775 Y9.041 Z0 F1200
G1 X49.898 Y8.705 Z0 F1200
G1 X49.974 Y8.358 Z0 F1200
G1 X50 Y8 Z0 F1200
G1 X49.974 Y7.642 Z0 F1200
G1 X49.898 Y7.295 Z0 F1200
G1 X49.775 Y6.959 Z0 F1200
G1 X49.607 Y6.638 Z0 F1200
G1 X49.397 Y6.332 Z0 F1200
G1 X49.146 Y6.043 Z0 F1200
G1 X48.858 Y5.774 Z0 F1200
G1 X48.536 Y5.525 Z0 F1200
G1 X48.18 Y5.299 Z0 F1200
G1 X47.796 Y5.098 Z0 F1200
G1 X47.383 Y4.922 Z0 F1200
G1 X46.946 Y4.775 Z0 F1200
G1 X46.487 Y4.657 Z0 F1200
G1 X46.008 Y4.571 Z0 F1200
G1 X45.511 Y4.518 Z0 F1200
G1 X45 Y4.5 Z0 F1200
G1 X44.489 Y4.518 Z0 F1200
G1 X43.992 Y4.571 Z0 F1200
G1 X43.513 Y4.657 Z0 F1200
G1 X43.054 Y4.775 Z0 F1200
G1 X42.617 Y4.922 Z0 F1200
G1 X42.204 Y5.098 Z0 F1200
G1 X41.82 Y5.299 Z0 F1200
G1 X41.464 Y5.525 Z0 F1200
G1 X41.142 Y5.774 Z0 F1200
G1 X40.854 Y6.043 Z0 F1200
G1 X40.603 Y6.332 Z0 F1200
G1 X40.393 Y6.638 Z0 F1200
G1 X40.225 Y6.959 Z0 F1200
G1 Z7 F800;         ; Raise from color
G1 X34 Y8 Z1 F1200;     ; Movement in paint
G1 X24 Y18 Z8 F500;     ; Move in paint
G1 F1200;           ; Set feed rate
G0 Z2.5 F1000 ; Safety Lift
G0 X87.338 Y89.048 F1200 ; Return to pos
G1 X89.088 S0 F1600
G1 X89.482 Y89.948 Z2.5 F1600
G1 X87.732 Z2.5 F1600
G0 Z0 F500 ; Drop S>0
G1 X81.967 S900 F1600
G0 Z2.5 F500 ; Lift S=0
G1 X68.018 S0 F1600
G0 Z0 F500 ; Drop S>0
G1 X62.264 S900 F1600
G0 Z2.5 F500 ; Lift S=0
G1 X60.514 S0 F1600
G1 X60.119 Y90.848 Z2.5 F1600
G1 X61.869 Z2.5 F1600
G0 Z0 F500 ; Drop S>0
G1 X67.384 S900 F1600
G0 Z2.5 F500 ; Lift S=0
G1 X82.611 S0 F1600
G0 Z0 F500 ; Drop S>0
G1 X88.126 S900 F1600
G0 Z2.5 F500 ; Lift S=0
G1 X89.876 S0 F1600
G1 X90.27 Y91.748 Z2.5 F1600
G1 X88.52 Z2.5 F1600
G0 Z0 F500 ; Drop S>0
G1 X83.255 S900 F1600
G0 Z2.5 F500 ; Lift S=0
G1 X66.749 S0 F1600
G0 Z0 F500 ; Drop S>0
G1 X61.466 S900 F1600
G0 Z2.5 F500 ; Lift S=0
G1 X59.716 S0 F1600
G1 X59.32 Y92.648 Z2.5 F1600
G1 X61.07 Z2.5 F1600
G0 Z0 F500 ; Drop S>0
G1 X66.112 S900 F1600
G0 Z2.5 F500 ; Lift S=0
G1 X83.899 S0 F1600
G0 Z0 F500 ; Drop S>0
G1 X88.915 S900 F1600
G0 Z2.5 F500 ; Lift S=0
G1 X90.665 S0 F1600
G1 X91.059 Y93.548 Z2.5 F1600
G1 X89.309 Z2.5 F1600
G0 Z0 F500 ; Drop S>0
G1 X84.542 S900 F1600
G0 Z2.5 F500 ; Lift S=0
G1 X65.475 S0 F1600
G0 Z0 F500 ; Drop S>0
G1 X60.678 S900 F1600
G0 Z2.5 F500 ; Lift S=0
G1 X58.928 S0 F1600
G1 X58.535 Y94.448 Z2.5 F1600
G1 X60.285 Z2.5 F1600
G0 Z0 F500 ; Drop S>0
G1 X64.838 S900 F1600
G0 Z2.5 F500 ; Lift S=0
G1 X85.185 S0 F1600
G0 Z0 F500 ; Drop S>0
G1 X89.704 S900 F1600
G0 Z2.5 F500 ; Lift S=0
G1 X91.454 S0 F1600
G1 X91.851 Y95.348 Z2.5 F1600
G1 X90.101 Z2.5 F1600
G0 Z0 F500 ; Drop S>0
G1 X85.821 S900 F1600
G0 Z2.5 F500 ; Lift S=0
G1 X64.202 S0 F1600
G0 Z0 F500 ; Drop S>0
G1 X59.892 S900 F1600
G0 Z2.5 F500 ; Lift S=0
G1 X58.142 S0 F1600
G1 X57.745 Y96.248 Z2.5 F1600
G1 X59.495 Z2.5 F1600
G0 Z0 F500 ; Drop S>0
G1 X63.57 S900 F1600
G0 Z2.5 F500 ; Lift S=0
G1 X86.45 S0 F1600
G0 Z0 F500 ; Drop S>0
G1 X90.5 S900 F1600
G0 Z2.5 F500 ; Lift S=0
G1 X92.25 S0 F1600
G1 X92.636 Y97.148 Z2.5 F1600
G1 X90.886 Z2.5 F1600
G0 Z0 F500 ; Drop S>0
G1 X87.084 S900 F1600
G0 Z2.5 F500 ; Lift S=0
G1 X62.942 S0 F1600
G0 Z0 F500 ; Drop S>0
G1 X59.116 S900 F1600
G0 Z2.5 F500 ; Lift S=0
G1 X57.366 S0 F1600
G1 X56.995 Y98.048 Z2.5 F1600
G1 X58.745 Z2.5 F1600
G0 Z0 F500 ; Drop S>0
G1 X62.318 S900 F1600
G0 Z2.5 F500 ; Lift S=0
G1 X87.717 S0 F1600
G0 Z0 F500 ; Drop S>0
G1 X91.284 S900 F1600
G0 Z2.5 F500 ; Lift S=0
G1 X93.034 S0 F1600
G1 X93.424 Y98.948 Z2.5 F1600
G1 X91.674 Z2.5 F1600
G0 Z0 F500 ; Drop S>0
G1 X88.347 S900 F1600
G0 Z2.5 F500 ; Lift S=0
G1 X61.689 S0 F1600
G0 Z0 F500 ; Drop S>0
G1 X58.344 S900 F1600
G0 Z2.5 F500 ; Lift S=0
G1 X56.594 S0 F1600
G1 X56.206 Y99.848 Z2.5 F1600
G1 X57.956 Z2.5 F1600
G0 Z0 F500 ; Drop S>0
G1 X61.056 S900 F1600
G0 Z2.5 F500 ; Lift S=0

; Color picking sequence
G1 Z10 F1000;         ; Raise brush
G0 X41 Y5 F1200;    ; Rapid move to color 1
G1 Z10 F1000;         ; Raise brush
G0 X41 Y5 F1200;    ; Rapid move to color 1
G1 Z0 F1000;         ; Lower into color
G1 X40.102 Y7.295 Z0 S800 F1200
G1 X40.026 Y7.642 Z0 F1200
G1 X40 Y8 Z0 F1200
G1 X40.026 Y8.358 Z0 F1200
G1 X40.102 Y8.705 Z0 F1200
G1 X40.225 Y9.041 Z0 F1200
G1 X40.393 Y9.362 Z0 F1200
G1 X40.603 Y9.668 Z0 F1200
G1 X40.854 Y9.957 Z0 F1200
G1 X41.142 Y10.226 Z0 F1200
G1 X41.464 Y10.475 Z0 F1200
G1 X41.82 Y10.701 Z0 F1200
G1 X42.204 Y10.902 Z0 F1200
G1 X42.617 Y11.078 Z0 F1200
G1 X43.054 Y11.225 Z0 F1200
G1 X43.513 Y11.343 Z0 F1200
G1 X43.992 Y11.429 Z0 F1200
G1 X44.489 Y11.482 Z0 F1200
G1 X45 Y11.5 Z0 F1200
G1 X45.511 Y11.482 Z0 F1200
G1 X46.008 Y11.429 Z0 F1200
G1 X46.487 Y11.343 Z0 F1200
G1 X46.946 Y11.225 Z0 F1200
G1 X47.383 Y11.078 Z0 F1200
G1 X47.796 Y10.902 Z0 F1200
G1 X48.18 Y10.701 Z0 F1200
G1 X48.536 Y10.475 Z0 F1200
G1 X48.858 Y10.226 Z0 F1200
G1 X49.146 Y9.957 Z0 F1200
G1 X49.397 Y9.668 Z0 F1200
G1 X49.607 Y9.362 Z0 F1200
G1 X49.775 Y9.041 Z0 F1200
G1 X49.898 Y8.705 Z0 F1200
G1 X49.974 Y8.358 Z0 F1200
G1 X50 Y8 Z0 F1200
G1 X49.974 Y7.642 Z0 F1200
G1 X49.898 Y7.295 Z0 F1200
G1 X49.775 Y6.959 Z0 F1200
G1 X49.607 Y6.638 Z0 F1200
G1 X49.397 Y6.332 Z0 F1200
G1 X49.146 Y6.043 Z0 F1200
G1 X48.858 Y5.774 Z0 F1200
G1 X48.536 Y5.525 Z0 F1200
G1 X48.18 Y5.299 Z0 F1200
G1 X47.796 Y5.098 Z0 F1200
G1 X47.383 Y4.922 Z0 F1200
G1 X46.946 Y4.775 Z0 F1200
G1 X46.487 Y4.657 Z0 F1200
G1 X46.008 Y4.571 Z0 F1200
G1 X45.511 Y4.518 Z0 F1200
G1 X45 Y4.5 Z0 F1200
G1 X44.489 Y4.518 Z0 F1200
G1 X43.992 Y4.571 Z0 F1200
G1 X43.513 Y4.657 Z0 F1200
G1 X43.054 Y4.775 Z0 F1200
G1 X42.617 Y4.922 Z0 F1200
G1 X42.204 Y5.098 Z0 F1200
G1 X41.82 Y5.299 Z0 F1200
G1 X41.464 Y5.525 Z0 F1200
G1 X41.142 Y5.774 Z0 F1200
G1 X40.854 Y6.043 Z0 F1200
G1 X40.603 Y6.332 Z0 F1200
G1 X40.393 Y6.638 Z0 F1200
G1 X40.225 Y6.959 Z0 F1200
G1 Z7 F800;         ; Raise from color
G1 X34 Y8 Z1 F1200;     ; Movement in paint
G1 X24 Y18 Z8 F500;     ; Move in paint
G1 F1200;           ; Set feed rate
G0 Z2.5 F1000 ; Safety Lift
G0 X61.056 Y99.848 F1200 ; Return to pos
G1 X88.972 S0 F1600
G0 Z0 F500 ; Drop S>0
G1 X92.059 S900 F1600
G0 Z2.5 F500 ; Lift S=0
G1 X93.809 S0 F1600
G1 X94.194 Y100.748 Z2.5 F1600
G1 X92.444 Z2.5 F1600
G0 Z0 F500 ; Drop S>0
G1 X89.596 S900 F1600
G0 Z2.5 F500 ; Lift S=0
G1 X60.422 S0 F1600
G0 Z0 F500 ; Drop S>0
G1 X57.568 S900 F1600
G0 Z2.5 F500 ; Lift S=0
G1 X55.818 S0 F1600
G1 X55.434 Y101.648 Z2.5 F1600
G1 X57.184 Z2.5 F1600
G0 Z0 F500 ; Drop S>0
G1 X59.795 S900 F1600
G0 Z2.5 F500 ; Lift S=0
G1 X90.223 S0 F1600
G0 Z0 F500 ; Drop S>0
G1 X92.829 S900 F1600
G0 Z2.5 F500 ; Lift S=0
G1 X94.579 S0 F1600
G1 X94.964 Y102.548 Z2.5 F1600
G1 X93.214 Z2.5 F1600
G0 Z0 F500 ; Drop S>0
G1 X90.847 S900 F1600
G0 Z2.5 F500 ; Lift S=0
G1 X59.171 S0 F1600
G0 Z0 F500 ; Drop S>0
G1 X56.8 S900 F1600
G0 Z2.5 F500 ; Lift S=0
G1 X55.05 S0 F1600
G1 X54.668 Y103.448 Z2.5 F1600
G1 X56.418 Z2.5 F1600
G0 Z0 F500 ; Drop S>0
G1 X58.547 S900 F1600
G0 Z2.5 F500 ; Lift S=0
G1 X91.472 S0 F1600
G0 Z0 F500 ; Drop S>0
G1 X93.597 S900 F1600
G0 Z2.5 F500 ; Lift S=0
G1 X95.347 S0 F1600
G1 X95.723 Y104.348 Z2.5 F1600
G1 X93.973 Z2.5 F1600
G0 Z0 F500 ; Drop S>0
G1 X92.102 S900 F1600
G0 Z2.5 F500 ; Lift S=0
G1 X57.921 S0 F1600
G0 Z0 F500 ; Drop S>0
G1 X56.036 S900 F1600
G0 Z2.5 F500 ; Lift S=0
G1 X54.286 S0 F1600
G1 X53.904 Y105.248 Z2.5 F1600
G1 X55.654 Z2.5 F1600
G0 Z0 F500 ; Drop S>0
G1 X57.291 S900 F1600
G0 Z2.5 F500 ; Lift S=0
G1 X92.719 S0 F1600
G0 Z0 F500 ; Drop S>0
G1 X94.338 S900 F1600
G0 Z2.5 F500 ; Lift S=0
G1 X96.088 S0 F1600
G1 X96.416 Y106.148 Z2.5 F1600
G1 X94.666 Z2.5 F1600
G0 Z0 F500 ; Drop S>0
G1 X93.343 S900 F1600
G0 Z2.5 F500 ; Lift S=0
G1 X56.629 S0 F1600
G0 Z0 F500 ; Drop S>0
G1 X55.36 S900 F1600
G0 Z2.5 F500 ; Lift S=0
G1 X53.61 S0 F1600

; Washing sequence (no color)
G1 Z10 F1000;        ; Raise brush
G0 X5 Y5 F1200;     ; Rapid move to clean
G1 Z-1 F800;         ; Lower brush
G1 X10 Y12 Z8 F1200;     ; Move
G1 Z-1 F800;         ; Lower
G1 X25 Y14 Z6 F800;     ; Move
G1 Z8 F800;         ; Maintain
G0 X5 Y5 F1200;     ; Rapid
G1 Z-1 F800;         ; Lower
G1 X15 Y12 Z8 F1200;     ; Move
G1 Z-1 F800;         ; Lower
G1 X25 Y14 Z6 F800;     ; Move
G1 Z10 F800;         ; Maintain
G1 F1200;           ; Set feed
G0 Z2.5 F1000 ; Safety Lift

; Color picking sequence
G1 Z10 F1000;         ; Raise brush
G0 X86 Y5 F1200;    ; Rapid move to color 1
G1 Z10 F1000;         ; Raise brush
G0 X86 Y5 F1200;    ; Rapid move to color 1
G1 Z0 F1000;         ; Lower into color
G1 X85.102 Y7.295 Z0 S800 F1200
G1 X85.026 Y7.642 Z0 F1200
G1 X85 Y8 Z0 F1200
G1 X85.026 Y8.358 Z0 F1200
G1 X85.102 Y8.705 Z0 F1200
G1 X85.225 Y9.041 Z0 F1200
G1 X85.393 Y9.362 Z0 F1200
G1 X85.603 Y9.668 Z0 F1200
G1 X85.854 Y9.957 Z0 F1200
G1 X86.142 Y10.226 Z0 F1200
G1 X86.464 Y10.475 Z0 F1200
G1 X86.82 Y10.701 Z0 F1200
G1 X87.204 Y10.902 Z0 F1200
G1 X87.617 Y11.078 Z0 F1200
G1 X88.054 Y11.225 Z0 F1200
G1 X88.513 Y11.343 Z0 F1200
G1 X88.992 Y11.429 Z0 F1200
G1 X89.489 Y11.482 Z0 F1200
G1 X90 Y11.5 Z0 F1200
G1 X90.511 Y11.482 Z0 F1200
G1 X91.008 Y11.429 Z0 F1200
G1 X91.487 Y11.343 Z0 F1200
G1 X91.946 Y11.225 Z0 F1200
G1 X92.383 Y11.078 Z0 F1200
G1 X92.796 Y10.902 Z0 F1200
G1 X93.18 Y10.701 Z0 F1200
G1 X93.536 Y10.475 Z0 F1200
G1 X93.858 Y10.226 Z0 F1200
G1 X94.146 Y9.957 Z0 F1200
G1 X94.397 Y9.668 Z0 F1200
G1 X94.607 Y9.362 Z0 F1200
G1 X94.775 Y9.041 Z0 F1200
G1 X94.898 Y8.705 Z0 F1200
G1 X94.974 Y8.358 Z0 F1200
G1 X95 Y8 Z0 F1200
G1 X94.974 Y7.642 Z0 F1200
G1 X94.898 Y7.295 Z0 F1200
G1 X94.775 Y6.959 Z0 F1200
G1 X94.607 Y6.638 Z0 F1200
G1 X94.397 Y6.332 Z0 F1200
G1 X94.146 Y6.043 Z0 F1200
G1 X93.858 Y5.774 Z0 F1200
G1 X93.536 Y5.525 Z0 F1200
G1 X93.18 Y5.299 Z0 F1200
G1 X92.796 Y5.098 Z0 F1200
G1 X92.383 Y4.922 Z0 F1200
G1 X91.946 Y4.775 Z0 F1200
G1 X91.487 Y4.657 Z0 F1200
G1 X91.008 Y4.571 Z0 F1200
G1 X90.511 Y4.518 Z0 F1200
G1 X90 Y4.5 Z0 F1200
G1 X89.489 Y4.518 Z0 F1200
G1 X88.992 Y4.571 Z0 F1200
G1 X88.513 Y4.657 Z0 F1200
G1 X88.054 Y4.775 Z0 F1200
G1 X87.617 Y4.922 Z0 F1200
G1 X87.204 Y5.098 Z0 F1200
G1 X86.82 Y5.299 Z0 F1200
G1 X86.464 Y5.525 Z0 F1200
G1 X86.142 Y5.774 Z0 F1200
G1 X85.854 Y6.043 Z0 F1200
G1 X85.603 Y6.332 Z0 F1200
G1 X85.393 Y6.638 Z0 F1200
G1 X85.225 Y6.959 Z0 F1200
G1 Z7 F800;         ; Raise from color
G1 X79 Y8 Z1 F1200;     ; Movement in paint
G1 X69 Y18 Z8 F500;     ; Move in paint
G1 F1200;           ; Set feed rate
G0 Z2.5 F1000 ; Safety Lift
;Offset @ 1500 mm/min, 90% power

M8
G0 Z3.5 F1000
G0 X55.579 Y43.524 Z3.5 F1500
G1 Z0 F1000
;Layer C2
G1 X55.623 Y43.891 Z0 S900 F1600
G1 X55.75 Y44.701 Z0 F1600
G1 X55.912 Y45.48 Z0 F1600
G1 X56.167 Y46.427 Z0 F1600
G1 X56.454 Y47.333 Z0 F1600
G1 X56.777 Y48.209 Z0 F1600
G1 X57.14 Y49.061 Z0 F1600
G1 X57.542 Y49.889 Z0 F1600
G1 X57.986 Y50.7 Z0 F1600
G1 X58.475 Y51.498 Z0 F1600
G1 X59.006 Y52.284 Z0 F1600
G1 X59.431 Y52.866 Z0 F1600
G1 X59.271 Y52.798 Z0 F1600
G1 X59.086 Y52.693 Z0 F1600
G1 X58.863 Y52.539 Z0 F1600
G1 X58.615 Y52.337 Z0 F1600
G1 X58.346 Y52.089 Z0 F1600
G1 X58.039 Y51.776 Z0 F1600
G1 X57.719 Y51.423 Z0 F1600
G1 X57.648 Y51.333 Z0 F1600
G1 X57.522 Y51.156 Z0 F1600
G1 X57.384 Y50.944 Z0 F1600
G1 X57.234 Y50.703 Z0 F1600
G1 X56.907 Y50.138 Z0 F1600
G1 X56.635 Y49.621 Z0 F1600
G1 X56.471 Y49.261 Z0 F1600
G1 X56.322 Y48.883 Z0 F1600
G1 X56.187 Y48.483 Z0 F1600
G1 X56.059 Y48.034 Z0 F1600
G1 X55.945 Y47.562 Z0 F1600
G1 X55.834 Y47.012 Z0 F1600
G1 X55.735 Y46.428 Z0 F1600
G1 X55.646 Y45.806 Z0 F1600
G1 X55.632 Y45.668 Z0 F1600
G1 X55.618 Y45.464 Z0 F1600
G1 X55.605 Y45.209 Z0 F1600
G1 X55.593 Y44.906 Z0 F1600
G1 X55.575 Y44.201 Z0 F1600
G1 X55.563 Y43.43 Z0 F1600
G1 Y43.322 Z0 F1600
G1 X55.579 Y43.524 Z0 F1600
G0 Z3.5 F1000
G0 X58.881 Y46.127 Z3.5
G1 Z0 F1000
G1 X58.371 Y45.042 Z0 F1600
G1 X58.017 Y44.236 Z0 F1600
G1 X58.22 Y44.443 Z0 F1600
G1 X58.622 Y44.86 Z0 F1600
G1 X58.837 Y45.091 Z0 F1600
G1 X59.037 Y45.313 Z0 F1600
G1 X59.252 Y45.561 Z0 F1600
G1 X59.483 Y45.834 Z0 F1600
G1 X59.763 Y46.168 Z0 F1600
G1 X60.558 Y47.169 Z0 F1600
G1 X61.259 Y48.161 Z0 F1600
G1 X61.876 Y49.155 Z0 F1600
G1 X62.439 Y50.197 Z0 F1600
G1 X62.75 Y50.859 Z0 F1600
G1 X63.042 Y51.552 Z0 F1600
G1 X63.159 Y51.853 Z0 F1600
G1 X63.179 Y51.911 Z0 F1600
G1 X63.134 Y51.946 Z0 F1600
G1 X62.732 Y52.213 Z0 F1600
G1 X62.709 Y52.225 Z0 F1600
G1 X62.589 Y52.077 Z0 F1600
G1 X62.408 Y51.844 Z0 F1600
G1 X62.222 Y51.6 Z0 F1600
G1 X61.798 Y51.021 Z0 F1600
G1 X61.381 Y50.429 Z0 F1600
G1 X60.951 Y49.797 Z0 F1600
G1 X60.557 Y49.192 Z0 F1600
G1 X60.212 Y48.639 Z0 F1600
G1 X59.93 Y48.155 Z0 F1600
G1 X59.405 Y47.175 Z0 F1600
G1 X58.881 Y46.127 Z0 F1600
G0 Z3.5 F1000
G0 X56.62 Y42.091 Z3.5
G1 Z0 F1000
G1 X55.816 Y42.022 Z0 F1600
G1 X55.563 Y42.855 Z0 F1600
G1 Y42.882 Z0 F1600
G1 Y42.67 Z0 F1600
G1 X55.566 Y41.972 Z0 F1600
G1 X55.572 Y41.665 Z0 F1600
G1 X55.58 Y41.429 Z0 F1600
G1 X55.591 Y41.227 Z0 F1600
G1 X55.601 Y41.109 Z0 F1600
G1 X55.686 Y40.45 Z0 F1600
G1 X55.974 Y40.556 Z0 F1600
G1 X56.743 Y40.866 Z0 F1600
G1 X57.524 Y41.205 Z0 F1600
G1 X58.296 Y41.565 Z0 F1600
G1 X59.053 Y41.941 Z0 F1600
G1 X59.766 Y42.321 Z0 F1600
G1 X60.402 Y42.687 Z0 F1600
G1 X60.956 Y43.036 Z0 F1600
G1 X61.461 Y43.385 Z0 F1600
G1 X61.946 Y43.751 Z0 F1600
G1 X62.392 Y44.117 Z0 F1600
G1 X62.799 Y44.482 Z0 F1600
G1 X63.175 Y44.852 Z0 F1600
G1 X63.527 Y45.234 Z0 F1600
G1 X63.841 Y45.612 Z0 F1600
G1 X64.125 Y45.995 Z0 F1600
G1 X64.368 Y46.367 Z0 F1600
G1 X64.58 Y46.741 Z0 F1600
G1 X64.762 Y47.119 Z0 F1600
G1 X64.905 Y47.481 Z0 F1600
G1 X65.018 Y47.845 Z0 F1600
G1 X65.096 Y48.2 Z0 F1600
G1 X65.144 Y48.55 Z0 F1600
G1 X65.16 Y48.903 Z0 F1600
G1 Y48.968 Z0 F1600
G1 X64.871 Y48.418 Z0 F1600
G1 X64.548 Y47.848 Z0 F1600
G1 X64.207 Y47.291 Z0 F1600
G1 X63.853 Y46.757 Z0 F1600
G1 X63.491 Y46.259 Z0 F1600
G1 X62.973 Y45.612 Z0 F1600
G1 X62.425 Y44.992 Z0 F1600
G1 X61.852 Y44.402 Z0 F1600
G1 X61.255 Y43.844 Z0 F1600
G1 X60.639 Y43.322 Z0 F1600
G1 X60.004 Y42.838 Z0 F1600
G1 X59.356 Y42.395 Z0 F1600
G1 X58.703 Y42 Z0 F1600
G1 X58.412 Y41.839 Z0 F1600
G1 X58.161 Y41.713 Z0 F1600
G1 X57.606 Y41.517 Z0 F1600
G1 X56.62 Y42.091 Z0 F1600
G0 Z3.5 F1000
G0 X54.664 Y43.443 Z3.5
G1 Z0 F1000
G1 X54.661 Y42.663 Z0 F1600
G1 X54.666 Y41.954 Z0 F1600
G1 X54.672 Y41.646 Z0 F1600
G1 X54.681 Y41.381 Z0 F1600
G1 X54.692 Y41.168 Z0 F1600
G1 X54.706 Y41.014 Z0 F1600
G1 X54.842 Y39.953 Z0 F1600
G1 X54.879 Y39.676 Z0 F1600
G1 X54.913 Y39.45 Z0 F1600
G1 X54.938 Y39.297 Z0 F1600
G1 X54.953 Y39.241 Z0 F1600
G1 X55.004 Y39.256 Z0 F1600
G1 X55.313 Y39.36 Z0 F1600
G1 X55.534 Y39.436 Z0 F1600
G1 X56.293 Y39.714 Z0 F1600
G1 X57.085 Y40.033 Z0 F1600
G1 X57.891 Y40.383 Z0 F1600
G1 X58.691 Y40.756 Z0 F1600
G1 X59.467 Y41.142 Z0 F1600
G1 X60.199 Y41.532 Z0 F1600
G1 X60.868 Y41.916 Z0 F1600
G1 X61.455 Y42.286 Z0 F1600
G1 X61.992 Y42.658 Z0 F1600
G1 X62.498 Y43.04 Z0 F1600
G1 X62.973 Y43.43 Z0 F1600
G1 X63.417 Y43.827 Z0 F1600
G1 X63.828 Y44.231 Z0 F1600
G1 X64.206 Y44.642 Z0 F1600
G1 X64.55 Y45.057 Z0 F1600
G1 X64.861 Y45.477 Z0 F1600
G1 X65.138 Y45.9 Z0 F1600
G1 X65.379 Y46.326 Z0 F1600
G1 X65.585 Y46.754 Z0 F1600
G1 X65.754 Y47.183 Z0 F1600
G1 X65.888 Y47.612 Z0 F1600
G1 X65.983 Y48.042 Z0 F1600
G1 X66.041 Y48.469 Z0 F1600
G1 X66.06 Y48.896 Z0 F1600
G1 X66.05 Y49.229 Z0 F1600
G1 X66.02 Y49.53 Z0 F1600
G1 X65.966 Y49.809 Z0 F1600
G1 X65.888 Y50.078 Z0 F1600
G1 X65.727 Y50.482 Z0 F1600
G1 X65.517 Y50.93 Z0 F1600
G1 X65.414 Y51.129 Z0 F1600
G1 X65.322 Y51.292 Z0 F1600
G1 X65.251 Y51.401 Z0 F1600
G1 X65.207 Y51.441 Z0 F1600
G1 X65.182 Y51.397 Z0 F1600
G1 X65.134 Y51.279 Z0 F1600
G1 X65.071 Y51.105 Z0 F1600
G1 X65 Y50.892 Z0 F1600
G1 X64.83 Y50.426 Z0 F1600
G1 X64.616 Y49.921 Z0 F1600
G1 X64.363 Y49.391 Z0 F1600
G1 X64.08 Y48.848 Z0 F1600
G1 X63.772 Y48.305 Z0 F1600
G1 X63.448 Y47.775 Z0 F1600
G1 X63.113 Y47.271 Z0 F1600
G1 X62.775 Y46.805 Z0 F1600
G1 X62.284 Y46.192 Z0 F1600
G1 X61.765 Y45.604 Z0 F1600
G1 X61.222 Y45.045 Z0 F1600
G1 X60.657 Y44.517 Z0 F1600
G1 X60.074 Y44.024 Z0 F1600
G1 X59.477 Y43.568 Z0 F1600
G1 X58.869 Y43.152 Z0 F1600
G1 X58.252 Y42.779 Z0 F1600
G1 X57.992 Y42.636 Z0 F1600
G1 X57.808 Y42.543 Z0 F1600
G1 X57.699 Y42.504 Z0 F1600
G1 X57.666 Y42.523 Z0 F1600
G1 X57.678 Y42.556 Z0 F1600
G1 X57.709 Y42.604 Z0 F1600
G1 X57.76 Y42.667 Z0 F1600
G1 X57.83 Y42.748 Z0 F1600
G1 X57.919 Y42.845 Z0 F1600
G1 X58.156 Y43.092 Z0 F1600
G1 X58.868 Y43.819 Z0 F1600
G1 X59.28 Y44.247 Z0 F1600
G1 X59.506 Y44.489 Z0 F1600
G1 X59.716 Y44.723 Z0 F1600
G1 X59.931 Y44.97 Z0 F1600
G1 X60.173 Y45.255 Z0 F1600
G1 X60.462 Y45.601 Z0 F1600
G1 X61.278 Y46.629 Z0 F1600
G1 X62.006 Y47.66 Z0 F1600
G1 X62.658 Y48.708 Z0 F1600
G1 X63.242 Y49.789 Z0 F1600
G1 X63.573 Y50.494 Z0 F1600
G1 X63.878 Y51.217 Z0 F1600
G1 X64.004 Y51.543 Z0 F1600
G1 X64.103 Y51.821 Z0 F1600
G1 X64.167 Y52.034 Z0 F1600
G1 X64.189 Y52.165 Z0 F1600
G1 X64.149 Y52.25 Z0 F1600
G1 X64.037 Y52.37 Z0 F1600
G1 X63.869 Y52.516 Z0 F1600
G1 X63.662 Y52.675 Z0 F1600
G1 X63.188 Y52.99 Z0 F1600
G1 X62.741 Y53.224 Z0 F1600
G1 X62.584 Y53.281 Z0 F1600
G1 X62.477 Z0 F1600
G1 X62.374 Y53.213 Z0 F1600
G1 X62.233 Y53.059 Z0 F1600
G1 X62.068 Y52.864 Z0 F1600
G1 X61.889 Y52.643 Z0 F1600
G1 X61.698 Y52.397 Z0 F1600
G1 X61.496 Y52.132 Z0 F1600
G1 X61.072 Y51.554 Z0 F1600
G1 X60.637 Y50.935 Z0 F1600
G1 X60.207 Y50.303 Z0 F1600
G1 X59.803 Y49.684 Z0 F1600
G1 X59.442 Y49.105 Z0 F1600
G1 X59.144 Y48.594 Z0 F1600
G1 X58.612 Y47.6 Z0 F1600
G1 X58.07 Y46.518 Z0 F1600
G1 X57.548 Y45.407 Z0 F1600
G1 X57.073 Y44.324 Z0 F1600
G1 X56.856 Y43.816 Z0 F1600
G1 X56.673 Y43.393 Z0 F1600
G1 X56.542 Y43.101 Z0 F1600
G1 X56.502 Y43.017 Z0 F1600
G1 X56.482 Y42.982 Z0 F1600
G1 X56.465 Z0 F1600
G1 X56.455 Y43.015 Z0 F1600
G1 X56.451 Y43.081 Z0 F1600
G1 X56.454 Y43.175 Z0 F1600
G1 X56.475 Y43.435 Z0 F1600
G1 X56.515 Y43.767 Z0 F1600
G1 X56.636 Y44.54 Z0 F1600
G1 X56.788 Y45.271 Z0 F1600
G1 X57.031 Y46.174 Z0 F1600
G1 X57.306 Y47.042 Z0 F1600
G1 X57.614 Y47.877 Z0 F1600
G1 X57.959 Y48.688 Z0 F1600
G1 X58.342 Y49.476 Z0 F1600
G1 X58.765 Y50.249 Z0 F1600
G1 X59.231 Y51.011 Z0 F1600
G1 X59.742 Y51.766 Z0 F1600
G1 X60.191 Y52.38 Z0 F1600
G1 X60.645 Y52.973 Z0 F1600
G1 X60.845 Y53.224 Z0 F1600
G1 X61.012 Y53.426 Z0 F1600
G1 X61.134 Y53.564 Z0 F1600
G1 X61.201 Y53.623 Z0 F1600
G1 X61.244 Y53.676 Z0 F1600
G1 X61.262 Y53.766 Z0 F1600
G1 X61.207 Y53.813 Z0 F1600
G1 X61.059 Y53.85 Z0 F1600
G1 X60.837 Y53.873 Z0 F1600
G1 X60.565 Y53.884 Z0 F1600
G1 X59.954 Y53.866 Z0 F1600
G1 X59.398 Y53.793 Z0 F1600
G1 X59.139 Y53.72 Z0 F1600
G1 X58.875 Y53.607 Z0 F1600
G1 X58.604 Y53.455 Z0 F1600
G1 X58.323 Y53.259 Z0 F1600
G1 X58.028 Y53.02 Z0 F1600
G1 X57.717 Y52.732 Z0 F1600
G1 X57.387 Y52.397 Z0 F1600
G1 X57.036 Y52.01 Z0 F1600
G1 X56.922 Y51.866 Z0 F1600
G1 X56.783 Y51.668 Z0 F1600
G1 X56.625 Y51.428 Z0 F1600
G1 X56.458 Y51.158 Z0 F1600
G1 X56.12 Y50.575 Z0 F1600
G1 X55.827 Y50.018 Z0 F1600
G1 X55.643 Y49.614 Z0 F1600

; Color picking sequence
G1 Z10 F1000;         ; Raise brush
G0 X86 Y5 F1200;    ; Rapid move to color 1
G1 Z10 F1000;         ; Raise brush
G0 X86 Y5 F1200;    ; Rapid move to color 1
G1 Z0 F1000;         ; Lower into color
G1 X85.102 Y7.295 Z0 S800 F1200
G1 X85.026 Y7.642 Z0 F1200
G1 X85 Y8 Z0 F1200
G1 X85.026 Y8.358 Z0 F1200
G1 X85.102 Y8.705 Z0 F1200
G1 X85.225 Y9.041 Z0 F1200
G1 X85.393 Y9.362 Z0 F1200
G1 X85.603 Y9.668 Z0 F1200
G1 X85.854 Y9.957 Z0 F1200
G1 X86.142 Y10.226 Z0 F1200
G1 X86.464 Y10.475 Z0 F1200
G1 X86.82 Y10.701 Z0 F1200
G1 X87.204 Y10.902 Z0 F1200
G1 X87.617 Y11.078 Z0 F1200
G1 X88.054 Y11.225 Z0 F1200
G1 X88.513 Y11.343 Z0 F1200
G1 X88.992 Y11.429 Z0 F1200
G1 X89.489 Y11.482 Z0 F1200
G1 X90 Y11.5 Z0 F1200
G1 X90.511 Y11.482 Z0 F1200
G1 X91.008 Y11.429 Z0 F1200
G1 X91.487 Y11.343 Z0 F1200
G1 X91.946 Y11.225 Z0 F1200
G1 X92.383 Y11.078 Z0 F1200
G1 X92.796 Y10.902 Z0 F1200
G1 X93.18 Y10.701 Z0 F1200
G1 X93.536 Y10.475 Z0 F1200
G1 X93.858 Y10.226 Z0 F1200
G1 X94.146 Y9.957 Z0 F1200
G1 X94.397 Y9.668 Z0 F1200
G1 X94.607 Y9.362 Z0 F1200
G1 X94.775 Y9.041 Z0 F1200
G1 X94.898 Y8.705 Z0 F1200
G1 X94.974 Y8.358 Z0 F1200
G1 X95 Y8 Z0 F1200
G1 X94.974 Y7.642 Z0 F1200
G1 X94.898 Y7.295 Z0 F1200
G1 X94.775 Y6.959 Z0 F1200
G1 X94.607 Y6.638 Z0 F1200
G1 X94.397 Y6.332 Z0 F1200
G1 X94.146 Y6.043 Z0 F1200
G1 X93.858 Y5.774 Z0 F1200
G1 X93.536 Y5.525 Z0 F1200
G1 X93.18 Y5.299 Z0 F1200
G1 X92.796 Y5.098 Z0 F1200
G1 X92.383 Y4.922 Z0 F1200
G1 X91.946 Y4.775 Z0 F1200
G1 X91.487 Y4.657 Z0 F1200
G1 X91.008 Y4.571 Z0 F1200
G1 X90.511 Y4.518 Z0 F1200
G1 X90 Y4.5 Z0 F1200
G1 X89.489 Y4.518 Z0 F1200
G1 X88.992 Y4.571 Z0 F1200
G1 X88.513 Y4.657 Z0 F1200
G1 X88.054 Y4.775 Z0 F1200
G1 X87.617 Y4.922 Z0 F1200
G1 X87.204 Y5.098 Z0 F1200
G1 X86.82 Y5.299 Z0 F1200
G1 X86.464 Y5.525 Z0 F1200
G1 X86.142 Y5.774 Z0 F1200
G1 X85.854 Y6.043 Z0 F1200
G1 X85.603 Y6.332 Z0 F1200
G1 X85.393 Y6.638 Z0 F1200
G1 X85.225 Y6.959 Z0 F1200
G1 Z7 F800;         ; Raise from color
G1 X79 Y8 Z1 F1200;     ; Movement in paint
G1 X69 Y18 Z8 F500;     ; Move in paint
G1 F1200;           ; Set feed rate
G0 Z2.5 F1000 ; Safety Lift
G0 X55.643 Y49.614 F1200 ; Return
G1 Z0 F1000 ; Restore Z
G1 X55.477 Y49.192 Z0 F1600
G1 X55.326 Y48.746 Z0 F1600
G1 X55.189 Y48.267 Z0 F1600
G1 X55.065 Y47.751 Z0 F1600
G1 X54.952 Y47.19 Z0 F1600
G1 X54.848 Y46.579 Z0 F1600
G1 X54.751 Y45.91 Z0 F1600
G1 X54.735 Y45.747 Z0 F1600
G1 X54.72 Y45.526 Z0 F1600
G1 X54.706 Y45.254 Z0 F1600
G1 X54.694 Y44.941 Z0 F1600
G1 X54.675 Y44.225 Z0 F1600
G1 X54.664 Y43.443 Z0 F1600
G0 Z3.5 F1000
G0 X94.393 Y44.193 Z3.5
G1 Z0 F1000
G1 X94.386 Y44.552 Z0 F1600
G1 X94.377 Y44.894 Z0 F1600
G1 X94.351 Y45.472 Z0 F1600
G1 X94.31 Y45.998 Z0 F1600
G1 X94.178 Y46.941 Z0 F1600
G1 X93.972 Y47.858 Z0 F1600
G1 X93.721 Y48.675 Z0 F1600
G1 X93.401 Y49.463 Z0 F1600
G1 X93.025 Y50.209 Z0 F1600
G1 X92.596 Y50.908 Z0 F1600
G1 X92.138 Y51.523 Z0 F1600
G1 X91.653 Y52.057 Z0 F1600
G1 X91.432 Y52.261 Z0 F1600
G1 X91.195 Y52.453 Z0 F1600
G1 X90.976 Y52.604 Z0 F1600
G1 X90.753 Y52.732 Z0 F1600
G1 X90.582 Y52.814 Z0 F1600
G1 X90.633 Y52.746 Z0 F1600
G1 X90.931 Y52.338 Z0 F1600
G1 X91.212 Y51.944 Z0 F1600
G1 X91.462 Y51.583 Z0 F1600
G1 X91.668 Y51.273 Z0 F1600
G1 X91.987 Y50.751 Z0 F1600
G1 X92.296 Y50.198 Z0 F1600
G1 X92.594 Y49.62 Z0 F1600
G1 X92.881 Y49.015 Z0 F1600
G1 X93.396 Y47.78 Z0 F1600
G1 X93.834 Y46.508 Z0 F1600
G1 X94.062 Y45.652 Z0 F1600
G1 X94.258 Y44.724 Z0 F1600
G1 X94.336 Y44.276 Z0 F1600
G1 X94.396 Y43.871 Z0 F1600
G1 Y43.868 Z0 F1600
G1 X94.393 Y44.193 Z0 F1600
G0 Z3.5 F1000
G0 X91.057 Y46.272 Z3.5
G1 Z0 F1000
G1 X90.527 Y47.308 Z0 F1600
G1 X89.982 Y48.286 Z0 F1600
G1 X89.408 Y49.234 Z0 F1600
G1 X88.818 Y50.133 Z0 F1600
G1 X88.172 Y51.042 Z0 F1600
G1 X87.487 Y51.941 Z0 F1600
G1 X87.271 Y52.216 Z0 F1600
G1 X87.093 Y52.109 Z0 F1600
G1 X86.81 Y51.919 Z0 F1600
G1 X86.758 Y51.88 Z0 F1600
G1 X86.872 Y51.597 Z0 F1600
G1 X87.017 Y51.259 Z0 F1600
G1 X87.178 Y50.906 Z0 F1600
G1 X87.371 Y50.5 Z0 F1600
G1 X87.564 Y50.111 Z0 F1600
G1 X87.99 Y49.317 Z0 F1600
G1 X88.452 Y48.544 Z0 F1600
G1 X88.947 Y47.797 Z0 F1600
G1 X89.512 Y47.024 Z0 F1600
G1 X90.118 Y46.263 Z0 F1600
G1 X90.812 Y45.458 Z0 F1600
G1 X91.546 Y44.664 Z0 F1600
G1 X92.006 Y44.193 Z0 F1600
G1 X91.563 Y45.201 Z0 F1600
G1 X91.057 Y46.272 Z0 F1600
G0 Z3.5 F1000
G0 X84.895 Y48.776 Z3.5
G1 Z0 F1000
G1 Y48.647 Z0 F1600
G1 X84.901 Y48.409 Z0 F1600
G1 X84.91 Y48.235 Z0 F1600
G1 X84.922 Y48.105 Z0 F1600
G1 X84.964 Y47.875 Z0 F1600
G1 X85.04 Y47.622 Z0 F1600
G1 X85.217 Y47.158 Z0 F1600
G1 X85.434 Y46.7 Z0 F1600
G1 X85.682 Y46.266 Z0 F1600
G1 X85.986 Y45.816 Z0 F1600
G1 X86.331 Y45.375 Z0 F1600
G1 X86.734 Y44.923 Z0 F1600
G1 X87.205 Y44.449 Z0 F1600
G1 X87.735 Y43.962 Z0 F1600
G1 X87.994 Y43.741 Z0 F1600
G1 X88.25 Y43.544 Z0 F1600
G1 X88.389 Y43.446 Z0 F1600
G1 X88.565 Y43.327 Z0 F1600
G1 X88.792 Y43.178 Z0 F1600
G1 X89.418 Y42.773 Z0 F1600
G1 X89.832 Y42.501 Z0 F1600
G1 X90.007 Y42.382 Z0 F1600
G1 X90.042 Y42.357 Z0 F1600
G1 X90.104 Y42.315 Z0 F1600
G1 X90.224 Y42.247 Z0 F1600
G1 X90.429 Y42.139 Z0 F1600
G1 X90.667 Y42.02 Z0 F1600
G1 X90.964 Y41.876 Z0 F1600
G1 X91.295 Y41.72 Z0 F1600
G1 X91.658 Y41.553 Z0 F1600
G1 X92.021 Y41.389 Z0 F1600
G1 X92.801 Y41.047 Z0 F1600
G1 X93.535 Y40.737 Z0 F1600
G1 X93.887 Y40.594 Z0 F1600
G1 X94.202 Y40.47 Z0 F1600
G1 X94.304 Y40.431 Z0 F1600
G1 X94.315 Y40.585 Z0 F1600
G1 X94.349 Y41.198 Z0 F1600
G1 X94.375 Y41.885 Z0 F1600
G1 X94.392 Y42.635 Z0 F1600
G1 Y42.91 Z0 F1600
G1 X94.384 Y42.841 Z0 F1600
G1 X93.767 Y41.923 Z0 F1600
G1 X93.241 Y42.247 Z0 F1600
G1 X93.295 Y41.759 Z0 F1600
G1 X92.229 Y41.602 Z0 F1600
G1 X91.947 Y41.675 Z0 F1600
G1 X91.797 Y41.734 Z0 F1600
G1 X91.662 Y41.797 Z0 F1600
G1 X91.393 Y41.938 Z0 F1600
G1 X91.078 Y42.118 Z0 F1600
G1 X90.406 Y42.537 Z0 F1600
G1 X89.768 Y42.979 Z0 F1600
G1 X89.386 Y43.283 Z0 F1600
G1 X88.973 Y43.639 Z0 F1600
G1 X88.55 Y44.022 Z0 F1600
G1 X88.139 Y44.412 Z0 F1600
G1 X87.768 Y44.781 Z0 F1600
G1 X87.461 Y45.106 Z0 F1600
G1 X87.329 Y45.259 Z0 F1600
G1 X87.208 Y45.412 Z0 F1600
G1 X87.136 Y45.528 Z0 F1600
G1 X87.043 Y45.608 Z0 F1600
G1 X86.851 Y45.807 Z0 F1600
G1 X86.658 Y46.032 Z0 F1600
G1 X86.285 Y46.511 Z0 F1600
G1 X85.925 Y47.018 Z0 F1600
G1 X85.582 Y47.547 Z0 F1600
G1 X85.258 Y48.094 Z0 F1600
G1 X84.956 Y48.652 Z0 F1600
G1 X84.895 Y48.776 Z0 F1600
G0 Z3.5 F1000
G0 X84.095 Y50.124 Z3.5
G1 Z0 F1000
G1 X84.028 Y49.852 Z0 F1600
G1 X84.01 Y49.688 Z0 F1600
G1 X84 Y49.486 Z0 F1600
G1 X83.995 Y49.234 Z0 F1600
G1 Y48.919 Z0 F1600
G1 Y48.625 Z0 F1600
G1 X84.001 Y48.378 Z0 F1600
G1 X84.012 Y48.168 Z0 F1600
G1 X84.03 Y47.985 Z0 F1600
G1 X84.088 Y47.663 Z0 F1600
G1 X84.187 Y47.333 Z0 F1600
G1 X84.39 Y46.802 Z0 F1600
G1 X84.633 Y46.288 Z0 F1600
G1 X84.92 Y45.785 Z0 F1600
G1 X85.255 Y45.29 Z0 F1600
G1 X85.641 Y44.797 Z0 F1600
G1 X86.081 Y44.303 Z0 F1600
G1 X86.578 Y43.803 Z0 F1600
G1 X87.135 Y43.292 Z0 F1600
G1 X87.43 Y43.04 Z0 F1600
G1 X87.713 Y42.822 Z0 F1600
G1 X87.877 Y42.706 Z0 F1600
G1 X88.07 Y42.575 Z0 F1600
G1 X88.303 Y42.422 Z0 F1600
G1 X88.926 Y42.019 Z0 F1600
G1 X89.333 Y41.752 Z0 F1600
G1 X89.491 Y41.645 Z0 F1600
G1 X89.524 Y41.621 Z0 F1600
G1 X89.626 Y41.551 Z0 F1600
G1 X89.791 Y41.458 Z0 F1600
G1 X90.01 Y41.342 Z0 F1600
G1 X90.275 Y41.209 Z0 F1600
G1 X90.581 Y41.062 Z0 F1600
G1 X90.918 Y40.903 Z0 F1600
G1 X91.281 Y40.736 Z0 F1600
G1 X91.66 Y40.565 Z0 F1600
G1 X92.439 Y40.223 Z0 F1600
G1 X93.196 Y39.903 Z0 F1600
G1 X93.548 Y39.76 Z0 F1600
G1 X93.872 Y39.632 Z0 F1600
G1 X94.16 Y39.524 Z0 F1600
G1 X94.405 Y39.438 Z0 F1600
G1 X94.63 Y39.364 Z0 F1600
G1 X94.822 Y39.303 Z0 F1600
G1 X94.96 Y39.261 Z0 F1600
G1 X95.025 Y39.245 Z0 F1600
G1 X95.051 Y39.267 Z0 F1600
G1 X95.076 Y39.335 Z0 F1600
G1 X95.102 Y39.446 Z0 F1600
G1 X95.126 Y39.596 Z0 F1600
G1 X95.149 Y39.784 Z0 F1600
G1 X95.172 Y40.004 Z0 F1600
G1 X95.193 Y40.256 Z0 F1600
G1 X95.213 Y40.535 Z0 F1600
G1 X95.248 Y41.164 Z0 F1600
G1 X95.275 Y41.865 Z0 F1600
G1 X95.292 Y42.615 Z0 F1600
G1 X95.298 Y43.389 Z0 F1600
G1 Y43.814 Z0 F1600
G1 X95.292 Y44.208 Z0 F1600
G1 X95.286 Y44.576 Z0 F1600
G1 X95.277 Y44.918 Z0 F1600
G1 X95.248 Y45.541 Z0 F1600
G1 X95.205 Y46.097 Z0 F1600
G1 X95.065 Y47.097 Z0 F1600
G1 X94.842 Y48.093 Z0 F1600
G1 X94.57 Y48.976 Z0 F1600
G1 X94.222 Y49.834 Z0 F1600
G1 X93.809 Y50.652 Z0 F1600
G1 X93.343 Y51.411 Z0 F1600
G1 X92.834 Y52.096 Z0 F1600
G1 X92.295 Y52.688 Z0 F1600
G1 X92.018 Y52.945 Z0 F1600
G1 X91.737 Y53.172 Z0 F1600
G1 X91.454 Y53.368 Z0 F1600
G1 X91.17 Y53.53 Z0 F1600
G1 X90.825 Y53.697 Z0 F1600
G1 X90.538 Y53.792 Z0 F1600
G1 X90.383 Y53.819 Z0 F1600
G1 X90.2 Y53.839 Z0 F1600
G1 X89.978 Y53.854 Z0 F1600
G1 X89.701 Y53.865 Z0 F1600
G1 X89.353 Y53.873 Z0 F1600
G1 X89.058 Y53.869 Z0 F1600
G1 X88.939 Y53.862 Z0 F1600
G1 X88.846 Y53.854 Z0 F1600
G1 X88.781 Y53.842 Z0 F1600
G1 X88.749 Y53.829 Z0 F1600
G1 X88.74 Y53.779 Z0 F1600
G1 X88.771 Y53.697 Z0 F1600
G1 X88.835 Y53.591 Z0 F1600
G1 X88.929 Y53.474 Z0 F1600
G1 X89.111 Y53.255 Z0 F1600
G1 X89.347 Y52.956 Z0 F1600
G1 X89.619 Y52.6 Z0 F1600
G1 X89.909 Y52.211 Z0 F1600
G1 X90.201 Y51.812 Z0 F1600
G1 X90.476 Y51.426 Z0 F1600
G1 X90.718 Y51.078 Z0 F1600
G1 X90.909 Y50.79 Z0 F1600
G1 X91.21 Y50.297 Z0 F1600
G1 X91.503 Y49.772 Z0 F1600
G1 X91.787 Y49.221 Z0 F1600
G1 X92.058 Y48.649 Z0 F1600
G1 X92.554 Y47.46 Z0 F1600
G1 X92.973 Y46.245 Z0 F1600
G1 X93.186 Y45.443 Z0 F1600
G1 X93.374 Y44.553 Z0 F1600
G1 X93.448 Y44.133 Z0 F1600
G1 X93.502 Y43.761 Z0 F1600
G1 X93.533 Y43.459 Z0 F1600
G1 Y43.25 Z0 F1600
G1 X93.523 Y43.174 Z0 F1600
G1 X93.502 Y43.143 Z0 F1600
G1 X93.467 Y43.165 Z0 F1600
G1 X93.412 Y43.249 Z0 F1600
G1 X93.334 Y43.404 Z0 F1600
G1 X93.228 Y43.637 Z0 F1600
G1 X93.087 Y43.958 Z0 F1600
G1 X92.91 Y44.374 Z0 F1600
G1 X92.386 Y45.565 Z0 F1600
G1 X91.858 Y46.682 Z0 F1600
G1 X91.318 Y47.736 Z0 F1600
G1 X90.76 Y48.74 Z0 F1600
G1 X90.175 Y49.706 Z0 F1600
G1 X89.557 Y50.646 Z0 F1600
G1 X88.899 Y51.573 Z0 F1600
G1 X88.194 Y52.498 Z0 F1600
G1 X87.561 Y53.303 Z0 F1600
G1 X87.521 Y53.317 Z0 F1600
G1 X87.449 Y53.306 Z0 F1600
G1 X87.349 Y53.271 Z0 F1600
G1 X87.227 Y53.218 Z0 F1600
G1 X86.934 Y53.063 Z0 F1600
G1 X86.607 Y52.867 Z0 F1600
G1 X86.287 Y52.652 Z0 F1600
G1 X86.01 Y52.445 Z0 F1600
G1 X85.9 Y52.351 Z0 F1600
G1 X85.816 Y52.269 Z0 F1600
G1 X85.762 Y52.2 Z0 F1600
G1 X85.743 Y52.147 Z0 F1600
G1 X85.763 Y52.019 Z0 F1600
G1 X85.822 Y51.82 Z0 F1600
G1 X85.916 Y51.563 Z0 F1600
G1 X86.04 Y51.253 Z0 F1600
G1 X86.19 Y50.903 Z0 F1600
G1 X86.365 Y50.52 Z0 F1600
G1 X86.558 Y50.114 Z0 F1600
G1 X86.767 Y49.694 Z0 F1600
G1 X87.207 Y48.873 Z0 F1600
G1 X87.687 Y48.069 Z0 F1600
G1 X88.213 Y47.275 Z0 F1600
G1 X88.792 Y46.483 Z0 F1600
G1 X89.429 Y45.684 Z0 F1600
G1 X90.13 Y44.871 Z0 F1600
G1 X90.902 Y44.034 Z0 F1600
G1 X91.981 Y42.932 Z0 F1600
G1 X92.162 Y42.731 Z0 F1600
G1 X92.228 Y42.651 Z0 F1600
G1 X92.276 Y42.588 Z0 F1600
G1 X92.302 Y42.544 Z0 F1600
G1 X92.305 Y42.522 Z0 F1600
G1 X92.278 Y42.519 Z0 F1600
G1 X92.228 Y42.532 Z0 F1600
G1 X92.154 Y42.561 Z0 F1600
G1 X92.061 Y42.604 Z0 F1600
G1 X91.825 Y42.728 Z0 F1600
G1 X91.539 Y42.891 Z0 F1600
G1 X90.901 Y43.289 Z0 F1600
G1 X90.306 Y43.702 Z0 F1600

; Color picking sequence
G1 Z10 F1000;         ; Raise brush
G0 X86 Y5 F1200;    ; Rapid move to color 1
G1 Z10 F1000;         ; Raise brush
G0 X86 Y5 F1200;    ; Rapid move to color 1
G1 Z0 F1000;         ; Lower into color
G1 X85.102 Y7.295 Z0 S800 F1200
G1 X85.026 Y7.642 Z0 F1200
G1 X85 Y8 Z0 F1200
G1 X85.026 Y8.358 Z0 F1200
G1 X85.102 Y8.705 Z0 F1200
G1 X85.225 Y9.041 Z0 F1200
G1 X85.393 Y9.362 Z0 F1200
G1 X85.603 Y9.668 Z0 F1200
G1 X85.854 Y9.957 Z0 F1200
G1 X86.142 Y10.226 Z0 F1200
G1 X86.464 Y10.475 Z0 F1200
G1 X86.82 Y10.701 Z0 F1200
G1 X87.204 Y10.902 Z0 F1200
G1 X87.617 Y11.078 Z0 F1200
G1 X88.054 Y11.225 Z0 F1200
G1 X88.513 Y11.343 Z0 F1200
G1 X88.992 Y11.429 Z0 F1200
G1 X89.489 Y11.482 Z0 F1200
G1 X90 Y11.5 Z0 F1200
G1 X90.511 Y11.482 Z0 F1200
G1 X91.008 Y11.429 Z0 F1200
G1 X91.487 Y11.343 Z0 F1200
G1 X91.946 Y11.225 Z0 F1200
G1 X92.383 Y11.078 Z0 F1200
G1 X92.796 Y10.902 Z0 F1200
G1 X93.18 Y10.701 Z0 F1200
G1 X93.536 Y10.475 Z0 F1200
G1 X93.858 Y10.226 Z0 F1200
G1 X94.146 Y9.957 Z0 F1200
G1 X94.397 Y9.668 Z0 F1200
G1 X94.607 Y9.362 Z0 F1200
G1 X94.775 Y9.041 Z0 F1200
G1 X94.898 Y8.705 Z0 F1200
G1 X94.974 Y8.358 Z0 F1200
G1 X95 Y8 Z0 F1200
G1 X94.974 Y7.642 Z0 F1200
G1 X94.898 Y7.295 Z0 F1200
G1 X94.775 Y6.959 Z0 F1200
G1 X94.607 Y6.638 Z0 F1200
G1 X94.397 Y6.332 Z0 F1200
G1 X94.146 Y6.043 Z0 F1200
G1 X93.858 Y5.774 Z0 F1200
G1 X93.536 Y5.525 Z0 F1200
G1 X93.18 Y5.299 Z0 F1200
G1 X92.796 Y5.098 Z0 F1200
G1 X92.383 Y4.922 Z0 F1200
G1 X91.946 Y4.775 Z0 F1200
G1 X91.487 Y4.657 Z0 F1200
G1 X91.008 Y4.571 Z0 F1200
G1 X90.511 Y4.518 Z0 F1200
G1 X90 Y4.5 Z0 F1200
G1 X89.489 Y4.518 Z0 F1200
G1 X88.992 Y4.571 Z0 F1200
G1 X88.513 Y4.657 Z0 F1200
G1 X88.054 Y4.775 Z0 F1200
G1 X87.617 Y4.922 Z0 F1200
G1 X87.204 Y5.098 Z0 F1200
G1 X86.82 Y5.299 Z0 F1200
G1 X86.464 Y5.525 Z0 F1200
G1 X86.142 Y5.774 Z0 F1200
G1 X85.854 Y6.043 Z0 F1200
G1 X85.603 Y6.332 Z0 F1200
G1 X85.393 Y6.638 Z0 F1200
G1 X85.225 Y6.959 Z0 F1200
G1 Z7 F800;         ; Raise from color
G1 X79 Y8 Z1 F1200;     ; Movement in paint
G1 X69 Y18 Z8 F500;     ; Move in paint
G1 F1200;           ; Set feed rate
G0 Z2.5 F1000 ; Safety Lift
G0 X90.306 Y43.702 F1200 ; Return
G1 Z0 F1000 ; Restore Z
G1 X89.96 Y43.977 Z0 F1600
G1 X89.569 Y44.313 Z0 F1600
G1 X89.162 Y44.683 Z0 F1600
G1 X88.766 Y45.058 Z0 F1600
G1 X88.413 Y45.409 Z0 F1600
G1 X88.129 Y45.709 Z0 F1600
G1 X88.023 Y45.832 Z0 F1600
G1 X87.946 Y45.931 Z0 F1600
G1 X87.901 Y46.002 Z0 F1600
G1 X87.891 Y46.044 Z0 F1600
G1 X87.894 Y46.115 Z0 F1600
G1 X87.843 Y46.133 Z0 F1600
G1 X87.776 Y46.164 Z0 F1600
G1 X87.662 Y46.263 Z0 F1600
G1 X87.516 Y46.414 Z0 F1600
G1 X87.354 Y46.602 Z0 F1600
G1 X87.007 Y47.048 Z0 F1600
G1 X86.67 Y47.523 Z0 F1600
G1 X86.347 Y48.022 Z0 F1600
G1 X86.041 Y48.538 Z0 F1600
G1 X85.755 Y49.065 Z0 F1600
G1 X85.493 Y49.599 Z0 F1600
G1 X85.258 Y50.131 Z0 F1600
G1 X85.053 Y50.658 Z0 F1600
G1 X84.792 Y51.38 Z0 F1600
G1 X84.614 Y51.13 Z0 F1600
G1 X84.423 Y50.814 Z0 F1600
G1 X84.215 Y50.408 Z0 F1600
G1 X84.095 Y50.124 Z0 F1600

; Washing sequence (no color)
G1 Z10 F1000;        ; Raise brush
G0 X5 Y5 F1200;     ; Rapid move to clean
G1 Z-1 F800;         ; Lower brush
G1 X10 Y12 Z8 F1200;     ; Move
G1 Z-1 F800;         ; Lower
G1 X25 Y14 Z6 F800;     ; Move
G1 Z8 F800;         ; Maintain
G0 X5 Y5 F1200;     ; Rapid
G1 Z-1 F800;         ; Lower
G1 X15 Y12 Z8 F1200;     ; Move
G1 Z-1 F800;         ; Lower
G1 X25 Y14 Z6 F800;     ; Move
G1 Z10 F800;         ; Maintain
G1 F1200;           ; Set feed
G0 Z2.5 F1000 ; Safety Lift

; Color picking sequence
G1 Z10 F1000;         ; Raise brush
G0 X131 Y5 F1200;    ; Rapid move to color 1
G1 Z10 F1000;         ; Raise brush
G0 X131 Y5 F1200;    ; Rapid move to color 1
G1 Z0 F1000;         ; Lower into color
G1 X130.102 Y7.295 Z0 S800 F1200
G1 X130.026 Y7.642 Z0 F1200
G1 X130 Y8 Z0 F1200
G1 X130.026 Y8.358 Z0 F1200
G1 X130.102 Y8.705 Z0 F1200
G1 X130.225 Y9.041 Z0 F1200
G1 X130.393 Y9.362 Z0 F1200
G1 X130.603 Y9.668 Z0 F1200
G1 X130.854 Y9.957 Z0 F1200
G1 X131.142 Y10.226 Z0 F1200
G1 X131.464 Y10.475 Z0 F1200
G1 X131.82 Y10.701 Z0 F1200
G1 X132.204 Y10.902 Z0 F1200
G1 X132.617 Y11.078 Z0 F1200
G1 X133.054 Y11.225 Z0 F1200
G1 X133.513 Y11.343 Z0 F1200
G1 X133.992 Y11.429 Z0 F1200
G1 X134.489 Y11.482 Z0 F1200
G1 X135 Y11.5 Z0 F1200
G1 X135.511 Y11.482 Z0 F1200
G1 X136.008 Y11.429 Z0 F1200
G1 X136.487 Y11.343 Z0 F1200
G1 X136.946 Y11.225 Z0 F1200
G1 X137.383 Y11.078 Z0 F1200
G1 X137.796 Y10.902 Z0 F1200
G1 X138.18 Y10.701 Z0 F1200
G1 X138.536 Y10.475 Z0 F1200
G1 X138.858 Y10.226 Z0 F1200
G1 X139.146 Y9.957 Z0 F1200
G1 X139.397 Y9.668 Z0 F1200
G1 X139.607 Y9.362 Z0 F1200
G1 X139.775 Y9.041 Z0 F1200
G1 X139.898 Y8.705 Z0 F1200
G1 X139.974 Y8.358 Z0 F1200
G1 X140 Y8 Z0 F1200
G1 X139.974 Y7.642 Z0 F1200
G1 X139.898 Y7.295 Z0 F1200
G1 X139.775 Y6.959 Z0 F1200
G1 X139.607 Y6.638 Z0 F1200
G1 X139.397 Y6.332 Z0 F1200
G1 X139.146 Y6.043 Z0 F1200
G1 X138.858 Y5.774 Z0 F1200
G1 X138.536 Y5.525 Z0 F1200
G1 X138.18 Y5.299 Z0 F1200
G1 X137.796 Y5.098 Z0 F1200
G1 X137.383 Y4.922 Z0 F1200
G1 X136.946 Y4.775 Z0 F1200
G1 X136.487 Y4.657 Z0 F1200
G1 X136.008 Y4.571 Z0 F1200
G1 X135.511 Y4.518 Z0 F1200
G1 X135 Y4.5 Z0 F1200
G1 X134.489 Y4.518 Z0 F1200
G1 X133.992 Y4.571 Z0 F1200
G1 X133.513 Y4.657 Z0 F1200
G1 X133.054 Y4.775 Z0 F1200
G1 X132.617 Y4.922 Z0 F1200
G1 X132.204 Y5.098 Z0 F1200
G1 X131.82 Y5.299 Z0 F1200
G1 X131.464 Y5.525 Z0 F1200
G1 X131.142 Y5.774 Z0 F1200
G1 X130.854 Y6.043 Z0 F1200
G1 X130.603 Y6.332 Z0 F1200
G1 X130.393 Y6.638 Z0 F1200
G1 X130.225 Y6.959 Z0 F1200
G1 Z7 F800;         ; Raise from color
G1 X124 Y8 Z1 F1200;     ; Movement in paint
G1 X114 Y18 Z8 F500;     ; Move in paint
G1 F1200;           ; Set feed rate
G0 Z2.5 F1000 ; Safety Lift
;Cut @ 1500 mm/min, 80% power

M8
G0 Z3.5 F1000
G0 X82.416 Y52.207 Z3.5
G1 Z0 F1000
;Layer C3
G1 X82.317 Y52.175 Z0 S800 F1600
G1 X82.189 Y52.137 Z0 F1600
G1 X81.86 Y52.044 Z0 F1600
G1 X81.459 Y51.937 Z0 F1600
G1 X80.551 Y51.707 Z0 F1600
G1 X79.69 Y51.506 Z0 F1600
G1 X79.209 Y51.4 Z0 F1600
G1 X78.591 Y48.274 Z0 F1600
G1 X78.487 Y47.782 Z0 F1600
G1 X78.386 Y47.368 Z0 F1600
G1 X78.34 Y47.205 Z0 F1600
G1 X78.3 Y47.078 Z0 F1600
G1 X78.266 Y46.992 Z0 F1600
G1 X78.24 Y46.954 Z0 F1600
G1 X78.216 Y46.947 Z0 F1600
G1 X78.164 Y46.941 Z0 F1600
G1 X77.985 Y46.928 Z0 F1600
G1 X77.715 Y46.917 Z0 F1600
G1 X77.365 Y46.908 Z0 F1600
G1 X76.947 Y46.899 Z0 F1600
G1 X76.473 Y46.893 Z0 F1600
G1 X75.955 Y46.889 Z0 F1600
G1 X75.403 Z0 F1600
G1 X74.684 Z0 F1600
G1 X74.09 Y46.892 Z0 F1600
G1 X73.609 Y46.898 Z0 F1600
G1 X73.234 Y46.908 Z0 F1600
G1 X72.953 Y46.922 Z0 F1600
G1 X72.758 Y46.939 Z0 F1600
G1 X72.638 Y46.961 Z0 F1600
G1 X72.584 Y46.988 Z0 F1600
G1 X72.563 Y47.031 Z0 F1600
G1 X72.534 Y47.114 Z0 F1600
G1 X72.5 Y47.233 Z0 F1600
G1 X72.461 Y47.382 Z0 F1600
G1 X72.374 Y47.753 Z0 F1600
G1 X72.284 Y48.187 Z0 F1600
G1 X72.188 Y48.668 Z0 F1600
G1 X72.037 Y49.403 Z0 F1600
G1 X71.852 Y50.276 Z0 F1600
G1 X71.792 Y50.578 Z0 F1600
G1 X71.742 Y50.849 Z0 F1600
G1 X71.709 Y51.052 Z0 F1600
G1 X71.692 Y51.192 Z0 F1600
G1 X71.674 Y51.295 Z0 F1600
G1 X71.636 Y51.369 Z0 F1600
G1 X71.561 Y51.424 Z0 F1600
G1 X71.429 Y51.47 Z0 F1600
G1 X71.224 Y51.514 Z0 F1600
G1 X71.087 Y51.539 Z0 F1600
G1 X70.326 Y51.666 Z0 F1600
G1 X70.177 Y51.688 Z0 F1600
G1 X70.06 Y51.7 Z0 F1600
G1 X69.972 Y51.703 Z0 F1600
G1 X69.853 Y51.678 Z0 F1600
G1 X69.774 Y51.612 Z0 F1600
G1 X69.739 Y51.568 Z0 F1600
G1 X69.612 Y51.39 Z0 F1600
G1 X69.309 Y50.945 Z0 F1600
G1 X69.054 Y50.565 Z0 F1600
G1 X68.493 Y49.716 Z0 F1600
G1 X67.81 Y48.661 Z0 F1600
G1 X67.672 Y48.458 Z0 F1600
G1 X67.617 Y48.379 Z0 F1600
G1 X67.572 Y48.32 Z0 F1600
G1 X67.541 Y48.283 Z0 F1600
G1 X67.524 Y48.27 Z0 F1600
G1 X67.516 Y48.291 Z0 F1600
G1 X67.508 Y48.351 Z0 F1600
G1 X67.501 Y48.447 Z0 F1600
G1 X67.495 Y48.574 Z0 F1600
G1 X67.485 Y48.903 Z0 F1600
G1 X67.479 Y49.62 Z0 F1600
G1 X67.473 Y49.878 Z0 F1600
G1 X67.461 Y50.092 Z0 F1600
G1 X67.441 Y50.277 Z0 F1600
G1 X67.372 Y50.608 Z0 F1600
G1 X67.251 Y50.978 Z0 F1600
G1 X67.023 Y51.614 Z0 F1600
G1 X68.85 Y54.344 Z0 F1600
G1 X69.401 Y55.161 Z0 F1600
G1 X69.828 Y55.785 Z0 F1600
G1 X70.034 Y56.081 Z0 F1600
G1 X70.105 Y56.178 Z0 F1600
G1 X70.119 Y56.194 Z0 F1600
G1 X70.181 Z0 F1600
G1 X70.312 Y56.175 Z0 F1600
G1 X70.49 Y56.136 Z0 F1600
G1 X70.699 Y56.082 Z0 F1600
G1 X71.121 Y55.978 Z0 F1600
G1 X71.586 Y55.888 Z0 F1600
G1 X72.087 Y55.812 Z0 F1600
G1 X72.618 Y55.75 Z0 F1600
G1 X73.746 Y55.666 Z0 F1600
G1 X74.922 Y55.638 Z0 F1600
G1 X76.097 Y55.665 Z0 F1600
G1 X77.224 Y55.747 Z0 F1600
G1 X77.754 Y55.809 Z0 F1600
G1 X78.253 Y55.885 Z0 F1600
G1 X78.716 Y55.974 Z0 F1600
G1 X79.137 Y56.077 Z0 F1600
G1 X79.378 Y56.143 Z0 F1600
G1 X79.564 Y56.19 Z0 F1600
G1 X79.705 Y56.218 Z0 F1600
G1 X79.807 Y56.228 Z0 F1600
G1 X79.933 Y56.191 Z0 F1600
G1 X80.01 Y56.08 Z0 F1600
G1 X80.045 Y56.02 Z0 F1600
G1 X80.115 Y55.911 Z0 F1600
G1 X80.341 Y55.569 Z0 F1600
G1 X80.656 Y55.102 Z0 F1600
G1 X81.025 Y54.563 Z0 F1600
G1 X82.269 Y52.757 Z0 F1600
G1 X82.384 Y52.578 Z0 F1600
G1 X82.468 Y52.422 Z0 F1600
G1 X82.514 Y52.306 Z0 F1600
G1 Y52.247 Z0 F1600
G1 X82.482 Y52.231 Z0 F1600
G1 X82.416 Y52.207 Z0 F1600
G0 Z3.5 F1000
G0 X89.31 Y56.087 Z3.5
G1 Z0 F1000
G1 X88.142 Y58.381 Z0 F1600
G1 X87.733 Y59.172 Z0 F1600
G1 X87.566 Y59.488 Z0 F1600
G1 X87.525 Y59.559 Z0 F1600
G1 X87.475 Y59.678 Z0 F1600
G1 X87.523 Y59.807 Z0 F1600
G1 X87.598 Y59.897 Z0 F1600
G1 X87.715 Y60.015 Z0 F1600
G1 X87.881 Y60.169 Z0 F1600
G1 X88.101 Y60.368 Z0 F1600
G1 X89.027 Y61.231 Z0 F1600
G1 X89.88 Y62.096 Z0 F1600
G1 X90.664 Y62.965 Z0 F1600
G1 X91.38 Y63.842 Z0 F1600
G1 X92.033 Y64.731 Z0 F1600
G1 X92.625 Y65.635 Z0 F1600
G1 X93.158 Y66.558 Z0 F1600
G1 X93.636 Y67.504 Z0 F1600
G1 X93.827 Y67.934 Z0 F1600
G1 X94.026 Y68.426 Z0 F1600
G1 X94.228 Y68.963 Z0 F1600
G1 X94.425 Y69.525 Z0 F1600
G1 X94.613 Y70.094 Z0 F1600
G1 X94.783 Y70.65 Z0 F1600
G1 X94.93 Y71.176 Z0 F1600
G1 X95.047 Y71.652 Z0 F1600
G1 X95.261 Y72.755 Z0 F1600
G1 X95.415 Y73.892 Z0 F1600
G1 X95.509 Y75.051 Z0 F1600
G1 X95.544 Y76.217 Z0 F1600
G1 X95.518 Y77.377 Z0 F1600
G1 X95.433 Y78.517 Z0 F1600
G1 X95.288 Y79.622 Z0 F1600
G1 X95.082 Y80.68 Z0 F1600
G1 X95.001 Y81.013 Z0 F1600
G1 X94.901 Y81.394 Z0 F1600
G1 X94.787 Y81.801 Z0 F1600
G1 X94.666 Y82.215 Z0 F1600
G1 X94.543 Y82.615 Z0 F1600
G1 X94.426 Y82.981 Z0 F1600
G1 X94.32 Y83.291 Z0 F1600
G1 X94.231 Y83.526 Z0 F1600
G1 X93.98 Y84.136 Z0 F1600
G1 X93.933 Y84.243 Z0 F1600
G1 X93.872 Y84.377 Z0 F1600
G1 X93.713 Y84.71 Z0 F1600
G1 X93.519 Y85.102 Z0 F1600
G1 X93.307 Y85.521 Z0 F1600
G1 X93.095 Y85.931 Z0 F1600
G1 X92.899 Y86.301 Z0 F1600
G1 X92.736 Y86.598 Z0 F1600
G1 X92.672 Y86.708 Z0 F1600
G1 X92.623 Y86.787 Z0 F1600
G1 X92.477 Y87.007 Z0 F1600
G1 X92.278 Y87.298 Z0 F1600
G1 X92.049 Y87.629 Z0 F1600
G1 X91.578 Y88.3 Z0 F1600
G1 X91.296 Y88.695 Z0 F1600
G1 X91.18 Y88.851 Z0 F1600
G1 X90.986 Y89.08 Z0 F1600
G1 X90.704 Y89.42 Z0 F1600
G1 X90.338 Y89.85 Z0 F1600
G1 X89.972 Y90.261 Z0 F1600
G1 X89.826 Y90.423 Z0 F1600
G1 X89.698 Y90.569 Z0 F1600
G1 X89.603 Y90.685 Z0 F1600
G1 X89.553 Y90.753 Z0 F1600
G1 X89.55 Y90.808 Z0 F1600
G1 X89.576 Y90.916 Z0 F1600
G1 X89.63 Y91.078 Z0 F1600
G1 X89.713 Y91.295 Z0 F1600
G1 X89.826 Y91.569 Z0 F1600
G1 X89.97 Y91.902 Z0 F1600
G1 X90.145 Y92.295 Z0 F1600
G1 X90.42 Y92.9 Z0 F1600
G1 X90.607 Y93.333 Z0 F1600
G1 X90.845 Y93.893 Z0 F1600
G1 X90.973 Y94.184 Z0 F1600
G1 X91.088 Y94.436 Z0 F1600
G1 X91.189 Y94.647 Z0 F1600
G1 X91.275 Y94.814 Z0 F1600
G1 X91.345 Y94.935 Z0 F1600
G1 X91.399 Y95.01 Z0 F1600
G1 X91.434 Y95.035 Z0 F1600
G1 X91.498 Y94.999 Z0 F1600
G1 X91.622 Y94.903 Z0 F1600
G1 X91.788 Y94.759 Z0 F1600
G1 X91.978 Y94.584 Z0 F1600
G1 X92.793 Y93.81 Z0 F1600
G1 X94.24 Y94.482 Z0 F1600
G1 X95.503 Y95.055 Z0 F1600
G1 X95.898 Y95.23 Z0 F1600
G1 X96.227 Y95.361 Z0 F1600
G1 X96.498 Y95.448 Z0 F1600
G1 X96.717 Y95.494 Z0 F1600
G1 X96.891 Y95.499 Z0 F1600
G1 X97.027 Y95.463 Z0 F1600
G1 X97.132 Y95.388 Z0 F1600
G1 X97.213 Y95.275 Z0 F1600
G1 X97.246 Y95.222 Z0 F1600
G1 X97.31 Y95.126 Z0 F1600
G1 X97.522 Y94.82 Z0 F1600
G1 X97.824 Y94.39 Z0 F1600
G1 X98.195 Y93.869 Z0 F1600
G1 X99.045 Y92.685 Z0 F1600
G1 X99.884 Y91.532 Z0 F1600
G1 X100.078 Y91.256 Z0 F1600
G1 X100.236 Y91.008 Z0 F1600
G1 X100.297 Y90.902 Z0 F1600
G1 X100.343 Y90.813 Z0 F1600
G1 X100.372 Y90.745 Z0 F1600
G1 X100.382 Y90.7 Z0 F1600
G1 X100.342 Y90.599 Z0 F1600
G1 X100.233 Y90.434 Z0 F1600
G1 X100.072 Y90.231 Z0 F1600
G1 X99.874 Y90.01 Z0 F1600
G1 X98.675 Y88.74 Z0 F1600
G1 X98.145 Y88.174 Z0 F1600
G1 X97.949 Y87.959 Z0 F1600
G1 X97.793 Y87.784 Z0 F1600
G1 X97.674 Y87.643 Z0 F1600
G1 X97.586 Y87.53 Z0 F1600
G1 X97.526 Y87.441 Z0 F1600
G1 X97.489 Y87.371 Z0 F1600
G1 X97.472 Y87.314 Z0 F1600
G1 X97.48 Y87.222 Z0 F1600
G1 X97.572 Y86.967 Z0 F1600
G1 X97.663 Y86.735 Z0 F1600
G1 X97.776 Y86.459 Z0 F1600
G1 X98.182 Y85.49 Z0 F1600
G1 X98.554 Y84.567 Z0 F1600
G1 X98.655 Y84.337 Z0 F1600
G1 X98.739 Y84.164 Z0 F1600
G1 X98.796 Y84.072 Z0 F1600
G1 X98.846 Y84.045 Z0 F1600
G1 X98.949 Y84.02 Z0 F1600
G1 X99.11 Y83.999 Z0 F1600
G1 X99.335 Y83.979 Z0 F1600
G1 X99.63 Y83.962 Z0 F1600
G1 X100 Y83.946 Z0 F1600
G1 X100.452 Y83.931 Z0 F1600
G1 X101.609 Y83.901 Z0 F1600
G1 X102.097 Y83.885 Z0 F1600
G1 X102.473 Y83.869 Z0 F1600
G1 X102.753 Y83.851 Z0 F1600
G1 X102.953 Y83.829 Z0 F1600
G1 X103.088 Y83.801 Z0 F1600
G1 X103.176 Y83.768 Z0 F1600
G1 X103.232 Y83.727 Z0 F1600
G1 X103.299 Y83.615 Z0 F1600
G1 X103.37 Y83.416 Z0 F1600
G1 X103.442 Y83.148 Z0 F1600
G1 X103.507 Y82.825 Z0 F1600
G1 X103.618 Y82.213 Z0 F1600
G1 X103.752 Y81.493 Z0 F1600
G1 X104.164 Y79.334 Z0 F1600
G1 X104.242 Y78.896 Z0 F1600
G1 X104.298 Y78.517 Z0 F1600
G1 X104.317 Y78.363 Z0 F1600
G1 X104.328 Y78.238 Z0 F1600
G1 Y78.149 Z0 F1600
G1 X104.325 Y78.1 Z0 F1600
G1 X104.277 Y78.008 Z0 F1600
G1 X104.137 Y77.921 Z0 F1600
G1 X103.992 Y77.862 Z0 F1600
G1 X103.776 Y77.782 Z0 F1600
G1 X102.518 Y77.34 Z0 F1600
G1 X101.991 Y77.151 Z0 F1600
G1 X101.501 Y76.972 Z0 F1600
G1 X101.062 Y76.808 Z0 F1600
G1 X100.689 Y76.666 Z0 F1600
G1 X100.398 Y76.549 Z0 F1600
G1 X100.286 Y76.503 Z0 F1600
G1 X100.201 Y76.465 Z0 F1600
G1 X100.143 Y76.437 Z0 F1600
G1 X100.115 Y76.418 Z0 F1600
G1 X100.1 Y76.375 Z0 F1600
G1 X100.084 Y76.275 Z0 F1600
G1 X100.066 Y76.126 Z0 F1600
G1 X100.047 Y75.933 Z0 F1600
G1 X100.009 Y75.444 Z0 F1600
G1 X99.974 Y74.857 Z0 F1600
G1 X99.941 Y74.253 Z0 F1600
G1 X99.91 Y73.714 Z0 F1600
G1 X99.883 Y73.299 Z0 F1600
G1 X99.864 Y73.067 Z0 F1600
G1 X99.855 Y72.899 Z0 F1600
G1 X99.895 Y72.786 Z0 F1600
G1 X99.943 Y72.737 Z0 F1600
G1 X100.016 Y72.687 Z0 F1600
G1 X100.117 Y72.631 Z0 F1600
G1 X101.294 Y72.012 Z0 F1600
G1 X102.358 Y71.423 Z0 F1600
G1 X102.821 Y71.158 Z0 F1600
G1 X103.199 Y70.934 Z0 F1600
G1 X103.345 Y70.843 Z0 F1600
G1 X103.459 Y70.77 Z0 F1600
G1 X103.537 Y70.715 Z0 F1600
G1 X103.574 Y70.681 Z0 F1600
G1 X103.608 Y70.611 Z0 F1600
G1 X103.627 Y70.521 Z0 F1600
G1 X103.63 Y70.407 Z0 F1600
G1 X103.617 Y70.268 Z0 F1600
G1 X103.587 Y70.101 Z0 F1600
G1 X103.54 Y69.903 Z0 F1600
G1 X103.476 Y69.672 Z0 F1600
G1 X103.394 Y69.405 Z0 F1600
G1 X103.259 Y68.974 Z0 F1600
G1 X102.625 Y66.936 Z0 F1600
G1 X102.505 Y66.555 Z0 F1600
G1 X102.394 Y66.213 Z0 F1600
G1 X102.292 Y65.912 Z0 F1600
G1 X102.2 Y65.656 Z0 F1600
G1 X102.119 Y65.446 Z0 F1600
G1 X102.05 Y65.285 Z0 F1600
G1 X101.995 Y65.177 Z0 F1600
G1 X101.954 Y65.124 Z0 F1600
G1 X101.899 Y65.087 Z0 F1600
G1 X101.831 Y65.063 Z0 F1600
G1 X101.72 Y65.052 Z0 F1600
G1 X101.533 Y65.057 Z0 F1600
G1 X101.403 Y65.067 Z0 F1600
G1 X101.047 Y65.099 Z0 F1600
G1 X100.539 Y65.153 Z0 F1600
G1 X98.471 Y65.381 Z0 F1600
G1 X98.24 Y65.403 Z0 F1600
G1 X98.046 Y65.418 Z0 F1600
G1 X97.885 Y65.422 Z0 F1600
G1 X97.752 Y65.417 Z0 F1600
G1 X97.642 Y65.401 Z0 F1600
G1 X97.48 Y65.332 Z0 F1600
G1 X97.362 Y65.207 Z0 F1600
G1 X97.256 Y65.018 Z0 F1600
G1 X97.127 Y64.759 Z0 F1600
G1 X96.745 Y64.056 Z0 F1600
G1 X96.307 Y63.307 Z0 F1600
G1 X96.121 Y62.997 Z0 F1600
G1 X95.969 Y62.73 Z0 F1600
G1 X95.91 Y62.622 Z0 F1600
G1 X95.866 Y62.535 Z0 F1600
G1 X95.838 Y62.473 Z0 F1600
G1 X95.828 Y62.44 Z0 F1600
G1 X95.852 Y62.386 Z0 F1600
G1 X95.921 Y62.266 Z0 F1600
G1 X96.03 Y62.088 Z0 F1600
G1 X96.174 Y61.858 Z0 F1600
G1 X96.349 Y61.585 Z0 F1600
G1 X96.77 Y60.939 Z0 F1600
G1 X97.252 Y60.21 Z0 F1600

; Color picking sequence
G1 Z10 F1000;         ; Raise brush
G0 X131 Y5 F1200;    ; Rapid move to color 1
G1 Z10 F1000;         ; Raise brush
G0 X131 Y5 F1200;    ; Rapid move to color 1
G1 Z0 F1000;         ; Lower into color
G1 X130.102 Y7.295 Z0 S800 F1200
G1 X130.026 Y7.642 Z0 F1200
G1 X130 Y8 Z0 F1200
G1 X130.026 Y8.358 Z0 F1200
G1 X130.102 Y8.705 Z0 F1200
G1 X130.225 Y9.041 Z0 F1200
G1 X130.393 Y9.362 Z0 F1200
G1 X130.603 Y9.668 Z0 F1200
G1 X130.854 Y9.957 Z0 F1200
G1 X131.142 Y10.226 Z0 F1200
G1 X131.464 Y10.475 Z0 F1200
G1 X131.82 Y10.701 Z0 F1200
G1 X132.204 Y10.902 Z0 F1200
G1 X132.617 Y11.078 Z0 F1200
G1 X133.054 Y11.225 Z0 F1200
G1 X133.513 Y11.343 Z0 F1200
G1 X133.992 Y11.429 Z0 F1200
G1 X134.489 Y11.482 Z0 F1200
G1 X135 Y11.5 Z0 F1200
G1 X135.511 Y11.482 Z0 F1200
G1 X136.008 Y11.429 Z0 F1200
G1 X136.487 Y11.343 Z0 F1200
G1 X136.946 Y11.225 Z0 F1200
G1 X137.383 Y11.078 Z0 F1200
G1 X137.796 Y10.902 Z0 F1200
G1 X138.18 Y10.701 Z0 F1200
G1 X138.536 Y10.475 Z0 F1200
G1 X138.858 Y10.226 Z0 F1200
G1 X139.146 Y9.957 Z0 F1200
G1 X139.397 Y9.668 Z0 F1200
G1 X139.607 Y9.362 Z0 F1200
G1 X139.775 Y9.041 Z0 F1200
G1 X139.898 Y8.705 Z0 F1200
G1 X139.974 Y8.358 Z0 F1200
G1 X140 Y8 Z0 F1200
G1 X139.974 Y7.642 Z0 F1200
G1 X139.898 Y7.295 Z0 F1200
G1 X139.775 Y6.959 Z0 F1200
G1 X139.607 Y6.638 Z0 F1200
G1 X139.397 Y6.332 Z0 F1200
G1 X139.146 Y6.043 Z0 F1200
G1 X138.858 Y5.774 Z0 F1200
G1 X138.536 Y5.525 Z0 F1200
G1 X138.18 Y5.299 Z0 F1200
G1 X137.796 Y5.098 Z0 F1200
G1 X137.383 Y4.922 Z0 F1200
G1 X136.946 Y4.775 Z0 F1200
G1 X136.487 Y4.657 Z0 F1200
G1 X136.008 Y4.571 Z0 F1200
G1 X135.511 Y4.518 Z0 F1200
G1 X135 Y4.5 Z0 F1200
G1 X134.489 Y4.518 Z0 F1200
G1 X133.992 Y4.571 Z0 F1200
G1 X133.513 Y4.657 Z0 F1200
G1 X133.054 Y4.775 Z0 F1200
G1 X132.617 Y4.922 Z0 F1200
G1 X132.204 Y5.098 Z0 F1200
G1 X131.82 Y5.299 Z0 F1200
G1 X131.464 Y5.525 Z0 F1200
G1 X131.142 Y5.774 Z0 F1200
G1 X130.854 Y6.043 Z0 F1200
G1 X130.603 Y6.332 Z0 F1200
G1 X130.393 Y6.638 Z0 F1200
G1 X130.225 Y6.959 Z0 F1200
G1 Z7 F800;         ; Raise from color
G1 X124 Y8 Z1 F1200;     ; Movement in paint
G1 X114 Y18 Z8 F500;     ; Move in paint
G1 F1200;           ; Set feed rate
G0 Z2.5 F1000 ; Safety Lift
G0 X97.252 Y60.21 F1200 ; Return
G1 Z0 F1000 ; Restore Z
G1 X97.476 Y59.862 Z0 F1600
G1 X97.677 Y59.543 Z0 F1600
G1 X97.85 Y59.26 Z0 F1600
G1 X97.991 Y59.02 Z0 F1600
G1 X98.097 Y58.829 Z0 F1600
G1 X98.163 Y58.693 Z0 F1600
G1 X98.187 Y58.619 Z0 F1600
G1 X98.171 Y58.557 Z0 F1600
G1 X98.124 Y58.469 Z0 F1600
G1 X98.045 Y58.353 Z0 F1600
G1 X97.931 Y58.209 Z0 F1600
G1 X97.783 Y58.035 Z0 F1600
G1 X97.597 Y57.829 Z0 F1600
G1 X97.374 Y57.589 Z0 F1600
G1 X97.111 Y57.314 Z0 F1600
G1 X96.071 Y56.24 Z0 F1600
G1 X95.527 Y55.683 Z0 F1600
G1 X95.09 Y55.243 Z0 F1600
G1 X94.75 Y54.91 Z0 F1600
G1 X94.614 Y54.781 Z0 F1600
G1 X94.499 Y54.675 Z0 F1600
G1 X94.404 Y54.591 Z0 F1600
G1 X94.266 Y54.484 Z0 F1600
G1 X94.193 Y54.45 Z0 F1600
G1 X94.131 Y54.475 Z0 F1600
G1 X94.001 Y54.547 Z0 F1600
G1 X93.81 Y54.66 Z0 F1600
G1 X93.567 Y54.811 Z0 F1600
G1 X93.279 Y54.993 Z0 F1600
G1 X92.956 Y55.201 Z0 F1600
G1 X92.604 Y55.431 Z0 F1600
G1 X92.232 Y55.678 Z0 F1600
G1 X90.392 Y56.906 Z0 F1600
G1 X89.31 Y56.087 Z0 F1600
G0 Z3.5 F1000
G0 X62.563 Y59.737 Z3.5
G1 Z0 F1000
G1 X62.535 Y59.662 Z0 F1600
G1 X62.458 Y59.504 Z0 F1600
G1 X62.345 Y59.286 Z0 F1600
G1 X61.906 Y58.476 Z0 F1600
G1 X61.517 Y57.743 Z0 F1600
G1 X60.834 Y56.441 Z0 F1600
G1 X60.699 Y56.187 Z0 F1600
G1 X60.642 Y56.085 Z0 F1600
G1 X60.598 Y56.102 Z0 F1600
G1 X60.497 Y56.17 Z0 F1600
G1 X60.355 Y56.278 Z0 F1600
G1 X60.011 Y56.562 Z0 F1600
G1 X59.853 Y56.691 Z0 F1600
G1 X59.728 Y56.788 Z0 F1600
G1 X59.654 Y56.84 Z0 F1600
G1 X59.614 Y56.835 Z0 F1600
G1 X59.532 Y56.802 Z0 F1600
G1 X59.414 Y56.742 Z0 F1600
G1 X59.263 Y56.658 Z0 F1600
G1 X58.881 Y56.432 Z0 F1600
G1 X58.421 Y56.146 Z0 F1600
G1 X57.919 Y55.822 Z0 F1600
G1 X57.41 Y55.482 Z0 F1600
G1 X56.929 Y55.149 Z0 F1600
G1 X56.313 Y54.702 Z0 F1600
G1 X56.145 Y54.598 Z0 F1600
G1 X56.001 Y54.534 Z0 F1600
G1 X55.873 Y54.51 Z0 F1600
G1 X55.751 Y54.525 Z0 F1600
G1 X55.627 Y54.58 Z0 F1600
G1 X55.494 Y54.673 Z0 F1600
G1 X55.342 Y54.805 Z0 F1600
G1 X55.236 Y54.907 Z0 F1600
G1 X55.072 Y55.069 Z0 F1600
G1 X54.608 Y55.538 Z0 F1600
G1 X54.014 Y56.147 Z0 F1600
G1 X53.355 Y56.829 Z0 F1600
G1 X52.89 Y57.315 Z0 F1600
G1 X52.522 Y57.705 Z0 F1600
G1 X52.241 Y58.011 Z0 F1600
G1 X52.13 Y58.136 Z0 F1600
G1 X52.037 Y58.244 Z0 F1600
G1 X51.901 Y58.417 Z0 F1600
G1 X51.821 Y58.541 Z0 F1600
G1 X51.788 Y58.63 Z0 F1600
G1 X51.791 Y58.695 Z0 F1600
G1 X51.814 Y58.749 Z0 F1600
G1 X51.858 Y58.832 Z0 F1600
G1 X51.919 Y58.941 Z0 F1600
G1 X51.996 Y59.071 Z0 F1600
G1 X52.186 Y59.38 Z0 F1600
G1 X52.407 Y59.724 Z0 F1600
G1 X52.624 Y60.055 Z0 F1600
G1 X52.87 Y60.438 Z0 F1600
G1 X52.954 Y60.575 Z0 F1600
G1 X52.978 Y60.621 Z0 F1600
G1 X53.07 Y60.765 Z0 F1600
G1 X53.337 Y61.168 Z0 F1600
G1 X54.181 Y62.412 Z0 F1600
G1 X53.838 Y62.937 Z0 F1600
G1 X53.758 Y63.063 Z0 F1600
G1 X53.663 Y63.218 Z0 F1600
G1 X53.44 Y63.596 Z0 F1600
G1 X53.198 Y64.022 Z0 F1600
G1 X52.825 Y64.702 Z0 F1600
G1 X52.705 Y64.914 Z0 F1600
G1 X52.602 Y65.085 Z0 F1600
G1 X52.515 Y65.217 Z0 F1600
G1 X52.441 Y65.315 Z0 F1600
G1 X52.378 Y65.38 Z0 F1600
G1 X52.323 Y65.417 Z0 F1600
G1 X52.274 Y65.429 Z0 F1600
G1 X52.201 Y65.425 Z0 F1600
G1 X51.844 Y65.395 Z0 F1600
G1 X51.265 Y65.34 Z0 F1600
G1 X49.702 Y65.184 Z0 F1600
G1 X49.31 Y65.148 Z0 F1600
G1 X48.962 Y65.119 Z0 F1600
G1 X48.661 Y65.098 Z0 F1600
G1 X48.412 Y65.084 Z0 F1600
G1 X48.22 Y65.079 Z0 F1600
G1 X48.09 Y65.082 Z0 F1600
G1 X48.027 Y65.094 Z0 F1600
G1 X47.975 Y65.149 Z0 F1600
G1 X47.909 Y65.268 Z0 F1600
G1 X47.828 Y65.457 Z0 F1600
G1 X47.73 Y65.722 Z0 F1600
G1 X47.612 Y66.069 Z0 F1600
G1 X47.472 Y66.504 Z0 F1600
G1 X47.392 Y66.757 Z0 F1600
G1 X47.215 Y67.338 Z0 F1600
G1 X47 Y68.049 Z0 F1600
G1 X46.778 Y68.764 Z0 F1600
G1 X46.603 Y69.309 Z0 F1600
G1 X46.519 Y69.587 Z0 F1600
G1 X46.448 Y69.84 Z0 F1600
G1 X46.392 Y70.063 Z0 F1600
G1 X46.35 Y70.252 Z0 F1600
G1 X46.324 Y70.405 Z0 F1600
G1 X46.314 Y70.518 Z0 F1600
G1 X46.323 Y70.586 Z0 F1600
G1 X46.349 Y70.63 Z0 F1600
G1 X46.4 Y70.683 Z0 F1600
G1 X46.473 Y70.747 Z0 F1600
G1 X46.57 Y70.821 Z0 F1600
G1 X46.83 Y70.996 Z0 F1600
G1 X47.178 Y71.208 Z0 F1600
G1 X47.61 Y71.455 Z0 F1600
G1 X48.123 Y71.734 Z0 F1600
G1 X48.713 Y72.045 Z0 F1600
G1 X49.379 Y72.385 Z0 F1600
G1 X50.143 Y72.77 Z0 F1600
G1 X50.025 Y74.747 Z0 F1600
G1 X49.978 Y75.461 Z0 F1600
G1 X49.952 Y75.818 Z0 F1600
G1 X49.929 Y76.087 Z0 F1600
G1 X49.909 Y76.275 Z0 F1600
G1 X49.891 Y76.389 Z0 F1600
G1 X49.875 Y76.435 Z0 F1600
G1 X49.84 Y76.455 Z0 F1600
G1 X49.761 Y76.489 Z0 F1600
G1 X49.492 Y76.597 Z0 F1600
G1 X49.106 Y76.745 Z0 F1600
G1 X48.64 Y76.919 Z0 F1600
G1 X48.131 Y77.105 Z0 F1600
G1 X47.618 Y77.289 Z0 F1600
G1 X47.138 Y77.458 Z0 F1600
G1 X46.727 Y77.597 Z0 F1600
G1 X46.378 Y77.721 Z0 F1600
G1 X46.075 Y77.842 Z0 F1600
G1 X45.952 Y77.898 Z0 F1600
G1 X45.852 Y77.948 Z0 F1600
G1 X45.781 Y77.99 Z0 F1600
G1 X45.741 Y78.023 Z0 F1600
G1 X45.703 Y78.089 Z0 F1600
G1 X45.678 Y78.18 Z0 F1600
G1 X45.67 Y78.307 Z0 F1600
G1 X45.677 Y78.481 Z0 F1600
G1 X45.702 Y78.712 Z0 F1600
G1 X45.745 Y79.013 Z0 F1600
G1 X45.808 Y79.394 Z0 F1600
G1 X46.3 Y82.184 Z0 F1600
G1 X46.362 Y82.526 Z0 F1600
G1 X46.419 Y82.824 Z0 F1600
G1 X46.473 Y83.079 Z0 F1600
G1 X46.523 Y83.292 Z0 F1600
G1 X46.569 Y83.464 Z0 F1600
G1 X46.612 Y83.596 Z0 F1600
G1 X46.651 Y83.688 Z0 F1600
G1 X46.688 Y83.741 Z0 F1600
G1 X46.742 Y83.779 Z0 F1600
G1 X46.828 Y83.81 Z0 F1600
G1 X46.956 Y83.836 Z0 F1600
G1 X47.138 Y83.858 Z0 F1600
G1 X47.387 Y83.876 Z0 F1600
G1 X47.715 Y83.892 Z0 F1600
G1 X48.134 Y83.908 Z0 F1600
G1 X48.655 Y83.923 Z0 F1600
G1 X50.047 Y83.958 Z0 F1600
G1 X50.549 Y83.969 Z0 F1600
G1 X50.825 Y83.973 Z0 F1600
G1 X51.024 Y83.981 Z0 F1600
G1 X51.144 Y84.033 Z0 F1600
G1 X51.189 Y84.088 Z0 F1600
G1 X51.233 Y84.172 Z0 F1600
G1 X51.281 Y84.287 Z0 F1600
G1 X51.494 Y84.843 Z0 F1600
G1 X51.622 Y85.153 Z0 F1600
G1 X51.979 Y85.987 Z0 F1600
G1 X52.571 Y87.39 Z0 F1600
G1 X51.569 Y88.465 Z0 F1600
G1 X50.734 Y89.356 Z0 F1600
G1 X50.136 Y89.989 Z0 F1600
G1 X49.965 Y90.178 Z0 F1600
G1 X49.819 Y90.36 Z0 F1600
G1 X49.712 Y90.514 Z0 F1600
G1 X49.66 Y90.62 Z0 F1600
G1 X49.644 Y90.698 Z0 F1600
G1 X49.652 Y90.784 Z0 F1600
G1 X49.702 Y90.908 Z0 F1600
G1 X49.811 Y91.099 Z0 F1600
G1 X49.894 Y91.229 Z0 F1600
G1 X49.999 Y91.387 Z0 F1600
G1 X50.284 Y91.801 Z0 F1600
G1 X50.684 Y92.372 Z0 F1600
G1 X51.737 Y93.865 Z0 F1600
G1 X52.528 Y94.994 Z0 F1600
G1 X52.703 Y95.247 Z0 F1600
G1 X52.799 Y95.376 Z0 F1600
G1 X52.9 Y95.466 Z0 F1600
G1 X53.015 Y95.517 Z0 F1600
G1 X53.157 Y95.528 Z0 F1600
G1 X53.338 Y95.497 Z0 F1600
G1 X53.568 Y95.425 Z0 F1600
G1 X53.861 Y95.311 Z0 F1600
G1 X54.226 Y95.153 Z0 F1600
G1 X54.66 Y94.96 Z0 F1600
G1 X55.138 Y94.745 Z0 F1600
G1 X55.673 Y94.501 Z0 F1600
G1 X57.198 Y93.801 Z0 F1600
G1 X57.502 Y94.064 Z0 F1600
G1 X57.823 Y94.353 Z0 F1600
G1 X58.315 Y94.818 Z0 F1600
G1 X58.444 Y94.931 Z0 F1600
G1 X58.543 Y95.007 Z0 F1600
G1 X58.597 Y95.035 Z0 F1600
G1 X58.668 Y94.969 Z0 F1600
G1 X58.747 Y94.811 Z0 F1600
G1 X58.862 Y94.534 Z0 F1600
G1 X59.022 Y94.181 Z0 F1600
G1 X59.469 Y93.212 Z0 F1600
G1 X59.924 Y92.209 Z0 F1600
G1 X60.301 Y91.364 Z0 F1600
G1 X60.394 Y91.143 Z0 F1600
G1 X60.441 Y90.972 Z0 F1600
G1 X60.438 Y90.827 Z0 F1600
G1 X60.379 Y90.682 Z0 F1600
G1 X60.259 Y90.515 Z0 F1600
G1 X60.175 Y90.415 Z0 F1600
G1 X59.815 Y90.014 Z0 F1600
G1 X59.247 Y89.357 Z0 F1600
G1 X58.713 Y88.697 Z0 F1600
G1 X58.213 Y88.032 Z0 F1600
G1 X57.746 Y87.362 Z0 F1600
G1 X57.311 Y86.685 Z0 F1600
G1 X56.908 Y85.999 Z0 F1600
G1 X56.536 Y85.305 Z0 F1600
G1 X56.195 Y84.599 Z0 F1600
G1 X55.884 Y83.882 Z0 F1600
G1 X55.603 Y83.151 Z0 F1600
G1 X55.351 Y82.406 Z0 F1600
G1 X55.127 Y81.645 Z0 F1600
G1 X54.931 Y80.868 Z0 F1600
G1 X54.763 Y80.072 Z0 F1600
G1 X54.621 Y79.257 Z0 F1600
G1 X54.506 Y78.421 Z0 F1600
G1 X54.481 Y78.172 Z0 F1600
G1 X54.461 Y77.886 Z0 F1600
G1 X54.447 Y77.569 Z0 F1600
G1 X54.438 Y77.225 Z0 F1600
G1 X54.434 Y76.479 Z0 F1600
G1 X54.449 Y75.688 Z0 F1600
G1 X54.481 Y74.895 Z0 F1600
G1 X54.53 Y74.14 Z0 F1600
G1 X54.56 Y73.79 Z0 F1600
G1 X54.593 Y73.466 Z0 F1600
G1 X54.63 Y73.171 Z0 F1600
G1 X54.67 Y72.913 Z0 F1600
G1 X54.924 Y71.655 Z0 F1600
G1 X55.239 Y70.446 Z0 F1600
G1 X55.618 Y69.282 Z0 F1600
G1 X56.062 Y68.154 Z0 F1600
G1 X56.576 Y67.059 Z0 F1600
G1 X57.161 Y65.989 Z0 F1600
G1 X57.82 Y64.939 Z0 F1600
G1 X58.556 Y63.903 Z0 F1600
G1 X58.702 Y63.715 Z0 F1600
G1 X58.878 Y63.5 Z0 F1600
G1 X59.08 Y63.263 Z0 F1600
G1 X59.304 Y63.008 Z0 F1600
G1 X59.8 Y62.46 Z0 F1600
G1 X60.334 Y61.892 Z0 F1600
G1 X60.871 Y61.337 Z0 F1600
G1 X61.379 Y60.832 Z0 F1600
G1 X61.612 Y60.608 Z0 F1600
G1 X61.826 Y60.41 Z0 F1600
G1 X62.015 Y60.241 Z0 F1600
G1 X62.327 Y59.982 Z0 F1600
G1 X62.449 Y59.871 Z0 F1600
G1 X62.532 Y59.785 Z0 F1600
G1 X62.563 Y59.737 Z0 F1600
G0 Z3.5 F1000

; Color picking sequence
G1 Z10 F1000;         ; Raise brush
G0 X131 Y5 F1200;    ; Rapid move to color 1
G1 Z10 F1000;         ; Raise brush
G0 X131 Y5 F1200;    ; Rapid move to color 1
G1 Z0 F1000;         ; Lower into color
G1 X130.102 Y7.295 Z0 S800 F1200
G1 X130.026 Y7.642 Z0 F1200
G1 X130 Y8 Z0 F1200
G1 X130.026 Y8.358 Z0 F1200
G1 X130.102 Y8.705 Z0 F1200
G1 X130.225 Y9.041 Z0 F1200
G1 X130.393 Y9.362 Z0 F1200
G1 X130.603 Y9.668 Z0 F1200
G1 X130.854 Y9.957 Z0 F1200
G1 X131.142 Y10.226 Z0 F1200
G1 X131.464 Y10.475 Z0 F1200
G1 X131.82 Y10.701 Z0 F1200
G1 X132.204 Y10.902 Z0 F1200
G1 X132.617 Y11.078 Z0 F1200
G1 X133.054 Y11.225 Z0 F1200
G1 X133.513 Y11.343 Z0 F1200
G1 X133.992 Y11.429 Z0 F1200
G1 X134.489 Y11.482 Z0 F1200
G1 X135 Y11.5 Z0 F1200
G1 X135.511 Y11.482 Z0 F1200
G1 X136.008 Y11.429 Z0 F1200
G1 X136.487 Y11.343 Z0 F1200
G1 X136.946 Y11.225 Z0 F1200
G1 X137.383 Y11.078 Z0 F1200
G1 X137.796 Y10.902 Z0 F1200
G1 X138.18 Y10.701 Z0 F1200
G1 X138.536 Y10.475 Z0 F1200
G1 X138.858 Y10.226 Z0 F1200
G1 X139.146 Y9.957 Z0 F1200
G1 X139.397 Y9.668 Z0 F1200
G1 X139.607 Y9.362 Z0 F1200
G1 X139.775 Y9.041 Z0 F1200
G1 X139.898 Y8.705 Z0 F1200
G1 X139.974 Y8.358 Z0 F1200
G1 X140 Y8 Z0 F1200
G1 X139.974 Y7.642 Z0 F1200
G1 X139.898 Y7.295 Z0 F1200
G1 X139.775 Y6.959 Z0 F1200
G1 X139.607 Y6.638 Z0 F1200
G1 X139.397 Y6.332 Z0 F1200
G1 X139.146 Y6.043 Z0 F1200
G1 X138.858 Y5.774 Z0 F1200
G1 X138.536 Y5.525 Z0 F1200
G1 X138.18 Y5.299 Z0 F1200
G1 X137.796 Y5.098 Z0 F1200
G1 X137.383 Y4.922 Z0 F1200
G1 X136.946 Y4.775 Z0 F1200
G1 X136.487 Y4.657 Z0 F1200
G1 X136.008 Y4.571 Z0 F1200
G1 X135.511 Y4.518 Z0 F1200
G1 X135 Y4.5 Z0 F1200
G1 X134.489 Y4.518 Z0 F1200
G1 X133.992 Y4.571 Z0 F1200
G1 X133.513 Y4.657 Z0 F1200
G1 X133.054 Y4.775 Z0 F1200
G1 X132.617 Y4.922 Z0 F1200
G1 X132.204 Y5.098 Z0 F1200
G1 X131.82 Y5.299 Z0 F1200
G1 X131.464 Y5.525 Z0 F1200
G1 X131.142 Y5.774 Z0 F1200
G1 X130.854 Y6.043 Z0 F1200
G1 X130.603 Y6.332 Z0 F1200
G1 X130.393 Y6.638 Z0 F1200
G1 X130.225 Y6.959 Z0 F1200
G1 Z7 F800;         ; Raise from color
G1 X124 Y8 Z1 F1200;     ; Movement in paint
G1 X114 Y18 Z8 F500;     ; Move in paint
G1 F1200;           ; Set feed rate
G0 Z2.5 F1000 ; Safety Lift
G0 X62.563 Y59.737 F1200 ; Return to pos
G0 X66.237 Y94.71 Z3.5
G1 Z0 F1000
G1 X66.214 Y94.725 Z0 F1600
G1 X66.172 Y94.769 Z0 F1600
G1 X66.114 Y94.839 Z0 F1600
G1 X66.043 Y94.931 Z0 F1600
G1 X65.868 Y95.17 Z0 F1600
G1 X65.665 Y95.462 Z0 F1600
G1 X65.456 Y95.77 Z0 F1600
G1 X65.178 Y96.175 Z0 F1600
G1 X64.955 Y96.491 Z0 F1600
G1 X64.406 Y97.287 Z0 F1600
G1 X63.301 Y98.905 Z0 F1600
G1 X62.561 Y99.981 Z0 F1600
G1 X61.689 Y101.239 Z0 F1600
G1 X61.464 Y101.576 Z0 F1600
G1 X61.379 Y101.707 Z0 F1600
G1 X61.317 Y101.807 Z0 F1600
G1 X61.28 Y101.873 Z0 F1600
G1 X61.272 Y101.9 Z0 F1600
G1 X61.338 Y101.945 Z0 F1600
G1 X61.458 Y102.013 Z0 F1600
G1 X61.625 Y102.102 Z0 F1600
G1 X61.829 Y102.207 Z0 F1600
G1 X62.323 Y102.452 Z0 F1600
G1 X62.877 Y102.719 Z0 F1600
G1 X63.429 Y102.978 Z0 F1600
G1 X63.917 Y103.2 Z0 F1600
G1 X64.118 Y103.287 Z0 F1600
G1 X64.28 Y103.354 Z0 F1600
G1 X64.394 Y103.397 Z0 F1600
G1 X64.454 Y103.412 Z0 F1600
G1 X64.576 Y103.389 Z0 F1600
G1 X64.704 Y103.307 Z0 F1600
G1 X64.776 Y103.239 Z0 F1600
G1 X64.857 Y103.151 Z0 F1600
G1 X64.949 Y103.04 Z0 F1600
G1 X65.427 Y102.425 Z0 F1600
G1 X66.145 Y101.534 Z0 F1600
G1 X66.729 Y100.783 Z0 F1600
G1 X66.89 Y100.58 Z0 F1600
G1 X67.017 Y100.424 Z0 F1600
G1 X67.2 Y100.213 Z0 F1600
G1 X67.315 Y100.062 Z0 F1600
G1 X67.385 Y99.976 Z0 F1600
G1 X67.453 Y99.937 Z0 F1600
G1 X67.539 Y99.941 Z0 F1600
G1 X67.883 Y100.057 Z0 F1600
G1 X68.193 Y100.148 Z0 F1600
G1 X68.564 Y100.246 Z0 F1600
G1 X68.968 Y100.345 Z0 F1600
G1 X69.375 Y100.438 Z0 F1600
G1 X69.757 Y100.519 Z0 F1600
G1 X70.086 Y100.58 Z0 F1600
G1 X70.334 Y100.616 Z0 F1600
G1 X70.586 Y100.649 Z0 F1600
G1 X70.764 Y100.691 Z0 F1600
G1 X70.879 Y100.745 Z0 F1600
G1 X70.944 Y100.817 Z0 F1600
G1 X70.968 Y100.888 Z0 F1600
G1 X71.006 Y101.033 Z0 F1600
G1 X71.056 Y101.243 Z0 F1600
G1 X71.117 Y101.511 Z0 F1600
G1 X71.185 Y101.826 Z0 F1600
G1 X71.34 Y102.565 Z0 F1600
G1 X71.509 Y103.406 Z0 F1600
G1 X71.593 Y103.8 Z0 F1600
G1 X71.67 Y104.149 Z0 F1600
G1 X71.74 Y104.447 Z0 F1600
G1 X71.803 Y104.692 Z0 F1600
G1 X71.856 Y104.876 Z0 F1600
G1 X71.898 Y104.997 Z0 F1600
G1 X71.929 Y105.049 Z0 F1600
G1 X71.955 Y105.056 Z0 F1600
G1 X72.011 Y105.062 Z0 F1600
G1 X72.094 Y105.069 Z0 F1600
G1 X72.204 Y105.075 Z0 F1600
G1 X72.495 Y105.087 Z0 F1600
G1 X72.872 Y105.098 Z0 F1600
G1 X73.321 Y105.106 Z0 F1600
G1 X73.832 Y105.113 Z0 F1600
G1 X74.39 Y105.117 Z0 F1600
G1 X74.985 Z0 F1600
G1 X77.931 Y105.12 Z0 F1600
G1 X78.05 Y104.937 Z0 F1600
G1 X78.107 Y104.808 Z0 F1600
G1 X78.175 Y104.593 Z0 F1600
G1 X78.244 Y104.321 Z0 F1600
G1 X78.306 Y104.022 Z0 F1600
G1 X78.591 Y102.553 Z0 F1600
G1 X78.962 Y100.692 Z0 F1600
G1 X79.689 Y100.59 Z0 F1600
G1 X80.054 Y100.529 Z0 F1600
G1 X80.511 Y100.437 Z0 F1600
G1 X81.003 Y100.328 Z0 F1600
G1 X81.469 Y100.212 Z0 F1600
G1 X82.523 Y99.936 Z0 F1600
G1 X82.689 Y100.149 Z0 F1600
G1 X83.384 Y101.027 Z0 F1600
G1 X83.889 Y101.669 Z0 F1600
G1 X84.615 Y102.612 Z0 F1600
G1 X84.821 Y102.874 Z0 F1600
G1 X84.986 Y103.072 Z0 F1600
G1 X85.118 Y103.217 Z0 F1600
G1 X85.225 Y103.315 Z0 F1600
G1 X85.315 Y103.374 Z0 F1600
G1 X85.397 Y103.404 Z0 F1600
G1 X85.479 Y103.412 Z0 F1600
G1 X85.553 Y103.396 Z0 F1600
G1 X85.684 Y103.349 Z0 F1600
G1 X85.861 Y103.277 Z0 F1600
G1 X86.077 Y103.182 Z0 F1600
G1 X86.592 Y102.943 Z0 F1600
G1 X87.163 Y102.667 Z0 F1600
G1 X87.723 Y102.384 Z0 F1600
G1 X88.205 Y102.129 Z0 F1600
G1 X88.396 Y102.023 Z0 F1600
G1 X88.543 Y101.935 Z0 F1600
G1 X88.637 Y101.871 Z0 F1600
G1 X88.671 Y101.834 Z0 F1600
G1 X88.638 Y101.742 Z0 F1600
G1 X88.559 Y101.629 Z0 F1600
G1 X88.523 Y101.583 Z0 F1600
G1 X88.375 Y101.383 Z0 F1600
G1 X88.015 Y100.879 Z0 F1600
G1 X87.415 Y100.028 Z0 F1600
G1 X86.992 Y99.42 Z0 F1600
G1 X86.773 Y99.1 Z0 F1600
G1 X86.438 Y98.605 Z0 F1600
G1 X85.828 Y97.728 Z0 F1600
G1 X85.39 Y97.088 Z0 F1600
G1 X84.819 Y96.249 Z0 F1600
G1 X84.121 Y95.218 Z0 F1600
G1 X83.981 Y95.021 Z0 F1600
G1 X83.854 Y94.859 Z0 F1600
G1 X83.755 Y94.75 Z0 F1600
G1 X83.696 Y94.71 Z0 F1600
G1 X83.619 Y94.729 Z0 F1600
G1 X83.47 Y94.784 Z0 F1600
G1 X83.27 Y94.864 Z0 F1600
G1 X83.041 Y94.961 Z0 F1600
G1 X82.446 Y95.202 Z0 F1600
G1 X81.776 Y95.437 Z0 F1600
G1 X81.054 Y95.661 Z0 F1600
G1 X80.301 Y95.867 Z0 F1600
G1 X79.538 Y96.051 Z0 F1600
G1 X78.788 Y96.207 Z0 F1600
G1 X78.072 Y96.329 Z0 F1600
G1 X77.412 Y96.412 Z0 F1600
G1 X76.89 Y96.452 Z0 F1600
G1 X76.295 Y96.479 Z0 F1600
G1 X75.649 Y96.493 Z0 F1600
G1 X74.978 Z0 F1600
G1 X74.305 Y96.483 Z0 F1600
G1 X73.653 Y96.459 Z0 F1600
G1 X73.048 Y96.423 Z0 F1600
G1 X72.514 Y96.376 Z0 F1600
G1 X71.756 Y96.278 Z0 F1600
G1 X70.987 Y96.15 Z0 F1600
G1 X70.217 Y95.995 Z0 F1600
G1 X69.459 Y95.816 Z0 F1600
G1 X68.723 Y95.616 Z0 F1600
G1 X68.022 Y95.398 Z0 F1600
G1 X67.367 Y95.164 Z0 F1600
G1 X66.77 Y94.919 Z0 F1600
G1 X66.582 Y94.837 Z0 F1600
G1 X66.419 Y94.771 Z0 F1600
G1 X66.298 Y94.726 Z0 F1600
G1 X66.237 Y94.71 Z0 F1600
M9
M5
G1 Z10 F1000
G1 Z10 F800


; Return to 2,0 wash and park
G1 Z10 F1000;        ; Raise brush
G0 X5 Y5 F1200;     ; Rapid move to clean
G1 Z-1 F800;         ; Lower brush
G1 X10 Y12 Z8 F1200;     ; Move
G1 Z-1 F800;         ; Lower
G1 X25 Y14 Z6 F800;     ; Move
G0 X5 Y5 F1200;     ; Rapid
G1 Z-1 F800;         ; Lower
G1 X15 Y12 Z8 F1200;     ; Move
G1 Z-1 F800;         ; Lower
G1 X25 Y14 Z6 F800;     ; Move
G1 Z10 F800;         ; Maintain
G0 X20 Y130 Z10 F500;; Move to park
M2;                 ; End program
