G90 ; Force absolute mode
;LightBurn 1.6.04
;Custom GCode device profile, absolute coords
;Bounds: X26.23 Y63.1 to X61.77 Y100.9
G00 G17 G40 G21 G54
M3
G1 Z10 F400
;Cut @ 333 mm/min, 80% power

M8
G0 Z3.5 F400
G0 X35.878 Y64.391 Z3.5
G1 Z0 F400
;Layer C3
; --- FIX X Backlash ---
G0 X35.178 Y64.391 F410
G1 X35.113 Z0 F400
G1 X34.531 Y64.65 Z0 F400
; --- FIX X Backlash ---
G0 X35.231 Y64.65 F410
G1 X36.266 Y65.557 Z0 F400
; --- FIX Y Backlash ---
G0 X36.266 Y65.057 F410
G1 X36.434 Y64.647 Z0 F400
G1 X36.534 Y64.393 Z0 F400
G1 X36.636 Y64.121 Z0 F400
G1 X36.731 Y63.855 Z0 F400
G1 X36.805 Y63.619 Z0 F400
G1 X36.849 Y63.438 Z0 F400
G1 X36.829 Y63.299 Z0 F400
; --- FIX X Backlash ---
G0 X36.129 Y63.299 F410
G1 X36.035 Y63.173 Z0 F400
G1 X35.891 Y63.063 Z0 F400
G1 X35.72 Y62.969 Z0 F400
G1 X35.547 Y62.893 Z0 F400
G1 X35.394 Y62.837 Z0 F400
G1 X35.243 Y62.791 Z0 F400
G1 X35.19 Y62.803 Z0 F400
G1 X35.049 Y62.839 Z0 F400
; --- FIX Y Backlash ---
G0 X35.049 Y63.339 F410
G1 X34.847 Y63.4 Z0 F400
G1 X34.612 Y63.485 Z0 F400
G1 X34.37 Y63.594 Z0 F400
G1 X34.15 Y63.728 Z0 F400
G1 X33.979 Y63.885 Z0 F400
G1 X33.883 Y64.068 Z0 F400
G1 X33.813 Y64.286 Z0 F400
G1 X33.707 Y64.539 Z0 F400
G1 X33.581 Y64.807 Z0 F400
G1 X33.446 Y65.071 Z0 F400
G1 X33.318 Y65.31 Z0 F400
G1 X33.21 Y65.506 Z0 F400
G1 X33.106 Y65.686 Z0 F400
; --- FIX X Backlash ---
G0 X33.806 Y65.686 F410
G1 X34.065 Y65.767 Z0 F400
G1 X34.339 Y65.85 Z0 F400
G1 X34.664 Y65.945 Z0 F400
G1 X35.008 Y66.04 Z0 F400
G1 X35.336 Y66.123 Z0 F400
G1 X35.616 Y66.182 Z0 F400
G1 X35.813 Y66.204 Z0 F400
G1 X37.367 Z0 F400
G1 X37.495 Y66.238 Z0 F400
G1 X37.592 Y66.331 Z0 F400
G1 X37.661 Y66.47 Z0 F400
G1 X37.707 Y66.641 Z0 F400
G1 X37.749 Y67.023 Z0 F400
G1 X37.755 Y67.369 Z0 F400
G1 X37.789 Y67.561 Z0 F400
G1 X37.877 Y67.826 Z0 F400
G1 X38.001 Y68.134 Z0 F400
G1 X38.144 Y68.454 Z0 F400
G1 X38.287 Y68.755 Z0 F400
G1 X38.461 Y69.107 Z0 F400
G1 X38.532 Y69.247 Z0 F400
G1 X38.662 Y69.318 Z0 F400
G1 X38.805 Y69.393 Z0 F400
G1 X38.985 Y69.481 Z0 F400
G1 X39.406 Y69.656 Z0 F400
G1 X39.827 Y69.764 Z0 F400
G1 X40.031 Y69.814 Z0 F400
G1 X40.248 Y69.903 Z0 F400
G1 X40.464 Y70.018 Z0 F400
G1 X40.669 Y70.145 Z0 F400
G1 X40.849 Y70.268 Z0 F400
G1 X40.992 Y70.374 Z0 F400
G1 X41.122 Y70.477 Z0 F400
G1 X41.64 Y71.642 Z0 F400
G1 X42.158 Y72.419 Z0 F400
; --- FIX X Backlash ---
G0 X41.458 Y72.419 F410
G1 X41.263 Y77.468 Z0 F400
G0 Z3.5 F400
; --- FIX X Backlash ---
G0 X41.963 Y77.468 F410
; --- FIX Y Backlash ---
G0 X41.963 Y76.968 F410
G0 X47.531 Y76.548 Z3.5 F400
G1 Z0 F400
; --- FIX X Backlash ---
G0 X46.831 Y76.548 F410
G1 X46.766 Y72.534 Z0 F400
G0 Z3.5 F400
; --- FIX X Backlash ---
G0 X47.466 Y72.534 F410
G0 X50.023 Z3.5
G1 Z0 F400
; --- FIX X Backlash ---
G0 X49.323 Y72.534 F410
; --- FIX Y Backlash ---
G0 X49.323 Y73.034 F410
G1 X49.097 Y77.145 Z0 F400
G0 Z3.5 F400
; --- FIX X Backlash ---
G0 X49.797 Y77.145 F410
; --- FIX Y Backlash ---
G0 X49.797 Y76.645 F410
G0 X52.386 Y76.45 Z3.5
G1 Z0 F400
; --- FIX X Backlash ---
G0 X51.686 Y76.45 F410
G1 X51.622 Y72.178 Z0 F400
G0 Z3.5 F400
; --- FIX X Backlash ---
G0 X52.322 Y72.178 F410
G0 X53.726 Y65.52 Z3.5
G1 Z0 F400
G1 X54.686 Y65.371 Z0 F400
; --- FIX Y Backlash ---
G0 X54.686 Y65.871 F410
G1 X54.643 Y66.556 Z0 F400
; --- FIX X Backlash ---
G0 X53.943 Y66.556 F410
G1 X53.521 Y67.513 Z0 F400
; --- FIX Y Backlash ---
G0 X53.521 Y67.013 F410
G1 X53.021 Y66.545 Z0 F400
G1 X52.006 Y64.906 Z0 F400
; --- FIX X Backlash ---
G0 X52.706 Y64.906 F410
G1 X55.179 Y64.015 Z0 F400
; --- FIX Y Backlash ---
G0 X55.179 Y64.515 F410
G1 X55.594 Y66.021 Z0 F400
; --- FIX X Backlash ---
G0 X54.894 Y66.021 F410
G1 X54.415 Y67.494 Z0 F400
G1 X53.531 Y68.936 Z0 F400
; --- FIX Y Backlash ---
G0 X53.531 Y68.436 F410
G1 X52.157 Y66.934 Z0 F400
G1 X50.989 Y65.228 Z0 F400
G0 Z3.5 F400
G0 X46.378 Y64.021 Z3.5
G1 Z0 F400
G1 X46.29 Y63.996 Z0 F400
G1 X46.19 Y63.964 Z0 F400
G1 X46.062 Y63.92 Z0 F400
G1 X45.75 Y63.789 Z0 F400
G1 X45.407 Y63.6 Z0 F400
G1 X45.233 Y63.512 Z0 F400
G1 X45.057 Y63.462 Z0 F400
G1 X44.883 Y63.441 Z0 F400
G1 X44.719 Z0 F400
G1 X44.57 Y63.457 Z0 F400
G1 X44.442 Y63.477 Z0 F400
G1 X44.341 Y63.495 Z0 F400
G1 X44.274 Y63.503 Z0 F400
G1 X43.74 Y63.422 Z0 F400
G1 X43.303 Y63.341 Z0 F400
; --- FIX Y Backlash ---
G0 X43.303 Y63.841 F410
G1 X42.85 Y64.521 Z0 F400
; --- FIX X Backlash ---
G0 X43.55 Y64.521 F410
G1 X44.557 Y64.658 Z0 F400
G1 X44.939 Y64.714 Z0 F400
G1 X45.284 Y64.767 Z0 F400
G1 X45.548 Y64.812 Z0 F400
G1 X45.635 Y64.83 Z0 F400
G1 X45.686 Y64.844 Z0 F400
G1 X45.79 Y64.884 Z0 F400
G1 X45.968 Y64.948 Z0 F400
G1 X46.197 Y65.026 Z0 F400
G1 X46.459 Y65.111 Z0 F400
G1 X46.731 Y65.193 Z0 F400
G1 X46.992 Y65.263 Z0 F400
G1 X47.223 Y65.312 Z0 F400
G1 X47.401 Y65.33 Z0 F400
G1 X47.544 Y65.292 Z0 F400
; --- FIX Y Backlash ---
G0 X47.544 Y64.792 F410
G1 X47.677 Y64.69 Z0 F400
G1 X47.797 Y64.541 Z0 F400
G1 X47.903 Y64.365 Z0 F400
G1 X47.991 Y64.177 Z0 F400
G1 X48.057 Y63.997 Z0 F400
G1 X48.099 Y63.842 Z0 F400
G1 X48.114 Y63.729 Z0 F400
; --- FIX X Backlash ---
G0 X47.414 Y63.729 F410
G1 X47.358 Y63.512 Z0 F400
G1 X47.236 Y63.256 Z0 F400
G1 X47.17 Y63.139 Z0 F400
G1 X47.058 Y62.953 Z0 F400
G1 X46.107 Y62.774 Z0 F400
G1 X45.741 Y62.709 Z0 F400
G1 X45.405 Y62.652 Z0 F400
G1 X45.14 Y62.612 Z0 F400
G1 X45.046 Y62.6 Z0 F400
G1 X44.986 Y62.596 Z0 F400
G1 X44.759 Y62.63 Z0 F400
; --- FIX Y Backlash ---
G0 X44.759 Y63.13 F410
G1 X44.456 Y63.218 Z0 F400
G1 X44.135 Y63.342 Z0 F400
G1 X43.853 Y63.485 Z0 F400
G1 X43.691 Y63.563 Z0 F400
G1 X43.464 Y63.649 Z0 F400
G1 X43.194 Y63.738 Z0 F400
G1 X42.902 Y63.825 Z0 F400
G1 X42.612 Y63.906 Z0 F400
G1 X42.346 Y63.977 Z0 F400
G1 X42.127 Y64.032 Z0 F400
G1 X41.976 Y64.068 Z0 F400
G1 X41.738 Y64.173 Z0 F400
G1 X41.486 Y64.355 Z0 F400
G1 X41.252 Y64.555 Z0 F400
G1 X41.069 Y64.715 Z0 F400
G1 X41.02 Y64.788 Z0 F400
G1 X41.013 Y64.879 Z0 F400
G1 X41.035 Y64.981 Z0 F400
G1 X41.077 Y65.083 Z0 F400
; --- FIX X Backlash ---
G0 X41.777 Y65.083 F410
G1 X41.829 Y65.178 Z0 F400
G1 X41.878 Y65.257 Z0 F400
G1 X41.931 Y65.33 Z0 F400
; --- FIX Y Backlash ---
G0 X41.931 Y64.83 F410
G1 X42.574 Y64.725 Z0 F400
G1 X43.119 Y64.639 Z0 F400
G1 X43.582 Y64.571 Z0 F400
G1 X43.93 Y64.575 Z0 F400
; --- FIX Y Backlash ---
G0 X43.93 Y65.075 F410
G1 X44.233 Y65.152 Z0 F400
G1 X44.47 Y65.253 Z0 F400
G1 X44.618 Y65.33 Z0 F400
G1 X44.652 Y65.396 Z0 F400
G1 X44.662 Y65.529 Z0 F400
G1 X44.654 Y65.707 Z0 F400
G1 X44.634 Y65.904 Z0 F400
G1 X44.608 Y66.099 Z0 F400
G1 X44.581 Y66.268 Z0 F400
G1 X44.553 Y66.43 Z0 F400
G1 X44.535 Y66.629 Z0 F400
G1 X44.514 Y66.84 Z0 F400
G1 X44.484 Y67.094 Z0 F400
G1 X44.447 Y67.366 Z0 F400
G1 X44.403 Y67.632 Z0 F400
; --- FIX X Backlash ---
G0 X43.703 Y67.632 F410
G1 X43.652 Y67.868 Z0 F400
G1 X43.594 Y68.049 Z0 F400
G1 X43.521 Y68.39 Z0 F400
G1 X43.517 Y68.761 Z0 F400
G1 X43.529 Y68.926 Z0 F400
G1 X43.544 Y69.059 Z0 F400
G1 X43.562 Y69.182 Z0 F400
; --- FIX X Backlash ---
G0 X44.262 Y69.182 F410
G1 X45.168 Y69.538 Z0 F400
; --- FIX Y Backlash ---
G0 X45.168 Y69.038 F410
G1 X45.649 Y68.791 Z0 F400
G1 X46.056 Y68.587 Z0 F400
G1 X46.398 Y68.423 Z0 F400
G1 X46.546 Y68.39 Z0 F400
G1 X46.715 Y68.405 Z0 F400
G1 X46.892 Y68.454 Z0 F400
; --- FIX Y Backlash ---
G0 X46.892 Y68.954 F410
G1 X47.066 Y69.024 Z0 F400
G1 X47.222 Y69.101 Z0 F400
G1 X47.349 Y69.173 Z0 F400
G1 X47.466 Y69.247 Z0 F400
; --- FIX X Backlash ---
G0 X46.766 Y69.247 F410
G1 X46.292 Y69.325 Z0 F400
G1 X46.006 Y69.376 Z0 F400
G1 X45.707 Y69.433 Z0 F400
G1 X45.428 Y69.492 Z0 F400
G1 X45.199 Y69.55 Z0 F400
G1 X45.051 Y69.603 Z0 F400
G1 X44.935 Y69.627 Z0 F400
G1 X44.787 Y69.612 Z0 F400
G1 X44.612 Y69.567 Z0 F400
; --- FIX Y Backlash ---
G0 X44.612 Y69.067 F410
G1 X44.004 Y68.875 Z0 F400
G1 X43.594 Y68.811 Z0 F400
G1 X43.433 Y68.831 Z0 F400
; --- FIX Y Backlash ---
G0 X43.433 Y69.331 F410
G1 X43.33 Y69.388 Z0 F400
G1 X43.274 Y69.473 Z0 F400
G1 X43.254 Y69.582 Z0 F400
G1 X43.275 Y69.844 Z0 F400
G1 X43.303 Y70.121 Z0 F400
G1 X43.324 Y70.269 Z0 F400
; --- FIX X Backlash ---
G0 X44.024 Y70.269 F410
G1 X44.08 Y70.441 Z0 F400
G1 X44.161 Y70.627 Z0 F400
G1 X44.258 Y70.816 Z0 F400
G1 X44.358 Y71 Z0 F400
G1 X44.532 Y71.309 Z0 F400
G1 X44.585 Y71.415 Z0 F400
G1 X44.62 Y71.527 Z0 F400
G1 X44.652 Y71.681 Z0 F400
G1 X44.681 Y71.863 Z0 F400
G1 X44.707 Y72.059 Z0 F400
G1 X44.766 Y72.577 Z0 F400
G1 X44.78 Y72.678 Z0 F400
G1 X44.812 Y73.058 Z0 F400
G1 X44.844 Y73.39 Z0 F400
G1 X44.85 Y73.535 Z0 F400
G1 X44.82 Y73.754 Z0 F400
; --- FIX X Backlash ---
G0 X44.12 Y73.754 F410
G1 X44.053 Y74.009 Z0 F400
G1 X43.95 Y74.264 Z0 F400
G1 X43.897 Y74.406 Z0 F400
G1 X43.857 Y74.583 Z0 F400
G1 X43.829 Y74.783 Z0 F400
G1 X43.812 Y74.996 Z0 F400
G1 X43.804 Y75.415 Z0 F400
G1 X43.821 Y75.753 Z0 F400
; --- FIX X Backlash ---
G0 X44.521 Y75.753 F410
G1 X44.602 Y76.538 Z0 F400
G1 X44.682 Y77.274 Z0 F400
G1 X44.687 Y77.417 Z0 F400
G1 X44.68 Y77.619 Z0 F400
G1 X44.664 Y77.863 Z0 F400
G1 X44.642 Y78.136 Z0 F400
; --- FIX X Backlash ---
G0 X43.942 Y78.136 F410
G1 X43.891 Y78.708 Z0 F400
G1 X43.853 Y79.216 Z0 F400
G1 X43.784 Y79.629 Z0 F400
G1 X43.663 Y79.969 Z0 F400
G1 X43.601 Y80.1 Z0 F400
G1 X43.548 Y80.199 Z0 F400
G1 X43.497 Y80.284 Z0 F400
G1 X42.623 Z0 F400
; --- FIX Y Backlash ---
G0 X42.623 Y79.784 F410
G1 X42.04 Y79.704 Z0 F400
G1 X41.361 Y79.623 Z0 F400
; --- FIX Y Backlash ---
G0 X41.361 Y80.123 F410
G1 X41.225 Y80.188 Z0 F400
G1 X41.053 Y80.333 Z0 F400
G1 X40.972 Y80.41 Z0 F400
G1 X40.843 Y80.543 Z0 F400
; --- FIX X Backlash ---
G0 X41.543 Y80.543 F410
G1 X41.769 Y81.32 Z0 F400
G1 X41.996 Y82.356 Z0 F400
G0 Z3.5 F400
; --- FIX Y Backlash ---
G0 X41.996 Y81.856 F410
G0 X42.002 Y81.686 Z3.5
G1 Z0 F400
; --- FIX X Backlash ---
G0 X41.302 Y81.686 F410
; --- FIX Y Backlash ---
G0 X41.302 Y82.186 F410
G1 X41.165 Y87.313 Z0 F400
G0 Z3.5 F400
; --- FIX X Backlash ---
G0 X41.865 Y87.313 F410
; --- FIX Y Backlash ---
G0 X41.865 Y86.813 F410
G0 X41.956 Y86.676 Z3.5
G1 Z0 F400
G1 X41.911 Y83.929 Z0 F400
G1 X42.185 Y82.418 Z0 F400
; --- FIX X Backlash ---
G0 X41.485 Y82.418 F410
G1 X41.165 Y80.725 Z0 F400
G0 Z3.5 F400
; --- FIX X Backlash ---
G0 X41.865 Y80.725 F410
; --- FIX Y Backlash ---
G0 X41.865 Y81.225 F410
G0 X44.52 Y82.918 Z3.5
G1 Z0 F400
G1 X44.611 Y85.573 Z0 F400
; --- FIX X Backlash ---
G0 X43.911 Y85.573 F410
G1 X43.82 Y87.725 Z0 F400
G1 X43.815 Y87.956 Z0 F400
G1 X43.803 Y88.196 Z0 F400
G1 X43.78 Y88.475 Z0 F400
G1 X43.742 Y88.76 Z0 F400
G1 X43.685 Y89.019 Z0 F400
G1 X43.605 Y89.219 Z0 F400
G1 X43.499 Y89.327 Z0 F400
G1 X43.347 Y89.396 Z0 F400
G1 X43.143 Y89.492 Z0 F400
G1 X42.67 Y89.722 Z0 F400
G1 X42.08 Y90.014 Z0 F400
; --- FIX Y Backlash ---
G0 X42.08 Y89.514 F410
G1 X40.295 Y89.285 Z0 F400
; --- FIX Y Backlash ---
G0 X40.295 Y89.785 F410
G1 X38.83 Y90.197 Z0 F400
G1 X38.144 Y90.975 Z0 F400
G1 X38.098 Y92.12 Z0 F400
; --- FIX X Backlash ---
G0 X38.798 Y92.12 F410
G1 X40.585 Y92.707 Z0 F400
; --- FIX X Backlash ---
G0 X39.885 Y92.707 F410
G1 X38.098 Y92.989 Z0 F400
; --- FIX X Backlash ---
G0 X38.798 Y92.989 F410
G1 X39.329 Y94.27 Z0 F400
; --- FIX X Backlash ---
G0 X38.629 Y94.27 F410
; --- FIX Y Backlash ---
G0 X38.629 Y93.77 F410
G1 X37.32 Y92.169 Z0 F400
; --- FIX Y Backlash ---
G0 X37.32 Y92.669 F410
G1 X36.923 Y94.426 Z0 F400
; --- FIX Y Backlash ---
G0 X36.923 Y93.926 F410
G1 X36.725 Y92.032 Z0 F400
; --- FIX Y Backlash ---
G0 X36.725 Y92.532 F410
G1 X35.627 Y93.61 Z0 F400
; --- FIX X Backlash ---
G0 X36.327 Y93.61 F410
; --- FIX Y Backlash ---
G0 X36.327 Y93.11 F410
G1 X37.791 Y91.528 Z0 F400
; --- FIX X Backlash ---
G0 X37.091 Y91.528 F410
G1 X35.372 Y90.795 Z0 F400
; --- FIX X Backlash ---
G0 X36.072 Y90.795 F410
; --- FIX Y Backlash ---
G0 X36.072 Y91.295 F410
G1 X38.157 Y91.708 Z0 F400
; --- FIX X Backlash ---
G0 X37.457 Y91.708 F410
; --- FIX Y Backlash ---
G0 X37.457 Y91.208 F410
G1 X37.365 Y89.697 Z0 F400
; --- FIX X Backlash ---
G0 X38.065 Y89.697 F410
G1 X38.981 Y89.422 Z0 F400
G0 Z3.5 F400
; --- FIX X Backlash ---
G0 X38.281 Y89.422 F410
; --- FIX Y Backlash ---
G0 X38.281 Y89.922 F410
G0 X31.585 Y90.416 Z3.5
G1 Z0 F400
; --- FIX X Backlash ---
G0 X32.285 Y90.416 F410
G1 X32.373 Y90.591 Z0 F400
G1 X32.467 Y90.766 Z0 F400
G1 X32.58 Y90.961 Z0 F400
G1 X32.701 Y91.148 Z0 F400
G1 X32.82 Y91.296 Z0 F400
G1 X32.926 Y91.378 Z0 F400
G1 X33.008 Y91.365 Z0 F400
; --- FIX Y Backlash ---
G0 X33.008 Y90.865 F410
G1 X33.154 Y90.708 Z0 F400
G1 X33.292 Y90.553 Z0 F400
G1 X33.407 Y90.413 Z0 F400
G1 X33.483 Y90.304 Z0 F400
G1 X33.503 Y90.168 Z0 F400
G1 X33.477 Y89.951 Z0 F400
; --- FIX X Backlash ---
G0 X32.777 Y89.951 F410
G1 X32.717 Y89.683 Z0 F400
G1 X32.637 Y89.394 Z0 F400
G1 X32.551 Y89.116 Z0 F400
G1 X32.441 Y88.787 Z0 F400
G1 X32.394 Y88.654 Z0 F400
; --- FIX Y Backlash ---
G0 X32.394 Y89.154 F410
G1 X32.188 Y89.228 Z0 F400
G1 X31.971 Y89.311 Z0 F400
G1 X31.715 Y89.413 Z0 F400
G1 X31.446 Y89.527 Z0 F400
G1 X31.193 Y89.645 Z0 F400
G1 X30.982 Y89.761 Z0 F400
G1 X30.841 Y89.866 Z0 F400
G1 X30.772 Y89.991 Z0 F400
G1 X30.753 Y90.164 Z0 F400
G1 X30.773 Y90.37 Z0 F400
G1 X30.82 Y90.598 Z0 F400
; --- FIX X Backlash ---
G0 X31.52 Y90.598 F410
G1 X31.767 Y91.452 Z0 F400
G1 X31.814 Y91.584 Z0 F400
G1 X31.878 Y91.674 Z0 F400
G1 X31.952 Y91.734 Z0 F400
G1 X32.026 Y91.775 Z0 F400
G1 X32.095 Y91.811 Z0 F400
G1 X32.15 Y91.852 Z0 F400
G1 X32.183 Y91.912 Z0 F400
G1 X32.188 Y92.002 Z0 F400
G1 X32.163 Y92.148 Z0 F400
G1 X32.114 Y92.358 Z0 F400
; --- FIX X Backlash ---
G0 X31.414 Y92.358 F410
G1 X31.346 Y92.617 Z0 F400
G1 X31.261 Y92.908 Z0 F400
G1 X31.06 Y93.531 Z0 F400
G1 X30.841 Y94.106 Z0 F400
G1 X30.727 Y94.345 Z0 F400
G1 X30.609 Y94.552 Z0 F400
G1 X30.489 Y94.731 Z0 F400
G1 X30.371 Y94.883 Z0 F400
G1 X30.158 Y95.117 Z0 F400
G1 X29.999 Y95.271 Z0 F400
G1 X29.554 Y95.85 Z0 F400
G1 X29.06 Y96.501 Z0 F400
G1 X28.909 Y96.744 Z0 F400
G1 X28.797 Y97.056 Z0 F400
G1 X28.728 Y97.398 Z0 F400
G1 X28.704 Y97.731 Z0 F400
G1 X28.738 Y98.093 Z0 F400
; --- FIX X Backlash ---
G0 X29.438 Y98.093 F410
G1 X29.505 Y98.512 Z0 F400
G1 X29.554 Y98.938 Z0 F400
G1 X29.534 Y99.317 Z0 F400
G1 X29.488 Y99.756 Z0 F400
G1 X29.481 Y100.28 Z0 F400
G1 X29.486 Y100.521 Z0 F400
G1 X29.501 Y100.904 Z0 F400
G0 Z3.5 F400
; --- FIX X Backlash ---
G0 X28.801 Y100.904 F410
G0 X26.697 Y100.871 Z3.5
G1 Z0 F400
; --- FIX Y Backlash ---
G0 X26.697 Y100.371 F410
G1 X26.653 Y99.347 Z0 F400
G1 X26.639 Y98.95 Z0 F400
G1 X26.629 Y98.582 Z0 F400
G1 X26.626 Y98.286 Z0 F400
G1 Y98.179 Z0 F400
G1 X26.633 Y98.105 Z0 F400
; --- FIX X Backlash ---
G0 X27.333 Y98.105 F410
G1 X27.396 Y97.556 Z0 F400
G1 X27.422 Y97.312 Z0 F400
G1 X27.46 Y96.822 Z0 F400
G1 Y96.422 Z0 F400
G1 X27.443 Y96.223 Z0 F400
G1 X27.413 Y95.961 Z0 F400
; --- FIX X Backlash ---
G0 X26.713 Y95.961 F410
G1 X26.637 Y95.358 Z0 F400
G1 X26.535 Y94.609 Z0 F400
G1 X26.492 Y94.431 Z0 F400
G1 X26.45 Y94.248 Z0 F400
G1 X26.406 Y94.035 Z0 F400
G1 X26.368 Y93.819 Z0 F400
G1 X26.344 Y93.626 Z0 F400
G1 Y93.482 Z0 F400
G1 X26.374 Y93.412 Z0 F400
; --- FIX X Backlash ---
G0 X27.074 Y93.412 F410
G1 X27.235 Y93.378 Z0 F400
G1 X27.49 Y93.359 Z0 F400
G1 X27.788 Y93.334 Z0 F400
G1 X28.077 Y93.282 Z0 F400
G1 X28.399 Y93.162 Z0 F400
G1 X28.761 Y92.975 Z0 F400
G1 X28.923 Y92.869 Z0 F400
G1 X29.056 Y92.763 Z0 F400
G1 X29.145 Y92.662 Z0 F400
G1 X29.178 Y92.57 Z0 F400
G1 X29.188 Y92.463 Z0 F400
G1 X29.215 Y92.319 Z0 F400
G1 X29.249 Y92.15 Z0 F400
G1 X29.283 Y91.967 Z0 F400
G1 X29.307 Y91.783 Z0 F400
G1 X29.314 Y91.61 Z0 F400
G1 X29.295 Y91.458 Z0 F400
; --- FIX X Backlash ---
G0 X28.595 Y91.458 F410
G1 X28.542 Y91.34 Z0 F400
G1 X28.438 Y91.245 Z0 F400
G1 X28.281 Y91.156 Z0 F400
G1 X28.092 Y91.076 Z0 F400
G1 X27.887 Y91.008 Z0 F400
G1 X27.685 Y90.956 Z0 F400
G1 X27.505 Y90.921 Z0 F400
G1 X27.363 Y90.908 Z0 F400
G1 X27.28 Y90.919 Z0 F400
; --- FIX Y Backlash ---
G0 X27.28 Y91.419 F410
G1 X26.92 Y91.634 Z0 F400
G1 X26.535 Y91.873 Z0 F400
G1 X26.446 Y91.942 Z0 F400
G1 X26.31 Y92.065 Z0 F400
G1 X26.147 Y92.222 Z0 F400
G1 X25.973 Y92.394 Z0 F400
G1 X25.666 Y92.706 Z0 F400
G1 X25.532 Y92.844 Z0 F400
; --- FIX X Backlash ---
G0 X26.232 Y92.844 F410
G1 X26.371 Y92.889 Z0 F400
G1 X26.685 Y92.985 Z0 F400
G1 X26.861 Y93.035 Z0 F400
G1 X27.024 Y93.076 Z0 F400
G1 X27.155 Y93.101 Z0 F400
G1 X27.235 Z0 F400
G1 X27.305 Y93.071 Z0 F400
; --- FIX Y Backlash ---
G0 X27.305 Y92.571 F410
G1 X27.406 Y92.508 Z0 F400
G1 X27.528 Y92.424 Z0 F400
G1 X27.656 Y92.331 Z0 F400
G1 X27.882 Y92.161 Z0 F400
G1 X27.98 Y92.085 Z0 F400
G1 X28.271 Y91.793 Z0 F400
G0 Z3.5 F400
G0 X33.463 Y82.626 Z3.5
G1 Z0 F400
; --- FIX X Backlash ---
G0 X32.763 Y82.626 F410
G1 X32.362 Y79.561 Z0 F400
; --- FIX Y Backlash ---
G0 X32.362 Y80.061 F410
G1 X32.118 Y80.446 Z0 F400
G1 X32.127 Y83.989 Z0 F400
G1 X31.65 Y84.222 Z0 F400
; --- FIX Y Backlash ---
G0 X31.65 Y83.722 F410
G1 X31.575 Y82.082 Z0 F400
G1 X31.552 Y80.358 Z0 F400
G1 X31.14 Y79.077 Z0 F400
; --- FIX Y Backlash ---
G0 X31.14 Y79.577 F410
G1 X30.819 Y83.285 Z0 F400
; --- FIX X Backlash ---
G0 X31.519 Y83.285 F410
G1 X31.657 Y86.077 Z0 F400
G1 X32.435 Y86.123 Z0 F400
; --- FIX Y Backlash ---
G0 X32.435 Y85.623 F410
G1 X33.076 Y84.661 Z0 F400
G1 X34.266 Y83.197 Z0 F400
G1 X35.914 Y82.739 Z0 F400
; --- FIX Y Backlash ---
G0 X35.914 Y83.239 F410
G1 X37.928 Y83.376 Z0 F400
; --- FIX Y Backlash ---
G0 X37.928 Y82.876 F410
G1 X39.118 Y82.052 Z0 F400
; --- FIX Y Backlash ---
G0 X39.118 Y82.552 F410
G1 Y87.267 Z0 F400
; --- FIX Y Backlash ---
G0 X39.118 Y86.767 F410
G1 X39.805 Y86.538 Z0 F400
; --- FIX X Backlash ---
G0 X39.105 Y86.538 F410
G1 X38.739 Y82.968 Z0 F400
; --- FIX X Backlash ---
G0 X39.439 Y82.968 F410
G1 X39.713 Y81.411 Z0 F400
; --- FIX X Backlash ---
G0 X39.013 Y81.411 F410
G1 X38.693 Y80.313 Z0 F400
G1 X38.647 Y80.13 Z0 F400
; --- FIX X Backlash ---
G0 X39.347 Y80.13 F410
G1 X39.622 Y79.031 Z0 F400
; --- FIX X Backlash ---
G0 X38.922 Y79.031 F410
G1 X38.784 Y77.52 Z0 F400
G1 Y72.21 Z0 F400
G0 Z3.5 F400
; --- FIX X Backlash ---
G0 X39.484 Y72.21 F410
; --- FIX Y Backlash ---
G0 X39.484 Y72.71 F410
G0 X47.221 Y82.69 Z3.5
G1 Z0 F400
G1 X47.358 Y85.894 Z0 F400
; --- FIX X Backlash ---
G0 X46.658 Y85.894 F410
G1 X46.383 Y87.771 Z0 F400
; --- FIX X Backlash ---
G0 X47.083 Y87.771 F410
G1 X47.495 Y89.007 Z0 F400
G1 X47.707 Y89.63 Z0 F400
G1 X47.837 Y90.03 Z0 F400
G1 X48.024 Y90.667 Z0 F400
G1 X48.36 Y91.753 Z0 F400
G1 X48.471 Y92.128 Z0 F400
G1 X48.56 Y92.455 Z0 F400
G1 X48.592 Y92.59 Z0 F400
G1 X48.615 Y92.701 Z0 F400
G1 X48.625 Y92.784 Z0 F400
G1 X48.622 Y92.834 Z0 F400
; --- FIX X Backlash ---
G0 X47.922 Y92.834 F410
G1 X47.436 Y94.363 Z0 F400
G1 X45.971 Y94.5 Z0 F400
; --- FIX Y Backlash ---
G0 X45.971 Y94 F410
G1 X45.841 Y93.89 Z0 F400
G1 X45.525 Y93.615 Z0 F400
G1 X45.266 Y93.38 Z0 F400
G1 X45.008 Y93.132 Z0 F400
G1 X44.782 Y92.895 Z0 F400
G1 X44.692 Y92.789 Z0 F400
G1 X44.622 Y92.694 Z0 F400
G1 X44.577 Y92.615 Z0 F400
G1 X44.562 Y92.553 Z0 F400
G1 Y92.457 Z0 F400
G1 X44.565 Y92.293 Z0 F400
G1 X44.575 Y92.083 Z0 F400
G1 X44.598 Y91.852 Z0 F400
G1 X44.637 Y91.624 Z0 F400
; --- FIX X Backlash ---
G0 X45.337 Y91.624 F410
G1 X45.398 Y91.423 Z0 F400
G1 X45.484 Y91.272 Z0 F400
G1 X45.6 Y91.197 Z0 F400
G1 X46.219 Y91.067 Z0 F400
G1 X46.722 Y90.958 Z0 F400
G1 X46.934 Y90.908 Z0 F400
G1 X47.091 Y90.865 Z0 F400
G1 X47.17 Y90.834 Z0 F400
G1 X47.206 Y90.847 Z0 F400
; --- FIX Y Backlash ---
G0 X47.206 Y91.347 F410
G1 X47.235 Y91.435 Z0 F400
G1 X47.258 Y91.587 Z0 F400
G1 X47.276 Y91.791 Z0 F400
G1 X47.298 Y92.304 Z0 F400
G1 X47.307 Y92.876 Z0 F400
G1 X47.297 Y92.973 Z0 F400
G1 X47.268 Y93.049 Z0 F400
G1 X47.221 Y93.106 Z0 F400
; --- FIX X Backlash ---
G0 X46.521 Y93.106 F410
G1 X46.461 Y93.146 Z0 F400
G1 X46.31 Y93.182 Z0 F400
G1 X46.136 Y93.174 Z0 F400
G1 X45.962 Y93.139 Z0 F400
G1 X45.811 Y93.093 Z0 F400
G1 X45.703 Y93.054 Z0 F400
G1 X45.662 Y93.037 Z0 F400
G0 Z3.5 F400
; --- FIX X Backlash ---
G0 X46.362 Y93.037 F410
; --- FIX Y Backlash ---
G0 X46.362 Y92.537 F410
G0 X49.967 Y87.545 Z3.5
G1 Z0 F400
; --- FIX X Backlash ---
G0 X49.267 Y87.545 F410
G1 X49.084 Y86.905 Z0 F400
G1 X48.855 Y83.013 Z0 F400
G0 Z3.5 F400
; --- FIX X Backlash ---
G0 X49.555 Y83.013 F410
; --- FIX Y Backlash ---
G0 X49.555 Y83.513 F410
G0 X52.394 Y83.605 Z3.5
G1 Z0 F400
; --- FIX X Backlash ---
G0 X51.694 Y83.605 F410
G1 X51.465 Y86.26 Z0 F400
; --- FIX X Backlash ---
G0 X52.165 Y86.26 F410
G1 X52.302 Y87.862 Z0 F400
G0 Z3.5 F400
G0 X54.682 Y88.045 Z3.5
G1 Z0 F400
; --- FIX Y Backlash ---
G0 X54.682 Y87.545 F410
G1 X54.741 Y87.205 Z0 F400
G1 X54.877 Y86.435 Z0 F400
G1 X54.955 Y86.008 Z0 F400
G1 X55.03 Y85.614 Z0 F400
G1 X55.094 Y85.302 Z0 F400
G1 X55.12 Y85.192 Z0 F400
G1 X55.14 Y85.119 Z0 F400
G1 X55.156 Y85.05 Z0 F400
G1 X55.168 Y84.948 Z0 F400
G1 X55.178 Y84.819 Z0 F400
G1 X55.186 Y84.667 Z0 F400
G1 X55.195 Y84.318 Z0 F400
G1 Y83.94 Z0 F400
G1 Y83.576 Z0 F400
G1 X55.186 Y82.968 Z0 F400
G0 Z3.5 F400
; --- FIX Y Backlash ---
G0 X55.186 Y83.468 F410
G0 X57.63 Y94.009 Z3.5
G1 Z0 F400
; --- FIX Y Backlash ---
G0 X57.63 Y93.509 F410
G1 X57.902 Y93.172 Z0 F400
G1 X58.152 Y92.777 Z0 F400
G1 X58.255 Y92.596 Z0 F400
G1 X58.336 Y92.448 Z0 F400
G1 X58.407 Y92.311 Z0 F400
; --- FIX X Backlash ---
G0 X57.707 Y92.311 F410
G1 X57.577 Y91.243 Z0 F400
G1 X57.447 Y91.171 Z0 F400
G1 X57.321 Y91.095 Z0 F400
G1 X57.189 Y91.004 Z0 F400
G1 X57.075 Y90.91 Z0 F400
G1 X57.004 Y90.82 Z0 F400
G1 X57.001 Y90.744 Z0 F400
; --- FIX X Backlash ---
G0 X57.701 Y90.744 F410
G1 X57.792 Y90.693 Z0 F400
G1 X57.969 Y90.666 Z0 F400
G1 X58.194 Y90.657 Z0 F400
G1 X58.444 Y90.66 Z0 F400
G1 X58.698 Y90.673 Z0 F400
G1 X58.934 Y90.689 Z0 F400
G1 X59.13 Y90.706 Z0 F400
G1 X59.313 Y90.725 Z0 F400
; --- FIX Y Backlash ---
G0 X59.313 Y91.225 F410
G1 X59.532 Y91.451 Z0 F400
G1 X59.661 Y91.589 Z0 F400
G1 X59.794 Y91.737 Z0 F400
G1 X59.914 Y91.881 Z0 F400
G1 X60.007 Y92.006 Z0 F400
G1 X60.058 Y92.099 Z0 F400
G1 X60.113 Y92.26 Z0 F400
G1 X60.187 Y92.435 Z0 F400
G1 X60.285 Y92.604 Z0 F400
G1 X60.414 Y92.747 Z0 F400
G1 X60.521 Y92.786 Z0 F400
G1 X60.683 Y92.79 Z0 F400
G1 X60.878 Y92.766 Z0 F400
G1 X61.085 Y92.726 Z0 F400
G1 X61.284 Y92.679 Z0 F400
G1 X61.452 Y92.633 Z0 F400
G1 X61.611 Y92.585 Z0 F400
G1 X61.662 Y92.615 Z0 F400
G1 X61.745 Y92.702 Z0 F400
G1 X61.768 Y92.766 Z0 F400
G1 X61.762 Y92.844 Z0 F400
G1 X61.714 Y92.935 Z0 F400
; --- FIX X Backlash ---
G0 X61.014 Y92.935 F410
G1 X60.911 Y93.038 Z0 F400
G1 X60.625 Y93.291 Z0 F400
G1 X60.341 Y93.584 Z0 F400
G1 X60.22 Y93.731 Z0 F400
G1 X60.124 Y93.871 Z0 F400
G1 X60.06 Y93.998 Z0 F400
G1 X60.038 Y94.106 Z0 F400
G1 X60.011 Y94.342 Z0 F400
G1 X59.924 Y94.608 Z0 F400
G1 X59.854 Y94.728 Z0 F400
G1 X59.764 Y94.825 Z0 F400
G1 X59.653 Y94.891 Z0 F400
G1 X59.52 Y94.915 Z0 F400
G1 X59.153 Y94.875 Z0 F400
; --- FIX Y Backlash ---
G0 X59.153 Y94.375 F410
G1 X58.727 Y94.286 Z0 F400
G1 X58.532 Y94.238 Z0 F400
G1 X58.373 Y94.197 Z0 F400
G1 X58.225 Y94.156 Z0 F400
G1 X57.577 Y93.638 Z0 F400
; --- FIX X Backlash ---
G0 X58.277 Y93.638 F410
G1 X58.345 Y93.575 Z0 F400
G1 X58.504 Y93.42 Z0 F400
G1 X58.687 Y93.229 Z0 F400
G1 X58.828 Y93.056 Z0 F400
G1 X58.876 Y92.951 Z0 F400
G1 X58.923 Y92.797 Z0 F400
G1 X58.967 Y92.612 Z0 F400
G1 X59.006 Y92.416 Z0 F400
G1 X59.039 Y92.23 Z0 F400
G1 X59.064 Y92.073 Z0 F400
G1 X59.087 Y91.923 Z0 F400
; --- FIX Y Backlash ---
G0 X59.087 Y92.423 F410
G1 X59.637 Y93.167 Z0 F400
G1 X59.831 Y94.041 Z0 F400
; --- FIX X Backlash ---
G0 X59.131 Y94.041 F410
G1 X58.484 Y94.106 Z0 F400
; --- FIX Y Backlash ---
G0 X58.484 Y93.606 F410
G1 X58.419 Y93.509 Z0 F400
M9
M5
G1 Z10 F400
G1 Z10 F400

