
G0 Z10 F500;      ; Move to clearance level
; G0 X-10 Y-10 F1200; Homing
; G0 X-5 Y-5 F1200; go in
; G10 P0 L20 X0 Y0; set to zero
G1 F1200;           ; Set feed rate
G90 ; Force absolute mode
;LightBurn 1.6.04
;Custom GCode device profile, absolute coords
;Bounds: X3 Y32 to X147 Y137
G00 G17 G40 G21 G54
M3
G1 Z10 F1000

; Color picking sequence
G1 Z10 F1000;         ; Raise brush
G0 X41 Y5 F1200;    ; Rapid move to color 1
G1 Z10 F1000;         ; Raise brush
G0 X41 Y5 F1200;    ; Rapid move to color 1
G1 Z0 F1000;         ; Lower into color
G1 X40.102 Y7.295 Z0 S800 F1200
G1 X40.026 Y7.642 Z0 F1200
G1 X40 Y8 Z0 F1200
G1 X40.026 Y8.358 Z0 F1200
G1 X40.102 Y8.705 Z0 F1200
G1 X40.225 Y9.041 Z0 F1200
G1 X40.393 Y9.362 Z0 F1200
G1 X40.603 Y9.668 Z0 F1200
G1 X40.854 Y9.957 Z0 F1200
G1 X41.142 Y10.226 Z0 F1200
G1 X41.464 Y10.475 Z0 F1200
G1 X41.82 Y10.701 Z0 F1200
G1 X42.204 Y10.902 Z0 F1200
G1 X42.617 Y11.078 Z0 F1200
G1 X43.054 Y11.225 Z0 F1200
G1 X43.513 Y11.343 Z0 F1200
G1 X43.992 Y11.429 Z0 F1200
G1 X44.489 Y11.482 Z0 F1200
G1 X45 Y11.5 Z0 F1200
G1 X45.511 Y11.482 Z0 F1200
G1 X46.008 Y11.429 Z0 F1200
G1 X46.487 Y11.343 Z0 F1200
G1 X46.946 Y11.225 Z0 F1200
G1 X47.383 Y11.078 Z0 F1200
G1 X47.796 Y10.902 Z0 F1200
G1 X48.18 Y10.701 Z0 F1200
G1 X48.536 Y10.475 Z0 F1200
G1 X48.858 Y10.226 Z0 F1200
G1 X49.146 Y9.957 Z0 F1200
G1 X49.397 Y9.668 Z0 F1200
G1 X49.607 Y9.362 Z0 F1200
G1 X49.775 Y9.041 Z0 F1200
G1 X49.898 Y8.705 Z0 F1200
G1 X49.974 Y8.358 Z0 F1200
G1 X50 Y8 Z0 F1200
G1 X49.974 Y7.642 Z0 F1200
G1 X49.898 Y7.295 Z0 F1200
G1 X49.775 Y6.959 Z0 F1200
G1 X49.607 Y6.638 Z0 F1200
G1 X49.397 Y6.332 Z0 F1200
G1 X49.146 Y6.043 Z0 F1200
G1 X48.858 Y5.774 Z0 F1200
G1 X48.536 Y5.525 Z0 F1200
G1 X48.18 Y5.299 Z0 F1200
G1 X47.796 Y5.098 Z0 F1200
G1 X47.383 Y4.922 Z0 F1200
G1 X46.946 Y4.775 Z0 F1200
G1 X46.487 Y4.657 Z0 F1200
G1 X46.008 Y4.571 Z0 F1200
G1 X45.511 Y4.518 Z0 F1200
G1 X45 Y4.5 Z0 F1200
G1 X44.489 Y4.518 Z0 F1200
G1 X43.992 Y4.571 Z0 F1200
G1 X43.513 Y4.657 Z0 F1200
G1 X43.054 Y4.775 Z0 F1200
G1 X42.617 Y4.922 Z0 F1200
G1 X42.204 Y5.098 Z0 F1200
G1 X41.82 Y5.299 Z0 F1200
G1 X41.464 Y5.525 Z0 F1200
G1 X41.142 Y5.774 Z0 F1200
G1 X40.854 Y6.043 Z0 F1200
G1 X40.603 Y6.332 Z0 F1200
G1 X40.393 Y6.638 Z0 F1200
G1 X40.225 Y6.959 Z0 F1200
G1 Z7 F800;         ; Raise from color
G1 X34 Y8 Z1 F1200;     ; Movement in paint
G1 X24 Y18 Z8 F500;     ; Move in paint
G1 F1200;           ; Set feed rate
G0 Z2.5 F1000 ; Safety Lift
;Cut @ 1500 mm/min, 80% power

M8
G0 Z3.5 F1000
G0 X13.287 Y36.673 Z3.5
G1 Z0 F1000
;Layer C1
; --- FIX X Backlash ---
G0 X11.587 Y36.673 F1200
G1 X10.772 Y36.882 Z0 S800 F1600
G1 X9.991 Y37.168 Z0 F1600
G1 X9.248 Y37.526 Z0 F1600
G1 X8.548 Y37.952 Z0 F1600
G1 X7.893 Y38.441 Z0 F1600
G1 X7.29 Y38.99 Z0 F1600
G1 X6.741 Y39.593 Z0 F1600
G1 X6.252 Y40.248 Z0 F1600
G1 X5.826 Y40.948 Z0 F1600
G1 X5.468 Y41.691 Z0 F1600
G1 X5.182 Y42.472 Z0 F1600
G1 X4.973 Y43.287 Z0 F1600
G1 X4.844 Y44.131 Z0 F1600
G1 X4.8 Y45 Z0 F1600
G1 X4.844 Y45.869 Z0 F1600
; --- FIX X Backlash ---
G0 X6.544 Y45.869 F1200
G1 X6.673 Y46.713 Z0 F1600
G1 X6.882 Y47.528 Z0 F1600
G1 X7.168 Y48.309 Z0 F1600
G1 X7.526 Y49.052 Z0 F1600
G1 X7.952 Y49.752 Z0 F1600
G1 X8.441 Y50.407 Z0 F1600
G1 X8.99 Y51.01 Z0 F1600
G1 X9.593 Y51.559 Z0 F1600
G1 X10.248 Y52.048 Z0 F1600
G1 X10.948 Y52.474 Z0 F1600
G1 X11.691 Y52.832 Z0 F1600
G1 X12.472 Y53.118 Z0 F1600
G1 X13.287 Y53.327 Z0 F1600
G1 X14.131 Y53.456 Z0 F1600
G1 X15 Y53.5 Z0 F1600
G1 X15.869 Y53.456 Z0 F1600
; --- FIX Y Backlash ---
G0 X15.869 Y51.656 F1200
G1 X16.713 Y51.527 Z0 F1600
G1 X17.528 Y51.318 Z0 F1600
G1 X18.309 Y51.032 Z0 F1600
G1 X19.052 Y50.674 Z0 F1600
G1 X19.752 Y50.248 Z0 F1600
G1 X20.407 Y49.759 Z0 F1600
G1 X21.01 Y49.21 Z0 F1600
G1 X21.559 Y48.607 Z0 F1600
G1 X22.048 Y47.952 Z0 F1600
G1 X22.474 Y47.252 Z0 F1600
G1 X22.832 Y46.509 Z0 F1600
G1 X23.118 Y45.728 Z0 F1600
G1 X23.327 Y44.913 Z0 F1600
G1 X23.456 Y44.069 Z0 F1600
G1 X23.5 Y43.2 Z0 F1600
G1 X23.456 Y42.331 Z0 F1600
; --- FIX X Backlash ---
G0 X21.756 Y42.331 F1200
G1 X21.627 Y41.487 Z0 F1600
G1 X21.418 Y40.672 Z0 F1600
G1 X21.132 Y39.891 Z0 F1600
G1 X20.774 Y39.148 Z0 F1600
G1 X20.348 Y38.448 Z0 F1600
G1 X19.859 Y37.793 Z0 F1600
G1 X19.31 Y37.19 Z0 F1600
G1 X18.707 Y36.641 Z0 F1600
G1 X18.052 Y36.152 Z0 F1600
G1 X17.352 Y35.726 Z0 F1600
G1 X16.609 Y35.368 Z0 F1600
G1 X15.828 Y35.082 Z0 F1600
G1 X15.013 Y34.873 Z0 F1600
G1 X14.169 Y34.744 Z0 F1600
G1 X13.3 Y34.7 Z0 F1600
G1 X12.431 Y34.744 Z0 F1600
; --- FIX Y Backlash ---
G0 X12.431 Y36.544 F1200
G1 X11.587 Y36.673 Z0 F1600
G0 Z3.5 F1000
; --- FIX X Backlash ---
G0 X13.287 Y36.673 F1200
G0 X42.918 Y51.202 Z3.5 F1500
G1 Z0 F1000
; --- FIX X Backlash ---
G0 X41.218 Y51.202 F1200
G1 X40.42 Y51.973 Z0 F1600
G1 X39.64 Y52.763 Z0 F1600
G1 X38.88 Y53.571 Z0 F1600
G1 X38.139 Y54.396 Z0 F1600
G1 X37.418 Y55.24 Z0 F1600
G1 X36.718 Y56.1 Z0 F1600
G1 X36.038 Y56.977 Z0 F1600
G1 X35.379 Y57.871 Z0 F1600
G1 X34.741 Y58.781 Z0 F1600
G1 X34.126 Y59.706 Z0 F1600
G1 X33.532 Y60.647 Z0 F1600
G1 X32.961 Y61.603 Z0 F1600
G1 X32.412 Y62.574 Z0 F1600
G1 X31.887 Y63.558 Z0 F1600
G1 X31.385 Y64.557 Z0 F1600
G1 X30.908 Y65.569 Z0 F1600
G1 X30.454 Y66.595 Z0 F1600
G1 X30.025 Y67.633 Z0 F1600
G1 X29.622 Y68.684 Z0 F1600
G1 X29.243 Y69.746 Z0 F1600
G1 X28.891 Y70.821 Z0 F1600
G1 X28.564 Y71.907 Z0 F1600
G1 X28.264 Y73.004 Z0 F1600
G1 X27.991 Y74.111 Z0 F1600
G1 X27.745 Y75.229 Z0 F1600
G1 X27.526 Y76.357 Z0 F1600
G1 X27.336 Y77.495 Z0 F1600
G1 X27.174 Y78.641 Z0 F1600
G1 X27.04 Y79.797 Z0 F1600
G1 X26.936 Y80.961 Z0 F1600
G1 X26.861 Y82.133 Z0 F1600
G1 X26.815 Y83.313 Z0 F1600
G1 X26.8 Y84.5 Z0 F1600
G1 X26.815 Y85.687 Z0 F1600
G1 X26.861 Y86.867 Z0 F1600
; --- FIX X Backlash ---
G0 X28.561 Y86.867 F1200
G1 X28.636 Y88.039 Z0 F1600
G1 X28.74 Y89.203 Z0 F1600
G1 X28.874 Y90.359 Z0 F1600
G1 X29.036 Y91.505 Z0 F1600
G1 X29.226 Y92.643 Z0 F1600
G1 X29.445 Y93.771 Z0 F1600
G1 X29.691 Y94.889 Z0 F1600
G1 X29.964 Y95.996 Z0 F1600
G1 X30.264 Y97.093 Z0 F1600
G1 X30.591 Y98.179 Z0 F1600
G1 X30.943 Y99.254 Z0 F1600
G1 X31.322 Y100.316 Z0 F1600
G1 X31.725 Y101.367 Z0 F1600
G1 X32.154 Y102.405 Z0 F1600
G1 X32.608 Y103.431 Z0 F1600
G1 X33.085 Y104.443 Z0 F1600
G1 X33.587 Y105.442 Z0 F1600
G1 X34.112 Y106.426 Z0 F1600
G1 X34.661 Y107.397 Z0 F1600
G1 X35.232 Y108.353 Z0 F1600
G1 X35.826 Y109.294 Z0 F1600
G1 X36.441 Y110.219 Z0 F1600
G1 X37.079 Y111.129 Z0 F1600
G1 X37.738 Y112.023 Z0 F1600
G1 X38.418 Y112.9 Z0 F1600
G1 X39.118 Y113.76 Z0 F1600
G1 X39.839 Y114.604 Z0 F1600
G1 X40.58 Y115.429 Z0 F1600
G1 X41.34 Y116.237 Z0 F1600
G1 X42.12 Y117.027 Z0 F1600
G1 X42.918 Y117.798 Z0 F1600
G1 X43.734 Y118.55 Z0 F1600
G1 X44.569 Y119.283 Z0 F1600
G1 X45.422 Y119.996 Z0 F1600
G1 X46.292 Y120.689 Z0 F1600
G1 X47.178 Y121.361 Z0 F1600
G1 X48.082 Y122.013 Z0 F1600
G1 X49.001 Y122.644 Z0 F1600
G1 X49.937 Y123.253 Z0 F1600
G1 X50.888 Y123.84 Z0 F1600
G1 X51.854 Y124.406 Z0 F1600
G1 X52.835 Y124.948 Z0 F1600
G1 X53.831 Y125.468 Z0 F1600
G1 X54.84 Y125.964 Z0 F1600
G1 X55.864 Y126.437 Z0 F1600
G1 X56.9 Y126.885 Z0 F1600
G1 X57.95 Y127.309 Z0 F1600
G1 X59.012 Y127.709 Z0 F1600
G1 X60.086 Y128.083 Z0 F1600
G1 X61.172 Y128.432 Z0 F1600
G1 X62.27 Y128.755 Z0 F1600
G1 X63.379 Y129.052 Z0 F1600
G1 X64.499 Y129.322 Z0 F1600
G1 X65.629 Y129.565 Z0 F1600
G1 X66.769 Y129.782 Z0 F1600
G1 X67.919 Y129.97 Z0 F1600
G1 X69.078 Y130.13 Z0 F1600
G1 X70.246 Y130.263 Z0 F1600
G1 X71.422 Y130.366 Z0 F1600
G1 X72.607 Y130.44 Z0 F1600
G1 X73.8 Y130.485 Z0 F1600
G1 X75 Y130.5 Z0 F1600
G1 X76.2 Y130.485 Z0 F1600
G1 X77.393 Y130.44 Z0 F1600
; --- FIX Y Backlash ---
G0 X77.393 Y128.64 F1200
G1 X78.578 Y128.566 Z0 F1600
G1 X79.754 Y128.463 Z0 F1600
G1 X80.922 Y128.33 Z0 F1600
G1 X82.081 Y128.17 Z0 F1600
G1 X83.231 Y127.982 Z0 F1600
G1 X84.371 Y127.765 Z0 F1600
G1 X85.501 Y127.522 Z0 F1600
G1 X86.621 Y127.252 Z0 F1600
G1 X87.73 Y126.955 Z0 F1600
G1 X88.828 Y126.632 Z0 F1600
G1 X89.914 Y126.283 Z0 F1600
G1 X90.988 Y125.909 Z0 F1600
G1 X92.05 Y125.509 Z0 F1600
G1 X93.1 Y125.085 Z0 F1600
G1 X94.136 Y124.637 Z0 F1600
G1 X95.16 Y124.164 Z0 F1600
G1 X96.169 Y123.668 Z0 F1600
G1 X97.165 Y123.148 Z0 F1600
G1 X98.146 Y122.606 Z0 F1600
G1 X99.112 Y122.04 Z0 F1600
G1 X100.063 Y121.453 Z0 F1600
G1 X100.999 Y120.844 Z0 F1600
G1 X101.918 Y120.213 Z0 F1600
G1 X102.822 Y119.561 Z0 F1600
G1 X103.708 Y118.889 Z0 F1600
G1 X104.578 Y118.196 Z0 F1600
G1 X105.431 Y117.483 Z0 F1600
G1 X106.266 Y116.75 Z0 F1600
G1 X107.082 Y115.998 Z0 F1600
G1 X107.88 Y115.227 Z0 F1600
G1 X108.66 Y114.437 Z0 F1600
G1 X109.42 Y113.629 Z0 F1600
G1 X110.161 Y112.804 Z0 F1600
G1 X110.882 Y111.96 Z0 F1600
G1 X111.582 Y111.1 Z0 F1600
G1 X112.262 Y110.223 Z0 F1600
G1 X112.921 Y109.329 Z0 F1600
G1 X113.559 Y108.419 Z0 F1600
G1 X114.174 Y107.494 Z0 F1600
G1 X114.768 Y106.553 Z0 F1600
G1 X115.339 Y105.597 Z0 F1600
G1 X115.888 Y104.626 Z0 F1600
G1 X116.413 Y103.642 Z0 F1600
G1 X116.915 Y102.643 Z0 F1600
G1 X117.392 Y101.631 Z0 F1600
G1 X117.846 Y100.605 Z0 F1600
G1 X118.275 Y99.567 Z0 F1600
G1 X118.678 Y98.516 Z0 F1600
G1 X119.057 Y97.454 Z0 F1600
G1 X119.409 Y96.379 Z0 F1600
G1 X119.736 Y95.293 Z0 F1600
G1 X120.036 Y94.196 Z0 F1600
G1 X120.309 Y93.089 Z0 F1600
G1 X120.555 Y91.971 Z0 F1600
G1 X120.774 Y90.843 Z0 F1600
G1 X120.964 Y89.705 Z0 F1600
G1 X121.126 Y88.559 Z0 F1600
G1 X121.26 Y87.403 Z0 F1600
G1 X121.364 Y86.239 Z0 F1600
G1 X121.439 Y85.067 Z0 F1600
G1 X121.485 Y83.887 Z0 F1600
G1 X121.5 Y82.7 Z0 F1600
G1 X121.485 Y81.513 Z0 F1600
G1 X121.439 Y80.333 Z0 F1600
; --- FIX X Backlash ---
G0 X119.739 Y80.333 F1200
G1 X119.664 Y79.161 Z0 F1600
G1 X119.56 Y77.997 Z0 F1600
G1 X119.426 Y76.841 Z0 F1600
G1 X119.264 Y75.695 Z0 F1600
G1 X119.074 Y74.557 Z0 F1600
G1 X118.855 Y73.429 Z0 F1600
G1 X118.609 Y72.311 Z0 F1600
G1 X118.336 Y71.204 Z0 F1600
G1 X118.036 Y70.107 Z0 F1600
G1 X117.709 Y69.021 Z0 F1600
G1 X117.357 Y67.946 Z0 F1600
G1 X116.978 Y66.884 Z0 F1600
G1 X116.575 Y65.833 Z0 F1600
G1 X116.146 Y64.795 Z0 F1600
G1 X115.692 Y63.769 Z0 F1600
G1 X115.215 Y62.757 Z0 F1600
G1 X114.713 Y61.758 Z0 F1600
G1 X114.188 Y60.774 Z0 F1600
G1 X113.639 Y59.803 Z0 F1600
G1 X113.068 Y58.847 Z0 F1600
G1 X112.474 Y57.906 Z0 F1600
G1 X111.859 Y56.981 Z0 F1600
G1 X111.221 Y56.071 Z0 F1600
G1 X110.562 Y55.177 Z0 F1600
G1 X109.882 Y54.3 Z0 F1600
G1 X109.182 Y53.44 Z0 F1600
G1 X108.461 Y52.596 Z0 F1600
G1 X107.72 Y51.771 Z0 F1600
G1 X106.96 Y50.963 Z0 F1600
G1 X106.18 Y50.173 Z0 F1600
G1 X105.382 Y49.402 Z0 F1600
G1 X104.566 Y48.65 Z0 F1600
G1 X103.731 Y47.917 Z0 F1600
G1 X102.878 Y47.204 Z0 F1600
G1 X102.008 Y46.511 Z0 F1600
G1 X101.122 Y45.839 Z0 F1600
G1 X100.218 Y45.187 Z0 F1600
G1 X99.299 Y44.556 Z0 F1600
G1 X98.363 Y43.947 Z0 F1600
G1 X97.412 Y43.36 Z0 F1600
G1 X96.446 Y42.794 Z0 F1600
G1 X95.465 Y42.252 Z0 F1600
G1 X94.469 Y41.732 Z0 F1600
G1 X93.46 Y41.236 Z0 F1600
G1 X92.436 Y40.763 Z0 F1600
G1 X91.4 Y40.315 Z0 F1600
G1 X90.35 Y39.891 Z0 F1600
G1 X89.288 Y39.491 Z0 F1600
G1 X88.214 Y39.117 Z0 F1600
G1 X87.128 Y38.768 Z0 F1600
G1 X86.03 Y38.445 Z0 F1600
G1 X84.921 Y38.148 Z0 F1600
G1 X83.801 Y37.878 Z0 F1600
G1 X82.671 Y37.635 Z0 F1600
G1 X81.531 Y37.418 Z0 F1600

; Color picking sequence
G1 Z10 F1000;         ; Raise brush
G0 X41 Y5 F1200;    ; Rapid move to color 1
G1 Z10 F1000;         ; Raise brush
G0 X41 Y5 F1200;    ; Rapid move to color 1
G1 Z0 F1000;         ; Lower into color
G1 X40.102 Y7.295 Z0 S800 F1200
G1 X40.026 Y7.642 Z0 F1200
G1 X40 Y8 Z0 F1200
G1 X40.026 Y8.358 Z0 F1200
G1 X40.102 Y8.705 Z0 F1200
G1 X40.225 Y9.041 Z0 F1200
G1 X40.393 Y9.362 Z0 F1200
G1 X40.603 Y9.668 Z0 F1200
G1 X40.854 Y9.957 Z0 F1200
G1 X41.142 Y10.226 Z0 F1200
G1 X41.464 Y10.475 Z0 F1200
G1 X41.82 Y10.701 Z0 F1200
G1 X42.204 Y10.902 Z0 F1200
G1 X42.617 Y11.078 Z0 F1200
G1 X43.054 Y11.225 Z0 F1200
G1 X43.513 Y11.343 Z0 F1200
G1 X43.992 Y11.429 Z0 F1200
G1 X44.489 Y11.482 Z0 F1200
G1 X45 Y11.5 Z0 F1200
G1 X45.511 Y11.482 Z0 F1200
G1 X46.008 Y11.429 Z0 F1200
G1 X46.487 Y11.343 Z0 F1200
G1 X46.946 Y11.225 Z0 F1200
G1 X47.383 Y11.078 Z0 F1200
G1 X47.796 Y10.902 Z0 F1200
G1 X48.18 Y10.701 Z0 F1200
G1 X48.536 Y10.475 Z0 F1200
G1 X48.858 Y10.226 Z0 F1200
G1 X49.146 Y9.957 Z0 F1200
G1 X49.397 Y9.668 Z0 F1200
G1 X49.607 Y9.362 Z0 F1200
G1 X49.775 Y9.041 Z0 F1200
G1 X49.898 Y8.705 Z0 F1200
G1 X49.974 Y8.358 Z0 F1200
G1 X50 Y8 Z0 F1200
G1 X49.974 Y7.642 Z0 F1200
G1 X49.898 Y7.295 Z0 F1200
G1 X49.775 Y6.959 Z0 F1200
G1 X49.607 Y6.638 Z0 F1200
G1 X49.397 Y6.332 Z0 F1200
G1 X49.146 Y6.043 Z0 F1200
G1 X48.858 Y5.774 Z0 F1200
G1 X48.536 Y5.525 Z0 F1200
G1 X48.18 Y5.299 Z0 F1200
G1 X47.796 Y5.098 Z0 F1200
G1 X47.383 Y4.922 Z0 F1200
G1 X46.946 Y4.775 Z0 F1200
G1 X46.487 Y4.657 Z0 F1200
G1 X46.008 Y4.571 Z0 F1200
G1 X45.511 Y4.518 Z0 F1200
G1 X45 Y4.5 Z0 F1200
G1 X44.489 Y4.518 Z0 F1200
G1 X43.992 Y4.571 Z0 F1200
G1 X43.513 Y4.657 Z0 F1200
G1 X43.054 Y4.775 Z0 F1200
G1 X42.617 Y4.922 Z0 F1200
G1 X42.204 Y5.098 Z0 F1200
G1 X41.82 Y5.299 Z0 F1200
G1 X41.464 Y5.525 Z0 F1200
G1 X41.142 Y5.774 Z0 F1200
G1 X40.854 Y6.043 Z0 F1200
G1 X40.603 Y6.332 Z0 F1200
G1 X40.393 Y6.638 Z0 F1200
G1 X40.225 Y6.959 Z0 F1200
G1 Z7 F800;         ; Raise from color
G1 X34 Y8 Z1 F1200;     ; Movement in paint
G1 X24 Y18 Z8 F500;     ; Move in paint
G1 F1200;           ; Set feed rate
G0 Z2.5 F1000 ; Safety Lift
G0 X81.531 Y37.418 F1200 ; Return
G1 Z0 F1000 ; Restore Z
G1 X80.381 Y37.23 Z0 F1600
G1 X79.222 Y37.07 Z0 F1600
G1 X78.054 Y36.937 Z0 F1600
G1 X76.878 Y36.834 Z0 F1600
G1 X75.693 Y36.76 Z0 F1600
G1 X74.5 Y36.715 Z0 F1600
G1 X73.3 Y36.7 Z0 F1600
G1 X72.1 Y36.715 Z0 F1600
G1 X70.907 Y36.76 Z0 F1600
; --- FIX Y Backlash ---
G0 X70.907 Y38.56 F1200
G1 X69.722 Y38.634 Z0 F1600
G1 X68.546 Y38.737 Z0 F1600
G1 X67.378 Y38.87 Z0 F1600
G1 X66.219 Y39.03 Z0 F1600
G1 X65.069 Y39.218 Z0 F1600
G1 X63.929 Y39.435 Z0 F1600
G1 X62.799 Y39.678 Z0 F1600
G1 X61.679 Y39.948 Z0 F1600
G1 X60.57 Y40.245 Z0 F1600
G1 X59.472 Y40.568 Z0 F1600
G1 X58.386 Y40.917 Z0 F1600
G1 X57.312 Y41.291 Z0 F1600
G1 X56.25 Y41.691 Z0 F1600
G1 X55.2 Y42.115 Z0 F1600
G1 X54.164 Y42.563 Z0 F1600
G1 X53.14 Y43.036 Z0 F1600
G1 X52.131 Y43.532 Z0 F1600
G1 X51.135 Y44.052 Z0 F1600
G1 X50.154 Y44.594 Z0 F1600
G1 X49.188 Y45.16 Z0 F1600
G1 X48.237 Y45.747 Z0 F1600
G1 X47.301 Y46.356 Z0 F1600
G1 X46.382 Y46.987 Z0 F1600
G1 X45.478 Y47.639 Z0 F1600
G1 X44.592 Y48.311 Z0 F1600
G1 X43.722 Y49.004 Z0 F1600
G1 X42.869 Y49.717 Z0 F1600
G1 X42.034 Y50.45 Z0 F1600
G1 X41.218 Y51.202 Z0 F1600
G0 Z3.5 F1000
; --- FIX X Backlash ---
G0 X42.918 Y51.202 F1200
G0 X133.007 Y121.324 Z3.5
G1 Z0 F1000
; --- FIX X Backlash ---
G0 X131.307 Y121.324 F1200
G1 X130.962 Y121.533 Z0 F1600
G1 X130.64 Y121.774 Z0 F1600
G1 X130.344 Y122.044 Z0 F1600
G1 X130.074 Y122.34 Z0 F1600
G1 X129.833 Y122.662 Z0 F1600
G1 X129.624 Y123.007 Z0 F1600
G1 X129.448 Y123.373 Z0 F1600
G1 X129.307 Y123.757 Z0 F1600
G1 X129.204 Y124.157 Z0 F1600
G1 X129.141 Y124.573 Z0 F1600
G1 X129.119 Y125 Z0 F1600
G1 X129.141 Y125.427 Z0 F1600
; --- FIX X Backlash ---
G0 X130.841 Y125.427 F1200
G1 X130.904 Y125.843 Z0 F1600
G1 X131.007 Y126.243 Z0 F1600
G1 X131.148 Y126.627 Z0 F1600
G1 X131.324 Y126.993 Z0 F1600
G1 X131.533 Y127.338 Z0 F1600
G1 X131.774 Y127.66 Z0 F1600
G1 X132.044 Y127.956 Z0 F1600
G1 X132.34 Y128.226 Z0 F1600
G1 X132.662 Y128.467 Z0 F1600
G1 X133.007 Y128.676 Z0 F1600
G1 X133.373 Y128.852 Z0 F1600
G1 X133.757 Y128.993 Z0 F1600
G1 X134.157 Y129.096 Z0 F1600
G1 X134.573 Y129.159 Z0 F1600
G1 X135 Y129.181 Z0 F1600
G1 X135.427 Y129.159 Z0 F1600
; --- FIX Y Backlash ---
G0 X135.427 Y127.359 F1200
G1 X135.843 Y127.296 Z0 F1600
G1 X136.243 Y127.193 Z0 F1600
G1 X136.627 Y127.052 Z0 F1600
G1 X136.993 Y126.876 Z0 F1600
G1 X137.338 Y126.667 Z0 F1600
G1 X137.66 Y126.426 Z0 F1600
G1 X137.956 Y126.156 Z0 F1600
G1 X138.226 Y125.86 Z0 F1600
G1 X138.467 Y125.538 Z0 F1600
G1 X138.676 Y125.193 Z0 F1600
G1 X138.852 Y124.827 Z0 F1600
G1 X138.993 Y124.443 Z0 F1600
G1 X139.096 Y124.043 Z0 F1600
G1 X139.159 Y123.627 Z0 F1600
G1 X139.181 Y123.2 Z0 F1600
G1 X139.159 Y122.773 Z0 F1600
; --- FIX X Backlash ---
G0 X137.459 Y122.773 F1200
G1 X137.396 Y122.357 Z0 F1600
G1 X137.293 Y121.957 Z0 F1600
G1 X137.152 Y121.573 Z0 F1600
G1 X136.976 Y121.207 Z0 F1600
G1 X136.767 Y120.862 Z0 F1600
G1 X136.526 Y120.54 Z0 F1600
G1 X136.256 Y120.244 Z0 F1600
G1 X135.96 Y119.974 Z0 F1600
G1 X135.638 Y119.733 Z0 F1600
G1 X135.293 Y119.524 Z0 F1600
G1 X134.927 Y119.348 Z0 F1600
G1 X134.543 Y119.207 Z0 F1600
G1 X134.143 Y119.104 Z0 F1600
G1 X133.727 Y119.041 Z0 F1600
G1 X133.3 Y119.019 Z0 F1600
G1 X132.873 Y119.041 Z0 F1600
; --- FIX Y Backlash ---
G0 X132.873 Y120.841 F1200
G1 X132.457 Y120.904 Z0 F1600
G1 X132.057 Y121.007 Z0 F1600
G1 X131.673 Y121.148 Z0 F1600
G1 X131.307 Y121.324 Z0 F1600
G0 Z3.5 F1000
; --- FIX X Backlash ---
G0 X133.007 Y121.324 F1200
G0 X147 Y137 Z3.5
G1 Z0 F1000
; --- FIX Y Backlash ---
G0 X147 Y135.2 F1200
G1 Y30.2 Z0 F1600
; --- FIX X Backlash ---
G0 X145.3 Y30.2 F1200
G1 X1.3 Z0 F1600
; --- FIX Y Backlash ---
G0 X1.3 Y32 F1200
G1 Y137 Z0 F1600
; --- FIX X Backlash ---
G0 X3 Y137 F1200
G1 X147 Z0 F1600

; Washing sequence (no color)
G1 Z10 F1000;        ; Raise brush
G0 X5 Y5 F1200;     ; Rapid move to clean
G1 Z-1 F800;         ; Lower brush
G1 X10 Y12 Z8 F1200;     ; Move
G1 Z-1 F800;         ; Lower
G1 X25 Y14 Z6 F800;     ; Move
G1 Z8 F800;         ; Maintain
G0 X5 Y5 F1200;     ; Rapid
G1 Z-1 F800;         ; Lower
G1 X15 Y12 Z8 F1200;     ; Move
G1 Z-1 F800;         ; Lower
G1 X25 Y14 Z6 F800;     ; Move
G1 Z10 F800;         ; Maintain
G1 F1200;           ; Set feed
G0 Z2.5 F1000 ; Safety Lift

; Color picking sequence
G1 Z10 F1000;         ; Raise brush
G0 X131 Y5 F1200;    ; Rapid move to color 1
G1 Z10 F1000;         ; Raise brush
G0 X131 Y5 F1200;    ; Rapid move to color 1
G1 Z0 F1000;         ; Lower into color
G1 X130.102 Y7.295 Z0 S800 F1200
G1 X130.026 Y7.642 Z0 F1200
G1 X130 Y8 Z0 F1200
G1 X130.026 Y8.358 Z0 F1200
G1 X130.102 Y8.705 Z0 F1200
G1 X130.225 Y9.041 Z0 F1200
G1 X130.393 Y9.362 Z0 F1200
G1 X130.603 Y9.668 Z0 F1200
G1 X130.854 Y9.957 Z0 F1200
G1 X131.142 Y10.226 Z0 F1200
G1 X131.464 Y10.475 Z0 F1200
G1 X131.82 Y10.701 Z0 F1200
G1 X132.204 Y10.902 Z0 F1200
G1 X132.617 Y11.078 Z0 F1200
G1 X133.054 Y11.225 Z0 F1200
G1 X133.513 Y11.343 Z0 F1200
G1 X133.992 Y11.429 Z0 F1200
G1 X134.489 Y11.482 Z0 F1200
G1 X135 Y11.5 Z0 F1200
G1 X135.511 Y11.482 Z0 F1200
G1 X136.008 Y11.429 Z0 F1200
G1 X136.487 Y11.343 Z0 F1200
G1 X136.946 Y11.225 Z0 F1200
G1 X137.383 Y11.078 Z0 F1200
G1 X137.796 Y10.902 Z0 F1200
G1 X138.18 Y10.701 Z0 F1200
G1 X138.536 Y10.475 Z0 F1200
G1 X138.858 Y10.226 Z0 F1200
G1 X139.146 Y9.957 Z0 F1200
G1 X139.397 Y9.668 Z0 F1200
G1 X139.607 Y9.362 Z0 F1200
G1 X139.775 Y9.041 Z0 F1200
G1 X139.898 Y8.705 Z0 F1200
G1 X139.974 Y8.358 Z0 F1200
G1 X140 Y8 Z0 F1200
G1 X139.974 Y7.642 Z0 F1200
G1 X139.898 Y7.295 Z0 F1200
G1 X139.775 Y6.959 Z0 F1200
G1 X139.607 Y6.638 Z0 F1200
G1 X139.397 Y6.332 Z0 F1200
G1 X139.146 Y6.043 Z0 F1200
G1 X138.858 Y5.774 Z0 F1200
G1 X138.536 Y5.525 Z0 F1200
G1 X138.18 Y5.299 Z0 F1200
G1 X137.796 Y5.098 Z0 F1200
G1 X137.383 Y4.922 Z0 F1200
G1 X136.946 Y4.775 Z0 F1200
G1 X136.487 Y4.657 Z0 F1200
G1 X136.008 Y4.571 Z0 F1200
G1 X135.511 Y4.518 Z0 F1200
G1 X135 Y4.5 Z0 F1200
G1 X134.489 Y4.518 Z0 F1200
G1 X133.992 Y4.571 Z0 F1200
G1 X133.513 Y4.657 Z0 F1200
G1 X133.054 Y4.775 Z0 F1200
G1 X132.617 Y4.922 Z0 F1200
G1 X132.204 Y5.098 Z0 F1200
G1 X131.82 Y5.299 Z0 F1200
G1 X131.464 Y5.525 Z0 F1200
G1 X131.142 Y5.774 Z0 F1200
G1 X130.854 Y6.043 Z0 F1200
G1 X130.603 Y6.332 Z0 F1200
G1 X130.393 Y6.638 Z0 F1200
G1 X130.225 Y6.959 Z0 F1200
G1 Z7 F800;         ; Raise from color
G1 X124 Y8 Z1 F1200;     ; Movement in paint
G1 X114 Y18 Z8 F500;     ; Move in paint
G1 F1200;           ; Set feed rate
G0 Z2.5 F1000 ; Safety Lift
;Offset @ 1500 mm/min, 90% power

M8
G0 Z3.5 F1000
; --- FIX X Backlash ---
G0 X145.3 Y137 F1200
; --- FIX Y Backlash ---
G0 X145.3 Y135.2 F1200
G0 X13.361 Y122.713 Z3.5
G1 Z0 F1000
;Layer C3
G1 X13.409 Y122.721 Z0 S900 F1600
G1 X13.45 Y122.731 Z0 F1600
G1 X13.494 Y122.747 Z0 F1600
G1 X13.528 Y122.763 Z0 F1600
G1 X13.57 Y122.789 Z0 F1600
G1 X13.61 Y122.819 Z0 F1600
G1 X13.647 Y122.853 Z0 F1600
G1 X13.681 Y122.89 Z0 F1600
G1 X13.711 Y122.93 Z0 F1600
G1 X13.737 Y122.972 Z0 F1600
G1 X13.753 Y123.006 Z0 F1600
G1 X13.769 Y123.05 Z0 F1600
G1 X13.779 Y123.091 Z0 F1600
G1 X13.787 Y123.139 Z0 F1600
; --- FIX Y Backlash ---
G0 X13.787 Y124.939 F1200
G1 X13.79 Y125 Z0 F1600
G1 X13.787 Y125.061 Z0 F1600
G1 X13.779 Y125.109 Z0 F1600
G1 X13.769 Y125.15 Z0 F1600
G1 X13.753 Y125.194 Z0 F1600
G1 X13.737 Y125.228 Z0 F1600
G1 X13.711 Y125.27 Z0 F1600
G1 X13.681 Y125.31 Z0 F1600
G1 X13.647 Y125.347 Z0 F1600
G1 X13.61 Y125.381 Z0 F1600
G1 X13.57 Y125.411 Z0 F1600
G1 X13.528 Y125.437 Z0 F1600
G1 X13.494 Y125.453 Z0 F1600
G1 X13.45 Y125.469 Z0 F1600
G1 X13.409 Y125.479 Z0 F1600
G1 X13.361 Y125.487 Z0 F1600
G1 X13.3 Y125.49 Z0 F1600
G1 X13.239 Y125.487 Z0 F1600
G1 X13.191 Y125.479 Z0 F1600
G1 X13.15 Y125.469 Z0 F1600
G1 X13.106 Y125.453 Z0 F1600
G1 X13.072 Y125.437 Z0 F1600
G1 X13.03 Y125.411 Z0 F1600
G1 X12.99 Y125.381 Z0 F1600
G1 X12.953 Y125.347 Z0 F1600
G1 X12.919 Y125.31 Z0 F1600
G1 X12.889 Y125.27 Z0 F1600
G1 X12.863 Y125.228 Z0 F1600
G1 X12.847 Y125.194 Z0 F1600
G1 X12.831 Y125.15 Z0 F1600
G1 X12.821 Y125.109 Z0 F1600
G1 X12.813 Y125.061 Z0 F1600
; --- FIX Y Backlash ---
G0 X12.813 Y123.261 F1200
G1 X12.81 Y123.2 Z0 F1600
G1 X12.813 Y123.139 Z0 F1600
G1 X12.821 Y123.091 Z0 F1600
G1 X12.831 Y123.05 Z0 F1600
G1 X12.847 Y123.006 Z0 F1600
G1 X12.863 Y122.972 Z0 F1600
G1 X12.889 Y122.93 Z0 F1600
G1 X12.919 Y122.89 Z0 F1600
G1 X12.953 Y122.853 Z0 F1600
G1 X12.99 Y122.819 Z0 F1600
G1 X13.03 Y122.789 Z0 F1600
G1 X13.072 Y122.763 Z0 F1600
G1 X13.106 Y122.747 Z0 F1600
G1 X13.15 Y122.731 Z0 F1600
G1 X13.191 Y122.721 Z0 F1600
G1 X13.239 Y122.713 Z0 F1600
; --- FIX X Backlash ---
G0 X14.939 Y122.713 F1200
G1 X15 Y122.71 Z0 F1600
G1 X15.061 Y122.713 Z0 F1600
G0 Z3.5 F1000
; --- FIX Y Backlash ---
G0 X15.061 Y124.513 F1200
G0 X17.479 Y124.738 Z3.5
G1 Z0 F1000
G1 X17.493 Y125 Z0 F1600
G1 X17.479 Y125.262 Z0 F1600
G1 X17.441 Y125.511 Z0 F1600
; --- FIX X Backlash ---
G0 X15.741 Y125.511 F1200
G1 X15.681 Y125.745 Z0 F1600
G1 X15.598 Y125.97 Z0 F1600
G1 X15.494 Y126.187 Z0 F1600
G1 X15.372 Y126.388 Z0 F1600
G1 X15.225 Y126.584 Z0 F1600
G1 X15.063 Y126.763 Z0 F1600
G1 X14.884 Y126.925 Z0 F1600
G1 X14.688 Y127.072 Z0 F1600
G1 X14.487 Y127.194 Z0 F1600
G1 X14.27 Y127.298 Z0 F1600
G1 X14.045 Y127.381 Z0 F1600
G1 X13.811 Y127.441 Z0 F1600
G1 X13.562 Y127.479 Z0 F1600
G1 X13.3 Y127.493 Z0 F1600
G1 X13.038 Y127.479 Z0 F1600
G1 X12.789 Y127.441 Z0 F1600
; --- FIX Y Backlash ---
G0 X12.789 Y125.641 F1200
G1 X12.555 Y125.581 Z0 F1600
G1 X12.33 Y125.498 Z0 F1600
G1 X12.113 Y125.394 Z0 F1600
G1 X11.912 Y125.272 Z0 F1600
G1 X11.716 Y125.125 Z0 F1600
G1 X11.537 Y124.963 Z0 F1600
G1 X11.375 Y124.784 Z0 F1600
G1 X11.228 Y124.588 Z0 F1600
G1 X11.106 Y124.387 Z0 F1600
G1 X11.002 Y124.17 Z0 F1600
G1 X10.919 Y123.945 Z0 F1600
G1 X10.859 Y123.711 Z0 F1600
G1 X10.821 Y123.462 Z0 F1600
G1 X10.807 Y123.2 Z0 F1600
G1 X10.821 Y122.938 Z0 F1600
G1 X10.859 Y122.689 Z0 F1600
; --- FIX X Backlash ---
G0 X12.559 Y122.689 F1200
G1 X12.619 Y122.455 Z0 F1600
G1 X12.702 Y122.23 Z0 F1600
G1 X12.806 Y122.013 Z0 F1600
G1 X12.928 Y121.812 Z0 F1600
G1 X13.075 Y121.616 Z0 F1600
G1 X13.237 Y121.437 Z0 F1600
G1 X13.416 Y121.275 Z0 F1600
G1 X13.612 Y121.128 Z0 F1600
G1 X13.813 Y121.006 Z0 F1600
G1 X14.03 Y120.902 Z0 F1600
G1 X14.255 Y120.819 Z0 F1600
G1 X14.489 Y120.759 Z0 F1600
G1 X14.738 Y120.721 Z0 F1600
G1 X15 Y120.707 Z0 F1600
G1 X15.262 Y120.721 Z0 F1600
G1 X15.511 Y120.759 Z0 F1600
; --- FIX Y Backlash ---
G0 X15.511 Y122.559 F1200
G1 X15.745 Y122.619 Z0 F1600
G1 X15.97 Y122.702 Z0 F1600
G1 X16.187 Y122.806 Z0 F1600
G1 X16.388 Y122.928 Z0 F1600
G1 X16.584 Y123.075 Z0 F1600
G1 X16.763 Y123.237 Z0 F1600
G1 X16.925 Y123.416 Z0 F1600
G1 X17.072 Y123.612 Z0 F1600
G1 X17.194 Y123.813 Z0 F1600
G1 X17.298 Y124.03 Z0 F1600
G1 X17.381 Y124.255 Z0 F1600
G1 X17.441 Y124.489 Z0 F1600
G1 X17.479 Y124.738 Z0 F1600
G0 Z3.5 F1000
G0 X18.178 Y128.178 Z3.5
G1 Z0 F1000
; --- FIX X Backlash ---
G0 X16.478 Y128.178 F1200
G1 X16.157 Y128.471 Z0 F1600
G1 X15.81 Y128.73 Z0 F1600
G1 X15.443 Y128.954 Z0 F1600
G1 X15.047 Y129.144 Z0 F1600
G1 X14.64 Y129.293 Z0 F1600
G1 X14.212 Y129.403 Z0 F1600
G1 X13.768 Y129.471 Z0 F1600
G1 X13.3 Y129.495 Z0 F1600
G1 X12.832 Y129.471 Z0 F1600
; --- FIX Y Backlash ---
G0 X12.832 Y127.671 F1200
G1 X12.388 Y127.603 Z0 F1600
G1 X11.96 Y127.493 Z0 F1600
G1 X11.553 Y127.344 Z0 F1600
G1 X11.157 Y127.154 Z0 F1600
G1 X10.79 Y126.93 Z0 F1600
G1 X10.443 Y126.671 Z0 F1600
G1 X10.122 Y126.378 Z0 F1600
G1 X9.829 Y126.057 Z0 F1600
G1 X9.57 Y125.71 Z0 F1600
G1 X9.346 Y125.343 Z0 F1600
G1 X9.156 Y124.947 Z0 F1600
G1 X9.007 Y124.54 Z0 F1600
G1 X8.897 Y124.112 Z0 F1600
G1 X8.829 Y123.668 Z0 F1600
G1 X8.805 Y123.2 Z0 F1600
G1 X8.829 Y122.732 Z0 F1600
; --- FIX X Backlash ---
G0 X10.529 Y122.732 F1200
G1 X10.597 Y122.288 Z0 F1600
G1 X10.707 Y121.86 Z0 F1600
G1 X10.856 Y121.453 Z0 F1600
G1 X11.046 Y121.057 Z0 F1600
G1 X11.27 Y120.69 Z0 F1600
G1 X11.529 Y120.343 Z0 F1600
G1 X11.822 Y120.022 Z0 F1600
G1 X12.143 Y119.729 Z0 F1600
G1 X12.49 Y119.47 Z0 F1600
G1 X12.857 Y119.246 Z0 F1600
G1 X13.253 Y119.056 Z0 F1600
G1 X13.66 Y118.907 Z0 F1600
G1 X14.088 Y118.797 Z0 F1600
G1 X14.532 Y118.729 Z0 F1600
G1 X15 Y118.705 Z0 F1600
G1 X15.468 Y118.729 Z0 F1600
; --- FIX Y Backlash ---
G0 X15.468 Y120.529 F1200
G1 X15.912 Y120.597 Z0 F1600
G1 X16.34 Y120.707 Z0 F1600
G1 X16.747 Y120.856 Z0 F1600
G1 X17.143 Y121.046 Z0 F1600
G1 X17.51 Y121.27 Z0 F1600
G1 X17.857 Y121.529 Z0 F1600
G1 X18.178 Y121.822 Z0 F1600
G1 X18.471 Y122.143 Z0 F1600
G1 X18.73 Y122.49 Z0 F1600
G1 X18.954 Y122.857 Z0 F1600
G1 X19.144 Y123.253 Z0 F1600
G1 X19.293 Y123.66 Z0 F1600
G1 X19.403 Y124.088 Z0 F1600
G1 X19.471 Y124.532 Z0 F1600
G1 X19.495 Y125 Z0 F1600
G1 X19.471 Y125.468 Z0 F1600
; --- FIX X Backlash ---
G0 X17.771 Y125.468 F1200
G1 X17.703 Y125.912 Z0 F1600
G1 X17.593 Y126.34 Z0 F1600
G1 X17.444 Y126.747 Z0 F1600
G1 X17.254 Y127.143 Z0 F1600
G1 X17.03 Y127.51 Z0 F1600
G1 X16.771 Y127.857 Z0 F1600
G1 X16.478 Y128.178 Z0 F1600
G0 Z3.5 F1000
G0 X13.3 Y131.498 Z3.5
G1 Z0 F1000
G1 X12.632 Y131.463 Z0 F1600
; --- FIX Y Backlash ---
G0 X12.632 Y129.663 F1200
G1 X11.988 Y129.565 Z0 F1600
G1 X11.367 Y129.406 Z0 F1600
G1 X10.768 Y129.186 Z0 F1600
G1 X10.204 Y128.915 Z0 F1600
G1 X9.669 Y128.59 Z0 F1600
G1 X9.168 Y128.215 Z0 F1600
G1 X8.706 Y127.794 Z0 F1600
G1 X8.285 Y127.332 Z0 F1600
G1 X7.91 Y126.831 Z0 F1600
G1 X7.585 Y126.296 Z0 F1600
G1 X7.314 Y125.732 Z0 F1600
G1 X7.094 Y125.133 Z0 F1600
G1 X6.935 Y124.512 Z0 F1600
G1 X6.837 Y123.868 Z0 F1600
G1 X6.802 Y123.2 Z0 F1600
G1 X6.837 Y122.532 Z0 F1600
; --- FIX X Backlash ---
G0 X8.537 Y122.532 F1200
G1 X8.635 Y121.888 Z0 F1600
G1 X8.794 Y121.267 Z0 F1600
G1 X9.014 Y120.668 Z0 F1600
G1 X9.285 Y120.104 Z0 F1600
G1 X9.61 Y119.569 Z0 F1600
G1 X9.985 Y119.068 Z0 F1600
G1 X10.406 Y118.606 Z0 F1600
G1 X10.868 Y118.185 Z0 F1600
G1 X11.369 Y117.81 Z0 F1600
G1 X11.904 Y117.485 Z0 F1600
G1 X12.468 Y117.214 Z0 F1600
G1 X13.067 Y116.994 Z0 F1600
G1 X13.688 Y116.835 Z0 F1600
G1 X14.332 Y116.737 Z0 F1600
G1 X15 Y116.702 Z0 F1600
G1 X15.668 Y116.737 Z0 F1600
; --- FIX Y Backlash ---
G0 X15.668 Y118.537 F1200
G1 X16.312 Y118.635 Z0 F1600
G1 X16.933 Y118.794 Z0 F1600
G1 X17.532 Y119.014 Z0 F1600
G1 X18.096 Y119.285 Z0 F1600
G1 X18.631 Y119.61 Z0 F1600
G1 X19.132 Y119.985 Z0 F1600
G1 X19.594 Y120.406 Z0 F1600
G1 X20.015 Y120.868 Z0 F1600
G1 X20.39 Y121.369 Z0 F1600
G1 X20.715 Y121.904 Z0 F1600
G1 X20.986 Y122.468 Z0 F1600
G1 X21.206 Y123.067 Z0 F1600
G1 X21.365 Y123.688 Z0 F1600
G1 X21.463 Y124.332 Z0 F1600
G1 X21.498 Y125 Z0 F1600
G1 X21.463 Y125.668 Z0 F1600
; --- FIX X Backlash ---
G0 X19.763 Y125.668 F1200
G1 X19.665 Y126.312 Z0 F1600
G1 X19.506 Y126.933 Z0 F1600
G1 X19.286 Y127.532 Z0 F1600
G1 X19.015 Y128.096 Z0 F1600
G1 X18.69 Y128.631 Z0 F1600
G1 X18.315 Y129.132 Z0 F1600
G1 X17.894 Y129.594 Z0 F1600
G1 X17.432 Y130.015 Z0 F1600
G1 X16.931 Y130.39 Z0 F1600
G1 X16.396 Y130.715 Z0 F1600
G1 X15.832 Y130.986 Z0 F1600
G1 X15.233 Y131.206 Z0 F1600
G1 X14.612 Y131.365 Z0 F1600
G1 X13.968 Y131.463 Z0 F1600
G1 X13.3 Y131.498 Z0 F1600
G0 Z3.5 F1000
G0 X8.548 Y132.048 Z3.5
G1 Z0 F1000
; --- FIX Y Backlash ---
G0 X8.548 Y130.248 F1200
G1 X7.893 Y129.759 Z0 F1600
G1 X7.29 Y129.21 Z0 F1600
G1 X6.741 Y128.607 Z0 F1600
G1 X6.252 Y127.952 Z0 F1600
G1 X5.826 Y127.252 Z0 F1600
G1 X5.468 Y126.509 Z0 F1600
G1 X5.182 Y125.728 Z0 F1600
G1 X4.973 Y124.913 Z0 F1600
G1 X4.844 Y124.069 Z0 F1600
G1 X4.8 Y123.2 Z0 F1600
G1 X4.844 Y122.331 Z0 F1600
; --- FIX X Backlash ---
G0 X6.544 Y122.331 F1200
G1 X6.673 Y121.487 Z0 F1600
G1 X6.882 Y120.672 Z0 F1600
G1 X7.168 Y119.891 Z0 F1600
G1 X7.526 Y119.148 Z0 F1600
G1 X7.952 Y118.448 Z0 F1600
G1 X8.441 Y117.793 Z0 F1600
G1 X8.99 Y117.19 Z0 F1600
G1 X9.593 Y116.641 Z0 F1600
G1 X10.248 Y116.152 Z0 F1600
G1 X10.948 Y115.726 Z0 F1600
G1 X11.691 Y115.368 Z0 F1600
G1 X12.472 Y115.082 Z0 F1600
G1 X13.287 Y114.873 Z0 F1600
G1 X14.131 Y114.744 Z0 F1600
G1 X15 Y114.7 Z0 F1600
G1 X15.869 Y114.744 Z0 F1600
; --- FIX Y Backlash ---
G0 X15.869 Y116.544 F1200
G1 X16.713 Y116.673 Z0 F1600
G1 X17.528 Y116.882 Z0 F1600
G1 X18.309 Y117.168 Z0 F1600
G1 X19.052 Y117.526 Z0 F1600
G1 X19.752 Y117.952 Z0 F1600
G1 X20.407 Y118.441 Z0 F1600
G1 X21.01 Y118.99 Z0 F1600
G1 X21.559 Y119.593 Z0 F1600
G1 X22.048 Y120.248 Z0 F1600
G1 X22.474 Y120.948 Z0 F1600
G1 X22.832 Y121.691 Z0 F1600
G1 X23.118 Y122.472 Z0 F1600
G1 X23.327 Y123.287 Z0 F1600
G1 X23.456 Y124.131 Z0 F1600
G1 X23.5 Y125 Z0 F1600
G1 X23.456 Y125.869 Z0 F1600
; --- FIX X Backlash ---
G0 X21.756 Y125.869 F1200
G1 X21.627 Y126.713 Z0 F1600
G1 X21.418 Y127.528 Z0 F1600
G1 X21.132 Y128.309 Z0 F1600
G1 X20.774 Y129.052 Z0 F1600
G1 X20.348 Y129.752 Z0 F1600
G1 X19.859 Y130.407 Z0 F1600
G1 X19.31 Y131.01 Z0 F1600
G1 X18.707 Y131.559 Z0 F1600
G1 X18.052 Y132.048 Z0 F1600
G1 X17.352 Y132.474 Z0 F1600
G1 X16.609 Y132.832 Z0 F1600
G1 X15.828 Y133.118 Z0 F1600
G1 X15.013 Y133.327 Z0 F1600
G1 X14.169 Y133.456 Z0 F1600
G1 X13.3 Y133.5 Z0 F1600
G1 X12.431 Y133.456 Z0 F1600
; --- FIX Y Backlash ---
G0 X12.431 Y131.656 F1200
G1 X11.587 Y131.527 Z0 F1600
G1 X10.772 Y131.318 Z0 F1600
G1 X9.991 Y131.032 Z0 F1600
G1 X9.248 Y130.674 Z0 F1600
G1 X8.548 Y130.248 Z0 F1600

; Washing sequence (no color)
G1 Z10 F1000;        ; Raise brush
G0 X5 Y5 F1200;     ; Rapid move to clean
G1 Z-1 F800;         ; Lower brush
G1 X10 Y12 Z8 F1200;     ; Move
G1 Z-1 F800;         ; Lower
G1 X25 Y14 Z6 F800;     ; Move
G1 Z8 F800;         ; Maintain
G0 X5 Y5 F1200;     ; Rapid
G1 Z-1 F800;         ; Lower
G1 X15 Y12 Z8 F1200;     ; Move
G1 Z-1 F800;         ; Lower
G1 X25 Y14 Z6 F800;     ; Move
G1 Z10 F800;         ; Maintain
G1 F1200;           ; Set feed
G0 Z2.5 F1000 ; Safety Lift

; Color picking sequence
G1 Z10 F1000;         ; Raise brush
G0 X86 Y5 F1200;    ; Rapid move to color 1
G1 Z10 F1000;         ; Raise brush
G0 X86 Y5 F1200;    ; Rapid move to color 1
G1 Z0 F1000;         ; Lower into color
G1 X85.102 Y7.295 Z0 S800 F1200
G1 X85.026 Y7.642 Z0 F1200
G1 X85 Y8 Z0 F1200
G1 X85.026 Y8.358 Z0 F1200
G1 X85.102 Y8.705 Z0 F1200
G1 X85.225 Y9.041 Z0 F1200
G1 X85.393 Y9.362 Z0 F1200
G1 X85.603 Y9.668 Z0 F1200
G1 X85.854 Y9.957 Z0 F1200
G1 X86.142 Y10.226 Z0 F1200
G1 X86.464 Y10.475 Z0 F1200
G1 X86.82 Y10.701 Z0 F1200
G1 X87.204 Y10.902 Z0 F1200
G1 X87.617 Y11.078 Z0 F1200
G1 X88.054 Y11.225 Z0 F1200
G1 X88.513 Y11.343 Z0 F1200
G1 X88.992 Y11.429 Z0 F1200
G1 X89.489 Y11.482 Z0 F1200
G1 X90 Y11.5 Z0 F1200
G1 X90.511 Y11.482 Z0 F1200
G1 X91.008 Y11.429 Z0 F1200
G1 X91.487 Y11.343 Z0 F1200
G1 X91.946 Y11.225 Z0 F1200
G1 X92.383 Y11.078 Z0 F1200
G1 X92.796 Y10.902 Z0 F1200
G1 X93.18 Y10.701 Z0 F1200
G1 X93.536 Y10.475 Z0 F1200
G1 X93.858 Y10.226 Z0 F1200
G1 X94.146 Y9.957 Z0 F1200
G1 X94.397 Y9.668 Z0 F1200
G1 X94.607 Y9.362 Z0 F1200
G1 X94.775 Y9.041 Z0 F1200
G1 X94.898 Y8.705 Z0 F1200
G1 X94.974 Y8.358 Z0 F1200
G1 X95 Y8 Z0 F1200
G1 X94.974 Y7.642 Z0 F1200
G1 X94.898 Y7.295 Z0 F1200
G1 X94.775 Y6.959 Z0 F1200
G1 X94.607 Y6.638 Z0 F1200
G1 X94.397 Y6.332 Z0 F1200
G1 X94.146 Y6.043 Z0 F1200
G1 X93.858 Y5.774 Z0 F1200
G1 X93.536 Y5.525 Z0 F1200
G1 X93.18 Y5.299 Z0 F1200
G1 X92.796 Y5.098 Z0 F1200
G1 X92.383 Y4.922 Z0 F1200
G1 X91.946 Y4.775 Z0 F1200
G1 X91.487 Y4.657 Z0 F1200
G1 X91.008 Y4.571 Z0 F1200
G1 X90.511 Y4.518 Z0 F1200
G1 X90 Y4.5 Z0 F1200
G1 X89.489 Y4.518 Z0 F1200
G1 X88.992 Y4.571 Z0 F1200
G1 X88.513 Y4.657 Z0 F1200
G1 X88.054 Y4.775 Z0 F1200
G1 X87.617 Y4.922 Z0 F1200
G1 X87.204 Y5.098 Z0 F1200
G1 X86.82 Y5.299 Z0 F1200
G1 X86.464 Y5.525 Z0 F1200
G1 X86.142 Y5.774 Z0 F1200
G1 X85.854 Y6.043 Z0 F1200
G1 X85.603 Y6.332 Z0 F1200
G1 X85.393 Y6.638 Z0 F1200
G1 X85.225 Y6.959 Z0 F1200
G1 Z7 F800;         ; Raise from color
G1 X79 Y8 Z1 F1200;     ; Movement in paint
G1 X69 Y18 Z8 F500;     ; Move in paint
G1 F1200;           ; Set feed rate
G0 Z2.5 F1000 ; Safety Lift
;Cut @ 1500 mm/min, 80% power

M8
G0 Z3.5 F1000
; --- FIX X Backlash ---
G0 X10.248 Y130.248 F1200
G0 X128.472 Y123.2 Z3.5
G1 Z0 F1000
;Layer C2
G1 X141.528 Z0 S800 F1600
G0 Z3.5 F1000
; --- FIX X Backlash ---
G0 X139.828 Y123.2 F1200
; --- FIX Y Backlash ---
G0 X139.828 Y125 F1200
G0 X133.3 Y131.528 Z3.5
G1 Z0 F1000
; --- FIX Y Backlash ---
G0 X133.3 Y129.728 F1200
G1 Y116.672 Z0 F1600
G0 Z3.5 F1000
G0 X17.173 Y49.908 Z3.5
G1 Z0 F1000
G1 X9.427 Y36.492 Z0 F1600
G0 Z3.5 F1000
; --- FIX X Backlash ---
G0 X11.127 Y36.492 F1200
G0 X12.995 Y35.719 Z3.5
G1 Z0 F1000
; --- FIX Y Backlash ---
G0 X12.995 Y37.519 F1200
G1 X17.005 Y52.481 Z0 F1600
G0 Z3.5 F1000
; --- FIX X Backlash ---
G0 X15.305 Y52.481 F1200
G0 X13.3 Y52.745 Z3.5
G1 Z0 F1000
; --- FIX Y Backlash ---
G0 X13.3 Y50.945 F1200
G1 Y35.455 Z0 F1600
G0 Z3.5 F1000
; --- FIX X Backlash ---
G0 X15 Y35.455 F1200
; --- FIX Y Backlash ---
G0 X15 Y37.255 F1200
G0 X17.005 Y37.519 Z3.5
G1 Z0 F1000
; --- FIX X Backlash ---
G0 X15.305 Y37.519 F1200
G1 X11.295 Y52.481 Z0 F1600
G0 Z3.5 F1000
; --- FIX Y Backlash ---
G0 X11.295 Y50.681 F1200
G0 X9.427 Y49.908 Z3.5
G1 Z0 F1000
; --- FIX X Backlash ---
G0 X11.127 Y49.908 F1200
G1 X18.873 Y36.492 Z0 F1600
G0 Z3.5 F1000
; --- FIX Y Backlash ---
G0 X18.873 Y38.292 F1200
G0 X20.477 Y39.523 Z3.5
G1 Z0 F1000
; --- FIX X Backlash ---
G0 X18.777 Y39.523 F1200
G1 X7.823 Y50.477 Z0 F1600
G0 Z3.5 F1000
; --- FIX Y Backlash ---
G0 X7.823 Y48.677 F1200
G0 X6.592 Y47.073 Z3.5
G1 Z0 F1000
; --- FIX X Backlash ---
G0 X8.292 Y47.073 F1200
G1 X21.708 Y39.327 Z0 F1600
G0 Z3.5 F1000
; --- FIX Y Backlash ---
G0 X21.708 Y41.127 F1200
G0 X22.481 Y42.995 Z3.5
G1 Z0 F1000
; --- FIX X Backlash ---
G0 X20.781 Y42.995 F1200
G1 X5.819 Y47.005 Z0 F1600
G0 Z3.5 F1000

; Color picking sequence
G1 Z10 F1000;         ; Raise brush
G0 X86 Y5 F1200;    ; Rapid move to color 1
G1 Z10 F1000;         ; Raise brush
G0 X86 Y5 F1200;    ; Rapid move to color 1
G1 Z0 F1000;         ; Lower into color
G1 X85.102 Y7.295 Z0 S800 F1200
G1 X85.026 Y7.642 Z0 F1200
G1 X85 Y8 Z0 F1200
G1 X85.026 Y8.358 Z0 F1200
G1 X85.102 Y8.705 Z0 F1200
G1 X85.225 Y9.041 Z0 F1200
G1 X85.393 Y9.362 Z0 F1200
G1 X85.603 Y9.668 Z0 F1200
G1 X85.854 Y9.957 Z0 F1200
G1 X86.142 Y10.226 Z0 F1200
G1 X86.464 Y10.475 Z0 F1200
G1 X86.82 Y10.701 Z0 F1200
G1 X87.204 Y10.902 Z0 F1200
G1 X87.617 Y11.078 Z0 F1200
G1 X88.054 Y11.225 Z0 F1200
G1 X88.513 Y11.343 Z0 F1200
G1 X88.992 Y11.429 Z0 F1200
G1 X89.489 Y11.482 Z0 F1200
G1 X90 Y11.5 Z0 F1200
G1 X90.511 Y11.482 Z0 F1200
G1 X91.008 Y11.429 Z0 F1200
G1 X91.487 Y11.343 Z0 F1200
G1 X91.946 Y11.225 Z0 F1200
G1 X92.383 Y11.078 Z0 F1200
G1 X92.796 Y10.902 Z0 F1200
G1 X93.18 Y10.701 Z0 F1200
G1 X93.536 Y10.475 Z0 F1200
G1 X93.858 Y10.226 Z0 F1200
G1 X94.146 Y9.957 Z0 F1200
G1 X94.397 Y9.668 Z0 F1200
G1 X94.607 Y9.362 Z0 F1200
G1 X94.775 Y9.041 Z0 F1200
G1 X94.898 Y8.705 Z0 F1200
G1 X94.974 Y8.358 Z0 F1200
G1 X95 Y8 Z0 F1200
G1 X94.974 Y7.642 Z0 F1200
G1 X94.898 Y7.295 Z0 F1200
G1 X94.775 Y6.959 Z0 F1200
G1 X94.607 Y6.638 Z0 F1200
G1 X94.397 Y6.332 Z0 F1200
G1 X94.146 Y6.043 Z0 F1200
G1 X93.858 Y5.774 Z0 F1200
G1 X93.536 Y5.525 Z0 F1200
G1 X93.18 Y5.299 Z0 F1200
G1 X92.796 Y5.098 Z0 F1200
G1 X92.383 Y4.922 Z0 F1200
G1 X91.946 Y4.775 Z0 F1200
G1 X91.487 Y4.657 Z0 F1200
G1 X91.008 Y4.571 Z0 F1200
G1 X90.511 Y4.518 Z0 F1200
G1 X90 Y4.5 Z0 F1200
G1 X89.489 Y4.518 Z0 F1200
G1 X88.992 Y4.571 Z0 F1200
G1 X88.513 Y4.657 Z0 F1200
G1 X88.054 Y4.775 Z0 F1200
G1 X87.617 Y4.922 Z0 F1200
G1 X87.204 Y5.098 Z0 F1200
G1 X86.82 Y5.299 Z0 F1200
G1 X86.464 Y5.525 Z0 F1200
G1 X86.142 Y5.774 Z0 F1200
G1 X85.854 Y6.043 Z0 F1200
G1 X85.603 Y6.332 Z0 F1200
G1 X85.393 Y6.638 Z0 F1200
G1 X85.225 Y6.959 Z0 F1200
G1 Z7 F800;         ; Raise from color
G1 X79 Y8 Z1 F1200;     ; Movement in paint
G1 X69 Y18 Z8 F500;     ; Move in paint
G1 F1200;           ; Set feed rate
G0 Z2.5 F1000 ; Safety Lift
G0 X5.819 Y47.005 F1200 ; Return to pos
; --- FIX Y Backlash ---
G0 X5.819 Y45.205 F1200
G0 X5.555 Y43.2 Z3.5
G1 Z0 F1000
; --- FIX X Backlash ---
G0 X7.255 Y43.2 F1200
G1 X22.745 Z0 F1600
G0 Z3.5 F1000
; --- FIX X Backlash ---
G0 X21.045 Y43.2 F1200
; --- FIX Y Backlash ---
G0 X21.045 Y45 F1200
G0 X20.781 Y47.005 Z3.5
G1 Z0 F1000
; --- FIX Y Backlash ---
G0 X20.781 Y45.205 F1200
G1 X5.819 Y41.195 Z0 F1600
G0 Z3.5 F1000
; --- FIX X Backlash ---
G0 X7.519 Y41.195 F1200
G0 X8.292 Y39.327 Z3.5
G1 Z0 F1000
; --- FIX Y Backlash ---
G0 X8.292 Y41.127 F1200
G1 X21.708 Y48.873 Z0 F1600
G0 Z3.5 F1000
; --- FIX X Backlash ---
G0 X20.008 Y48.873 F1200
G0 X18.777 Y50.477 Z3.5
G1 Z0 F1000
; --- FIX Y Backlash ---
G0 X18.777 Y48.677 F1200
G1 X7.823 Y37.723 Z0 F1600

; Washing sequence (no color)
G1 Z10 F1000;        ; Raise brush
G0 X5 Y5 F1200;     ; Rapid move to clean
G1 Z-1 F800;         ; Lower brush
G1 X10 Y12 Z8 F1200;     ; Move
G1 Z-1 F800;         ; Lower
G1 X25 Y14 Z6 F800;     ; Move
G1 Z8 F800;         ; Maintain
G0 X5 Y5 F1200;     ; Rapid
G1 Z-1 F800;         ; Lower
G1 X15 Y12 Z8 F1200;     ; Move
G1 Z-1 F800;         ; Lower
G1 X25 Y14 Z6 F800;     ; Move
G1 Z10 F800;         ; Maintain
G1 F1200;           ; Set feed
G0 Z2.5 F1000 ; Safety Lift

; Color picking sequence
G1 Z10 F1000;         ; Raise brush
G0 X41 Y5 F1200;    ; Rapid move to color 1
G1 Z10 F1000;         ; Raise brush
G0 X41 Y5 F1200;    ; Rapid move to color 1
G1 Z0 F1000;         ; Lower into color
G1 X40.102 Y7.295 Z0 S800 F1200
G1 X40.026 Y7.642 Z0 F1200
G1 X40 Y8 Z0 F1200
G1 X40.026 Y8.358 Z0 F1200
G1 X40.102 Y8.705 Z0 F1200
G1 X40.225 Y9.041 Z0 F1200
G1 X40.393 Y9.362 Z0 F1200
G1 X40.603 Y9.668 Z0 F1200
G1 X40.854 Y9.957 Z0 F1200
G1 X41.142 Y10.226 Z0 F1200
G1 X41.464 Y10.475 Z0 F1200
G1 X41.82 Y10.701 Z0 F1200
G1 X42.204 Y10.902 Z0 F1200
G1 X42.617 Y11.078 Z0 F1200
G1 X43.054 Y11.225 Z0 F1200
G1 X43.513 Y11.343 Z0 F1200
G1 X43.992 Y11.429 Z0 F1200
G1 X44.489 Y11.482 Z0 F1200
G1 X45 Y11.5 Z0 F1200
G1 X45.511 Y11.482 Z0 F1200
G1 X46.008 Y11.429 Z0 F1200
G1 X46.487 Y11.343 Z0 F1200
G1 X46.946 Y11.225 Z0 F1200
G1 X47.383 Y11.078 Z0 F1200
G1 X47.796 Y10.902 Z0 F1200
G1 X48.18 Y10.701 Z0 F1200
G1 X48.536 Y10.475 Z0 F1200
G1 X48.858 Y10.226 Z0 F1200
G1 X49.146 Y9.957 Z0 F1200
G1 X49.397 Y9.668 Z0 F1200
G1 X49.607 Y9.362 Z0 F1200
G1 X49.775 Y9.041 Z0 F1200
G1 X49.898 Y8.705 Z0 F1200
G1 X49.974 Y8.358 Z0 F1200
G1 X50 Y8 Z0 F1200
G1 X49.974 Y7.642 Z0 F1200
G1 X49.898 Y7.295 Z0 F1200
G1 X49.775 Y6.959 Z0 F1200
G1 X49.607 Y6.638 Z0 F1200
G1 X49.397 Y6.332 Z0 F1200
G1 X49.146 Y6.043 Z0 F1200
G1 X48.858 Y5.774 Z0 F1200
G1 X48.536 Y5.525 Z0 F1200
G1 X48.18 Y5.299 Z0 F1200
G1 X47.796 Y5.098 Z0 F1200
G1 X47.383 Y4.922 Z0 F1200
G1 X46.946 Y4.775 Z0 F1200
G1 X46.487 Y4.657 Z0 F1200
G1 X46.008 Y4.571 Z0 F1200
G1 X45.511 Y4.518 Z0 F1200
G1 X45 Y4.5 Z0 F1200
G1 X44.489 Y4.518 Z0 F1200
G1 X43.992 Y4.571 Z0 F1200
G1 X43.513 Y4.657 Z0 F1200
G1 X43.054 Y4.775 Z0 F1200
G1 X42.617 Y4.922 Z0 F1200
G1 X42.204 Y5.098 Z0 F1200
G1 X41.82 Y5.299 Z0 F1200
G1 X41.464 Y5.525 Z0 F1200
G1 X41.142 Y5.774 Z0 F1200
G1 X40.854 Y6.043 Z0 F1200
G1 X40.603 Y6.332 Z0 F1200
G1 X40.393 Y6.638 Z0 F1200
G1 X40.225 Y6.959 Z0 F1200
G1 Z7 F800;         ; Raise from color
G1 X34 Y8 Z1 F1200;     ; Movement in paint
G1 X24 Y18 Z8 F500;     ; Move in paint
G1 F1200;           ; Set feed rate
G0 Z2.5 F1000 ; Safety Lift
;Scan @ 1500 mm/min, 90% power

M8
G0 Z3.5 F1000
; --- FIX X Backlash ---
G0 X9.523 Y37.723 F1200
; --- FIX Y Backlash ---
G0 X9.523 Y39.523 F1200
G0 X62.435 Y63.4 Z3.5
G1 Z0 F1000
;Layer C1
G0 Z2.5 F500 ; Lift S=0
G1 X64.185 S0 F1600
G0 Z0 F500 ; Drop S>0
G1 X66.079 S900 F1600
G0 Z2.5 F500 ; Lift S=0
G1 X83.958 S0 F1600
G0 Z0 F500 ; Drop S>0
G1 X85.801 S900 F1600
G0 Z2.5 F500 ; Lift S=0
G1 X87.551 S0 F1600
G1 X89.504 Y64.6 Z2.5 F1600
; --- FIX X Backlash ---
G0 X87.804 Y64.6 F1200
G1 X86.054 Z2.5 F1600
G0 Z0 F500 ; Drop S>0
G1 X81.463 S900 F1600
G0 Z2.5 F500 ; Lift S=0
G1 X65.159 S0 F1600
G0 Z0 F500 ; Drop S>0
G1 X60.478 S900 F1600
G0 Z2.5 F500 ; Lift S=0
G1 X58.728 S0 F1600
G1 X57.475 Y65.8 Z2.5 F1600
; --- FIX X Backlash ---
G0 X59.175 Y65.8 F1200
G1 X60.925 Z2.5 F1600
G0 Z0 F500 ; Drop S>0
G1 X67.645 S900 F1600
G0 Z2.5 F500 ; Lift S=0
G1 X82.367 S0 F1600
G0 Z0 F500 ; Drop S>0
G1 X89.08 S900 F1600
G0 Z2.5 F500 ; Lift S=0
G1 X90.83 S0 F1600
; --- FIX X Backlash ---
G0 X89.13 Y65.8 F1200
G1 X88.451 Y67 Z2.5 F1600
G1 X86.701 Z2.5 F1600
G0 Z0 F500 ; Drop S>0
G1 X79.861 S900 F1600
G0 Z2.5 F500 ; Lift S=0
G1 X66.739 S0 F1600
G0 Z0 F500 ; Drop S>0
G1 X59.909 S900 F1600
G0 Z2.5 F500 ; Lift S=0
G1 X58.159 S0 F1600
; --- FIX X Backlash ---
G0 X59.859 Y67 F1200
G1 X60.511 Y68.2 Z2.5 F1600
G1 X62.261 Z2.5 F1600
G0 Z0 F500 ; Drop S>0
G1 X69.262 S900 F1600
G0 Z2.5 F500 ; Lift S=0
G1 X80.74 S0 F1600
G0 Z0 F500 ; Drop S>0
G1 X87.724 S900 F1600
G0 Z2.5 F500 ; Lift S=0
G1 X89.474 S0 F1600
; --- FIX X Backlash ---
G0 X87.774 Y68.2 F1200
G1 X87.117 Y69.4 Z2.5 F1600
G1 X85.367 Z2.5 F1600
G0 Z0 F500 ; Drop S>0
G1 X78.193 S900 F1600
G0 Z2.5 F500 ; Lift S=0
G1 X68.403 S0 F1600
G0 Z0 F500 ; Drop S>0
G1 X61.222 S900 F1600
G0 Z2.5 F500 ; Lift S=0
G1 X59.472 S0 F1600
; --- FIX X Backlash ---
G0 X61.172 Y69.4 F1200
G1 X61.808 Y70.6 Z2.5 F1600
G1 X63.558 Z2.5 F1600
G0 Z0 F500 ; Drop S>0
G1 X70.924 S900 F1600
G0 Z2.5 F500 ; Lift S=0
G1 X79.026 S0 F1600
G0 Z0 F500 ; Drop S>0
G1 X86.446 S900 F1600
G0 Z2.5 F500 ; Lift S=0
G1 X88.196 S0 F1600
; --- FIX X Backlash ---
G0 X86.496 Y70.6 F1200
G1 X85.896 Y71.8 Z2.5 F1600
G1 X84.146 Z2.5 F1600
G0 Z0 F500 ; Drop S>0
G1 X78.873 S900 F1600
G0 Z2.5 F500 ; Lift S=0
G1 X67.656 S0 F1600
G0 Z0 F500 ; Drop S>0
G1 X62.442 S900 F1600
G0 Z2.5 F500 ; Lift S=0
G1 X60.692 S0 F1600
; --- FIX X Backlash ---
G0 X62.392 Y71.8 F1200
G1 X62.965 Y73 Z2.5 F1600
G1 X64.715 Z2.5 F1600
G0 Z0 F500 ; Drop S>0
G1 X67.378 S900 F1600
G0 Z2.5 F500 ; Lift S=0
G1 X70.074 S0 F1600
G0 Z0 F500 ; Drop S>0
G1 X73.446 S900 F1600
G0 Z2.5 F500 ; Lift S=0
G1 X76.49 S0 F1600
G0 Z0 F500 ; Drop S>0
G1 X79.881 S900 F1600
G0 Z2.5 F500 ; Lift S=0
G1 X82.523 S0 F1600
G0 Z0 F500 ; Drop S>0
G1 X85.283 S900 F1600
G0 Z2.5 F500 ; Lift S=0
G1 X87.033 S0 F1600
; --- FIX X Backlash ---
G0 X85.333 Y73 F1200
G1 X81.908 Y74.2 Z2.5 F1600
G1 X80.158 Z2.5 F1600
G0 Z0 F500 ; Drop S>0
G1 X74.513 S900 F1600
G0 Z2.5 F500 ; Lift S=0
G1 X72.829 S0 F1600
G0 Z0 F500 ; Drop S>0
G1 X66.398 S900 F1600
G0 Z2.5 F500 ; Lift S=0
G1 X63.701 S0 F1600
G0 Z0 F500 ; Drop S>0
G1 X63.627 S900 F1600
G0 Z2.5 F500 ; Lift S=0
G1 X61.877 S0 F1600
; --- FIX X Backlash ---
G0 X63.577 Y74.2 F1200
G1 X64.318 Y75.4 Z2.5 F1600
G1 X66.068 Z2.5 F1600
G0 Z0 F500 ; Drop S>0
G1 X75.501 S900 F1600
G0 Z2.5 F500 ; Lift S=0
G1 X77.115 S0 F1600
G0 Z0 F500 ; Drop S>0
G1 X83.787 S900 F1600
G0 Z2.5 F500 ; Lift S=0
G1 X85.537 S0 F1600
G1 X85.678 Y76.6 Z2.5 F1600
; --- FIX X Backlash ---
G0 X83.978 Y76.6 F1200
G1 X82.228 Z2.5 F1600
G0 Z0 F500 ; Drop S>0
G1 X76.239 S900 F1600
G0 Z2.5 F500 ; Lift S=0
G1 X74.663 S0 F1600
G0 Z0 F500 ; Drop S>0
G1 X64.4 S900 F1600
G0 Z2.5 F500 ; Lift S=0

; Color picking sequence
G1 Z10 F1000;         ; Raise brush
G0 X41 Y5 F1200;    ; Rapid move to color 1
G1 Z10 F1000;         ; Raise brush
G0 X41 Y5 F1200;    ; Rapid move to color 1
G1 Z0 F1000;         ; Lower into color
G1 X40.102 Y7.295 Z0 S800 F1200
G1 X40.026 Y7.642 Z0 F1200
G1 X40 Y8 Z0 F1200
G1 X40.026 Y8.358 Z0 F1200
G1 X40.102 Y8.705 Z0 F1200
G1 X40.225 Y9.041 Z0 F1200
G1 X40.393 Y9.362 Z0 F1200
G1 X40.603 Y9.668 Z0 F1200
G1 X40.854 Y9.957 Z0 F1200
G1 X41.142 Y10.226 Z0 F1200
G1 X41.464 Y10.475 Z0 F1200
G1 X41.82 Y10.701 Z0 F1200
G1 X42.204 Y10.902 Z0 F1200
G1 X42.617 Y11.078 Z0 F1200
G1 X43.054 Y11.225 Z0 F1200
G1 X43.513 Y11.343 Z0 F1200
G1 X43.992 Y11.429 Z0 F1200
G1 X44.489 Y11.482 Z0 F1200
G1 X45 Y11.5 Z0 F1200
G1 X45.511 Y11.482 Z0 F1200
G1 X46.008 Y11.429 Z0 F1200
G1 X46.487 Y11.343 Z0 F1200
G1 X46.946 Y11.225 Z0 F1200
G1 X47.383 Y11.078 Z0 F1200
G1 X47.796 Y10.902 Z0 F1200
G1 X48.18 Y10.701 Z0 F1200
G1 X48.536 Y10.475 Z0 F1200
G1 X48.858 Y10.226 Z0 F1200
G1 X49.146 Y9.957 Z0 F1200
G1 X49.397 Y9.668 Z0 F1200
G1 X49.607 Y9.362 Z0 F1200
G1 X49.775 Y9.041 Z0 F1200
G1 X49.898 Y8.705 Z0 F1200
G1 X49.974 Y8.358 Z0 F1200
G1 X50 Y8 Z0 F1200
G1 X49.974 Y7.642 Z0 F1200
G1 X49.898 Y7.295 Z0 F1200
G1 X49.775 Y6.959 Z0 F1200
G1 X49.607 Y6.638 Z0 F1200
G1 X49.397 Y6.332 Z0 F1200
G1 X49.146 Y6.043 Z0 F1200
G1 X48.858 Y5.774 Z0 F1200
G1 X48.536 Y5.525 Z0 F1200
G1 X48.18 Y5.299 Z0 F1200
G1 X47.796 Y5.098 Z0 F1200
G1 X47.383 Y4.922 Z0 F1200
G1 X46.946 Y4.775 Z0 F1200
G1 X46.487 Y4.657 Z0 F1200
G1 X46.008 Y4.571 Z0 F1200
G1 X45.511 Y4.518 Z0 F1200
G1 X45 Y4.5 Z0 F1200
G1 X44.489 Y4.518 Z0 F1200
G1 X43.992 Y4.571 Z0 F1200
G1 X43.513 Y4.657 Z0 F1200
G1 X43.054 Y4.775 Z0 F1200
G1 X42.617 Y4.922 Z0 F1200
G1 X42.204 Y5.098 Z0 F1200
G1 X41.82 Y5.299 Z0 F1200
G1 X41.464 Y5.525 Z0 F1200
G1 X41.142 Y5.774 Z0 F1200
G1 X40.854 Y6.043 Z0 F1200
G1 X40.603 Y6.332 Z0 F1200
G1 X40.393 Y6.638 Z0 F1200
G1 X40.225 Y6.959 Z0 F1200
G1 Z7 F800;         ; Raise from color
G1 X34 Y8 Z1 F1200;     ; Movement in paint
G1 X24 Y18 Z8 F500;     ; Move in paint
G1 F1200;           ; Set feed rate
G0 Z2.5 F1000 ; Safety Lift
G0 X64.4 Y76.6 F1200 ; Return to pos
G1 X62.65 S0 F1600
; --- FIX X Backlash ---
G0 X64.35 Y76.6 F1200
G1 X64.731 Y77.8 Z2.5 F1600
G1 X66.481 Z2.5 F1600
G0 Z0 F500 ; Drop S>0
G1 X77.142 S900 F1600
G0 Z2.5 F500 ; Lift S=0
G1 X78.71 S0 F1600
G0 Z0 F500 ; Drop S>0
G1 X83.528 S900 F1600
G0 Z2.5 F500 ; Lift S=0
G1 X85.278 S0 F1600
; --- FIX X Backlash ---
G0 X83.578 Y77.8 F1200
G1 X83.147 Y79 Z2.5 F1600
G1 X81.397 Z2.5 F1600
G0 Z0 F500 ; Drop S>0
G1 X77.686 S900 F1600
G0 Z2.5 F500 ; Lift S=0
G1 X76.154 S0 F1600
G0 Z0 F500 ; Drop S>0
G1 X65.203 S900 F1600
G0 Z2.5 F500 ; Lift S=0
G1 X63.453 S0 F1600
; --- FIX X Backlash ---
G0 X65.153 Y79 F1200
G1 X65.625 Y80.2 Z2.5 F1600
G1 X67.375 Z2.5 F1600
G0 Z0 F500 ; Drop S>0
G1 X78.518 S900 F1600
G0 Z2.5 F500 ; Lift S=0
G1 X80.019 S0 F1600
G0 Z0 F500 ; Drop S>0
G1 X82.627 S900 F1600
G0 Z2.5 F500 ; Lift S=0
G1 X84.377 S0 F1600
; --- FIX X Backlash ---
G0 X82.677 Y80.2 F1200
G1 X82.189 Y81.4 Z2.5 F1600
G1 X80.439 Z2.5 F1600
G0 Z0 F500 ; Drop S>0
G1 X78.943 S900 F1600
G0 Z2.5 F500 ; Lift S=0
G1 X77.442 S0 F1600
G0 Z0 F500 ; Drop S>0
G1 X66.214 S900 F1600
G0 Z2.5 F500 ; Lift S=0
G1 X64.464 S0 F1600
; --- FIX X Backlash ---
G0 X66.164 Y81.4 F1200
G1 X66.786 Y82.6 Z2.5 F1600
G1 X68.536 Z2.5 F1600
G0 Z0 F500 ; Drop S>0
G1 X79.738 S900 F1600
G0 Z2.5 F500 ; Lift S=0
G1 X81.257 S0 F1600
G0 Z0 F500 ; Drop S>0
G1 X81.65 S900 F1600
G0 Z2.5 F500 ; Lift S=0
G1 X83.4 S0 F1600
; --- FIX X Backlash ---
G0 X81.7 Y82.6 F1200
G1 X80.363 Y83.8 Z2.5 F1600
G1 X78.613 Z2.5 F1600
G0 Z0 F500 ; Drop S>0
G1 X67.52 S900 F1600
G0 Z2.5 F500 ; Lift S=0
G1 X65.77 S0 F1600
; --- FIX X Backlash ---
G0 X67.47 Y83.8 F1200
G1 X68.216 Y85 Z2.5 F1600
G1 X69.966 Z2.5 F1600
G0 Z0 F500 ; Drop S>0
G1 X80.872 S900 F1600
G0 Z2.5 F500 ; Lift S=0
G1 X82.622 S0 F1600
G1 X83.168 Y86.2 Z2.5 F1600
; --- FIX X Backlash ---
G0 X81.468 Y86.2 F1200
G1 X79.718 Z2.5 F1600
G0 Z0 F500 ; Drop S>0
G1 X69.056 S900 F1600
G0 Z2.5 F500 ; Lift S=0
G1 X67.492 S0 F1600
G0 Z0 F500 ; Drop S>0
G1 X66.917 S900 F1600
G0 Z2.5 F500 ; Lift S=0
G1 X65.167 S0 F1600
G1 X64.612 Y87.4 Z2.5 F1600
; --- FIX X Backlash ---
G0 X66.312 Y87.4 F1200
G1 X68.062 Z2.5 F1600
G0 Z0 F500 ; Drop S>0
G1 X69.943 S900 F1600
G0 Z2.5 F500 ; Lift S=0
G1 X71.576 S0 F1600
G0 Z0 F500 ; Drop S>0
G1 X81.954 S900 F1600
G0 Z2.5 F500 ; Lift S=0
G1 X83.704 S0 F1600
G1 X84.236 Y88.6 Z2.5 F1600
; --- FIX X Backlash ---
G0 X82.536 Y88.6 F1200
G1 X80.786 Z2.5 F1600
G0 Z0 F500 ; Drop S>0
G1 X70.716 S900 F1600
G0 Z2.5 F500 ; Lift S=0
G1 X69.056 S0 F1600
G0 Z0 F500 ; Drop S>0
G1 X65.825 S900 F1600
G0 Z2.5 F500 ; Lift S=0
G1 X64.075 S0 F1600
G1 X63.542 Y89.8 Z2.5 F1600
; --- FIX X Backlash ---
G0 X65.242 Y89.8 F1200
G1 X66.992 Z2.5 F1600
G0 Z0 F500 ; Drop S>0
G1 X71.59 S900 F1600
G0 Z2.5 F500 ; Lift S=0
G1 X73.259 S0 F1600
G0 Z0 F500 ; Drop S>0
G1 X83.018 S900 F1600
G0 Z2.5 F500 ; Lift S=0
G1 X84.768 S0 F1600
G1 X85.3 Y91 Z2.5 F1600
; --- FIX X Backlash ---
G0 X83.6 Y91 F1200
G1 X81.85 Z2.5 F1600
G0 Z0 F500 ; Drop S>0
G1 X72.398 S900 F1600
G0 Z2.5 F500 ; Lift S=0

; Color picking sequence
G1 Z10 F1000;         ; Raise brush
G0 X41 Y5 F1200;    ; Rapid move to color 1
G1 Z10 F1000;         ; Raise brush
G0 X41 Y5 F1200;    ; Rapid move to color 1
G1 Z0 F1000;         ; Lower into color
G1 X40.102 Y7.295 Z0 S800 F1200
G1 X40.026 Y7.642 Z0 F1200
G1 X40 Y8 Z0 F1200
G1 X40.026 Y8.358 Z0 F1200
G1 X40.102 Y8.705 Z0 F1200
G1 X40.225 Y9.041 Z0 F1200
G1 X40.393 Y9.362 Z0 F1200
G1 X40.603 Y9.668 Z0 F1200
G1 X40.854 Y9.957 Z0 F1200
G1 X41.142 Y10.226 Z0 F1200
G1 X41.464 Y10.475 Z0 F1200
G1 X41.82 Y10.701 Z0 F1200
G1 X42.204 Y10.902 Z0 F1200
G1 X42.617 Y11.078 Z0 F1200
G1 X43.054 Y11.225 Z0 F1200
G1 X43.513 Y11.343 Z0 F1200
G1 X43.992 Y11.429 Z0 F1200
G1 X44.489 Y11.482 Z0 F1200
G1 X45 Y11.5 Z0 F1200
G1 X45.511 Y11.482 Z0 F1200
G1 X46.008 Y11.429 Z0 F1200
G1 X46.487 Y11.343 Z0 F1200
G1 X46.946 Y11.225 Z0 F1200
G1 X47.383 Y11.078 Z0 F1200
G1 X47.796 Y10.902 Z0 F1200
G1 X48.18 Y10.701 Z0 F1200
G1 X48.536 Y10.475 Z0 F1200
G1 X48.858 Y10.226 Z0 F1200
G1 X49.146 Y9.957 Z0 F1200
G1 X49.397 Y9.668 Z0 F1200
G1 X49.607 Y9.362 Z0 F1200
G1 X49.775 Y9.041 Z0 F1200
G1 X49.898 Y8.705 Z0 F1200
G1 X49.974 Y8.358 Z0 F1200
G1 X50 Y8 Z0 F1200
G1 X49.974 Y7.642 Z0 F1200
G1 X49.898 Y7.295 Z0 F1200
G1 X49.775 Y6.959 Z0 F1200
G1 X49.607 Y6.638 Z0 F1200
G1 X49.397 Y6.332 Z0 F1200
G1 X49.146 Y6.043 Z0 F1200
G1 X48.858 Y5.774 Z0 F1200
G1 X48.536 Y5.525 Z0 F1200
G1 X48.18 Y5.299 Z0 F1200
G1 X47.796 Y5.098 Z0 F1200
G1 X47.383 Y4.922 Z0 F1200
G1 X46.946 Y4.775 Z0 F1200
G1 X46.487 Y4.657 Z0 F1200
G1 X46.008 Y4.571 Z0 F1200
G1 X45.511 Y4.518 Z0 F1200
G1 X45 Y4.5 Z0 F1200
G1 X44.489 Y4.518 Z0 F1200
G1 X43.992 Y4.571 Z0 F1200
G1 X43.513 Y4.657 Z0 F1200
G1 X43.054 Y4.775 Z0 F1200
G1 X42.617 Y4.922 Z0 F1200
G1 X42.204 Y5.098 Z0 F1200
G1 X41.82 Y5.299 Z0 F1200
G1 X41.464 Y5.525 Z0 F1200
G1 X41.142 Y5.774 Z0 F1200
G1 X40.854 Y6.043 Z0 F1200
G1 X40.603 Y6.332 Z0 F1200
G1 X40.393 Y6.638 Z0 F1200
G1 X40.225 Y6.959 Z0 F1200
G1 Z7 F800;         ; Raise from color
G1 X34 Y8 Z1 F1200;     ; Movement in paint
G1 X24 Y18 Z8 F500;     ; Move in paint
G1 F1200;           ; Set feed rate
G0 Z2.5 F1000 ; Safety Lift
G0 X72.398 Y91 F1200 ; Return to pos
G1 X70.735 S0 F1600
G0 Z0 F500 ; Drop S>0
G1 X64.766 S900 F1600
G0 Z2.5 F500 ; Lift S=0
G1 X63.016 S0 F1600
G1 X62.492 Y92.2 Z2.5 F1600
; --- FIX X Backlash ---
G0 X64.192 Y92.2 F1200
G1 X65.942 Z2.5 F1600
G0 Z0 F500 ; Drop S>0
G1 X73.277 S900 F1600
G0 Z2.5 F500 ; Lift S=0
G1 X74.942 S0 F1600
G0 Z0 F500 ; Drop S>0
G1 X84.083 S900 F1600
G0 Z2.5 F500 ; Lift S=0
G1 X85.833 S0 F1600
G1 X86.36 Y93.4 Z2.5 F1600
; --- FIX X Backlash ---
G0 X84.66 Y93.4 F1200
G1 X82.91 Z2.5 F1600
G0 Z0 F500 ; Drop S>0
G1 X74.091 S900 F1600
G0 Z2.5 F500 ; Lift S=0
G1 X72.336 S0 F1600
G0 Z0 F500 ; Drop S>0
G1 X63.709 S900 F1600
G0 Z2.5 F500 ; Lift S=0
G1 X61.959 S0 F1600
G1 X61.43 Y94.6 Z2.5 F1600
; --- FIX X Backlash ---
G0 X63.13 Y94.6 F1200
G1 X64.88 Z2.5 F1600
G0 Z0 F500 ; Drop S>0
G1 X73.294 S900 F1600
G0 Z2.5 F500 ; Lift S=0
G1 X76.645 S0 F1600
G0 Z0 F500 ; Drop S>0
G1 X85.136 S900 F1600
G0 Z2.5 F500 ; Lift S=0
G1 X86.886 S0 F1600
G1 X87.413 Y95.8 Z2.5 F1600
; --- FIX X Backlash ---
G0 X85.713 Y95.8 F1200
G1 X83.963 Z2.5 F1600
G0 Z0 F500 ; Drop S>0
G1 X75.808 S900 F1600
G0 Z2.5 F500 ; Lift S=0
G1 X70.727 S0 F1600
G0 Z0 F500 ; Drop S>0
G1 X62.651 S900 F1600
G0 Z2.5 F500 ; Lift S=0
G1 X60.901 S0 F1600
G1 X60.372 Y97 Z2.5 F1600
; --- FIX X Backlash ---
G0 X62.072 Y97 F1200
G1 X63.822 Z2.5 F1600
G0 Z0 F500 ; Drop S>0
G1 X71.573 S900 F1600
G0 Z2.5 F500 ; Lift S=0
G1 X78.384 S0 F1600
G0 Z0 F500 ; Drop S>0
G1 X86.189 S900 F1600
G0 Z2.5 F500 ; Lift S=0
G1 X87.939 S0 F1600
G1 X88.465 Y98.2 Z2.5 F1600
; --- FIX X Backlash ---
G0 X86.765 Y98.2 F1200
G1 X85.015 Z2.5 F1600
G0 Z0 F500 ; Drop S>0
G1 X77.546 S900 F1600
G0 Z2.5 F500 ; Lift S=0
G1 X69.02 S0 F1600
G0 Z0 F500 ; Drop S>0
G1 X61.59 S900 F1600
G0 Z2.5 F500 ; Lift S=0
G1 X59.84 S0 F1600
G1 X59.309 Y99.4 Z2.5 F1600
; --- FIX X Backlash ---
G0 X61.009 Y99.4 F1200
G1 X62.759 Z2.5 F1600
G0 Z0 F500 ; Drop S>0
G1 X69.865 S900 F1600
G0 Z2.5 F500 ; Lift S=0
G1 X80.106 S0 F1600
G0 Z0 F500 ; Drop S>0
G1 X87.24 S900 F1600
G0 Z2.5 F500 ; Lift S=0
G1 X88.99 S0 F1600
G1 X89.515 Y100.6 Z2.5 F1600
; --- FIX X Backlash ---
G0 X87.815 Y100.6 F1200
G1 X86.065 Z2.5 F1600
G0 Z0 F500 ; Drop S>0
G1 X79.266 S900 F1600
G0 Z2.5 F500 ; Lift S=0
G1 X67.309 S0 F1600
G0 Z0 F500 ; Drop S>0
G1 X60.531 S900 F1600
G0 Z2.5 F500 ; Lift S=0
G1 X58.781 S0 F1600
G1 X58.253 Y101.8 Z2.5 F1600
; --- FIX X Backlash ---
G0 X59.953 Y101.8 F1200
G1 X61.703 Z2.5 F1600
G0 Z0 F500 ; Drop S>0
G1 X68.153 S900 F1600
G0 Z2.5 F500 ; Lift S=0
G1 X81.825 S0 F1600
G0 Z0 F500 ; Drop S>0
G1 X88.29 S900 F1600
G0 Z2.5 F500 ; Lift S=0
G1 X90.04 S0 F1600
G1 X90.566 Y103 Z2.5 F1600
; --- FIX X Backlash ---
G0 X88.866 Y103 F1200
G1 X87.116 Z2.5 F1600
G0 Z0 F500 ; Drop S>0
G1 X80.985 S900 F1600
G0 Z2.5 F500 ; Lift S=0

; Color picking sequence
G1 Z10 F1000;         ; Raise brush
G0 X41 Y5 F1200;    ; Rapid move to color 1
G1 Z10 F1000;         ; Raise brush
G0 X41 Y5 F1200;    ; Rapid move to color 1
G1 Z0 F1000;         ; Lower into color
G1 X40.102 Y7.295 Z0 S800 F1200
G1 X40.026 Y7.642 Z0 F1200
G1 X40 Y8 Z0 F1200
G1 X40.026 Y8.358 Z0 F1200
G1 X40.102 Y8.705 Z0 F1200
G1 X40.225 Y9.041 Z0 F1200
G1 X40.393 Y9.362 Z0 F1200
G1 X40.603 Y9.668 Z0 F1200
G1 X40.854 Y9.957 Z0 F1200
G1 X41.142 Y10.226 Z0 F1200
G1 X41.464 Y10.475 Z0 F1200
G1 X41.82 Y10.701 Z0 F1200
G1 X42.204 Y10.902 Z0 F1200
G1 X42.617 Y11.078 Z0 F1200
G1 X43.054 Y11.225 Z0 F1200
G1 X43.513 Y11.343 Z0 F1200
G1 X43.992 Y11.429 Z0 F1200
G1 X44.489 Y11.482 Z0 F1200
G1 X45 Y11.5 Z0 F1200
G1 X45.511 Y11.482 Z0 F1200
G1 X46.008 Y11.429 Z0 F1200
G1 X46.487 Y11.343 Z0 F1200
G1 X46.946 Y11.225 Z0 F1200
G1 X47.383 Y11.078 Z0 F1200
G1 X47.796 Y10.902 Z0 F1200
G1 X48.18 Y10.701 Z0 F1200
G1 X48.536 Y10.475 Z0 F1200
G1 X48.858 Y10.226 Z0 F1200
G1 X49.146 Y9.957 Z0 F1200
G1 X49.397 Y9.668 Z0 F1200
G1 X49.607 Y9.362 Z0 F1200
G1 X49.775 Y9.041 Z0 F1200
G1 X49.898 Y8.705 Z0 F1200
G1 X49.974 Y8.358 Z0 F1200
G1 X50 Y8 Z0 F1200
G1 X49.974 Y7.642 Z0 F1200
G1 X49.898 Y7.295 Z0 F1200
G1 X49.775 Y6.959 Z0 F1200
G1 X49.607 Y6.638 Z0 F1200
G1 X49.397 Y6.332 Z0 F1200
G1 X49.146 Y6.043 Z0 F1200
G1 X48.858 Y5.774 Z0 F1200
G1 X48.536 Y5.525 Z0 F1200
G1 X48.18 Y5.299 Z0 F1200
G1 X47.796 Y5.098 Z0 F1200
G1 X47.383 Y4.922 Z0 F1200
G1 X46.946 Y4.775 Z0 F1200
G1 X46.487 Y4.657 Z0 F1200
G1 X46.008 Y4.571 Z0 F1200
G1 X45.511 Y4.518 Z0 F1200
G1 X45 Y4.5 Z0 F1200
G1 X44.489 Y4.518 Z0 F1200
G1 X43.992 Y4.571 Z0 F1200
G1 X43.513 Y4.657 Z0 F1200
G1 X43.054 Y4.775 Z0 F1200
G1 X42.617 Y4.922 Z0 F1200
G1 X42.204 Y5.098 Z0 F1200
G1 X41.82 Y5.299 Z0 F1200
G1 X41.464 Y5.525 Z0 F1200
G1 X41.142 Y5.774 Z0 F1200
G1 X40.854 Y6.043 Z0 F1200
G1 X40.603 Y6.332 Z0 F1200
G1 X40.393 Y6.638 Z0 F1200
G1 X40.225 Y6.959 Z0 F1200
G1 Z7 F800;         ; Raise from color
G1 X34 Y8 Z1 F1200;     ; Movement in paint
G1 X24 Y18 Z8 F500;     ; Move in paint
G1 F1200;           ; Set feed rate
G0 Z2.5 F1000 ; Safety Lift
G0 X80.985 Y103 F1200 ; Return to pos
G1 X65.6 S0 F1600
G0 Z0 F500 ; Drop S>0
G1 X59.48 S900 F1600
G0 Z2.5 F500 ; Lift S=0
G1 X57.73 S0 F1600
G1 X57.198 Y104.2 Z2.5 F1600
; --- FIX X Backlash ---
G0 X58.898 Y104.2 F1200
G1 X60.648 Z2.5 F1600
G0 Z0 F500 ; Drop S>0
G1 X66.456 S900 F1600
G0 Z2.5 F500 ; Lift S=0
G1 X83.544 S0 F1600
G0 Z0 F500 ; Drop S>0
G1 X89.341 S900 F1600
G0 Z2.5 F500 ; Lift S=0
G1 X91.091 S0 F1600
G1 X91.617 Y105.4 Z2.5 F1600
; --- FIX X Backlash ---
G0 X89.917 Y105.4 F1200
G1 X88.167 Z2.5 F1600
G0 Z0 F500 ; Drop S>0
G1 X82.702 S900 F1600
G0 Z2.5 F500 ; Lift S=0
G1 X63.908 S0 F1600
G0 Z0 F500 ; Drop S>0
G1 X58.417 S900 F1600
G0 Z2.5 F500 ; Lift S=0
G1 X56.667 S0 F1600
G1 X56.143 Y106.6 Z2.5 F1600
; --- FIX X Backlash ---
G0 X57.843 Y106.6 F1200
G1 X59.593 Z2.5 F1600
G0 Z0 F500 ; Drop S>0
G1 X64.759 S900 F1600
G0 Z2.5 F500 ; Lift S=0
G1 X85.26 S0 F1600
G0 Z0 F500 ; Drop S>0
G1 X90.393 S900 F1600
G0 Z2.5 F500 ; Lift S=0
G1 X92.143 S0 F1600
G1 X92.669 Y107.8 Z2.5 F1600
; --- FIX X Backlash ---
G0 X90.969 Y107.8 F1200
G1 X89.219 Z2.5 F1600
G0 Z0 F500 ; Drop S>0
G1 X84.417 S900 F1600
G0 Z2.5 F500 ; Lift S=0
G1 X62.21 S0 F1600
G0 Z0 F500 ; Drop S>0
G1 X57.369 S900 F1600
G0 Z2.5 F500 ; Lift S=0
G1 X55.619 S0 F1600
G1 X55.093 Y109 Z2.5 F1600
; --- FIX X Backlash ---
G0 X56.793 Y109 F1200
G1 X58.543 Z2.5 F1600
G0 Z0 F500 ; Drop S>0
G1 X63.063 S900 F1600
G0 Z2.5 F500 ; Lift S=0
G1 X86.96 S0 F1600
G0 Z0 F500 ; Drop S>0
G1 X91.449 S900 F1600
G0 Z2.5 F500 ; Lift S=0
G1 X93.199 S0 F1600
G1 X93.724 Y110.2 Z2.5 F1600
; --- FIX X Backlash ---
G0 X92.024 Y110.2 F1200
G1 X90.274 Z2.5 F1600
G0 Z0 F500 ; Drop S>0
G1 X86.102 S900 F1600
G0 Z2.5 F500 ; Lift S=0
G1 X60.523 S0 F1600
G0 Z0 F500 ; Drop S>0
G1 X56.336 S900 F1600
G0 Z2.5 F500 ; Lift S=0
G1 X54.586 S0 F1600
G1 X54.08 Y111.4 Z2.5 F1600
; --- FIX X Backlash ---
G0 X55.78 Y111.4 F1200
G1 X57.53 Z2.5 F1600
G0 Z0 F500 ; Drop S>0
G1 X61.391 S900 F1600
G0 Z2.5 F500 ; Lift S=0
G1 X88.647 S0 F1600
G0 Z0 F500 ; Drop S>0
G1 X92.5 S900 F1600
G0 Z2.5 F500 ; Lift S=0
G1 X94.25 S0 F1600
G1 X94.768 Y112.6 Z2.5 F1600
; --- FIX X Backlash ---
G0 X93.068 Y112.6 F1200
G1 X91.318 Z2.5 F1600
G0 Z0 F500 ; Drop S>0
G1 X87.787 S900 F1600
G0 Z2.5 F500 ; Lift S=0
G1 X58.852 S0 F1600
G0 Z0 F500 ; Drop S>0
G1 X55.299 S900 F1600
G0 Z2.5 F500 ; Lift S=0
G1 X53.549 S0 F1600
G1 X53.033 Y113.8 Z2.5 F1600
; --- FIX X Backlash ---
G0 X54.733 Y113.8 F1200
G1 X56.483 Z2.5 F1600
G0 Z0 F500 ; Drop S>0
G1 X59.706 S900 F1600
G0 Z2.5 F500 ; Lift S=0
G1 X90.319 S0 F1600
G0 Z0 F500 ; Drop S>0
G1 X93.532 S900 F1600
G0 Z2.5 F500 ; Lift S=0
G1 X95.282 S0 F1600
G1 X95.795 Y115 Z2.5 F1600
; --- FIX X Backlash ---
G0 X94.095 Y115 F1200
G1 X92.345 Z2.5 F1600
G0 Z0 F500 ; Drop S>0
G1 X89.453 S900 F1600
G0 Z2.5 F500 ; Lift S=0
G1 X57.167 S0 F1600
G0 Z0 F500 ; Drop S>0
G1 X54.269 S900 F1600
G0 Z2.5 F500 ; Lift S=0
G1 X52.519 S0 F1600
G1 X52.007 Y116.2 Z2.5 F1600
; --- FIX X Backlash ---
G0 X53.707 Y116.2 F1200
G1 X55.457 Z2.5 F1600
G0 Z0 F500 ; Drop S>0
G1 X58.033 S900 F1600
G0 Z2.5 F500 ; Lift S=0
G1 X91.986 S0 F1600
G0 Z0 F500 ; Drop S>0
G1 X94.559 S900 F1600
G0 Z2.5 F500 ; Lift S=0
G1 X96.309 S0 F1600
G1 X96.819 Y117.4 Z2.5 F1600
; --- FIX X Backlash ---
G0 X95.119 Y117.4 F1200
G1 X93.369 Z2.5 F1600
G0 Z0 F500 ; Drop S>0
G1 X91.125 S900 F1600
G0 Z2.5 F500 ; Lift S=0
G1 X55.501 S0 F1600
G0 Z0 F500 ; Drop S>0
G1 X53.246 S900 F1600
G0 Z2.5 F500 ; Lift S=0
G1 X51.496 S0 F1600
G1 X50.987 Y118.6 Z2.5 F1600
; --- FIX X Backlash ---
G0 X52.687 Y118.6 F1200
G1 X54.437 Z2.5 F1600
G0 Z0 F500 ; Drop S>0
G1 X56.367 S900 F1600
G0 Z2.5 F500 ; Lift S=0
G1 X93.655 S0 F1600
G0 Z0 F500 ; Drop S>0
G1 X95.567 S900 F1600
G0 Z2.5 F500 ; Lift S=0
G1 X97.317 S0 F1600
G1 X97.789 Y119.8 Z2.5 F1600
; --- FIX X Backlash ---
G0 X96.089 Y119.8 F1200
G1 X94.339 Z2.5 F1600
G0 Z0 F500 ; Drop S>0
G1 X92.779 S900 F1600
G0 Z2.5 F500 ; Lift S=0
G1 X53.812 S0 F1600
G0 Z0 F500 ; Drop S>0
G1 X52.25 S900 F1600
G0 Z2.5 F500 ; Lift S=0
G1 X50.5 S0 F1600

; Washing sequence (no color)
G1 Z10 F1000;        ; Raise brush
G0 X5 Y5 F1200;     ; Rapid move to clean
G1 Z-1 F800;         ; Lower brush
G1 X10 Y12 Z8 F1200;     ; Move
G1 Z-1 F800;         ; Lower
G1 X25 Y14 Z6 F800;     ; Move
G1 Z8 F800;         ; Maintain
G0 X5 Y5 F1200;     ; Rapid
G1 Z-1 F800;         ; Lower
G1 X15 Y12 Z8 F1200;     ; Move
G1 Z-1 F800;         ; Lower
G1 X25 Y14 Z6 F800;     ; Move
G1 Z10 F800;         ; Maintain
G1 F1200;           ; Set feed
G0 Z2.5 F1000 ; Safety Lift

; Color picking sequence
G1 Z10 F1000;         ; Raise brush
G0 X86 Y5 F1200;    ; Rapid move to color 1
G1 Z10 F1000;         ; Raise brush
G0 X86 Y5 F1200;    ; Rapid move to color 1
G1 Z0 F1000;         ; Lower into color
G1 X85.102 Y7.295 Z0 S800 F1200
G1 X85.026 Y7.642 Z0 F1200
G1 X85 Y8 Z0 F1200
G1 X85.026 Y8.358 Z0 F1200
G1 X85.102 Y8.705 Z0 F1200
G1 X85.225 Y9.041 Z0 F1200
G1 X85.393 Y9.362 Z0 F1200
G1 X85.603 Y9.668 Z0 F1200
G1 X85.854 Y9.957 Z0 F1200
G1 X86.142 Y10.226 Z0 F1200
G1 X86.464 Y10.475 Z0 F1200
G1 X86.82 Y10.701 Z0 F1200
G1 X87.204 Y10.902 Z0 F1200
G1 X87.617 Y11.078 Z0 F1200
G1 X88.054 Y11.225 Z0 F1200
G1 X88.513 Y11.343 Z0 F1200
G1 X88.992 Y11.429 Z0 F1200
G1 X89.489 Y11.482 Z0 F1200
G1 X90 Y11.5 Z0 F1200
G1 X90.511 Y11.482 Z0 F1200
G1 X91.008 Y11.429 Z0 F1200
G1 X91.487 Y11.343 Z0 F1200
G1 X91.946 Y11.225 Z0 F1200
G1 X92.383 Y11.078 Z0 F1200
G1 X92.796 Y10.902 Z0 F1200
G1 X93.18 Y10.701 Z0 F1200
G1 X93.536 Y10.475 Z0 F1200
G1 X93.858 Y10.226 Z0 F1200
G1 X94.146 Y9.957 Z0 F1200
G1 X94.397 Y9.668 Z0 F1200
G1 X94.607 Y9.362 Z0 F1200
G1 X94.775 Y9.041 Z0 F1200
G1 X94.898 Y8.705 Z0 F1200
G1 X94.974 Y8.358 Z0 F1200
G1 X95 Y8 Z0 F1200
G1 X94.974 Y7.642 Z0 F1200
G1 X94.898 Y7.295 Z0 F1200
G1 X94.775 Y6.959 Z0 F1200
G1 X94.607 Y6.638 Z0 F1200
G1 X94.397 Y6.332 Z0 F1200
G1 X94.146 Y6.043 Z0 F1200
G1 X93.858 Y5.774 Z0 F1200
G1 X93.536 Y5.525 Z0 F1200
G1 X93.18 Y5.299 Z0 F1200
G1 X92.796 Y5.098 Z0 F1200
G1 X92.383 Y4.922 Z0 F1200
G1 X91.946 Y4.775 Z0 F1200
G1 X91.487 Y4.657 Z0 F1200
G1 X91.008 Y4.571 Z0 F1200
G1 X90.511 Y4.518 Z0 F1200
G1 X90 Y4.5 Z0 F1200
G1 X89.489 Y4.518 Z0 F1200
G1 X88.992 Y4.571 Z0 F1200
G1 X88.513 Y4.657 Z0 F1200
G1 X88.054 Y4.775 Z0 F1200
G1 X87.617 Y4.922 Z0 F1200
G1 X87.204 Y5.098 Z0 F1200
G1 X86.82 Y5.299 Z0 F1200
G1 X86.464 Y5.525 Z0 F1200
G1 X86.142 Y5.774 Z0 F1200
G1 X85.854 Y6.043 Z0 F1200
G1 X85.603 Y6.332 Z0 F1200
G1 X85.393 Y6.638 Z0 F1200
G1 X85.225 Y6.959 Z0 F1200
G1 Z7 F800;         ; Raise from color
G1 X79 Y8 Z1 F1200;     ; Movement in paint
G1 X69 Y18 Z8 F500;     ; Move in paint
G1 F1200;           ; Set feed rate
G0 Z2.5 F1000 ; Safety Lift
;Offset @ 1500 mm/min, 90% power

M8
G0 Z3.5 F1000
; --- FIX X Backlash ---
G0 X52.2 Y119.8 F1200
; --- FIX Y Backlash ---
G0 X52.2 Y118 F1200
G0 X54.255 Y52.254 Z3.5
G1 Z0 F1000
;Layer C2
; --- FIX Y Backlash ---
G0 X54.255 Y54.054 F1200
G1 X54.429 Y54.894 Z0 S900 F1600
G1 X54.704 Y55.915 Z0 F1600
G1 X55.014 Y56.891 Z0 F1600
G1 X55.362 Y57.835 Z0 F1600
G1 X55.752 Y58.752 Z0 F1600
G1 X56.186 Y59.646 Z0 F1600
G1 X56.665 Y60.52 Z0 F1600
G1 X57.19 Y61.379 Z0 F1600
G1 X57.764 Y62.226 Z0 F1600
G1 X58.154 Y62.761 Z0 F1600
; --- FIX X Backlash ---
G0 X56.454 Y62.761 F1200
G1 X56.39 Y62.733 Z0 F1600
; --- FIX Y Backlash ---
G0 X56.39 Y60.933 F1200
G1 X56.191 Y60.821 Z0 F1600
G1 X55.953 Y60.656 Z0 F1600
G1 X55.693 Y60.445 Z0 F1600
G1 X55.397 Y60.172 Z0 F1600
G1 X55.077 Y59.845 Z0 F1600
G1 X54.73 Y59.463 Z0 F1600
G1 X54.652 Y59.364 Z0 F1600
G1 X54.525 Y59.184 Z0 F1600
G1 X54.365 Y58.94 Z0 F1600
G1 X54.21 Y58.69 Z0 F1600
G1 X53.859 Y58.085 Z0 F1600
G1 X53.565 Y57.526 Z0 F1600
G1 X53.392 Y57.147 Z0 F1600
G1 X53.231 Y56.74 Z0 F1600
G1 X53.085 Y56.304 Z0 F1600
G1 X52.948 Y55.826 Z0 F1600
G1 X52.827 Y55.322 Z0 F1600
G1 X52.708 Y54.729 Z0 F1600
G1 X52.604 Y54.115 Z0 F1600
G1 X52.504 Y53.424 Z0 F1600
G1 X52.49 Y53.29 Z0 F1600
G1 X52.474 Y53.067 Z0 F1600
G1 X52.461 Y52.794 Z0 F1600
G1 X52.448 Y52.468 Z0 F1600
G1 X52.429 Y51.721 Z0 F1600
G1 X52.425 Y51.425 Z0 F1600
; --- FIX X Backlash ---
G0 X54.125 Y51.425 F1200
; --- FIX Y Backlash ---
G0 X54.125 Y53.225 F1200
G1 X54.255 Y54.054 Z0 F1600
G0 Z3.5 F1000
G0 X58.815 Y57.757 Z3.5
G1 Z0 F1000
; --- FIX X Backlash ---
G0 X57.115 Y57.757 F1200
; --- FIX Y Backlash ---
G0 X57.115 Y55.957 F1200
G1 X56.547 Y54.896 Z0 F1600
G1 X55.977 Y53.756 Z0 F1600
G1 X55.432 Y52.597 Z0 F1600
G1 X55.125 Y51.896 Z0 F1600
; --- FIX X Backlash ---
G0 X56.825 Y51.896 F1200
; --- FIX Y Backlash ---
G0 X56.825 Y53.696 F1200
G1 X57.081 Y53.958 Z0 F1600
G1 X57.353 Y54.242 Z0 F1600
G1 X57.596 Y54.502 Z0 F1600
G1 X57.798 Y54.728 Z0 F1600
G1 X58.022 Y54.984 Z0 F1600
G1 X58.279 Y55.288 Z0 F1600
G1 X58.581 Y55.647 Z0 F1600
G1 X59.438 Y56.729 Z0 F1600
G1 X60.179 Y57.776 Z0 F1600
G1 X60.854 Y58.864 Z0 F1600
G1 X61.454 Y59.974 Z0 F1600
G1 X61.79 Y60.688 Z0 F1600
G1 X62.107 Y61.44 Z0 F1600
G1 X62.225 Y61.744 Z0 F1600
G1 X62.243 Y61.795 Z0 F1600
G1 X62.214 Y61.817 Z0 F1600
; --- FIX X Backlash ---
G0 X60.514 Y61.817 F1200
G1 X60.082 Y62.105 Z0 F1600
; --- FIX Y Backlash ---
G0 X60.082 Y60.305 F1200
G1 X59.98 Y60.178 Z0 F1600
G1 X59.774 Y59.914 Z0 F1600
G1 X59.565 Y59.64 Z0 F1600
G1 X59.131 Y59.046 Z0 F1600
G1 X58.661 Y58.381 Z0 F1600
G1 X58.219 Y57.729 Z0 F1600
G1 X57.79 Y57.073 Z0 F1600
G1 X57.407 Y56.459 Z0 F1600
G1 X57.115 Y55.957 Z0 F1600
G0 Z3.5 F1000
G0 X53.761 Y49.427 Z3.5
G1 Z0 F1000
G1 X52.624 Y49.336 Z0 F1600
; --- FIX Y Backlash ---
G0 X52.624 Y51.136 F1200
G1 X52.413 Y51.855 Z0 F1600
; --- FIX Y Backlash ---
G0 X52.413 Y50.055 F1200
G1 X52.419 Y49.312 Z0 F1600
G1 X52.425 Y48.994 Z0 F1600
G1 X52.435 Y48.709 Z0 F1600
G1 X52.446 Y48.509 Z0 F1600
G1 X52.457 Y48.39 Z0 F1600
; --- FIX X Backlash ---
G0 X54.157 Y48.39 F1200
G1 X54.243 Y47.717 Z0 F1600
; --- FIX Y Backlash ---
G0 X54.243 Y49.517 F1200
G1 X54.505 Y49.613 Z0 F1600
G1 X55.34 Y49.949 Z0 F1600
G1 X56.176 Y50.313 Z0 F1600
G1 X57.023 Y50.707 Z0 F1600
G1 X57.824 Y51.106 Z0 F1600
G1 X58.588 Y51.512 Z0 F1600
G1 X59.272 Y51.906 Z0 F1600
G1 X59.876 Y52.286 Z0 F1600
G1 X60.418 Y52.662 Z0 F1600
G1 X60.929 Y53.047 Z0 F1600
G1 X61.405 Y53.438 Z0 F1600
G1 X61.852 Y53.838 Z0 F1600
G1 X62.258 Y54.238 Z0 F1600
G1 X62.632 Y54.644 Z0 F1600
G1 X62.967 Y55.047 Z0 F1600
G1 X63.271 Y55.458 Z0 F1600
G1 X63.531 Y55.855 Z0 F1600
G1 X63.762 Y56.262 Z0 F1600
G1 X63.951 Y56.656 Z0 F1600
G1 X64.109 Y57.056 Z0 F1600
G1 X64.227 Y57.436 Z0 F1600
G1 X64.312 Y57.818 Z0 F1600
G1 X64.362 Y58.194 Z0 F1600
G1 X64.377 Y58.51 Z0 F1600
; --- FIX X Backlash ---
G0 X62.677 Y58.51 F1200
; --- FIX Y Backlash ---
G0 X62.677 Y56.71 F1200
G1 X62.428 Y56.233 Z0 F1600
G1 X62.08 Y55.619 Z0 F1600
G1 X61.713 Y55.019 Z0 F1600
G1 X61.331 Y54.444 Z0 F1600
G1 X60.941 Y53.906 Z0 F1600
G1 X60.382 Y53.208 Z0 F1600
G1 X59.792 Y52.54 Z0 F1600
G1 X59.174 Y51.904 Z0 F1600
G1 X58.53 Y51.304 Z0 F1600
G1 X57.865 Y50.74 Z0 F1600
G1 X57.182 Y50.218 Z0 F1600
G1 X56.483 Y49.74 Z0 F1600
G1 X55.779 Y49.315 Z0 F1600
G1 X55.465 Y49.141 Z0 F1600
G1 X55.216 Y49.015 Z0 F1600
G1 X55.054 Y48.95 Z0 F1600
G1 X54.783 Y48.875 Z0 F1600
; --- FIX Y Backlash ---
G0 X54.783 Y50.675 F1200
G1 X53.956 Y50.732 Z0 F1600
G1 X53.761 Y51.227 Z0 F1600
G0 Z3.5 F1000
G0 X53.374 Y52.199 Z3.5
G1 Z0 F1000
G1 X53.355 Z0 F1600
G1 X53.344 Y52.234 Z0 F1600
G1 X53.341 Y52.304 Z0 F1600
G1 Y52.406 Z0 F1600
G1 X53.365 Y52.686 Z0 F1600
G1 X53.408 Y53.043 Z0 F1600
; --- FIX X Backlash ---
G0 X55.108 Y53.043 F1200
G1 X55.239 Y53.875 Z0 F1600
G1 X55.402 Y54.662 Z0 F1600
G1 X55.664 Y55.634 Z0 F1600
G1 X55.96 Y56.566 Z0 F1600
G1 X56.292 Y57.466 Z0 F1600
G1 X56.663 Y58.338 Z0 F1600
G1 X57.075 Y59.187 Z0 F1600
G1 X57.53 Y60.019 Z0 F1600
G1 X58.032 Y60.838 Z0 F1600
G1 X58.582 Y61.651 Z0 F1600
G1 X59.065 Y62.312 Z0 F1600
G1 X59.553 Y62.949 Z0 F1600
G1 X59.769 Y63.22 Z0 F1600
G1 X59.948 Y63.437 Z0 F1600
G1 X60.021 Y63.521 Z0 F1600
G1 X60.08 Y63.585 Z0 F1600
G1 X60.124 Y63.629 Z0 F1600
G1 X60.151 Y63.649 Z0 F1600
G1 X60.197 Y63.706 Z0 F1600
G1 X60.216 Y63.802 Z0 F1600
G1 X60.201 Y63.83 Z0 F1600
G1 X60.158 Y63.854 Z0 F1600
; --- FIX X Backlash ---
G0 X58.458 Y63.854 F1200
G1 X58.389 Y63.875 Z0 F1600
G1 X58.298 Y63.893 Z0 F1600
G1 X58.06 Y63.918 Z0 F1600
G1 X57.767 Y63.93 Z0 F1600
G1 X57.109 Y63.911 Z0 F1600
; --- FIX Y Backlash ---
G0 X57.109 Y62.111 F1200
G1 X56.511 Y62.033 Z0 F1600
G1 X56.233 Y61.953 Z0 F1600
G1 X55.949 Y61.832 Z0 F1600
G1 X55.657 Y61.668 Z0 F1600
G1 X55.354 Y61.458 Z0 F1600
G1 X55.036 Y61.2 Z0 F1600
G1 X54.702 Y60.891 Z0 F1600
G1 X54.347 Y60.53 Z0 F1600
G1 X53.97 Y60.114 Z0 F1600
G1 X53.847 Y59.959 Z0 F1600
G1 X53.697 Y59.746 Z0 F1600
G1 X53.528 Y59.487 Z0 F1600
G1 X53.347 Y59.197 Z0 F1600
G1 X52.983 Y58.57 Z0 F1600
G1 X52.668 Y57.969 Z0 F1600
G1 X52.47 Y57.535 Z0 F1600
G1 X52.291 Y57.081 Z0 F1600
G1 X52.129 Y56.6 Z0 F1600
G1 X51.983 Y56.086 Z0 F1600
G1 X51.849 Y55.53 Z0 F1600
G1 X51.727 Y54.927 Z0 F1600
G1 X51.615 Y54.269 Z0 F1600
G1 X51.511 Y53.55 Z0 F1600
G1 X51.493 Y53.374 Z0 F1600
G1 X51.477 Y53.136 Z0 F1600
G1 X51.462 Y52.844 Z0 F1600
G1 X51.449 Y52.507 Z0 F1600
G1 X51.429 Y51.736 Z0 F1600
G1 X51.417 Y50.894 Z0 F1600
G1 X51.413 Y50.055 Z0 F1600
G1 X51.419 Y49.292 Z0 F1600
G1 X51.426 Y48.961 Z0 F1600
G1 X51.435 Y48.676 Z0 F1600
G1 X51.447 Y48.447 Z0 F1600
G1 X51.463 Y48.281 Z0 F1600
; --- FIX X Backlash ---
G0 X53.163 Y48.281 F1200
G1 X53.309 Y47.138 Z0 F1600
G1 X53.349 Y46.841 Z0 F1600
G1 X53.399 Y46.504 Z0 F1600
G1 X53.421 Y46.388 Z0 F1600
G1 X53.427 Y46.373 Z0 F1600
G1 X53.483 Y46.389 Z0 F1600
; --- FIX Y Backlash ---
G0 X53.483 Y48.189 F1200
G1 X53.816 Y48.301 Z0 F1600
G1 X54.053 Y48.383 Z0 F1600
G1 X54.87 Y48.682 Z0 F1600
G1 X55.723 Y49.025 Z0 F1600
G1 X56.589 Y49.402 Z0 F1600
G1 X57.451 Y49.803 Z0 F1600
G1 X58.285 Y50.219 Z0 F1600
G1 X59.073 Y50.638 Z0 F1600
G1 X59.792 Y51.051 Z0 F1600
G1 X60.425 Y51.45 Z0 F1600
G1 X61.002 Y51.85 Z0 F1600
G1 X61.547 Y52.261 Z0 F1600
G1 X62.058 Y52.68 Z0 F1600
G1 X62.535 Y53.108 Z0 F1600
G1 X62.978 Y53.543 Z0 F1600
G1 X63.385 Y53.984 Z0 F1600
G1 X63.756 Y54.431 Z0 F1600
G1 X64.09 Y54.883 Z0 F1600
G1 X64.388 Y55.338 Z0 F1600
G1 X64.647 Y55.797 Z0 F1600
G1 X64.869 Y56.257 Z0 F1600
G1 X65.051 Y56.719 Z0 F1600
G1 X65.194 Y57.181 Z0 F1600
G1 X65.297 Y57.643 Z0 F1600
G1 X65.359 Y58.104 Z0 F1600
G1 X65.38 Y58.562 Z0 F1600
G1 X65.37 Y58.921 Z0 F1600
G1 X65.336 Y59.245 Z0 F1600
; --- FIX X Backlash ---
G0 X63.636 Y59.245 F1200
G1 X63.578 Y59.545 Z0 F1600
G1 X63.494 Y59.834 Z0 F1600
G1 X63.321 Y60.27 Z0 F1600
G1 X63.095 Y60.75 Z0 F1600
G1 X62.985 Y60.965 Z0 F1600
G1 X62.886 Y61.14 Z0 F1600
G1 X62.809 Y61.258 Z0 F1600
G1 X62.762 Y61.301 Z0 F1600
G1 X62.735 Y61.254 Z0 F1600
; --- FIX Y Backlash ---
G0 X62.735 Y59.454 F1200
G1 X62.684 Y59.327 Z0 F1600
G1 X62.616 Y59.139 Z0 F1600
G1 X62.539 Y58.91 Z0 F1600
G1 X62.357 Y58.408 Z0 F1600
G1 X62.126 Y57.866 Z0 F1600
G1 X61.854 Y57.295 Z0 F1600
G1 X61.55 Y56.711 Z0 F1600
G1 X61.218 Y56.127 Z0 F1600
G1 X60.869 Y55.556 Z0 F1600
G1 X60.509 Y55.013 Z0 F1600
G1 X60.146 Y54.512 Z0 F1600
G1 X59.617 Y53.852 Z0 F1600
G1 X59.058 Y53.22 Z0 F1600
G1 X58.473 Y52.618 Z0 F1600
G1 X57.865 Y52.051 Z0 F1600
G1 X57.238 Y51.519 Z0 F1600
G1 X56.596 Y51.029 Z0 F1600
G1 X55.942 Y50.581 Z0 F1600
G1 X55.279 Y50.18 Z0 F1600
G1 X54.998 Y50.026 Z0 F1600
G1 X54.8 Y49.926 Z0 F1600
G1 X54.731 Y49.898 Z0 F1600
G1 X54.683 Y49.885 Z0 F1600
G1 X54.654 Z0 F1600
G1 X54.647 Y49.905 Z0 F1600
G1 X54.66 Y49.94 Z0 F1600
; --- FIX Y Backlash ---
G0 X54.66 Y51.74 F1200
G1 X54.695 Y51.791 Z0 F1600
; --- FIX X Backlash ---
G0 X56.395 Y51.791 F1200
G1 X56.449 Y51.86 Z0 F1600
G1 X56.524 Y51.946 Z0 F1600
G1 X56.62 Y52.051 Z0 F1600
G1 X56.875 Y52.317 Z0 F1600
G1 X57.803 Y53.266 Z0 F1600
G1 X58.084 Y53.56 Z0 F1600
G1 X58.327 Y53.82 Z0 F1600
G1 X58.553 Y54.071 Z0 F1600
G1 X58.785 Y54.338 Z0 F1600
G1 X59.045 Y54.645 Z0 F1600
G1 X59.356 Y55.016 Z0 F1600
G1 X60.234 Y56.123 Z0 F1600
G1 X61.018 Y57.232 Z0 F1600
G1 X61.719 Y58.36 Z0 F1600
G1 X62.347 Y59.523 Z0 F1600
G1 X62.704 Y60.281 Z0 F1600
G1 X63.032 Y61.061 Z0 F1600
G1 X63.167 Y61.411 Z0 F1600
G1 X63.273 Y61.71 Z0 F1600
G1 X63.343 Y61.939 Z0 F1600
G1 X63.367 Y62.08 Z0 F1600
G1 X63.323 Y62.171 Z0 F1600
; --- FIX X Backlash ---
G0 X61.623 Y62.171 F1200
G1 X61.503 Y62.301 Z0 F1600
G1 X61.322 Y62.458 Z0 F1600
G1 X61.099 Y62.629 Z0 F1600
G1 X60.59 Y62.968 Z0 F1600
G1 X60.109 Y63.219 Z0 F1600
G1 X59.94 Y63.281 Z0 F1600
G1 X59.824 Z0 F1600
G1 X59.771 Y63.255 Z0 F1600
G1 X59.713 Y63.208 Z0 F1600
; --- FIX Y Backlash ---
G0 X59.713 Y61.408 F1200
G1 X59.646 Y61.337 Z0 F1600
G1 X59.562 Y61.242 Z0 F1600
G1 X59.384 Y61.033 Z0 F1600
G1 X59.192 Y60.794 Z0 F1600
G1 X58.986 Y60.53 Z0 F1600
G1 X58.769 Y60.244 Z0 F1600
G1 X58.313 Y59.622 Z0 F1600
G1 X57.844 Y58.957 Z0 F1600
G1 X57.382 Y58.277 Z0 F1600
G1 X56.947 Y57.611 Z0 F1600
G1 X56.559 Y56.988 Z0 F1600
G1 X56.238 Y56.438 Z0 F1600
G1 X55.665 Y55.367 Z0 F1600
G1 X55.083 Y54.203 Z0 F1600
G1 X54.521 Y53.008 Z0 F1600
G1 X54.009 Y51.843 Z0 F1600
G1 X53.777 Y51.296 Z0 F1600
G1 X53.579 Y50.841 Z0 F1600
G1 X53.438 Y50.526 Z0 F1600
G1 X53.395 Y50.436 Z0 F1600
G1 X53.374 Y50.399 Z0 F1600
G0 Z3.5 F1000

; Color picking sequence
G1 Z10 F1000;         ; Raise brush
G0 X86 Y5 F1200;    ; Rapid move to color 1
G1 Z10 F1000;         ; Raise brush
G0 X86 Y5 F1200;    ; Rapid move to color 1
G1 Z0 F1000;         ; Lower into color
G1 X85.102 Y7.295 Z0 S800 F1200
G1 X85.026 Y7.642 Z0 F1200
G1 X85 Y8 Z0 F1200
G1 X85.026 Y8.358 Z0 F1200
G1 X85.102 Y8.705 Z0 F1200
G1 X85.225 Y9.041 Z0 F1200
G1 X85.393 Y9.362 Z0 F1200
G1 X85.603 Y9.668 Z0 F1200
G1 X85.854 Y9.957 Z0 F1200
G1 X86.142 Y10.226 Z0 F1200
G1 X86.464 Y10.475 Z0 F1200
G1 X86.82 Y10.701 Z0 F1200
G1 X87.204 Y10.902 Z0 F1200
G1 X87.617 Y11.078 Z0 F1200
G1 X88.054 Y11.225 Z0 F1200
G1 X88.513 Y11.343 Z0 F1200
G1 X88.992 Y11.429 Z0 F1200
G1 X89.489 Y11.482 Z0 F1200
G1 X90 Y11.5 Z0 F1200
G1 X90.511 Y11.482 Z0 F1200
G1 X91.008 Y11.429 Z0 F1200
G1 X91.487 Y11.343 Z0 F1200
G1 X91.946 Y11.225 Z0 F1200
G1 X92.383 Y11.078 Z0 F1200
G1 X92.796 Y10.902 Z0 F1200
G1 X93.18 Y10.701 Z0 F1200
G1 X93.536 Y10.475 Z0 F1200
G1 X93.858 Y10.226 Z0 F1200
G1 X94.146 Y9.957 Z0 F1200
G1 X94.397 Y9.668 Z0 F1200
G1 X94.607 Y9.362 Z0 F1200
G1 X94.775 Y9.041 Z0 F1200
G1 X94.898 Y8.705 Z0 F1200
G1 X94.974 Y8.358 Z0 F1200
G1 X95 Y8 Z0 F1200
G1 X94.974 Y7.642 Z0 F1200
G1 X94.898 Y7.295 Z0 F1200
G1 X94.775 Y6.959 Z0 F1200
G1 X94.607 Y6.638 Z0 F1200
G1 X94.397 Y6.332 Z0 F1200
G1 X94.146 Y6.043 Z0 F1200
G1 X93.858 Y5.774 Z0 F1200
G1 X93.536 Y5.525 Z0 F1200
G1 X93.18 Y5.299 Z0 F1200
G1 X92.796 Y5.098 Z0 F1200
G1 X92.383 Y4.922 Z0 F1200
G1 X91.946 Y4.775 Z0 F1200
G1 X91.487 Y4.657 Z0 F1200
G1 X91.008 Y4.571 Z0 F1200
G1 X90.511 Y4.518 Z0 F1200
G1 X90 Y4.5 Z0 F1200
G1 X89.489 Y4.518 Z0 F1200
G1 X88.992 Y4.571 Z0 F1200
G1 X88.513 Y4.657 Z0 F1200
G1 X88.054 Y4.775 Z0 F1200
G1 X87.617 Y4.922 Z0 F1200
G1 X87.204 Y5.098 Z0 F1200
G1 X86.82 Y5.299 Z0 F1200
G1 X86.464 Y5.525 Z0 F1200
G1 X86.142 Y5.774 Z0 F1200
G1 X85.854 Y6.043 Z0 F1200
G1 X85.603 Y6.332 Z0 F1200
G1 X85.393 Y6.638 Z0 F1200
G1 X85.225 Y6.959 Z0 F1200
G1 Z7 F800;         ; Raise from color
G1 X79 Y8 Z1 F1200;     ; Movement in paint
G1 X69 Y18 Z8 F500;     ; Move in paint
G1 F1200;           ; Set feed rate
G0 Z2.5 F1000 ; Safety Lift
G0 X53.374 Y50.399 F1200 ; Return to pos
; --- FIX X Backlash ---
G0 X55.074 Y50.399 F1200
; --- FIX Y Backlash ---
G0 X55.074 Y52.199 F1200
G0 X95.829 Y53.896 Z3.5
G1 Z0 F1000
G1 X95.82 Y54.237 Z0 F1600
G1 X95.791 Y54.889 Z0 F1600
G1 X95.747 Y55.447 Z0 F1600
; --- FIX X Backlash ---
G0 X94.047 Y55.447 F1200
G1 X93.907 Y56.447 Z0 F1600
G1 X93.683 Y57.443 Z0 F1600
G1 X93.416 Y58.311 Z0 F1600
G1 X93.074 Y59.156 Z0 F1600
G1 X92.666 Y59.965 Z0 F1600
G1 X92.204 Y60.717 Z0 F1600
G1 X91.967 Y61.051 Z0 F1600
G1 X91.715 Y61.375 Z0 F1600
G1 X91.467 Y61.662 Z0 F1600
G1 X91.209 Y61.93 Z0 F1600
G1 X90.958 Y62.162 Z0 F1600
G1 X90.713 Y62.361 Z0 F1600
G1 X90.468 Y62.53 Z0 F1600
G1 X90.233 Y62.665 Z0 F1600
G1 X90.166 Y62.699 Z0 F1600
; --- FIX X Backlash ---
G0 X91.866 Y62.699 F1200
; --- FIX Y Backlash ---
G0 X91.866 Y60.899 F1200
G1 X92.168 Y60.485 Z0 F1600
G1 X92.471 Y60.06 Z0 F1600
G1 X92.741 Y59.672 Z0 F1600
G1 X92.962 Y59.338 Z0 F1600
G1 X93.306 Y58.775 Z0 F1600
G1 X93.64 Y58.179 Z0 F1600
G1 X93.961 Y57.555 Z0 F1600
G1 X94.27 Y56.903 Z0 F1600
G1 X94.824 Y55.573 Z0 F1600
G1 X95.297 Y54.202 Z0 F1600
G1 X95.542 Y53.279 Z0 F1600
G1 X95.754 Y52.279 Z0 F1600
G1 X95.834 Y51.821 Z0 F1600
; --- FIX Y Backlash ---
G0 X95.834 Y53.621 F1200
G1 X95.829 Y53.896 Z0 F1600
G0 Z3.5 F1000
; --- FIX X Backlash ---
G0 X94.129 Y53.896 F1200
G0 X89.978 Y56.842 Z3.5
G1 Z0 F1000
G1 X89.388 Y57.901 Z0 F1600
G1 X88.784 Y58.9 Z0 F1600
G1 X88.144 Y59.874 Z0 F1600
G1 X87.446 Y60.857 Z0 F1600
G1 X86.711 Y61.82 Z0 F1600
G1 X86.496 Y62.093 Z0 F1600
; --- FIX Y Backlash ---
G0 X86.496 Y60.293 F1200
G1 X86.328 Y60.192 Z0 F1600
G1 X86.029 Y59.992 Z0 F1600
G1 X85.99 Y59.963 Z0 F1600
; --- FIX X Backlash ---
G0 X87.69 Y59.963 F1200
G1 X87.798 Y59.695 Z0 F1600
G1 X87.96 Y59.318 Z0 F1600
G1 X88.132 Y58.94 Z0 F1600
G1 X88.333 Y58.519 Z0 F1600
G1 X88.557 Y58.067 Z0 F1600
G1 X89.003 Y57.235 Z0 F1600
G1 X89.502 Y56.401 Z0 F1600
G1 X90.037 Y55.594 Z0 F1600
G1 X90.638 Y54.77 Z0 F1600
G1 X91.298 Y53.943 Z0 F1600
G1 X92.025 Y53.099 Z0 F1600
G1 X92.837 Y52.22 Z0 F1600
G1 X93.201 Y51.848 Z0 F1600
; --- FIX X Backlash ---
G0 X91.501 Y51.848 F1200
; --- FIX Y Backlash ---
G0 X91.501 Y53.648 F1200
G1 X91.097 Y54.567 Z0 F1600
G1 X90.548 Y55.729 Z0 F1600
G1 X89.978 Y56.842 Z0 F1600
G0 Z3.5 F1000
G0 X83.98 Y58.296 Z3.5
G1 Z0 F1000
G1 Y58.275 Z0 F1600
; --- FIX Y Backlash ---
G0 X83.98 Y56.475 F1200
G1 X83.985 Y56.245 Z0 F1600
G1 X83.995 Y56.056 Z0 F1600
G1 X84.008 Y55.922 Z0 F1600
G1 X84.054 Y55.666 Z0 F1600
; --- FIX X Backlash ---
G0 X85.754 Y55.666 F1200
G1 X85.833 Y55.405 Z0 F1600
G1 X86.023 Y54.905 Z0 F1600
G1 X86.253 Y54.419 Z0 F1600
G1 X86.527 Y53.939 Z0 F1600
G1 X86.842 Y53.474 Z0 F1600
G1 X87.22 Y52.992 Z0 F1600
G1 X87.652 Y52.506 Z0 F1600
G1 X88.153 Y52.001 Z0 F1600
G1 X88.719 Y51.482 Z0 F1600
G1 X89.005 Y51.238 Z0 F1600
G1 X89.268 Y51.035 Z0 F1600
G1 X89.428 Y50.922 Z0 F1600
G1 X89.625 Y50.789 Z0 F1600
G1 X89.859 Y50.635 Z0 F1600
G1 X90.531 Y50.2 Z0 F1600
G1 X90.977 Y49.907 Z0 F1600
G1 X91.168 Y49.778 Z0 F1600
G1 X91.205 Y49.751 Z0 F1600
G1 X91.265 Y49.711 Z0 F1600
G1 X91.398 Y49.635 Z0 F1600
G1 X91.608 Y49.524 Z0 F1600
G1 X91.885 Y49.386 Z0 F1600
G1 X92.192 Y49.237 Z0 F1600
G1 X92.547 Y49.07 Z0 F1600
G1 X92.937 Y48.89 Z0 F1600
G1 X93.338 Y48.709 Z0 F1600
G1 X94.155 Y48.351 Z0 F1600
G1 X94.97 Y48.007 Z0 F1600
G1 X95.325 Y47.862 Z0 F1600
G1 X95.659 Y47.73 Z0 F1600
G1 X95.744 Y47.699 Z0 F1600
; --- FIX Y Backlash ---
G0 X95.744 Y49.499 F1200
G1 X95.752 Y49.621 Z0 F1600
G1 X95.789 Y50.28 Z0 F1600
G1 X95.818 Y51.034 Z0 F1600
G1 X95.835 Y51.811 Z0 F1600
G1 Y51.956 Z0 F1600
; --- FIX X Backlash ---
G0 X94.135 Y51.956 F1200
; --- FIX Y Backlash ---
G0 X94.135 Y50.156 F1200
G1 X93.494 Y49.212 Z0 F1600
; --- FIX Y Backlash ---
G0 X93.494 Y51.012 F1200
G1 X92.975 Y51.338 Z0 F1600
; --- FIX X Backlash ---
G0 X94.675 Y51.338 F1200
; --- FIX Y Backlash ---
G0 X94.675 Y49.538 F1200
G1 X94.736 Y49.049 Z0 F1600
; --- FIX X Backlash ---
G0 X93.036 Y49.049 F1200
G1 X91.835 Y48.883 Z0 F1600
; --- FIX Y Backlash ---
G0 X91.835 Y50.683 F1200
G1 X91.529 Y50.761 Z0 F1600
G1 X91.364 Y50.826 Z0 F1600
G1 X91.216 Y50.895 Z0 F1600
G1 X90.924 Y51.048 Z0 F1600
G1 X90.585 Y51.242 Z0 F1600
G1 X89.861 Y51.693 Z0 F1600
G1 X89.173 Y52.171 Z0 F1600
G1 X88.76 Y52.499 Z0 F1600
G1 X88.315 Y52.882 Z0 F1600
G1 X87.859 Y53.295 Z0 F1600
G1 X87.417 Y53.714 Z0 F1600
G1 X87.016 Y54.113 Z0 F1600
G1 X86.687 Y54.463 Z0 F1600
G1 X86.543 Y54.628 Z0 F1600
G1 X86.413 Y54.794 Z0 F1600
G1 X86.335 Y54.918 Z0 F1600
G1 X86.238 Y55 Z0 F1600
G1 X86.029 Y55.216 Z0 F1600
G1 X85.82 Y55.459 Z0 F1600
G1 X85.417 Y55.978 Z0 F1600
G1 X85.03 Y56.524 Z0 F1600
G1 X84.66 Y57.095 Z0 F1600
G1 X84.311 Y57.684 Z0 F1600
G1 X83.985 Y58.286 Z0 F1600
G1 X83.98 Y58.296 Z0 F1600
G0 Z3.5 F1000
G0 X83.087 Y59.883 Z3.5
G1 Z0 F1000
; --- FIX Y Backlash ---
G0 X83.087 Y58.083 F1200
G1 X83.015 Y57.791 Z0 F1600
G1 X82.996 Y57.614 Z0 F1600
G1 X82.985 Y57.397 Z0 F1600
G1 X82.979 Y57.127 Z0 F1600
G1 Y56.788 Z0 F1600
G1 Y56.471 Z0 F1600
G1 X82.986 Y56.205 Z0 F1600
G1 X82.998 Y55.979 Z0 F1600
G1 X83.016 Y55.783 Z0 F1600
; --- FIX X Backlash ---
G0 X84.716 Y55.783 F1200
G1 X84.78 Y55.436 Z0 F1600
G1 X84.886 Y55.081 Z0 F1600
G1 X85.104 Y54.51 Z0 F1600
G1 X85.366 Y53.956 Z0 F1600
G1 X85.675 Y53.415 Z0 F1600
G1 X86.036 Y52.882 Z0 F1600
G1 X86.45 Y52.352 Z0 F1600
G1 X86.923 Y51.821 Z0 F1600
G1 X87.458 Y51.282 Z0 F1600
G1 X88.058 Y50.732 Z0 F1600
G1 X88.375 Y50.461 Z0 F1600
G1 X88.68 Y50.226 Z0 F1600
G1 X88.856 Y50.101 Z0 F1600
G1 X89.064 Y49.961 Z0 F1600
G1 X89.315 Y49.796 Z0 F1600
G1 X89.985 Y49.362 Z0 F1600
G1 X90.423 Y49.075 Z0 F1600
G1 X90.593 Y48.96 Z0 F1600
G1 X90.629 Y48.933 Z0 F1600
G1 X90.739 Y48.859 Z0 F1600
G1 X90.916 Y48.758 Z0 F1600
G1 X91.151 Y48.634 Z0 F1600
G1 X91.438 Y48.491 Z0 F1600
G1 X91.766 Y48.332 Z0 F1600
G1 X92.129 Y48.161 Z0 F1600
G1 X92.519 Y47.982 Z0 F1600
G1 X92.927 Y47.798 Z0 F1600
G1 X93.766 Y47.429 Z0 F1600
G1 X94.581 Y47.085 Z0 F1600
G1 X94.959 Y46.931 Z0 F1600
G1 X95.307 Y46.794 Z0 F1600
G1 X95.617 Y46.678 Z0 F1600
G1 X95.881 Y46.585 Z0 F1600
G1 X96.123 Y46.505 Z0 F1600
G1 X96.33 Y46.44 Z0 F1600
G1 X96.479 Y46.394 Z0 F1600
G1 X96.548 Y46.377 Z0 F1600
G1 X96.576 Y46.401 Z0 F1600
; --- FIX Y Backlash ---
G0 X96.576 Y48.201 F1200
G1 X96.604 Y48.274 Z0 F1600
G1 X96.63 Y48.393 Z0 F1600
G1 X96.657 Y48.555 Z0 F1600
G1 X96.682 Y48.757 Z0 F1600
G1 X96.707 Y48.995 Z0 F1600
G1 X96.729 Y49.265 Z0 F1600
G1 X96.751 Y49.565 Z0 F1600
G1 X96.789 Y50.242 Z0 F1600
G1 X96.817 Y50.996 Z0 F1600
G1 X96.835 Y51.803 Z0 F1600
G1 X96.842 Y52.636 Z0 F1600
G1 Y53.094 Z0 F1600
G1 X96.836 Y53.519 Z0 F1600
G1 X96.829 Y53.914 Z0 F1600
G1 X96.819 Y54.283 Z0 F1600
G1 X96.789 Y54.952 Z0 F1600
G1 X96.742 Y55.55 Z0 F1600
; --- FIX X Backlash ---
G0 X95.042 Y55.55 F1200
G1 X94.892 Y56.626 Z0 F1600
G1 X94.651 Y57.698 Z0 F1600
G1 X94.359 Y58.648 Z0 F1600
G1 X93.985 Y59.572 Z0 F1600
G1 X93.54 Y60.452 Z0 F1600
G1 X93.038 Y61.269 Z0 F1600
G1 X92.77 Y61.648 Z0 F1600
G1 X92.491 Y62.005 Z0 F1600
G1 X92.204 Y62.338 Z0 F1600
G1 X91.911 Y62.643 Z0 F1600
G1 X91.613 Y62.919 Z0 F1600
G1 X91.31 Y63.164 Z0 F1600
G1 X91.006 Y63.375 Z0 F1600
G1 X90.701 Y63.549 Z0 F1600
G1 X90.499 Y63.65 Z0 F1600
G1 X90.328 Y63.729 Z0 F1600
G1 X90.174 Y63.788 Z0 F1600
G1 X90.02 Y63.83 Z0 F1600
G1 X89.853 Y63.86 Z0 F1600
G1 X89.656 Y63.882 Z0 F1600
G1 X89.417 Y63.897 Z0 F1600
G1 X89.119 Y63.91 Z0 F1600
G1 X88.745 Y63.918 Z0 F1600
G1 X88.427 Y63.913 Z0 F1600
G1 X88.3 Y63.906 Z0 F1600
G1 X88.199 Y63.897 Z0 F1600
G1 X88.129 Y63.885 Z0 F1600
G1 X88.094 Y63.871 Z0 F1600
; --- FIX Y Backlash ---
G0 X88.094 Y62.071 F1200
G1 X88.086 Y62.017 Z0 F1600
G1 X88.118 Y61.928 Z0 F1600
; --- FIX X Backlash ---
G0 X89.818 Y61.928 F1200
G1 X89.888 Y61.815 Z0 F1600
G1 X89.988 Y61.688 Z0 F1600
G1 X90.078 Y61.583 Z0 F1600
G1 X90.185 Y61.453 Z0 F1600
G1 X90.306 Y61.302 Z0 F1600
G1 X90.438 Y61.132 Z0 F1600
G1 X90.731 Y60.748 Z0 F1600
G1 X91.043 Y60.329 Z0 F1600
G1 X91.357 Y59.9 Z0 F1600
G1 X91.653 Y59.485 Z0 F1600
G1 X91.914 Y59.11 Z0 F1600
G1 X92.119 Y58.801 Z0 F1600
G1 X92.443 Y58.27 Z0 F1600
G1 X92.759 Y57.705 Z0 F1600
G1 X93.064 Y57.112 Z0 F1600
G1 X93.355 Y56.496 Z0 F1600
G1 X93.889 Y55.217 Z0 F1600
G1 X94.34 Y53.91 Z0 F1600
G1 X94.569 Y53.047 Z0 F1600
G1 X94.772 Y52.089 Z0 F1600
G1 X94.851 Y51.638 Z0 F1600
G1 X94.91 Y51.237 Z0 F1600
G1 X94.929 Y51.063 Z0 F1600
G1 X94.942 Y50.911 Z0 F1600
G1 X94.948 Y50.785 Z0 F1600
G1 X94.945 Y50.688 Z0 F1600
G1 X94.933 Y50.605 Z0 F1600
G1 X94.91 Y50.572 Z0 F1600
G1 X94.872 Y50.596 Z0 F1600
; --- FIX X Backlash ---
G0 X93.172 Y50.596 F1200
; --- FIX Y Backlash ---
G0 X93.172 Y52.396 F1200
G1 X93.113 Y52.486 Z0 F1600
G1 X93.029 Y52.652 Z0 F1600
G1 X92.914 Y52.903 Z0 F1600
G1 X92.763 Y53.249 Z0 F1600
G1 X92.572 Y53.697 Z0 F1600
G1 X92.009 Y54.979 Z0 F1600
G1 X91.441 Y56.18 Z0 F1600
G1 X90.86 Y57.314 Z0 F1600
G1 X90.258 Y58.395 Z0 F1600
G1 X89.63 Y59.434 Z0 F1600
G1 X88.965 Y60.446 Z0 F1600
G1 X88.257 Y61.443 Z0 F1600
G1 X87.497 Y62.438 Z0 F1600
G1 X86.816 Y63.304 Z0 F1600
G1 X86.773 Y63.32 Z0 F1600
G1 X86.696 Y63.308 Z0 F1600
G1 X86.589 Y63.271 Z0 F1600
; --- FIX Y Backlash ---
G0 X86.589 Y61.471 F1200
G1 X86.457 Y61.413 Z0 F1600
G1 X86.142 Y61.247 Z0 F1600
G1 X85.791 Y61.035 Z0 F1600
G1 X85.446 Y60.804 Z0 F1600
G1 X85.148 Y60.581 Z0 F1600
G1 X85.029 Y60.48 Z0 F1600
G1 X84.939 Y60.391 Z0 F1600
G1 X84.881 Y60.317 Z0 F1600
G1 X84.86 Y60.262 Z0 F1600
G1 X84.882 Y60.123 Z0 F1600
; --- FIX X Backlash ---
G0 X86.582 Y60.123 F1200
G1 X86.646 Y59.909 Z0 F1600
G1 X86.746 Y59.632 Z0 F1600
G1 X86.879 Y59.299 Z0 F1600
G1 X87.042 Y58.922 Z0 F1600
G1 X87.229 Y58.51 Z0 F1600
G1 X87.437 Y58.074 Z0 F1600
G1 X87.662 Y57.622 Z0 F1600
G1 X88.135 Y56.738 Z0 F1600
G1 X88.652 Y55.873 Z0 F1600
G1 X89.218 Y55.018 Z0 F1600
G1 X89.841 Y54.166 Z0 F1600
G1 X90.526 Y53.306 Z0 F1600
G1 X91.281 Y52.43 Z0 F1600
G1 X92.112 Y51.531 Z0 F1600
G1 X93.273 Y50.345 Z0 F1600
G1 X93.467 Y50.129 Z0 F1600
G1 X93.539 Y50.043 Z0 F1600
G1 X93.59 Y49.975 Z0 F1600
G1 X93.618 Y49.928 Z0 F1600
G1 X93.621 Y49.904 Z0 F1600
G1 X93.593 Y49.9 Z0 F1600
; --- FIX X Backlash ---
G0 X91.893 Y49.9 F1200
G1 X91.838 Y49.914 Z0 F1600
G1 X91.758 Y49.946 Z0 F1600
G1 X91.658 Y49.992 Z0 F1600
; --- FIX Y Backlash ---
G0 X91.658 Y51.792 F1200
G1 X91.404 Y51.925 Z0 F1600
G1 X91.097 Y52.101 Z0 F1600
G1 X90.41 Y52.528 Z0 F1600
G1 X89.77 Y52.974 Z0 F1600
G1 X89.398 Y53.269 Z0 F1600
G1 X88.977 Y53.631 Z0 F1600
G1 X88.539 Y54.029 Z0 F1600
G1 X88.113 Y54.432 Z0 F1600
G1 X87.733 Y54.811 Z0 F1600
G1 X87.428 Y55.134 Z0 F1600
G1 X87.314 Y55.265 Z0 F1600
G1 X87.231 Y55.372 Z0 F1600
G1 X87.182 Y55.449 Z0 F1600
G1 X87.172 Y55.494 Z0 F1600
G1 X87.181 Y55.537 Z0 F1600
G1 X87.175 Y55.57 Z0 F1600
G1 X87.154 Y55.588 Z0 F1600
G1 X87.12 Z0 F1600
G1 X87.049 Y55.623 Z0 F1600
G1 X86.925 Y55.729 Z0 F1600
G1 X86.768 Y55.891 Z0 F1600
G1 X86.594 Y56.093 Z0 F1600
G1 X86.22 Y56.574 Z0 F1600
G1 X85.858 Y57.085 Z0 F1600
G1 X85.51 Y57.622 Z0 F1600
G1 X85.181 Y58.177 Z0 F1600
G1 X84.873 Y58.745 Z0 F1600
G1 X84.592 Y59.318 Z0 F1600
G1 X84.338 Y59.892 Z0 F1600
G1 X84.118 Y60.458 Z0 F1600
G1 X83.837 Y61.235 Z0 F1600
; --- FIX Y Backlash ---
G0 X83.837 Y59.435 F1200
G1 X83.645 Y59.166 Z0 F1600
G1 X83.552 Y59.021 Z0 F1600
G1 X83.44 Y58.827 Z0 F1600
G1 X83.323 Y58.608 Z0 F1600
G1 X83.216 Y58.389 Z0 F1600
G1 X83.087 Y58.083 Z0 F1600

; Washing sequence (no color)
G1 Z10 F1000;        ; Raise brush
G0 X5 Y5 F1200;     ; Rapid move to clean
G1 Z-1 F800;         ; Lower brush
G1 X10 Y12 Z8 F1200;     ; Move
G1 Z-1 F800;         ; Lower
G1 X25 Y14 Z6 F800;     ; Move
G1 Z8 F800;         ; Maintain
G0 X5 Y5 F1200;     ; Rapid
G1 Z-1 F800;         ; Lower
G1 X15 Y12 Z8 F1200;     ; Move
G1 Z-1 F800;         ; Lower
G1 X25 Y14 Z6 F800;     ; Move
G1 Z10 F800;         ; Maintain
G1 F1200;           ; Set feed
G0 Z2.5 F1000 ; Safety Lift

; Color picking sequence
G1 Z10 F1000;         ; Raise brush
G0 X131 Y5 F1200;    ; Rapid move to color 1
G1 Z10 F1000;         ; Raise brush
G0 X131 Y5 F1200;    ; Rapid move to color 1
G1 Z0 F1000;         ; Lower into color
G1 X130.102 Y7.295 Z0 S800 F1200
G1 X130.026 Y7.642 Z0 F1200
G1 X130 Y8 Z0 F1200
G1 X130.026 Y8.358 Z0 F1200
G1 X130.102 Y8.705 Z0 F1200
G1 X130.225 Y9.041 Z0 F1200
G1 X130.393 Y9.362 Z0 F1200
G1 X130.603 Y9.668 Z0 F1200
G1 X130.854 Y9.957 Z0 F1200
G1 X131.142 Y10.226 Z0 F1200
G1 X131.464 Y10.475 Z0 F1200
G1 X131.82 Y10.701 Z0 F1200
G1 X132.204 Y10.902 Z0 F1200
G1 X132.617 Y11.078 Z0 F1200
G1 X133.054 Y11.225 Z0 F1200
G1 X133.513 Y11.343 Z0 F1200
G1 X133.992 Y11.429 Z0 F1200
G1 X134.489 Y11.482 Z0 F1200
G1 X135 Y11.5 Z0 F1200
G1 X135.511 Y11.482 Z0 F1200
G1 X136.008 Y11.429 Z0 F1200
G1 X136.487 Y11.343 Z0 F1200
G1 X136.946 Y11.225 Z0 F1200
G1 X137.383 Y11.078 Z0 F1200
G1 X137.796 Y10.902 Z0 F1200
G1 X138.18 Y10.701 Z0 F1200
G1 X138.536 Y10.475 Z0 F1200
G1 X138.858 Y10.226 Z0 F1200
G1 X139.146 Y9.957 Z0 F1200
G1 X139.397 Y9.668 Z0 F1200
G1 X139.607 Y9.362 Z0 F1200
G1 X139.775 Y9.041 Z0 F1200
G1 X139.898 Y8.705 Z0 F1200
G1 X139.974 Y8.358 Z0 F1200
G1 X140 Y8 Z0 F1200
G1 X139.974 Y7.642 Z0 F1200
G1 X139.898 Y7.295 Z0 F1200
G1 X139.775 Y6.959 Z0 F1200
G1 X139.607 Y6.638 Z0 F1200
G1 X139.397 Y6.332 Z0 F1200
G1 X139.146 Y6.043 Z0 F1200
G1 X138.858 Y5.774 Z0 F1200
G1 X138.536 Y5.525 Z0 F1200
G1 X138.18 Y5.299 Z0 F1200
G1 X137.796 Y5.098 Z0 F1200
G1 X137.383 Y4.922 Z0 F1200
G1 X136.946 Y4.775 Z0 F1200
G1 X136.487 Y4.657 Z0 F1200
G1 X136.008 Y4.571 Z0 F1200
G1 X135.511 Y4.518 Z0 F1200
G1 X135 Y4.5 Z0 F1200
G1 X134.489 Y4.518 Z0 F1200
G1 X133.992 Y4.571 Z0 F1200
G1 X133.513 Y4.657 Z0 F1200
G1 X133.054 Y4.775 Z0 F1200
G1 X132.617 Y4.922 Z0 F1200
G1 X132.204 Y5.098 Z0 F1200
G1 X131.82 Y5.299 Z0 F1200
G1 X131.464 Y5.525 Z0 F1200
G1 X131.142 Y5.774 Z0 F1200
G1 X130.854 Y6.043 Z0 F1200
G1 X130.603 Y6.332 Z0 F1200
G1 X130.393 Y6.638 Z0 F1200
G1 X130.225 Y6.959 Z0 F1200
G1 Z7 F800;         ; Raise from color
G1 X124 Y8 Z1 F1200;     ; Movement in paint
G1 X114 Y18 Z8 F500;     ; Move in paint
G1 F1200;           ; Set feed rate
G0 Z2.5 F1000 ; Safety Lift
;Cut @ 1500 mm/min, 80% power

M8
G0 Z3.5 F1000
; --- FIX Y Backlash ---
G0 X83.087 Y59.883 F1200
G0 X81.28 Y62.125 Z3.5
G1 Z0 F1000
;Layer C3
G1 X81.173 Y62.091 Z0 S800 F1600
G1 X81.036 Y62.05 Z0 F1600
; --- FIX Y Backlash ---
G0 X81.036 Y60.25 F1200
G1 X80.682 Y60.15 Z0 F1600
G1 X80.25 Y60.035 Z0 F1600
G1 X79.273 Y59.787 Z0 F1600
G1 X78.347 Y59.571 Z0 F1600
G1 X77.829 Y59.457 Z0 F1600
G1 X77.164 Y56.093 Z0 F1600
G1 X77.052 Y55.563 Z0 F1600
G1 X76.943 Y55.119 Z0 F1600
G1 X76.894 Y54.943 Z0 F1600
G1 X76.851 Y54.806 Z0 F1600
G1 X76.815 Y54.714 Z0 F1600
G1 X76.787 Y54.672 Z0 F1600
G1 X76.76 Y54.665 Z0 F1600
G1 X76.705 Y54.658 Z0 F1600
G1 X76.621 Y54.652 Z0 F1600
G1 X76.512 Y54.645 Z0 F1600
G1 X76.221 Y54.633 Z0 F1600
G1 X75.845 Y54.623 Z0 F1600
G1 X75.395 Y54.614 Z0 F1600
G1 X74.885 Y54.607 Z0 F1600
G1 X74.327 Y54.603 Z0 F1600
G1 X73.734 Z0 F1600
G1 X72.96 Z0 F1600
G1 X72.321 Y54.606 Z0 F1600
G1 X71.804 Y54.613 Z0 F1600
G1 X71.399 Y54.624 Z0 F1600
G1 X71.097 Y54.638 Z0 F1600
G1 X70.887 Y54.657 Z0 F1600
G1 X70.758 Y54.681 Z0 F1600
G1 X70.7 Y54.709 Z0 F1600
G1 X70.677 Y54.755 Z0 F1600
; --- FIX Y Backlash ---
G0 X70.677 Y56.555 F1200
G1 X70.647 Y56.645 Z0 F1600
G1 X70.61 Y56.773 Z0 F1600
G1 X70.568 Y56.933 Z0 F1600
G1 X70.474 Y57.333 Z0 F1600
G1 X70.377 Y57.8 Z0 F1600
G1 X70.274 Y58.317 Z0 F1600
G1 X70.112 Y59.108 Z0 F1600
G1 X69.913 Y60.047 Z0 F1600
G1 X69.848 Y60.372 Z0 F1600
G1 X69.795 Y60.664 Z0 F1600
G1 X69.759 Y60.883 Z0 F1600
G1 X69.74 Y61.033 Z0 F1600
G1 X69.721 Y61.143 Z0 F1600
G1 X69.68 Y61.224 Z0 F1600
G1 X69.599 Y61.283 Z0 F1600
G1 X69.458 Y61.332 Z0 F1600
G1 X69.236 Y61.38 Z0 F1600
G1 X69.089 Y61.406 Z0 F1600
G1 X68.271 Y61.543 Z0 F1600
G1 X68.11 Y61.567 Z0 F1600
G1 X67.985 Y61.58 Z0 F1600
G1 X67.889 Y61.583 Z0 F1600
G1 X67.761 Y61.556 Z0 F1600
; --- FIX Y Backlash ---
G0 X67.761 Y59.756 F1200
G1 X67.676 Y59.685 Z0 F1600
G1 X67.639 Y59.637 Z0 F1600
G1 X67.503 Y59.446 Z0 F1600
G1 X67.176 Y58.967 Z0 F1600
G1 X66.902 Y58.559 Z0 F1600
G1 X66.298 Y57.645 Z0 F1600
G1 X65.563 Y56.509 Z0 F1600
G1 X65.415 Y56.291 Z0 F1600
G1 X65.355 Y56.207 Z0 F1600
G1 X65.307 Y56.143 Z0 F1600
G1 X65.273 Y56.102 Z0 F1600
G1 X65.255 Y56.088 Z0 F1600
G1 X65.247 Y56.111 Z0 F1600
; --- FIX Y Backlash ---
G0 X65.247 Y57.911 F1200
G1 X65.238 Y57.976 Z0 F1600
G1 X65.231 Y58.079 Z0 F1600
G1 X65.224 Y58.216 Z0 F1600
G1 X65.214 Y58.57 Z0 F1600
G1 X65.207 Y59.342 Z0 F1600
G1 X65.2 Y59.619 Z0 F1600
G1 X65.187 Y59.85 Z0 F1600
G1 X65.166 Y60.048 Z0 F1600
G1 X65.092 Y60.404 Z0 F1600
G1 X64.961 Y60.803 Z0 F1600
G1 X64.716 Y61.487 Z0 F1600
; --- FIX X Backlash ---
G0 X66.416 Y61.487 F1200
G1 X68.382 Y64.425 Z0 F1600
G1 X68.976 Y65.304 Z0 F1600
G1 X69.434 Y65.976 Z0 F1600
G1 X69.656 Y66.294 Z0 F1600
G1 X69.733 Y66.399 Z0 F1600
G1 X69.747 Y66.415 Z0 F1600
G1 X69.815 Z0 F1600
G1 X69.955 Y66.395 Z0 F1600
G1 X70.147 Y66.353 Z0 F1600
; --- FIX Y Backlash ---
G0 X70.147 Y64.553 F1200
G1 X70.372 Y64.495 Z0 F1600
G1 X70.826 Y64.383 Z0 F1600
G1 X71.326 Y64.286 Z0 F1600
G1 X71.865 Y64.205 Z0 F1600
G1 X72.436 Y64.137 Z0 F1600
G1 X73.65 Y64.048 Z0 F1600
G1 X74.916 Y64.017 Z0 F1600
G1 X76.181 Y64.046 Z0 F1600
; --- FIX Y Backlash ---
G0 X76.181 Y65.846 F1200
G1 X77.393 Y65.935 Z0 F1600
G1 X77.963 Y66.001 Z0 F1600
G1 X78.5 Y66.083 Z0 F1600
G1 X78.999 Y66.179 Z0 F1600
G1 X79.451 Y66.29 Z0 F1600
G1 X79.711 Y66.361 Z0 F1600
G1 X79.911 Y66.411 Z0 F1600
G1 X80.062 Y66.442 Z0 F1600
G1 X80.173 Y66.452 Z0 F1600
G1 X80.308 Y66.413 Z0 F1600
; --- FIX Y Backlash ---
G0 X80.308 Y64.613 F1200
G1 X80.391 Y64.493 Z0 F1600
G1 X80.429 Y64.429 Z0 F1600
G1 X80.504 Y64.311 Z0 F1600
G1 X80.748 Y63.943 Z0 F1600
G1 X81.086 Y63.441 Z0 F1600
G1 X81.484 Y62.86 Z0 F1600
G1 X82.822 Y60.917 Z0 F1600
G1 X82.945 Y60.725 Z0 F1600
G1 X83.036 Y60.557 Z0 F1600
G1 X83.085 Y60.432 Z0 F1600
G1 Y60.368 Z0 F1600
G1 X83.051 Y60.351 Z0 F1600
; --- FIX X Backlash ---
G0 X81.351 Y60.351 F1200
G1 X81.28 Y60.325 Z0 F1600
G0 Z3.5 F1000
; --- FIX X Backlash ---
G0 X82.98 Y60.325 F1200
; --- FIX Y Backlash ---
G0 X82.98 Y62.125 F1200
G0 X90.399 Y66.3 Z3.5
G1 Z0 F1000
; --- FIX X Backlash ---
G0 X88.699 Y66.3 F1200
G1 X87.618 Y68.426 Z0 F1600
G1 X87.278 Y69.088 Z0 F1600
G1 X87.002 Y69.621 Z0 F1600
G1 X86.822 Y69.96 Z0 F1600
G1 X86.741 Y70.103 Z0 F1600
G1 X86.724 Y70.164 Z0 F1600
G1 X86.733 Y70.228 Z0 F1600
G1 X86.775 Y70.304 Z0 F1600
; --- FIX X Backlash ---
G0 X88.475 Y70.304 F1200
G1 X88.556 Y70.401 Z0 F1600
G1 X88.683 Y70.527 Z0 F1600
G1 X88.861 Y70.693 Z0 F1600
G1 X89.098 Y70.907 Z0 F1600
G1 X90.094 Y71.836 Z0 F1600
G1 X91.012 Y72.767 Z0 F1600
G1 X91.855 Y73.702 Z0 F1600
G1 X92.626 Y74.645 Z0 F1600
G1 X93.329 Y75.602 Z0 F1600
G1 X93.965 Y76.575 Z0 F1600
G1 X94.539 Y77.568 Z0 F1600
G1 X95.053 Y78.586 Z0 F1600
G1 X95.259 Y79.048 Z0 F1600
G1 X95.473 Y79.578 Z0 F1600
G1 X95.691 Y80.156 Z0 F1600
G1 X95.903 Y80.761 Z0 F1600
G1 X96.104 Y81.372 Z0 F1600
G1 X96.288 Y81.971 Z0 F1600
G1 X96.446 Y82.537 Z0 F1600
G1 X96.572 Y83.049 Z0 F1600
G1 X96.802 Y84.236 Z0 F1600
G1 X96.968 Y85.46 Z0 F1600
G1 X97.069 Y86.707 Z0 F1600
G1 X97.107 Y87.962 Z0 F1600
G1 X97.079 Y89.21 Z0 F1600
; --- FIX X Backlash ---
G0 X95.379 Y89.21 F1200
G1 X95.287 Y90.436 Z0 F1600
G1 X95.131 Y91.626 Z0 F1600
G1 X94.91 Y92.764 Z0 F1600
G1 X94.823 Y93.122 Z0 F1600
G1 X94.714 Y93.532 Z0 F1600
G1 X94.592 Y93.971 Z0 F1600
G1 X94.462 Y94.416 Z0 F1600
G1 X94.33 Y94.847 Z0 F1600
G1 X94.204 Y95.24 Z0 F1600
G1 X94.09 Y95.574 Z0 F1600
G1 X93.994 Y95.827 Z0 F1600
G1 X93.723 Y96.484 Z0 F1600
G1 X93.673 Y96.598 Z0 F1600
G1 X93.607 Y96.743 Z0 F1600
G1 X93.436 Y97.101 Z0 F1600
G1 X93.227 Y97.523 Z0 F1600
G1 X92.999 Y97.973 Z0 F1600
G1 X92.771 Y98.415 Z0 F1600
G1 X92.56 Y98.813 Z0 F1600
G1 X92.385 Y99.132 Z0 F1600
G1 X92.317 Y99.251 Z0 F1600
G1 X92.264 Y99.336 Z0 F1600
G1 X92.106 Y99.573 Z0 F1600
G1 X91.893 Y99.885 Z0 F1600
G1 X91.646 Y100.242 Z0 F1600
G1 X91.139 Y100.964 Z0 F1600
G1 X90.836 Y101.388 Z0 F1600
G1 X90.711 Y101.557 Z0 F1600
G1 X90.679 Y101.595 Z0 F1600
G1 X90.502 Y101.803 Z0 F1600
G1 X90.198 Y102.169 Z0 F1600
G1 X89.805 Y102.632 Z0 F1600
G1 X89.411 Y103.074 Z0 F1600
G1 X89.253 Y103.248 Z0 F1600
G1 X89.116 Y103.406 Z0 F1600
G1 X89.013 Y103.53 Z0 F1600
G1 X88.96 Y103.603 Z0 F1600
G1 X88.957 Y103.663 Z0 F1600
G1 X88.984 Y103.779 Z0 F1600
; --- FIX X Backlash ---
G0 X90.684 Y103.779 F1200
G1 X90.742 Y103.953 Z0 F1600
G1 X90.832 Y104.186 Z0 F1600
G1 X90.954 Y104.482 Z0 F1600
G1 X91.109 Y104.84 Z0 F1600
G1 X91.297 Y105.263 Z0 F1600
G1 X91.593 Y105.914 Z0 F1600
G1 X91.795 Y106.38 Z0 F1600
G1 X92.05 Y106.982 Z0 F1600
G1 X92.188 Y107.296 Z0 F1600
G1 X92.312 Y107.567 Z0 F1600
G1 X92.421 Y107.793 Z0 F1600
G1 X92.513 Y107.973 Z0 F1600
G1 X92.589 Y108.104 Z0 F1600
G1 X92.646 Y108.184 Z0 F1600
G1 X92.685 Y108.211 Z0 F1600
G1 X92.753 Y108.173 Z0 F1600
; --- FIX Y Backlash ---
G0 X92.753 Y106.373 F1200
G1 X92.886 Y106.269 Z0 F1600
G1 X93.065 Y106.114 Z0 F1600
G1 X93.269 Y105.926 Z0 F1600
G1 X94.147 Y105.093 Z0 F1600
; --- FIX Y Backlash ---
G0 X94.147 Y106.893 F1200
G1 X95.014 Y107.297 Z0 F1600
G1 X95.973 Y107.74 Z0 F1600
G1 X96.521 Y107.987 Z0 F1600
G1 X97.062 Y108.233 Z0 F1600
G1 X97.487 Y108.421 Z0 F1600
G1 X97.842 Y108.562 Z0 F1600
G1 X98.133 Y108.656 Z0 F1600
G1 X98.369 Y108.705 Z0 F1600
G1 X98.556 Y108.71 Z0 F1600
G1 X98.703 Y108.672 Z0 F1600
; --- FIX Y Backlash ---
G0 X98.703 Y106.872 F1200
G1 X98.816 Y106.791 Z0 F1600
G1 X98.903 Y106.669 Z0 F1600
G1 X98.938 Y106.612 Z0 F1600
G1 X99.007 Y106.509 Z0 F1600
G1 X99.235 Y106.18 Z0 F1600
G1 X99.561 Y105.717 Z0 F1600
G1 X99.959 Y105.156 Z0 F1600
G1 X100.874 Y103.883 Z0 F1600
G1 X101.777 Y102.642 Z0 F1600
G1 X101.985 Y102.345 Z0 F1600
G1 X102.156 Y102.077 Z0 F1600
G1 X102.221 Y101.964 Z0 F1600
G1 X102.271 Y101.868 Z0 F1600
G1 X102.302 Y101.795 Z0 F1600
G1 X102.313 Y101.747 Z0 F1600
G1 X102.302 Y101.702 Z0 F1600
G1 X102.27 Y101.637 Z0 F1600
G1 X102.22 Y101.556 Z0 F1600
; --- FIX X Backlash ---
G0 X100.52 Y101.556 F1200
G1 X100.453 Y101.461 Z0 F1600
G1 X100.279 Y101.241 Z0 F1600
G1 X100.066 Y101.004 Z0 F1600
G1 X98.775 Y99.638 Z0 F1600
G1 X98.206 Y99.028 Z0 F1600
G1 X97.995 Y98.797 Z0 F1600
G1 X97.827 Y98.609 Z0 F1600
G1 X97.698 Y98.456 Z0 F1600
G1 X97.604 Y98.335 Z0 F1600
G1 X97.539 Y98.24 Z0 F1600
G1 X97.5 Y98.164 Z0 F1600
G1 X97.482 Y98.103 Z0 F1600
G1 X97.49 Y98.004 Z0 F1600
; --- FIX X Backlash ---
G0 X99.19 Y98.004 F1200
G1 X99.289 Y97.729 Z0 F1600
G1 X99.387 Y97.48 Z0 F1600
G1 X99.509 Y97.183 Z0 F1600
G1 X99.945 Y96.14 Z0 F1600
G1 X100.345 Y95.147 Z0 F1600
G1 X100.454 Y94.9 Z0 F1600
G1 X100.545 Y94.713 Z0 F1600
G1 X100.606 Y94.614 Z0 F1600
G1 X100.66 Y94.585 Z0 F1600
G1 X100.771 Y94.559 Z0 F1600
G1 X100.944 Y94.535 Z0 F1600
G1 X101.186 Y94.514 Z0 F1600
G1 X101.503 Y94.496 Z0 F1600
G1 X101.902 Y94.478 Z0 F1600
G1 X102.388 Y94.462 Z0 F1600
G1 X103.912 Y94.422 Z0 F1600
G1 X104.375 Y94.405 Z0 F1600
G1 X104.725 Y94.386 Z0 F1600
G1 X104.864 Y94.376 Z0 F1600
G1 X105.079 Y94.352 Z0 F1600
G1 X105.225 Y94.323 Z0 F1600
G1 X105.319 Y94.287 Z0 F1600
G1 X105.38 Y94.243 Z0 F1600
G1 X105.451 Y94.123 Z0 F1600
G1 X105.528 Y93.909 Z0 F1600
G1 X105.605 Y93.619 Z0 F1600
G1 X105.676 Y93.272 Z0 F1600
G1 X105.795 Y92.614 Z0 F1600
G1 X105.939 Y91.839 Z0 F1600
G1 X106.128 Y90.842 Z0 F1600
G1 X106.382 Y89.516 Z0 F1600
G1 X106.466 Y89.044 Z0 F1600
G1 X106.527 Y88.637 Z0 F1600
G1 X106.547 Y88.471 Z0 F1600
G1 X106.559 Y88.337 Z0 F1600
G1 X106.562 Y88.241 Z0 F1600
G1 X106.555 Y88.188 Z0 F1600
G1 X106.534 Y88.134 Z0 F1600
G1 X106.504 Y88.089 Z0 F1600
; --- FIX X Backlash ---
G0 X104.804 Y88.089 F1200
G1 X104.75 Y88.045 Z0 F1600
G1 X104.653 Y87.996 Z0 F1600
G1 X104.497 Y87.932 Z0 F1600
G1 X104.265 Y87.846 Z0 F1600
G1 X102.911 Y87.37 Z0 F1600
G1 X102.344 Y87.167 Z0 F1600
G1 X101.817 Y86.974 Z0 F1600
G1 X101.345 Y86.798 Z0 F1600
G1 X100.944 Y86.644 Z0 F1600
G1 X100.629 Y86.519 Z0 F1600
G1 X100.51 Y86.469 Z0 F1600
G1 X100.418 Y86.429 Z0 F1600
G1 X100.356 Y86.398 Z0 F1600
G1 X100.325 Y86.378 Z0 F1600
G1 X100.31 Y86.332 Z0 F1600
G1 X100.292 Y86.225 Z0 F1600
G1 X100.273 Y86.064 Z0 F1600
G1 X100.252 Y85.857 Z0 F1600
G1 X100.231 Y85.61 Z0 F1600
G1 X100.211 Y85.33 Z0 F1600
G1 X100.191 Y85.024 Z0 F1600
G1 X100.138 Y84.048 Z0 F1600
G1 X100.104 Y83.468 Z0 F1600
G1 X100.076 Y83.022 Z0 F1600
G1 X100.056 Y82.772 Z0 F1600
G1 X100.046 Y82.591 Z0 F1600
G1 X100.089 Y82.47 Z0 F1600
; --- FIX X Backlash ---
G0 X101.789 Y82.47 F1200
G1 X101.841 Y82.417 Z0 F1600
G1 X101.919 Y82.364 Z0 F1600
G1 X102.027 Y82.303 Z0 F1600
G1 X102.17 Y82.229 Z0 F1600
G1 X103.295 Y81.636 Z0 F1600
G1 X104.439 Y81.003 Z0 F1600
G1 X104.698 Y80.856 Z0 F1600
G1 X105.154 Y80.591 Z0 F1600
G1 X105.344 Y80.477 Z0 F1600
G1 X105.502 Y80.379 Z0 F1600
G1 X105.624 Y80.3 Z0 F1600
G1 X105.707 Y80.241 Z0 F1600
G1 X105.747 Y80.205 Z0 F1600
G1 X105.784 Y80.129 Z0 F1600
G1 X105.804 Y80.032 Z0 F1600
G1 X105.808 Y79.91 Z0 F1600
G1 X105.793 Y79.76 Z0 F1600
G1 X105.761 Y79.581 Z0 F1600
G1 X105.711 Y79.368 Z0 F1600
; --- FIX X Backlash ---
G0 X104.011 Y79.368 F1200
