G90 ; Force absolute mode
;LightBurn 1.6.04
;Custom GCode device profile, absolute coords
;Bounds: X8 Y7.51 to X48 Y38.49
G00 G17 G40 G21 G54
M3
G1 Z10 F600
;Offset @ 555 mm/min, 90% power

M8
G0 Z3.5 F600
G0 X16.21 Y11.282 Z3.5
G1 Z0 F600
;Layer C1 Pass 1 of 2
G1 X16.193 Y11.691 Z0 F600
; --- FIX X Backlash ---
G0 X15.493 Y11.691 F410
G1 X15.169 Y11.667 Z0 F600
; --- FIX X Backlash ---
G0 X15.869 Y11.667 F410
; --- FIX Y Backlash ---
G0 X15.869 Y11.167 F410
G1 X16.232 Y10.676 Z0 F600
; --- FIX Y Backlash ---
G0 X16.232 Y11.176 F410
G1 X16.21 Y11.282 Z0 F600
G0 Z3.5 F600
G0 X16.271 Y12.199 Z3.5 F600
G1 Z0 F600
; --- FIX X Backlash ---
G0 X15.571 Y12.199 F410
; --- FIX Y Backlash ---
G0 X15.571 Y11.699 F410
G1 X14.738 Y11.635 Z0 F600
G1 X14.232 Y11.63 Z0 F600
G1 X13.72 Y11.655 Z0 F600
; --- FIX Y Backlash ---
G0 X13.72 Y12.155 F410
G1 X13.175 Y12.222 Z0 F600
G1 X12.591 Y12.348 Z0 F600
G1 X12.152 Y12.497 Z0 F600
; --- FIX Y Backlash ---
G0 X12.152 Y11.997 F410
G1 Y11.867 Z0 F600
; --- FIX X Backlash ---
G0 X12.852 Y11.867 F410
G1 X13.269 Y11.798 Z0 F600
G1 X13.721 Y11.703 Z0 F600
G1 X14.279 Y11.569 Z0 F600
G1 X14.863 Y11.334 Z0 F600
G1 X15.48 Y10.852 Z0 F600
G1 X15.942 Y10.227 Z0 F600
G1 X16.164 Y9.637 Z0 F600
G1 X16.286 Z0 F600
G1 X17.052 Z0 F600
; --- FIX X Backlash ---
G0 X16.352 Y9.637 F410
; --- FIX Y Backlash ---
G0 X16.352 Y10.137 F410
G1 X16.159 Y10.611 Z0 F600
G1 X16.008 Y11.343 Z0 F600
G1 X15.98 Y12.024 Z0 F600
G1 X15.999 Y12.256 Z0 F600
; --- FIX Y Backlash ---
G0 X15.999 Y11.756 F410
G1 X15.571 Y11.699 Z0 F600
G0 Z3.5 F600
G0 X12.911 Y11.215 Z3.5
G1 Z0 F600
; --- FIX X Backlash ---
G0 X13.611 Y11.215 F410
G1 X14.127 Y11.091 Z0 F600
G1 X14.611 Y10.897 Z0 F600
G1 X15.119 Y10.5 Z0 F600
G1 X15.499 Y9.986 Z0 F600
G1 X15.707 Y9.432 Z0 F600
G1 X15.748 Y9.139 Z0 F600
G1 X16.284 Z0 F600
G1 X17.918 Y9.133 Z0 F600
; --- FIX X Backlash ---
G0 X17.218 Y9.133 F410
; --- FIX Y Backlash ---
G0 X17.218 Y9.633 F410
G1 X16.894 Y10.128 Z0 F600
G1 X16.639 Y10.757 Z0 F600
G1 X16.507 Y11.404 Z0 F600
G1 X16.481 Y12.014 Z0 F600
G1 X16.529 Y12.588 Z0 F600
G1 X16.572 Y12.833 Z0 F600
G1 X16.175 Y12.784 Z0 F600
; --- FIX Y Backlash ---
G0 X16.175 Y12.284 F410
G1 X15.519 Y12.196 Z0 F600
G1 X14.717 Y12.135 Z0 F600
G1 X14.241 Y12.13 Z0 F600
G1 X13.762 Y12.154 Z0 F600
; --- FIX Y Backlash ---
G0 X13.762 Y12.654 F410
G1 X13.258 Y12.715 Z0 F600
G1 X12.724 Y12.83 Z0 F600
G1 X12.153 Y13.025 Z0 F600
G1 X11.652 Y13.288 Z0 F600
; --- FIX Y Backlash ---
G0 X11.652 Y12.788 F410
G1 Y11.419 Z0 F600
; --- FIX X Backlash ---
G0 X12.352 Y11.419 F410
G1 X12.694 Y11.386 Z0 F600
G1 X13.177 Y11.306 Z0 F600
G1 X13.611 Y11.215 Z0 F600
G0 Z3.5 F600
G0 X17.82 Y10.402 Z3.5
G1 Z0 F600
; --- FIX X Backlash ---
G0 X17.12 Y10.402 F410
; --- FIX Y Backlash ---
G0 X17.12 Y10.902 F410
G1 X17.004 Y11.466 Z0 F600
G1 X16.982 Y12.003 Z0 F600
G1 X17.025 Y12.523 Z0 F600
; --- FIX X Backlash ---
G0 X17.725 Y12.523 F410
G1 X17.815 Y13.034 Z0 F600
G1 X17.883 Y13.306 Z0 F600
G1 Y13.389 Z0 F600
; --- FIX X Backlash ---
G0 X17.183 Y13.389 F410
G1 X16.974 Y13.375 Z0 F600
G1 X16.573 Y13.337 Z0 F600
; --- FIX Y Backlash ---
G0 X16.573 Y12.837 F410
G1 X16.125 Y12.782 Z0 F600
G1 X15.467 Y12.694 Z0 F600
G1 X14.695 Y12.635 Z0 F600
G1 X14.251 Y12.63 Z0 F600
G1 X13.805 Y12.652 Z0 F600
; --- FIX Y Backlash ---
G0 X13.805 Y13.152 F410
G1 X13.341 Y13.208 Z0 F600
G1 X12.858 Y13.313 Z0 F600
G1 X12.35 Y13.486 Z0 F600
G1 X11.827 Y13.76 Z0 F600
G1 X11.321 Y14.167 Z0 F600
G1 X11.152 Y14.384 Z0 F600
; --- FIX Y Backlash ---
G0 X11.152 Y13.884 F410
G1 Y10.944 Z0 F600
; --- FIX X Backlash ---
G0 X11.852 Y10.944 F410
G1 X12.133 Y10.939 Z0 F600
G1 X12.628 Y10.89 Z0 F600
G1 X13.085 Y10.814 Z0 F600
G1 X13.501 Y10.727 Z0 F600
G1 X13.975 Y10.614 Z0 F600
G1 X14.359 Y10.459 Z0 F600
G1 X14.757 Y10.148 Z0 F600
G1 X15.055 Y9.745 Z0 F600
G1 X15.219 Y9.308 Z0 F600
G1 X15.286 Y8.826 Z0 F600
G1 X15.282 Y8.64 Z0 F600
G1 X16.282 Y8.637 Z0 F600
G1 X19.29 Y8.63 Z0 F600
G1 X19.243 Y8.65 Z0 F600
; --- FIX X Backlash ---
G0 X18.543 Y8.65 F410
; --- FIX Y Backlash ---
G0 X18.543 Y9.15 F410
G1 X18.082 Y9.454 Z0 F600
G1 X17.664 Y9.865 Z0 F600
G1 X17.339 Y10.361 Z0 F600
G1 X17.12 Y10.902 Z0 F600
G0 Z3.5 F600
G0 X16.05 Y13.776 Z3.5
G1 Z0 F600
; --- FIX Y Backlash ---
G0 X16.05 Y13.276 F410
G1 X15.414 Y13.191 Z0 F600
G1 X14.674 Y13.135 Z0 F600
G1 X14.261 Y13.131 Z0 F600
G1 X13.847 Y13.151 Z0 F600
; --- FIX Y Backlash ---
G0 X13.847 Y13.651 F410
G1 X13.424 Y13.702 Z0 F600
G1 X12.992 Y13.795 Z0 F600
G1 X12.549 Y13.946 Z0 F600
G1 X12.102 Y14.18 Z0 F600
G1 X11.68 Y14.52 Z0 F600
G1 X11.325 Y14.977 Z0 F600
G1 X11.089 Y15.524 Z0 F600
G1 X10.992 Y16.111 Z0 F600
G1 X11.017 Y16.708 Z0 F600
; --- FIX X Backlash ---
G0 X11.717 Y16.708 F410
G1 X11.795 Y17.072 Z0 F600
G1 Y18.693 Z0 F600
; --- FIX X Backlash ---
G0 X11.095 Y18.693 F410
G1 X10.723 Y18.7 Z0 F600
G1 X10.252 Z0 F600
G1 X9.849 Y18.682 Z0 F600
G1 X9.573 Y18.654 Z0 F600
; --- FIX X Backlash ---
G0 X10.273 Y18.654 F410
; --- FIX Y Backlash ---
G0 X10.273 Y18.154 F410
G1 X10.542 Y18.044 Z0 F600
G1 X10.93 Y17.735 Z0 F600
G1 X11.135 Y17.448 Z0 F600
G1 X11.26 Y17.174 Z0 F600
G1 X11.332 Y16.894 Z0 F600
G1 X11.352 Y16.652 Z0 F600
G1 Y10.424 Z0 F600
G1 X11.616 Y10.448 Z0 F600
G1 X12.104 Y10.439 Z0 F600
G1 X12.563 Y10.394 Z0 F600
G1 X12.993 Y10.323 Z0 F600
G1 X13.392 Y10.239 Z0 F600
G1 X13.823 Y10.136 Z0 F600
G1 X14.106 Y10.022 Z0 F600
G1 X14.395 Y9.796 Z0 F600
G1 X14.612 Y9.503 Z0 F600
G1 X14.731 Y9.184 Z0 F600
G1 X14.785 Y8.797 Z0 F600
G1 X14.777 Y8.438 Z0 F600
; --- FIX X Backlash ---
G0 X14.077 Y8.438 F410
G1 X14.018 Y8.142 Z0 F600
; --- FIX X Backlash ---
G0 X14.718 Y8.142 F410
G1 X16.28 Y8.137 Z0 F600
G1 X22.201 Y8.124 Z0 F600
G1 X22.25 Z0 F600
G1 X22.247 Y8.137 Z0 F600
; --- FIX X Backlash ---
G0 X21.547 Y8.137 F410
; --- FIX Y Backlash ---
G0 X21.547 Y8.637 F410
G1 X21.487 Y8.951 Z0 F600
G1 X21.434 Y9.342 Z0 F600
; --- FIX Y Backlash ---
G0 X21.434 Y8.842 F410
G1 X20.751 Y8.757 Z0 F600
G1 X20.002 Y8.754 Z0 F600
; --- FIX Y Backlash ---
G0 X20.002 Y9.254 F410
G1 X19.584 Y9.312 Z0 F600
G1 X19.181 Y9.419 Z0 F600
G1 X18.781 Y9.592 Z0 F600
G1 X18.397 Y9.845 Z0 F600
G1 X18.053 Y10.184 Z0 F600
G1 X17.784 Y10.594 Z0 F600
G1 X17.6 Y11.047 Z0 F600
G1 X17.502 Y11.527 Z0 F600
G1 X17.482 Y11.993 Z0 F600
G1 X17.521 Y12.459 Z0 F600
; --- FIX X Backlash ---
G0 X18.221 Y12.459 F410
G1 X18.305 Y12.929 Z0 F600
G1 X18.386 Y13.252 Z0 F600
G1 X18.379 Y13.46 Z0 F600
G1 X18.363 Y13.732 Z0 F600
G1 X18.345 Y13.897 Z0 F600
; --- FIX X Backlash ---
G0 X17.645 Y13.897 F410
G1 X17.544 Y13.901 Z0 F600
G1 X17.267 Y13.896 Z0 F600
G1 X16.925 Y13.874 Z0 F600
G1 X16.542 Y13.836 Z0 F600
; --- FIX Y Backlash ---
G0 X16.542 Y13.336 F410
G1 X16.05 Y13.276 Z0 F600
G0 Z3.5 F600
; --- FIX Y Backlash ---
G0 X16.05 Y13.776 F410
G0 X14.652 Y14.134 Z3.5
G1 Z0 F600
G1 X14.271 Y14.131 Z0 F600
G1 X13.889 Y14.149 Z0 F600
G1 X13.507 Y14.196 Z0 F600
G1 X13.126 Y14.278 Z0 F600
G1 X12.746 Y14.407 Z0 F600
G1 X12.378 Y14.601 Z0 F600
G1 X12.039 Y14.873 Z0 F600
G1 X11.759 Y15.233 Z0 F600
G1 X11.572 Y15.666 Z0 F600
G1 X11.494 Y16.142 Z0 F600
G1 X11.515 Y16.645 Z0 F600
; --- FIX X Backlash ---
G0 X12.215 Y16.645 F410
G1 X12.295 Y17.019 Z0 F600
G1 Y19.177 Z0 F600
; --- FIX X Backlash ---
G0 X11.595 Y19.177 F410
G1 X11.52 Y19.181 Z0 F600
G1 X11.223 Y19.191 Z0 F600
G1 X10.73 Y19.2 Z0 F600
G1 X10.245 Z0 F600
G1 X9.809 Y19.181 Z0 F600
G1 X9.427 Y19.142 Z0 F600
; --- FIX Y Backlash ---
G0 X9.427 Y18.642 F410
G1 X8.85 Y18.575 Z0 F600
G1 X8.317 Y18.503 Z0 F600
G1 X8.132 Y18.457 Z0 F600
G1 X8.001 Y18.406 Z0 F600
G1 X7.921 Y18.356 Z0 F600
G1 X7.874 Y18.309 Z0 F600
G1 X7.857 Y18.279 Z0 F600
G1 X7.832 Y18.21 Z0 F600
G1 X7.813 Y18.12 Z0 F600
G1 X7.806 Y18.024 Z0 F600
G1 X7.813 Y17.923 Z0 F600
G1 X7.831 Y17.836 Z0 F600
G1 X7.839 Y17.816 Z0 F600
; --- FIX X Backlash ---
G0 X8.539 Y17.816 F410
G1 X8.786 Y17.802 Z0 F600
G1 X9.128 Y17.806 Z0 F600
G1 X9.531 Z0 F600
G1 X9.986 Y17.732 Z0 F600
G1 X10.287 Y17.608 Z0 F600
G1 X10.564 Y17.388 Z0 F600
G1 X10.7 Y17.197 Z0 F600
G1 X10.786 Y17.007 Z0 F600
G1 X10.837 Y16.81 Z0 F600
G1 X10.852 Y16.631 Z0 F600
G1 Y9.832 Z0 F600
; --- FIX Y Backlash ---
G0 X10.852 Y10.332 F410
G1 X11.181 Y10.407 Z0 F600
G1 X11.635 Y10.448 Z0 F600
G1 X12.075 Y10.44 Z0 F600
G1 X12.498 Y10.398 Z0 F600
; --- FIX Y Backlash ---
G0 X12.498 Y9.898 F410
G1 X12.901 Y9.832 Z0 F600
G1 X13.282 Y9.751 Z0 F600
G1 X13.67 Y9.658 Z0 F600
G1 X13.854 Y9.584 Z0 F600
G1 X14.034 Y9.444 Z0 F600
G1 X14.168 Y9.262 Z0 F600
G1 X14.244 Y9.061 Z0 F600
G1 X14.285 Y8.769 Z0 F600
G1 X14.278 Y8.494 Z0 F600
; --- FIX X Backlash ---
G0 X13.578 Y8.494 F410
G1 X13.525 Y8.225 Z0 F600
G1 X13.424 Y7.972 Z0 F600
G1 X13.283 Y7.75 Z0 F600
G1 X13.19 Y7.645 Z0 F600
; --- FIX X Backlash ---
G0 X13.89 Y7.645 F410
G1 X16.279 Y7.637 Z0 F600
G1 X22.201 Y7.624 Z0 F600
G1 X22.946 Z0 F600
G1 X22.93 Y7.656 Z0 F600
; --- FIX X Backlash ---
G0 X22.23 Y7.656 F410
; --- FIX Y Backlash ---
G0 X22.23 Y8.156 F410
G1 X22.113 Y8.457 Z0 F600
G1 X22.034 Y8.75 Z0 F600
G1 X21.981 Y9.031 Z0 F600
G1 X21.915 Y9.521 Z0 F600
G1 X21.852 Y9.885 Z0 F600
G1 X21.832 Y9.952 Z0 F600
G1 X21.786 Y9.945 Z0 F600
; --- FIX Y Backlash ---
G0 X21.786 Y9.445 F410
G1 X21.503 Y9.36 Z0 F600
G1 X21.432 Y9.345 Z0 F600
G1 X20.719 Y9.257 Z0 F600
G1 X20.035 Z0 F600
G1 X19.682 Y9.303 Z0 F600
; --- FIX Y Backlash ---
G0 X19.682 Y9.803 F410
G1 X19.346 Y9.893 Z0 F600
G1 X19.02 Y10.034 Z0 F600
G1 X18.713 Y10.235 Z0 F600
G1 X18.442 Y10.502 Z0 F600
G1 X18.229 Y10.828 Z0 F600
G1 X18.081 Y11.192 Z0 F600
G1 X18 Y11.588 Z0 F600
G1 X17.983 Y11.983 Z0 F600
G1 X18.017 Y12.394 Z0 F600
; --- FIX X Backlash ---
G0 X18.717 Y12.394 F410
G1 X18.794 Y12.825 Z0 F600
G1 X18.887 Y13.197 Z0 F600
G1 X18.878 Y13.488 Z0 F600
G1 X18.861 Y13.774 Z0 F600
G1 X18.836 Y14.008 Z0 F600
G1 X18.802 Y14.188 Z0 F600
G1 X18.771 Y14.292 Z0 F600
G1 X18.75 Y14.338 Z0 F600
G1 X18.727 Y14.35 Z0 F600
; --- FIX X Backlash ---
G0 X18.027 Y14.35 F410
G1 X17.935 Y14.373 Z0 F600
G1 X17.774 Y14.393 Z0 F600
G1 X17.546 Y14.401 Z0 F600
G1 X17.248 Y14.395 Z0 F600
G1 X16.89 Y14.373 Z0 F600
G1 X16.468 Y14.332 Z0 F600
; --- FIX Y Backlash ---
G0 X16.468 Y13.832 F410
G1 X15.992 Y13.773 Z0 F600
G1 X15.362 Y13.688 Z0 F600
G1 X14.652 Y13.634 Z0 F600
G0 Z3.5 F600
; --- FIX Y Backlash ---
G0 X14.652 Y14.134 F410
G0 X13.59 Y14.689 Z3.5
G1 Z0 F600
G1 X13.259 Y14.761 Z0 F600
G1 X12.944 Y14.868 Z0 F600
G1 X12.653 Y15.021 Z0 F600
G1 X12.398 Y15.226 Z0 F600
G1 X12.193 Y15.489 Z0 F600
G1 X12.056 Y15.808 Z0 F600
G1 X11.996 Y16.172 Z0 F600
G1 X12.013 Y16.581 Z0 F600
; --- FIX X Backlash ---
G0 X12.713 Y16.581 F410
G1 X12.795 Y16.966 Z0 F600
G1 Y19.651 Z0 F600
; --- FIX X Backlash ---
G0 X12.095 Y19.651 F410
G1 X11.774 Y19.67 Z0 F600
G1 X11.542 Y19.68 Z0 F600
G1 X11.232 Y19.69 Z0 F600
G1 X10.738 Y19.7 Z0 F600
G1 X10.238 Z0 F600
G1 X9.771 Y19.68 Z0 F600
G1 X9.377 Y19.64 Z0 F600
; --- FIX Y Backlash ---
G0 X9.377 Y19.14 F410
G1 X8.783 Y19.071 Z0 F600
G1 X8.224 Y18.995 Z0 F600
G1 X7.982 Y18.935 Z0 F600
G1 X7.775 Y18.854 Z0 F600
G1 X7.605 Y18.749 Z0 F600
G1 X7.472 Y18.612 Z0 F600
G1 X7.404 Y18.494 Z0 F600
G1 X7.35 Y18.351 Z0 F600
G1 X7.317 Y18.191 Z0 F600
G1 X7.304 Y18.022 Z0 F600
G1 X7.316 Y17.854 Z0 F600
G1 X7.35 Y17.695 Z0 F600
; --- FIX X Backlash ---
G0 X8.05 Y17.695 F410
G1 X8.103 Y17.554 Z0 F600
G1 X8.172 Y17.437 Z0 F600
G1 X8.208 Y17.403 Z0 F600
G1 X8.267 Y17.37 Z0 F600
G1 X8.354 Y17.341 Z0 F600
G1 X8.471 Y17.319 Z0 F600
G1 X8.777 Y17.302 Z0 F600
G1 X9.129 Y17.306 Z0 F600
G1 X9.491 Z0 F600
G1 X9.85 Y17.247 Z0 F600
G1 X10.031 Y17.173 Z0 F600
G1 X10.198 Y17.04 Z0 F600
G1 X10.265 Y16.946 Z0 F600
G1 X10.313 Y16.84 Z0 F600
G1 X10.342 Y16.726 Z0 F600
G1 X10.352 Y16.61 Z0 F600
G1 Y8.993 Z0 F600
; --- FIX Y Backlash ---
G0 X10.352 Y9.493 F410
G1 X10.368 Y9.562 Z0 F600
G1 X10.421 Y9.623 Z0 F600
G1 X10.489 Y9.669 Z0 F600
G1 X10.868 Y9.823 Z0 F600
G1 X11.259 Y9.912 Z0 F600
G1 X11.653 Y9.947 Z0 F600
G1 X12.045 Y9.94 Z0 F600
G1 X12.432 Y9.902 Z0 F600
; --- FIX Y Backlash ---
G0 X12.432 Y9.402 F410
G1 X12.809 Y9.34 Z0 F600
G1 X13.172 Y9.264 Z0 F600
G1 X13.518 Y9.181 Z0 F600
G1 X13.602 Y9.147 Z0 F600
G1 X13.672 Y9.092 Z0 F600
G1 X13.725 Y9.021 Z0 F600
G1 X13.756 Y8.937 Z0 F600
G1 X13.784 Y8.74 Z0 F600
G1 X13.779 Y8.549 Z0 F600
G1 X13.743 Y8.368 Z0 F600
; --- FIX X Backlash ---
G0 X13.043 Y8.368 F410
G1 X12.976 Y8.2 Z0 F600
G1 X12.883 Y8.051 Z0 F600
G1 X12.768 Y7.923 Z0 F600
G1 X12.637 Y7.814 Z0 F600
G1 X12.494 Y7.724 Z0 F600
G1 X12.182 Y7.589 Z0 F600
G1 X11.845 Y7.508 Z0 F600
G1 X11.495 Y7.473 Z0 F600
G1 X11.14 Y7.478 Z0 F600
G1 X10.792 Y7.517 Z0 F600
; --- FIX Y Backlash ---
G0 X10.792 Y8.017 F410
G1 X10.46 Y8.092 Z0 F600
G1 X10.153 Y8.208 Z0 F600
G1 X9.881 Y8.37 Z0 F600
G1 X9.753 Y8.518 Z0 F600
G1 X9.652 Y8.694 Z0 F600
; --- FIX Y Backlash ---
G0 X9.652 Y8.194 F410
G1 Y7.157 Z0 F600
; --- FIX X Backlash ---
G0 X10.352 Y7.157 F410
G1 X16.277 Y7.137 Z0 F600
G1 X22.201 Y7.124 Z0 F600
G1 X28.124 Y7.138 Z0 F600
; --- FIX Y Backlash ---
G0 X28.124 Y7.638 F410
G1 X34.045 Y7.696 Z0 F600
G1 X34.214 Y7.863 Z0 F600
G1 X34.346 Y8.042 Z0 F600
G1 X34.442 Y8.236 Z0 F600
G1 X34.508 Y8.448 Z0 F600
G1 X34.513 Y8.544 Z0 F600
G1 Y8.644 Z0 F600
; --- FIX X Backlash ---
G0 X33.813 Y8.644 F410
; --- FIX Y Backlash ---
G0 X33.813 Y8.144 F410
G1 X33.743 Y8.015 Z0 F600
G1 X33.656 Y7.896 Z0 F600
G1 X33.456 Y7.726 Z0 F600
G1 X33.217 Y7.594 Z0 F600
G1 X32.938 Y7.5 Z0 F600
G1 X32.625 Y7.446 Z0 F600
G1 X32.602 Z0 F600
G1 X31.441 Y7.475 Z0 F600
G1 X30.263 Y7.491 Z0 F600
G1 X29.058 Y7.496 Z0 F600
G1 X27.84 Z0 F600
G1 X25.411 Y7.484 Z0 F600
G1 X23.078 Y7.489 Z0 F600
G1 X22.999 Y7.5 Z0 F600
G1 X22.927 Y7.529 Z0 F600
G1 X22.863 Y7.575 Z0 F600
; --- FIX Y Backlash ---
G0 X22.863 Y8.075 F410
G1 X22.812 Y8.136 Z0 F600
G1 X22.684 Y8.368 Z0 F600
G1 X22.59 Y8.612 Z0 F600
G1 X22.522 Y8.862 Z0 F600
G1 X22.474 Y9.112 Z0 F600
G1 X22.41 Y9.59 Z0 F600
G1 X22.34 Y10.001 Z0 F600
G1 X22.29 Y10.161 Z0 F600
G1 X22.235 Y10.282 Z0 F600
G1 X22.174 Y10.367 Z0 F600
G1 X22.107 Y10.421 Z0 F600
G1 X22.017 Y10.453 Z0 F600
G1 X21.879 Y10.463 Z0 F600
G1 X21.679 Y10.435 Z0 F600
; --- FIX Y Backlash ---
G0 X21.679 Y9.935 F410
G1 X21.379 Y9.845 Z0 F600
G1 X21.349 Y9.839 Z0 F600
G1 X20.688 Y9.757 Z0 F600
G1 X20.069 Z0 F600
G1 X19.781 Y9.794 Z0 F600
; --- FIX Y Backlash ---
G0 X19.781 Y10.294 F410
G1 X19.51 Y10.366 Z0 F600
G1 X19.258 Y10.475 Z0 F600
G1 X19.029 Y10.626 Z0 F600
G1 X18.831 Y10.821 Z0 F600
G1 X18.674 Y11.061 Z0 F600
G1 X18.562 Y11.338 Z0 F600
G1 X18.498 Y11.649 Z0 F600
G1 X18.484 Y11.973 Z0 F600
G1 X18.514 Y12.33 Z0 F600
; --- FIX X Backlash ---
G0 X19.214 Y12.33 F410
G1 X19.283 Y12.72 Z0 F600
G1 X19.389 Y13.144 Z0 F600
G1 X19.378 Y13.503 Z0 F600
G1 X19.359 Y13.817 Z0 F600
G1 X19.331 Y14.084 Z0 F600
G1 X19.29 Y14.304 Z0 F600
; --- FIX X Backlash ---
G0 X18.59 Y14.304 F410
G1 X18.539 Y14.474 Z0 F600
G1 X18.479 Y14.601 Z0 F600
G1 X18.406 Y14.695 Z0 F600
G1 X18.316 Y14.767 Z0 F600
G1 X18.195 Y14.823 Z0 F600
G1 X18.029 Y14.865 Z0 F600
G1 X17.813 Y14.891 Z0 F600
G1 X17.548 Y14.902 Z0 F600
G1 X17.229 Y14.895 Z0 F600
G1 X16.854 Y14.871 Z0 F600
G1 X16.42 Y14.829 Z0 F600
; --- FIX Y Backlash ---
G0 X16.42 Y14.329 F410
G1 X15.925 Y14.269 Z0 F600
G1 X15.31 Y14.186 Z0 F600
G1 X14.631 Y14.134 Z0 F600
G1 X14.28 Y14.131 Z0 F600
G1 X13.932 Y14.148 Z0 F600
G1 X13.59 Y14.189 Z0 F600
;Layer C1 Pass 2 of 2
G0 Z3.5 F600
; --- FIX X Backlash ---
G0 X14.29 Y14.189 F410
G0 X16.21 Y10.782 Z3.5
G1 Z0 F600
; --- FIX Y Backlash ---
G0 X16.21 Y11.282 F410
G1 X16.193 Y11.691 Z0 F600
; --- FIX X Backlash ---
G0 X15.493 Y11.691 F410
G1 X15.169 Y11.667 Z0 F600
; --- FIX X Backlash ---
G0 X15.869 Y11.667 F410
; --- FIX Y Backlash ---
G0 X15.869 Y11.167 F410
G1 X16.232 Y10.676 Z0 F600
; --- FIX Y Backlash ---
G0 X16.232 Y11.176 F410
G1 X16.21 Y11.282 Z0 F600
G0 Z3.5 F600
G0 X16.271 Y12.199 Z3.5
G1 Z0 F600
; --- FIX X Backlash ---
G0 X15.571 Y12.199 F410
; --- FIX Y Backlash ---
G0 X15.571 Y11.699 F410
G1 X14.738 Y11.635 Z0 F600
G1 X14.232 Y11.63 Z0 F600
G1 X13.72 Y11.655 Z0 F600
; --- FIX Y Backlash ---
G0 X13.72 Y12.155 F410
G1 X13.175 Y12.222 Z0 F600
G1 X12.591 Y12.348 Z0 F600
G1 X12.152 Y12.497 Z0 F600
; --- FIX Y Backlash ---
G0 X12.152 Y11.997 F410
G1 Y11.867 Z0 F600
; --- FIX X Backlash ---
G0 X12.852 Y11.867 F410
G1 X13.269 Y11.798 Z0 F600
G1 X13.721 Y11.703 Z0 F600
G1 X14.279 Y11.569 Z0 F600
G1 X14.863 Y11.334 Z0 F600
G1 X15.48 Y10.852 Z0 F600
G1 X15.942 Y10.227 Z0 F600
G1 X16.164 Y9.637 Z0 F600
G1 X16.286 Z0 F600
G1 X17.052 Z0 F600
; --- FIX X Backlash ---
G0 X16.352 Y9.637 F410
; --- FIX Y Backlash ---
G0 X16.352 Y10.137 F410
G1 X16.159 Y10.611 Z0 F600
G1 X16.008 Y11.343 Z0 F600
G1 X15.98 Y12.024 Z0 F600
G1 X15.999 Y12.256 Z0 F600
; --- FIX Y Backlash ---
G0 X15.999 Y11.756 F410
G1 X15.571 Y11.699 Z0 F600
G0 Z3.5 F600
G0 X12.911 Y11.215 Z3.5
G1 Z0 F600
; --- FIX X Backlash ---
G0 X13.611 Y11.215 F410
G1 X14.127 Y11.091 Z0 F600
G1 X14.611 Y10.897 Z0 F600
G1 X15.119 Y10.5 Z0 F600
G1 X15.499 Y9.986 Z0 F600
G1 X15.707 Y9.432 Z0 F600
G1 X15.748 Y9.139 Z0 F600
G1 X16.284 Z0 F600
G1 X17.918 Y9.133 Z0 F600
; --- FIX X Backlash ---
G0 X17.218 Y9.133 F410
; --- FIX Y Backlash ---
G0 X17.218 Y9.633 F410
G1 X16.894 Y10.128 Z0 F600
G1 X16.639 Y10.757 Z0 F600
G1 X16.507 Y11.404 Z0 F600
G1 X16.481 Y12.014 Z0 F600
G1 X16.529 Y12.588 Z0 F600
G1 X16.572 Y12.833 Z0 F600
G1 X16.175 Y12.784 Z0 F600
; --- FIX Y Backlash ---
G0 X16.175 Y12.284 F410
G1 X15.519 Y12.196 Z0 F600
G1 X14.717 Y12.135 Z0 F600
G1 X14.241 Y12.13 Z0 F600
G1 X13.762 Y12.154 Z0 F600
; --- FIX Y Backlash ---
G0 X13.762 Y12.654 F410
G1 X13.258 Y12.715 Z0 F600
G1 X12.724 Y12.83 Z0 F600
G1 X12.153 Y13.025 Z0 F600
G1 X11.652 Y13.288 Z0 F600
; --- FIX Y Backlash ---
G0 X11.652 Y12.788 F410
G1 Y11.419 Z0 F600
; --- FIX X Backlash ---
G0 X12.352 Y11.419 F410
G1 X12.694 Y11.386 Z0 F600
G1 X13.177 Y11.306 Z0 F600
G1 X13.611 Y11.215 Z0 F600
G0 Z3.5 F600
G0 X17.82 Y10.402 Z3.5
G1 Z0 F600
; --- FIX X Backlash ---
G0 X17.12 Y10.402 F410
; --- FIX Y Backlash ---
G0 X17.12 Y10.902 F410
G1 X17.004 Y11.466 Z0 F600
G1 X16.982 Y12.003 Z0 F600
G1 X17.025 Y12.523 Z0 F600
; --- FIX X Backlash ---
G0 X17.725 Y12.523 F410
G1 X17.815 Y13.034 Z0 F600
G1 X17.883 Y13.306 Z0 F600
G1 Y13.389 Z0 F600
; --- FIX X Backlash ---
G0 X17.183 Y13.389 F410
G1 X16.974 Y13.375 Z0 F600
G1 X16.573 Y13.337 Z0 F600
; --- FIX Y Backlash ---
G0 X16.573 Y12.837 F410
G1 X16.125 Y12.782 Z0 F600
G1 X15.467 Y12.694 Z0 F600
G1 X14.695 Y12.635 Z0 F600
G1 X14.251 Y12.63 Z0 F600
G1 X13.805 Y12.652 Z0 F600
; --- FIX Y Backlash ---
G0 X13.805 Y13.152 F410
G1 X13.341 Y13.208 Z0 F600
G1 X12.858 Y13.313 Z0 F600
G1 X12.35 Y13.486 Z0 F600
G1 X11.827 Y13.76 Z0 F600
G1 X11.321 Y14.167 Z0 F600
G1 X11.152 Y14.384 Z0 F600
; --- FIX Y Backlash ---
G0 X11.152 Y13.884 F410
G1 Y10.944 Z0 F600
; --- FIX X Backlash ---
G0 X11.852 Y10.944 F410
G1 X12.133 Y10.939 Z0 F600
G1 X12.628 Y10.89 Z0 F600
G1 X13.085 Y10.814 Z0 F600
G1 X13.501 Y10.727 Z0 F600
G1 X13.975 Y10.614 Z0 F600
G1 X14.359 Y10.459 Z0 F600
G1 X14.757 Y10.148 Z0 F600
G1 X15.055 Y9.745 Z0 F600
G1 X15.219 Y9.308 Z0 F600
G1 X15.286 Y8.826 Z0 F600
G1 X15.282 Y8.64 Z0 F600
G1 X16.282 Y8.637 Z0 F600
G1 X19.29 Y8.63 Z0 F600
G1 X19.243 Y8.65 Z0 F600
; --- FIX X Backlash ---
G0 X18.543 Y8.65 F410
; --- FIX Y Backlash ---
G0 X18.543 Y9.15 F410
G1 X18.082 Y9.454 Z0 F600
G1 X17.664 Y9.865 Z0 F600
G1 X17.339 Y10.361 Z0 F600
G1 X17.12 Y10.902 Z0 F600
G0 Z3.5 F600
G0 X16.05 Y13.776 Z3.5
G1 Z0 F600
; --- FIX Y Backlash ---
G0 X16.05 Y13.276 F410
G1 X15.414 Y13.191 Z0 F600
G1 X14.674 Y13.135 Z0 F600
G1 X14.261 Y13.131 Z0 F600
G1 X13.847 Y13.151 Z0 F600
; --- FIX Y Backlash ---
G0 X13.847 Y13.651 F410
G1 X13.424 Y13.702 Z0 F600
G1 X12.992 Y13.795 Z0 F600
G1 X12.549 Y13.946 Z0 F600
G1 X12.102 Y14.18 Z0 F600
G1 X11.68 Y14.52 Z0 F600
G1 X11.325 Y14.977 Z0 F600
G1 X11.089 Y15.524 Z0 F600
G1 X10.992 Y16.111 Z0 F600
G1 X11.017 Y16.708 Z0 F600
; --- FIX X Backlash ---
G0 X11.717 Y16.708 F410
G1 X11.795 Y17.072 Z0 F600
G1 Y18.693 Z0 F600
; --- FIX X Backlash ---
G0 X11.095 Y18.693 F410
G1 X10.723 Y18.7 Z0 F600
G1 X10.252 Z0 F600
G1 X9.849 Y18.682 Z0 F600
G1 X9.573 Y18.654 Z0 F600
; --- FIX X Backlash ---
G0 X10.273 Y18.654 F410
; --- FIX Y Backlash ---
G0 X10.273 Y18.154 F410
G1 X10.542 Y18.044 Z0 F600
G1 X10.93 Y17.735 Z0 F600
G1 X11.135 Y17.448 Z0 F600
G1 X11.26 Y17.174 Z0 F600
G1 X11.332 Y16.894 Z0 F600
G1 X11.352 Y16.652 Z0 F600
G1 Y10.424 Z0 F600
G1 X11.616 Y10.448 Z0 F600
G1 X12.104 Y10.439 Z0 F600
G1 X12.563 Y10.394 Z0 F600
G1 X12.993 Y10.323 Z0 F600
G1 X13.392 Y10.239 Z0 F600
G1 X13.823 Y10.136 Z0 F600
G1 X14.106 Y10.022 Z0 F600
G1 X14.395 Y9.796 Z0 F600
G1 X14.612 Y9.503 Z0 F600
G1 X14.731 Y9.184 Z0 F600
G1 X14.785 Y8.797 Z0 F600
G1 X14.777 Y8.438 Z0 F600
; --- FIX X Backlash ---
G0 X14.077 Y8.438 F410
G1 X14.018 Y8.142 Z0 F600
; --- FIX X Backlash ---
G0 X14.718 Y8.142 F410
G1 X16.28 Y8.137 Z0 F600
G1 X22.201 Y8.124 Z0 F600
G1 X22.25 Z0 F600
G1 X22.247 Y8.137 Z0 F600
; --- FIX X Backlash ---
G0 X21.547 Y8.137 F410
; --- FIX Y Backlash ---
G0 X21.547 Y8.637 F410
G1 X21.487 Y8.951 Z0 F600
G1 X21.434 Y9.342 Z0 F600
; --- FIX Y Backlash ---
G0 X21.434 Y8.842 F410
G1 X20.751 Y8.757 Z0 F600
G1 X20.002 Y8.754 Z0 F600
; --- FIX Y Backlash ---
G0 X20.002 Y9.254 F410
G1 X19.584 Y9.312 Z0 F600
G1 X19.181 Y9.419 Z0 F600
G1 X18.781 Y9.592 Z0 F600
G1 X18.397 Y9.845 Z0 F600
G1 X18.053 Y10.184 Z0 F600
G1 X17.784 Y10.594 Z0 F600
G1 X17.6 Y11.047 Z0 F600
G1 X17.502 Y11.527 Z0 F600
G1 X17.482 Y11.993 Z0 F600
G1 X17.521 Y12.459 Z0 F600
; --- FIX X Backlash ---
G0 X18.221 Y12.459 F410
G1 X18.305 Y12.929 Z0 F600
G1 X18.386 Y13.252 Z0 F600
G1 X18.379 Y13.46 Z0 F600
G1 X18.363 Y13.732 Z0 F600
G1 X18.345 Y13.897 Z0 F600
; --- FIX X Backlash ---
G0 X17.645 Y13.897 F410
G1 X17.544 Y13.901 Z0 F600
G1 X17.267 Y13.896 Z0 F600
G1 X16.925 Y13.874 Z0 F600
G1 X16.542 Y13.836 Z0 F600
; --- FIX Y Backlash ---
G0 X16.542 Y13.336 F410
G1 X16.05 Y13.276 Z0 F600
G0 Z3.5 F600
; --- FIX Y Backlash ---
G0 X16.05 Y13.776 F410
G0 X14.652 Y14.134 Z3.5
G1 Z0 F600
G1 X14.271 Y14.131 Z0 F600
G1 X13.889 Y14.149 Z0 F600
G1 X13.507 Y14.196 Z0 F600
G1 X13.126 Y14.278 Z0 F600
G1 X12.746 Y14.407 Z0 F600
G1 X12.378 Y14.601 Z0 F600
G1 X12.039 Y14.873 Z0 F600
G1 X11.759 Y15.233 Z0 F600
G1 X11.572 Y15.666 Z0 F600
G1 X11.494 Y16.142 Z0 F600
G1 X11.515 Y16.645 Z0 F600
; --- FIX X Backlash ---
G0 X12.215 Y16.645 F410
G1 X12.295 Y17.019 Z0 F600
G1 Y19.177 Z0 F600
; --- FIX X Backlash ---
G0 X11.595 Y19.177 F410
G1 X11.52 Y19.181 Z0 F600
G1 X11.223 Y19.191 Z0 F600
G1 X10.73 Y19.2 Z0 F600
G1 X10.245 Z0 F600
G1 X9.809 Y19.181 Z0 F600
G1 X9.427 Y19.142 Z0 F600
; --- FIX Y Backlash ---
G0 X9.427 Y18.642 F410
G1 X8.85 Y18.575 Z0 F600
G1 X8.317 Y18.503 Z0 F600
G1 X8.132 Y18.457 Z0 F600
G1 X8.001 Y18.406 Z0 F600
G1 X7.921 Y18.356 Z0 F600
G1 X7.874 Y18.309 Z0 F600
G1 X7.857 Y18.279 Z0 F600
G1 X7.832 Y18.21 Z0 F600
G1 X7.813 Y18.12 Z0 F600
G1 X7.806 Y18.024 Z0 F600
G1 X7.813 Y17.923 Z0 F600
G1 X7.831 Y17.836 Z0 F600
G1 X7.839 Y17.816 Z0 F600
; --- FIX X Backlash ---
G0 X8.539 Y17.816 F410
G1 X8.786 Y17.802 Z0 F600
G1 X9.128 Y17.806 Z0 F600
G1 X9.531 Z0 F600
G1 X9.986 Y17.732 Z0 F600
G1 X10.287 Y17.608 Z0 F600
G1 X10.564 Y17.388 Z0 F600
G1 X10.7 Y17.197 Z0 F600
G1 X10.786 Y17.007 Z0 F600
G1 X10.837 Y16.81 Z0 F600
G1 X10.852 Y16.631 Z0 F600
G1 Y9.832 Z0 F600
; --- FIX Y Backlash ---
G0 X10.852 Y10.332 F410
G1 X11.181 Y10.407 Z0 F600
G1 X11.635 Y10.448 Z0 F600
G1 X12.075 Y10.44 Z0 F600
G1 X12.498 Y10.398 Z0 F600
; --- FIX Y Backlash ---
G0 X12.498 Y9.898 F410
G1 X12.901 Y9.832 Z0 F600
G1 X13.282 Y9.751 Z0 F600
G1 X13.67 Y9.658 Z0 F600
G1 X13.854 Y9.584 Z0 F600
G1 X14.034 Y9.444 Z0 F600
G1 X14.168 Y9.262 Z0 F600
G1 X14.244 Y9.061 Z0 F600
G1 X14.285 Y8.769 Z0 F600
G1 X14.278 Y8.494 Z0 F600
; --- FIX X Backlash ---
G0 X13.578 Y8.494 F410
G1 X13.525 Y8.225 Z0 F600
G1 X13.424 Y7.972 Z0 F600
G1 X13.283 Y7.75 Z0 F600
G1 X13.19 Y7.645 Z0 F600
; --- FIX X Backlash ---
G0 X13.89 Y7.645 F410
G1 X16.279 Y7.637 Z0 F600
G1 X22.201 Y7.624 Z0 F600
G1 X22.946 Z0 F600
G1 X22.93 Y7.656 Z0 F600
; --- FIX X Backlash ---
G0 X22.23 Y7.656 F410
; --- FIX Y Backlash ---
G0 X22.23 Y8.156 F410
G1 X22.113 Y8.457 Z0 F600
G1 X22.034 Y8.75 Z0 F600
G1 X21.981 Y9.031 Z0 F600
G1 X21.915 Y9.521 Z0 F600
G1 X21.852 Y9.885 Z0 F600
G1 X21.832 Y9.952 Z0 F600
G1 X21.786 Y9.945 Z0 F600
; --- FIX Y Backlash ---
G0 X21.786 Y9.445 F410
G1 X21.503 Y9.36 Z0 F600
G1 X21.432 Y9.345 Z0 F600
G1 X20.719 Y9.257 Z0 F600
G1 X20.035 Z0 F600
G1 X19.682 Y9.303 Z0 F600
; --- FIX Y Backlash ---
G0 X19.682 Y9.803 F410
G1 X19.346 Y9.893 Z0 F600
G1 X19.02 Y10.034 Z0 F600
G1 X18.713 Y10.235 Z0 F600
G1 X18.442 Y10.502 Z0 F600
G1 X18.229 Y10.828 Z0 F600
G1 X18.081 Y11.192 Z0 F600
G1 X18 Y11.588 Z0 F600
G1 X17.983 Y11.983 Z0 F600
G1 X18.017 Y12.394 Z0 F600
; --- FIX X Backlash ---
G0 X18.717 Y12.394 F410
G1 X18.794 Y12.825 Z0 F600
G1 X18.887 Y13.197 Z0 F600
G1 X18.878 Y13.488 Z0 F600
G1 X18.861 Y13.774 Z0 F600
G1 X18.836 Y14.008 Z0 F600
G1 X18.802 Y14.188 Z0 F600
G1 X18.771 Y14.292 Z0 F600
G1 X18.75 Y14.338 Z0 F600
G1 X18.727 Y14.35 Z0 F600
; --- FIX X Backlash ---
G0 X18.027 Y14.35 F410
G1 X17.935 Y14.373 Z0 F600
G1 X17.774 Y14.393 Z0 F600
G1 X17.546 Y14.401 Z0 F600
G1 X17.248 Y14.395 Z0 F600
G1 X16.89 Y14.373 Z0 F600
G1 X16.468 Y14.332 Z0 F600
; --- FIX Y Backlash ---
G0 X16.468 Y13.832 F410
G1 X15.992 Y13.773 Z0 F600
G1 X15.362 Y13.688 Z0 F600
G1 X14.652 Y13.634 Z0 F600
G0 Z3.5 F600
; --- FIX Y Backlash ---
G0 X14.652 Y14.134 F410
G0 X13.59 Y14.689 Z3.5
G1 Z0 F600
G1 X13.259 Y14.761 Z0 F600
G1 X12.944 Y14.868 Z0 F600
G1 X12.653 Y15.021 Z0 F600
G1 X12.398 Y15.226 Z0 F600
G1 X12.193 Y15.489 Z0 F600
G1 X12.056 Y15.808 Z0 F600
G1 X11.996 Y16.172 Z0 F600
G1 X12.013 Y16.581 Z0 F600
; --- FIX X Backlash ---
G0 X12.713 Y16.581 F410
G1 X12.795 Y16.966 Z0 F600
G1 Y19.651 Z0 F600
; --- FIX X Backlash ---
G0 X12.095 Y19.651 F410
G1 X11.774 Y19.67 Z0 F600
G1 X11.542 Y19.68 Z0 F600
G1 X11.232 Y19.69 Z0 F600
G1 X10.738 Y19.7 Z0 F600
G1 X10.238 Z0 F600
G1 X9.771 Y19.68 Z0 F600
G1 X9.377 Y19.64 Z0 F600
; --- FIX Y Backlash ---
G0 X9.377 Y19.14 F410
G1 X8.783 Y19.071 Z0 F600
G1 X8.224 Y18.995 Z0 F600
G1 X7.982 Y18.935 Z0 F600
G1 X7.775 Y18.854 Z0 F600
G1 X7.605 Y18.749 Z0 F600
G1 X7.472 Y18.612 Z0 F600
G1 X7.404 Y18.494 Z0 F600
G1 X7.35 Y18.351 Z0 F600
G1 X7.317 Y18.191 Z0 F600
G1 X7.304 Y18.022 Z0 F600
G1 X7.316 Y17.854 Z0 F600
G1 X7.35 Y17.695 Z0 F600
; --- FIX X Backlash ---
G0 X8.05 Y17.695 F410
G1 X8.103 Y17.554 Z0 F600
G1 X8.172 Y17.437 Z0 F600
G1 X8.208 Y17.403 Z0 F600
G1 X8.267 Y17.37 Z0 F600
G1 X8.354 Y17.341 Z0 F600
G1 X8.471 Y17.319 Z0 F600
G1 X8.777 Y17.302 Z0 F600
G1 X9.129 Y17.306 Z0 F600
G1 X9.491 Z0 F600
G1 X9.85 Y17.247 Z0 F600
G1 X10.031 Y17.173 Z0 F600
G1 X10.198 Y17.04 Z0 F600
G1 X10.265 Y16.946 Z0 F600
G1 X10.313 Y16.84 Z0 F600
G1 X10.342 Y16.726 Z0 F600
G1 X10.352 Y16.61 Z0 F600
G1 Y8.993 Z0 F600
; --- FIX Y Backlash ---
G0 X10.352 Y9.493 F410
G1 X10.368 Y9.562 Z0 F600
G1 X10.421 Y9.623 Z0 F600
G1 X10.489 Y9.669 Z0 F600
G1 X10.868 Y9.823 Z0 F600
G1 X11.259 Y9.912 Z0 F600
G1 X11.653 Y9.947 Z0 F600
G1 X12.045 Y9.94 Z0 F600
G1 X12.432 Y9.902 Z0 F600
; --- FIX Y Backlash ---
G0 X12.432 Y9.402 F410
G1 X12.809 Y9.34 Z0 F600
G1 X13.172 Y9.264 Z0 F600
G1 X13.518 Y9.181 Z0 F600
G1 X13.602 Y9.147 Z0 F600
G1 X13.672 Y9.092 Z0 F600
G1 X13.725 Y9.021 Z0 F600
G1 X13.756 Y8.937 Z0 F600
G1 X13.784 Y8.74 Z0 F600
G1 X13.779 Y8.549 Z0 F600
G1 X13.743 Y8.368 Z0 F600
; --- FIX X Backlash ---
G0 X13.043 Y8.368 F410
G1 X12.976 Y8.2 Z0 F600
G1 X12.883 Y8.051 Z0 F600
G1 X12.768 Y7.923 Z0 F600
G1 X12.637 Y7.814 Z0 F600
G1 X12.494 Y7.724 Z0 F600
G1 X12.182 Y7.589 Z0 F600
G1 X11.845 Y7.508 Z0 F600
G1 X11.495 Y7.473 Z0 F600
G1 X11.14 Y7.478 Z0 F600
G1 X10.792 Y7.517 Z0 F600
; --- FIX Y Backlash ---
G0 X10.792 Y8.017 F410
G1 X10.46 Y8.092 Z0 F600
G1 X10.153 Y8.208 Z0 F600
G1 X9.881 Y8.37 Z0 F600
G1 X9.753 Y8.518 Z0 F600
G1 X9.652 Y8.694 Z0 F600
; --- FIX Y Backlash ---
G0 X9.652 Y8.194 F410
G1 Y7.157 Z0 F600
; --- FIX X Backlash ---
G0 X10.352 Y7.157 F410
G1 X16.277 Y7.137 Z0 F600
G1 X22.201 Y7.124 Z0 F600
G1 X28.124 Y7.138 Z0 F600
; --- FIX Y Backlash ---
G0 X28.124 Y7.638 F410
G1 X34.045 Y7.696 Z0 F600
G1 X34.214 Y7.863 Z0 F600
G1 X34.346 Y8.042 Z0 F600
G1 X34.442 Y8.236 Z0 F600
G1 X34.508 Y8.448 Z0 F600
G1 X34.513 Y8.544 Z0 F600
G1 Y8.644 Z0 F600
; --- FIX X Backlash ---
G0 X33.813 Y8.644 F410
; --- FIX Y Backlash ---
G0 X33.813 Y8.144 F410
G1 X33.743 Y8.015 Z0 F600
G1 X33.656 Y7.896 Z0 F600
G1 X33.456 Y7.726 Z0 F600
G1 X33.217 Y7.594 Z0 F600
G1 X32.938 Y7.5 Z0 F600
G1 X32.625 Y7.446 Z0 F600
G1 X32.602 Z0 F600
G1 X31.441 Y7.475 Z0 F600
G1 X30.263 Y7.491 Z0 F600
G1 X29.058 Y7.496 Z0 F600
G1 X27.84 Z0 F600
G1 X25.411 Y7.484 Z0 F600
G1 X23.078 Y7.489 Z0 F600
G1 X22.999 Y7.5 Z0 F600
G1 X22.927 Y7.529 Z0 F600
G1 X22.863 Y7.575 Z0 F600
; --- FIX Y Backlash ---
G0 X22.863 Y8.075 F410
G1 X22.812 Y8.136 Z0 F600
G1 X22.684 Y8.368 Z0 F600
G1 X22.59 Y8.612 Z0 F600
G1 X22.522 Y8.862 Z0 F600
G1 X22.474 Y9.112 Z0 F600
G1 X22.41 Y9.59 Z0 F600
G1 X22.34 Y10.001 Z0 F600
G1 X22.29 Y10.161 Z0 F600
G1 X22.235 Y10.282 Z0 F600
G1 X22.174 Y10.367 Z0 F600
G1 X22.107 Y10.421 Z0 F600
G1 X22.017 Y10.453 Z0 F600
G1 X21.879 Y10.463 Z0 F600
G1 X21.679 Y10.435 Z0 F600
; --- FIX Y Backlash ---
G0 X21.679 Y9.935 F410
G1 X21.379 Y9.845 Z0 F600
G1 X21.349 Y9.839 Z0 F600
G1 X20.688 Y9.757 Z0 F600
G1 X20.069 Z0 F600
G1 X19.781 Y9.794 Z0 F600
; --- FIX Y Backlash ---
G0 X19.781 Y10.294 F410
G1 X19.51 Y10.366 Z0 F600
G1 X19.258 Y10.475 Z0 F600
G1 X19.029 Y10.626 Z0 F600
G1 X18.831 Y10.821 Z0 F600
G1 X18.674 Y11.061 Z0 F600
G1 X18.562 Y11.338 Z0 F600
G1 X18.498 Y11.649 Z0 F600
G1 X18.484 Y11.973 Z0 F600
G1 X18.514 Y12.33 Z0 F600
; --- FIX X Backlash ---
G0 X19.214 Y12.33 F410
G1 X19.283 Y12.72 Z0 F600
G1 X19.389 Y13.144 Z0 F600
G1 X19.378 Y13.503 Z0 F600
G1 X19.359 Y13.817 Z0 F600
G1 X19.331 Y14.084 Z0 F600
G1 X19.29 Y14.304 Z0 F600
; --- FIX X Backlash ---
G0 X18.59 Y14.304 F410
G1 X18.539 Y14.474 Z0 F600
G1 X18.479 Y14.601 Z0 F600
G1 X18.406 Y14.695 Z0 F600
G1 X18.316 Y14.767 Z0 F600
G1 X18.195 Y14.823 Z0 F600
G1 X18.029 Y14.865 Z0 F600
G1 X17.813 Y14.891 Z0 F600
G1 X17.548 Y14.902 Z0 F600
G1 X17.229 Y14.895 Z0 F600
G1 X16.854 Y14.871 Z0 F600
G1 X16.42 Y14.829 Z0 F600
; --- FIX Y Backlash ---
G0 X16.42 Y14.329 F410
G1 X15.925 Y14.269 Z0 F600
G1 X15.31 Y14.186 Z0 F600
G1 X14.631 Y14.134 Z0 F600
G1 X14.28 Y14.131 Z0 F600
G1 X13.932 Y14.148 Z0 F600
G1 X13.59 Y14.189 Z0 F600
G0 Z3.5 F600
; --- FIX X Backlash ---
G0 X14.29 Y14.189 F410
; --- FIX Y Backlash ---
G0 X14.29 Y14.689 F410
G0 X17.434 Y19.03 Z3.5
G1 Z0 F600
;Layer C1 Pass 1 of 2
G1 Y20.415 Z0 F600
; --- FIX X Backlash ---
G0 X16.734 Y20.415 F410
G1 X16.386 Y20.67 Z0 F600
; --- FIX Y Backlash ---
G0 X16.386 Y20.17 F410
G1 Y19.874 Z0 F600
G1 X16.364 Y19.461 Z0 F600
G1 X16.344 Y19.148 Z0 F600
G1 X16.339 Y18.973 Z0 F600
G1 X16.359 Y18.683 Z0 F600
G1 Y18.527 Z0 F600
; --- FIX X Backlash ---
G0 X17.059 Y18.527 F410
G1 X17.434 Y18.53 Z0 F600
G0 Z3.5 F600
G0 X17.934 Y18.033 Z3.5
G1 Z0 F600
; --- FIX Y Backlash ---
G0 X17.934 Y18.533 F410
G1 Y20.686 Z0 F600
; --- FIX X Backlash ---
G0 X17.234 Y20.686 F410
G1 X17.182 Y20.707 Z0 F600
G1 X16.652 Y21.096 Z0 F600
G1 X16.219 Y21.669 Z0 F600
G1 X15.979 Y22.264 Z0 F600
G1 X15.879 Y22.8 Z0 F600
G1 X15.855 Y23.27 Z0 F600
G1 X15.889 Y23.983 Z0 F600
; --- FIX X Backlash ---
G0 X16.589 Y23.983 F410
G1 X16.646 Y24.622 Z0 F600
G1 X16.663 Y24.845 Z0 F600
G1 Y24.886 Z0 F600
; --- FIX X Backlash ---
G0 X15.963 Y24.886 F410
G1 X15.876 Z0 F600
G1 Y24.872 Z0 F600
; --- FIX Y Backlash ---
G0 X15.876 Y24.372 F410
G1 X15.863 Y23.551 Z0 F600
G1 X15.708 Y22.591 Z0 F600
G1 X15.526 Y22.158 Z0 F600
G1 X15.389 Y21.983 Z0 F600
; --- FIX X Backlash ---
G0 X16.089 Y21.983 F410
G1 X16.301 Y21.643 Z0 F600
G1 X16.514 Y20.974 Z0 F600
G1 X16.586 Y20.379 Z0 F600
G1 Y19.887 Z0 F600
G1 X16.565 Y19.49 Z0 F600
G1 X16.545 Y19.179 Z0 F600
G1 X16.539 Y18.963 Z0 F600
G1 X16.559 Y18.666 Z0 F600
G1 Y18.024 Z0 F600
G1 X17.934 Y18.033 Z0 F600
G0 Z3.5 F600
G0 X18.434 Y17.999 Z3.5
G1 Z0 F600
; --- FIX Y Backlash ---
G0 X18.434 Y18.499 F410
G1 Y21.026 Z0 F600
; --- FIX X Backlash ---
G0 X17.734 Y21.026 F410
G1 X17.425 Y21.148 Z0 F600
G1 X17.007 Y21.456 Z0 F600
G1 X16.657 Y21.918 Z0 F600
G1 X16.461 Y22.404 Z0 F600
G1 X16.377 Y22.858 Z0 F600
G1 X16.356 Y23.271 Z0 F600
G1 X16.388 Y23.948 Z0 F600
; --- FIX X Backlash ---
G0 X17.088 Y23.948 F410
G1 X17.145 Y24.577 Z0 F600
G1 X17.162 Y24.83 Z0 F600
G1 X17.167 Y25.031 Z0 F600
G1 X17.159 Y25.182 Z0 F600
G1 X17.126 Y25.363 Z0 F600
G1 X17.123 Y25.386 Z0 F600
; --- FIX X Backlash ---
G0 X16.423 Y25.386 F410
G1 X15.358 Z0 F600
; --- FIX Y Backlash ---
G0 X15.358 Y24.886 F410
G1 X15.376 Y24.367 Z0 F600
G1 X15.363 Y23.595 Z0 F600
G1 X15.224 Y22.73 Z0 F600
G1 X15.092 Y22.414 Z0 F600
G1 X14.87 Y22.132 Z0 F600
G1 X14.75 Y22.043 Z0 F600
G1 X14.775 Y22.024 Z0 F600
; --- FIX X Backlash ---
G0 X15.475 Y22.024 F410
G1 X15.843 Y21.432 Z0 F600
G1 X16.023 Y20.867 Z0 F600
G1 X16.086 Y20.349 Z0 F600
G1 Y19.9 Z0 F600
G1 X16.065 Y19.52 Z0 F600
G1 X16.045 Y19.196 Z0 F600
G1 X16.038 Y18.954 Z0 F600
G1 X16.059 Y18.648 Z0 F600
G1 Y17.521 Z0 F600
G1 X18.455 Y17.536 Z0 F600
G1 X18.464 Y17.555 Z0 F600
G1 X18.51 Y17.599 Z0 F600
G1 X18.496 Y17.642 Z0 F600
; --- FIX Y Backlash ---
G0 X18.496 Y18.142 F410
G1 X18.45 Y18.312 Z0 F600
G1 X18.434 Y18.499 Z0 F600
G0 Z3.5 F600
; --- FIX X Backlash ---
G0 X17.734 Y18.499 F410
G0 X17.669 Y21.589 Z3.5
G1 Z0 F600
G1 X17.362 Y21.815 Z0 F600
G1 X17.096 Y22.167 Z0 F600
G1 X16.944 Y22.545 Z0 F600
G1 X16.875 Y22.917 Z0 F600
G1 X16.857 Y23.271 Z0 F600
G1 X16.887 Y23.914 Z0 F600
; --- FIX X Backlash ---
G0 X17.587 Y23.914 F410
G1 X17.643 Y24.532 Z0 F600
G1 X17.661 Y24.789 Z0 F600
G1 X17.667 Y25.046 Z0 F600
G1 X17.657 Y25.239 Z0 F600
G1 X17.619 Y25.447 Z0 F600
G1 X17.578 Y25.706 Z0 F600
G1 X17.566 Y25.915 Z0 F600
G1 X17.55 Y25.91 Z0 F600
; --- FIX X Backlash ---
G0 X16.85 Y25.91 F410
G1 X16.763 Y25.892 Z0 F600
G1 X16.669 Y25.886 Z0 F600
G1 X14.855 Z0 F600
; --- FIX Y Backlash ---
G0 X14.855 Y25.386 F410
G1 X14.852 Y25.007 Z0 F600
G1 X14.876 Y24.361 Z0 F600
G1 X14.864 Y23.64 Z0 F600
G1 X14.739 Y22.868 Z0 F600
G1 X14.656 Y22.669 Z0 F600
G1 X14.519 Y22.494 Z0 F600
G1 X14.339 Y22.362 Z0 F600
G1 X14.151 Y22.291 Z0 F600
G1 X13.829 Y22.231 Z0 F600
G1 X13.503 Y22.19 Z0 F600
G1 X13.15 Y22.162 Z0 F600
G1 X12.774 Y22.143 Z0 F600
G1 X11.975 Y22.125 Z0 F600
G1 X11.13 Z0 F600
G1 X9.14 Y22.146 Z0 F600
G1 X8.825 Z0 F600
G1 X8.553 Y22.143 Z0 F600
G1 X8.301 Y22.136 Z0 F600
G1 X8.014 Y22.139 Z0 F600
G1 X7.913 Y22.142 Z0 F600
G1 X7.907 Y21.96 Z0 F600
; --- FIX X Backlash ---
G0 X8.607 Y21.96 F410
G1 X14.526 Z0 F600
G1 X14.827 Y21.893 Z0 F600
G1 X15.098 Y21.683 Z0 F600
G1 X15.386 Y21.221 Z0 F600
G1 X15.532 Y20.76 Z0 F600
G1 X15.586 Y20.318 Z0 F600
G1 Y19.914 Z0 F600
G1 X15.566 Y19.549 Z0 F600
G1 X15.546 Y19.229 Z0 F600
G1 X15.538 Y18.945 Z0 F600
G1 X15.559 Y18.631 Z0 F600
G1 Y17.018 Z0 F600
G1 X18.766 Y17.038 Z0 F600
; --- FIX Y Backlash ---
G0 X18.766 Y17.538 F410
G1 X18.874 Y17.755 Z0 F600
G1 X19.061 Y17.936 Z0 F600
G1 X19.082 Y17.952 Z0 F600
G1 X19.061 Y18.03 Z0 F600
; --- FIX X Backlash ---
G0 X18.361 Y18.03 F410
G1 X18.275 Y18.286 Z0 F600
G1 X18.245 Y18.398 Z0 F600
G1 X18.234 Y18.521 Z0 F600
G1 Y21.413 Z0 F600
G1 X18.013 Y21.454 Z0 F600
G1 X17.669 Y21.589 Z0 F600
G0 Z3.5 F600
G0 X13.752 Y23.226 Z3.5
G1 Z0 F600
G1 X13.451 Y23.188 Z0 F600
G1 X13.117 Y23.161 Z0 F600
G1 X12.756 Y23.143 Z0 F600
G1 X11.969 Y23.125 Z0 F600
G1 X11.133 Z0 F600
G1 X9.145 Y23.146 Z0 F600
G1 X8.821 Z0 F600
G1 X8.538 Y23.143 Z0 F600
G1 X8.297 Y23.136 Z0 F600
G1 X8.026 Y23.139 Z0 F600
G1 X7.777 Y23.147 Z0 F600
G1 X7.566 Z0 F600
G1 X7.418 Y23.136 Z0 F600
G1 X7.363 Y23.12 Z0 F600
G1 Y23.105 Z0 F600
G1 X7.359 Y23.058 Z0 F600
; --- FIX Y Backlash ---
G0 X7.359 Y22.558 F410
G1 X7.369 Y22.475 Z0 F600
G1 X7.412 Y22.301 Z0 F600
G1 X7.416 Y22.249 Z0 F600
G1 X7.401 Y21.762 Z0 F600
G1 Y21.568 Z0 F600
G1 X7.416 Y21.438 Z0 F600
G1 X7.424 Y21.401 Z0 F600
G1 X7.441 Z0 F600
; --- FIX X Backlash ---
G0 X8.141 Y21.401 F410
G1 X8.192 Z0 F600
G1 X8.277 Y21.412 Z0 F600
G1 X8.399 Y21.444 Z0 F600
G1 X8.448 Y21.456 Z0 F600
G1 X8.499 Y21.46 Z0 F600
G1 X14.471 Z0 F600
G1 X14.609 Y21.429 Z0 F600
G1 X14.721 Y21.343 Z0 F600
G1 X14.928 Y21.01 Z0 F600
G1 X15.042 Y20.653 Z0 F600
G1 X15.086 Y20.288 Z0 F600
G1 Y19.927 Z0 F600
G1 X15.067 Y19.578 Z0 F600
G1 X15.046 Y19.245 Z0 F600
G1 X15.037 Y18.936 Z0 F600
G1 X15.059 Y18.614 Z0 F600
G1 Y16.515 Z0 F600
G1 X19.122 Y16.54 Z0 F600
; --- FIX Y Backlash ---
G0 X19.122 Y17.04 F410
G1 X19.191 Y17.269 Z0 F600
G1 X19.284 Y17.456 Z0 F600
G1 X19.386 Y17.555 Z0 F600
G1 X19.48 Y17.626 Z0 F600
G1 X19.604 Y17.706 Z0 F600
G1 X19.628 Y17.713 Z0 F600
G1 X19.617 Y17.845 Z0 F600
G1 X19.591 Y17.984 Z0 F600
; --- FIX X Backlash ---
G0 X18.891 Y17.984 F410
G1 X18.838 Y18.179 Z0 F600
G1 X18.754 Y18.431 Z0 F600
G1 X18.739 Y18.485 Z0 F600
G1 X18.734 Y18.542 Z0 F600
G1 Y21.868 Z0 F600
G1 X18.428 Y21.885 Z0 F600
G1 X18.152 Y21.937 Z0 F600
G1 X17.913 Y22.031 Z0 F600
G1 X17.717 Y22.175 Z0 F600
G1 X17.535 Y22.415 Z0 F600
G1 X17.426 Y22.686 Z0 F600
G1 X17.372 Y22.976 Z0 F600
G1 X17.357 Y23.272 Z0 F600
G1 X17.386 Y23.88 Z0 F600
; --- FIX X Backlash ---
G0 X18.086 Y23.88 F410
G1 X18.141 Y24.487 Z0 F600
G1 X18.161 Y24.776 Z0 F600
G1 X18.168 Y25.049 Z0 F600
G1 X18.154 Y25.298 Z0 F600
G1 X18.112 Y25.53 Z0 F600
G1 X18.076 Y25.758 Z0 F600
G1 X18.065 Y25.961 Z0 F600
G1 X18.069 Y26.145 Z0 F600
G1 X18.083 Y26.308 Z0 F600
G1 X18.104 Y26.532 Z0 F600
; --- FIX X Backlash ---
G0 X17.404 Y26.532 F410
G1 X17.303 Y26.521 Z0 F600
G1 X17.165 Y26.499 Z0 F600
G1 X16.979 Y26.459 Z0 F600
; --- FIX Y Backlash ---
G0 X16.979 Y25.959 F410
G1 X16.738 Y25.897 Z0 F600
G1 X16.696 Y25.889 Z0 F600
G1 X16.652 Y25.886 Z0 F600
G1 X14.289 Z0 F600
G1 X14.333 Y25.77 Z0 F600
G1 X14.359 Y25.64 Z0 F600
G1 Y25.618 Z0 F600
G1 X14.352 Y25.007 Z0 F600
G1 X14.376 Y24.356 Z0 F600
G1 X14.365 Y23.684 Z0 F600
G1 X14.256 Y23.007 Z0 F600
G1 X14.221 Y22.925 Z0 F600
G1 X14.168 Y22.857 Z0 F600
G1 X14.098 Y22.806 Z0 F600
G1 X14.015 Y22.774 Z0 F600
G1 X13.752 Y22.726 Z0 F600
;Layer C1 Pass 2 of 2
G0 Z3.5 F600
; --- FIX X Backlash ---
G0 X14.452 Y22.726 F410
G0 X17.434 Y18.53 Z3.5
G1 Z0 F600
; --- FIX Y Backlash ---
G0 X17.434 Y19.03 F410
G1 Y20.415 Z0 F600
; --- FIX X Backlash ---
G0 X16.734 Y20.415 F410
G1 X16.386 Y20.67 Z0 F600
; --- FIX Y Backlash ---
G0 X16.386 Y20.17 F410
G1 Y19.874 Z0 F600
G1 X16.364 Y19.461 Z0 F600
G1 X16.344 Y19.148 Z0 F600
G1 X16.339 Y18.973 Z0 F600
G1 X16.359 Y18.683 Z0 F600
G1 Y18.527 Z0 F600
; --- FIX X Backlash ---
G0 X17.059 Y18.527 F410
G1 X17.434 Y18.53 Z0 F600
G0 Z3.5 F600
G0 X17.934 Y18.033 Z3.5
G1 Z0 F600
; --- FIX Y Backlash ---
G0 X17.934 Y18.533 F410
G1 Y20.686 Z0 F600
; --- FIX X Backlash ---
G0 X17.234 Y20.686 F410
G1 X17.182 Y20.707 Z0 F600
G1 X16.652 Y21.096 Z0 F600
G1 X16.219 Y21.669 Z0 F600
G1 X15.979 Y22.264 Z0 F600
G1 X15.879 Y22.8 Z0 F600
G1 X15.855 Y23.27 Z0 F600
G1 X15.889 Y23.983 Z0 F600
; --- FIX X Backlash ---
G0 X16.589 Y23.983 F410
G1 X16.646 Y24.622 Z0 F600
G1 X16.663 Y24.845 Z0 F600
G1 Y24.886 Z0 F600
; --- FIX X Backlash ---
G0 X15.963 Y24.886 F410
G1 X15.876 Z0 F600
G1 Y24.872 Z0 F600
; --- FIX Y Backlash ---
G0 X15.876 Y24.372 F410
G1 X15.863 Y23.551 Z0 F600
G1 X15.708 Y22.591 Z0 F600
G1 X15.526 Y22.158 Z0 F600
G1 X15.389 Y21.983 Z0 F600
; --- FIX X Backlash ---
G0 X16.089 Y21.983 F410
G1 X16.301 Y21.643 Z0 F600
G1 X16.514 Y20.974 Z0 F600
G1 X16.586 Y20.379 Z0 F600
G1 Y19.887 Z0 F600
G1 X16.565 Y19.49 Z0 F600
G1 X16.545 Y19.179 Z0 F600
G1 X16.539 Y18.963 Z0 F600
G1 X16.559 Y18.666 Z0 F600
G1 Y18.024 Z0 F600
G1 X17.934 Y18.033 Z0 F600
G0 Z3.5 F600
G0 X18.434 Y17.999 Z3.5
G1 Z0 F600
; --- FIX Y Backlash ---
G0 X18.434 Y18.499 F410
G1 Y21.026 Z0 F600
; --- FIX X Backlash ---
G0 X17.734 Y21.026 F410
G1 X17.425 Y21.148 Z0 F600
G1 X17.007 Y21.456 Z0 F600
G1 X16.657 Y21.918 Z0 F600
G1 X16.461 Y22.404 Z0 F600
G1 X16.377 Y22.858 Z0 F600
G1 X16.356 Y23.271 Z0 F600
G1 X16.388 Y23.948 Z0 F600
; --- FIX X Backlash ---
G0 X17.088 Y23.948 F410
G1 X17.145 Y24.577 Z0 F600
G1 X17.162 Y24.83 Z0 F600
G1 X17.167 Y25.031 Z0 F600
G1 X17.159 Y25.182 Z0 F600
G1 X17.126 Y25.363 Z0 F600
G1 X17.123 Y25.386 Z0 F600
; --- FIX X Backlash ---
G0 X16.423 Y25.386 F410
G1 X15.358 Z0 F600
; --- FIX Y Backlash ---
G0 X15.358 Y24.886 F410
G1 X15.376 Y24.367 Z0 F600
G1 X15.363 Y23.595 Z0 F600
G1 X15.224 Y22.73 Z0 F600
G1 X15.092 Y22.414 Z0 F600
G1 X14.87 Y22.132 Z0 F600
G1 X14.75 Y22.043 Z0 F600
G1 X14.775 Y22.024 Z0 F600
; --- FIX X Backlash ---
G0 X15.475 Y22.024 F410
G1 X15.843 Y21.432 Z0 F600
G1 X16.023 Y20.867 Z0 F600
G1 X16.086 Y20.349 Z0 F600
G1 Y19.9 Z0 F600
G1 X16.065 Y19.52 Z0 F600
G1 X16.045 Y19.196 Z0 F600
G1 X16.038 Y18.954 Z0 F600
G1 X16.059 Y18.648 Z0 F600
G1 Y17.521 Z0 F600
G1 X18.455 Y17.536 Z0 F600
G1 X18.464 Y17.555 Z0 F600
G1 X18.51 Y17.599 Z0 F600
G1 X18.496 Y17.642 Z0 F600
; --- FIX Y Backlash ---
G0 X18.496 Y18.142 F410
G1 X18.45 Y18.312 Z0 F600
G1 X18.434 Y18.499 Z0 F600
G0 Z3.5 F600
; --- FIX X Backlash ---
G0 X17.734 Y18.499 F410
G0 X17.669 Y21.589 Z3.5
G1 Z0 F600
G1 X17.362 Y21.815 Z0 F600
G1 X17.096 Y22.167 Z0 F600
G1 X16.944 Y22.545 Z0 F600
G1 X16.875 Y22.917 Z0 F600
G1 X16.857 Y23.271 Z0 F600
G1 X16.887 Y23.914 Z0 F600
; --- FIX X Backlash ---
G0 X17.587 Y23.914 F410
G1 X17.643 Y24.532 Z0 F600
G1 X17.661 Y24.789 Z0 F600
G1 X17.667 Y25.046 Z0 F600
G1 X17.657 Y25.239 Z0 F600
G1 X17.619 Y25.447 Z0 F600
G1 X17.578 Y25.706 Z0 F600
G1 X17.566 Y25.915 Z0 F600
G1 X17.55 Y25.91 Z0 F600
; --- FIX X Backlash ---
G0 X16.85 Y25.91 F410
G1 X16.763 Y25.892 Z0 F600
G1 X16.669 Y25.886 Z0 F600
G1 X14.855 Z0 F600
; --- FIX Y Backlash ---
G0 X14.855 Y25.386 F410
G1 X14.852 Y25.007 Z0 F600
G1 X14.876 Y24.361 Z0 F600
G1 X14.864 Y23.64 Z0 F600
G1 X14.739 Y22.868 Z0 F600
G1 X14.656 Y22.669 Z0 F600
G1 X14.519 Y22.494 Z0 F600
G1 X14.339 Y22.362 Z0 F600
G1 X14.151 Y22.291 Z0 F600
G1 X13.829 Y22.231 Z0 F600
G1 X13.503 Y22.19 Z0 F600
G1 X13.15 Y22.162 Z0 F600
G1 X12.774 Y22.143 Z0 F600
G1 X11.975 Y22.125 Z0 F600
G1 X11.13 Z0 F600
G1 X9.14 Y22.146 Z0 F600
G1 X8.825 Z0 F600
G1 X8.553 Y22.143 Z0 F600
G1 X8.301 Y22.136 Z0 F600
G1 X8.014 Y22.139 Z0 F600
G1 X7.913 Y22.142 Z0 F600
G1 X7.907 Y21.96 Z0 F600
; --- FIX X Backlash ---
G0 X8.607 Y21.96 F410
G1 X14.526 Z0 F600
G1 X14.827 Y21.893 Z0 F600
G1 X15.098 Y21.683 Z0 F600
G1 X15.386 Y21.221 Z0 F600
G1 X15.532 Y20.76 Z0 F600
G1 X15.586 Y20.318 Z0 F600
G1 Y19.914 Z0 F600
G1 X15.566 Y19.549 Z0 F600
G1 X15.546 Y19.229 Z0 F600
G1 X15.538 Y18.945 Z0 F600
G1 X15.559 Y18.631 Z0 F600
G1 Y17.018 Z0 F600
G1 X18.766 Y17.038 Z0 F600
; --- FIX Y Backlash ---
G0 X18.766 Y17.538 F410
G1 X18.874 Y17.755 Z0 F600
G1 X19.061 Y17.936 Z0 F600
G1 X19.082 Y17.952 Z0 F600
G1 X19.061 Y18.03 Z0 F600
; --- FIX X Backlash ---
G0 X18.361 Y18.03 F410
G1 X18.275 Y18.286 Z0 F600
G1 X18.245 Y18.398 Z0 F600
G1 X18.234 Y18.521 Z0 F600
G1 Y21.413 Z0 F600
G1 X18.013 Y21.454 Z0 F600
G1 X17.669 Y21.589 Z0 F600
G0 Z3.5 F600
G0 X13.752 Y23.226 Z3.5
G1 Z0 F600
G1 X13.451 Y23.188 Z0 F600
G1 X13.117 Y23.161 Z0 F600
G1 X12.756 Y23.143 Z0 F600
G1 X11.969 Y23.125 Z0 F600
G1 X11.133 Z0 F600
G1 X9.145 Y23.146 Z0 F600
G1 X8.821 Z0 F600
G1 X8.538 Y23.143 Z0 F600
G1 X8.297 Y23.136 Z0 F600
G1 X8.026 Y23.139 Z0 F600
G1 X7.777 Y23.147 Z0 F600
G1 X7.566 Z0 F600
G1 X7.418 Y23.136 Z0 F600
G1 X7.363 Y23.12 Z0 F600
G1 Y23.105 Z0 F600
G1 X7.359 Y23.058 Z0 F600
; --- FIX Y Backlash ---
G0 X7.359 Y22.558 F410
G1 X7.369 Y22.475 Z0 F600
G1 X7.412 Y22.301 Z0 F600
G1 X7.416 Y22.249 Z0 F600
G1 X7.401 Y21.762 Z0 F600
G1 Y21.568 Z0 F600
G1 X7.416 Y21.438 Z0 F600
G1 X7.424 Y21.401 Z0 F600
G1 X7.441 Z0 F600
; --- FIX X Backlash ---
G0 X8.141 Y21.401 F410
G1 X8.192 Z0 F600
G1 X8.277 Y21.412 Z0 F600
G1 X8.399 Y21.444 Z0 F600
G1 X8.448 Y21.456 Z0 F600
G1 X8.499 Y21.46 Z0 F600
G1 X14.471 Z0 F600
G1 X14.609 Y21.429 Z0 F600
G1 X14.721 Y21.343 Z0 F600
G1 X14.928 Y21.01 Z0 F600
G1 X15.042 Y20.653 Z0 F600
G1 X15.086 Y20.288 Z0 F600
G1 Y19.927 Z0 F600
G1 X15.067 Y19.578 Z0 F600
G1 X15.046 Y19.245 Z0 F600
G1 X15.037 Y18.936 Z0 F600
G1 X15.059 Y18.614 Z0 F600
G1 Y16.515 Z0 F600
G1 X19.122 Y16.54 Z0 F600
; --- FIX Y Backlash ---
G0 X19.122 Y17.04 F410
G1 X19.191 Y17.269 Z0 F600
G1 X19.284 Y17.456 Z0 F600
G1 X19.386 Y17.555 Z0 F600
G1 X19.48 Y17.626 Z0 F600
G1 X19.604 Y17.706 Z0 F600
G1 X19.628 Y17.713 Z0 F600
G1 X19.617 Y17.845 Z0 F600
G1 X19.591 Y17.984 Z0 F600
; --- FIX X Backlash ---
G0 X18.891 Y17.984 F410
G1 X18.838 Y18.179 Z0 F600
G1 X18.754 Y18.431 Z0 F600
G1 X18.739 Y18.485 Z0 F600
G1 X18.734 Y18.542 Z0 F600
G1 Y21.868 Z0 F600
G1 X18.428 Y21.885 Z0 F600
G1 X18.152 Y21.937 Z0 F600
G1 X17.913 Y22.031 Z0 F600
G1 X17.717 Y22.175 Z0 F600
G1 X17.535 Y22.415 Z0 F600
G1 X17.426 Y22.686 Z0 F600
G1 X17.372 Y22.976 Z0 F600
G1 X17.357 Y23.272 Z0 F600
G1 X17.386 Y23.88 Z0 F600
; --- FIX X Backlash ---
G0 X18.086 Y23.88 F410
G1 X18.141 Y24.487 Z0 F600
G1 X18.161 Y24.776 Z0 F600
G1 X18.168 Y25.049 Z0 F600
G1 X18.154 Y25.298 Z0 F600
G1 X18.112 Y25.53 Z0 F600
G1 X18.076 Y25.758 Z0 F600
G1 X18.065 Y25.961 Z0 F600
G1 X18.069 Y26.145 Z0 F600
G1 X18.083 Y26.308 Z0 F600
G1 X18.104 Y26.532 Z0 F600
; --- FIX X Backlash ---
G0 X17.404 Y26.532 F410
G1 X17.303 Y26.521 Z0 F600
G1 X17.165 Y26.499 Z0 F600
G1 X16.979 Y26.459 Z0 F600
; --- FIX Y Backlash ---
G0 X16.979 Y25.959 F410
G1 X16.738 Y25.897 Z0 F600
G1 X16.696 Y25.889 Z0 F600
G1 X16.652 Y25.886 Z0 F600
G1 X14.289 Z0 F600
G1 X14.333 Y25.77 Z0 F600
G1 X14.359 Y25.64 Z0 F600
G1 Y25.618 Z0 F600
G1 X14.352 Y25.007 Z0 F600
G1 X14.376 Y24.356 Z0 F600
G1 X14.365 Y23.684 Z0 F600
G1 X14.256 Y23.007 Z0 F600
G1 X14.221 Y22.925 Z0 F600
G1 X14.168 Y22.857 Z0 F600
G1 X14.098 Y22.806 Z0 F600
G1 X14.015 Y22.774 Z0 F600
G1 X13.752 Y22.726 Z0 F600
G0 Z3.5 F600
; --- FIX X Backlash ---
G0 X14.452 Y22.726 F410
G0 X22.754 Y17.675 Z3.5
G1 Z0 F600
;Layer C1 Pass 1 of 2
; --- FIX Y Backlash ---
G0 X22.754 Y18.175 F410
G1 X22.742 Y18.278 Z0 F600
G1 X22.709 Y18.94 Z0 F600
G1 X22.693 Y19.64 Z0 F600
G1 X22.727 Y20.376 Z0 F600
G1 X22.846 Y21.115 Z0 F600
G1 X22.877 Y21.219 Z0 F600
; --- FIX X Backlash ---
G0 X22.177 Y21.219 F410
G1 X22.037 Y21.236 Z0 F600
G1 X21.841 Y21.275 Z0 F600
G1 X21.391 Y21.388 Z0 F600
; --- FIX Y Backlash ---
G0 X21.391 Y20.888 F410
G1 X21.363 Y20.762 Z0 F600
G1 X21.337 Y20.527 Z0 F600
G1 X21.333 Y20.276 Z0 F600
G1 X21.353 Y20.04 Z0 F600
; --- FIX X Backlash ---
G0 X22.053 Y20.04 F410
G1 X22.189 Y19.371 Z0 F600
G1 X22.165 Y19.362 Z0 F600
G1 X22.172 Y19.223 Z0 F600
G1 X22.16 Y18.935 Z0 F600
G1 X22.132 Y18.662 Z0 F600
; --- FIX X Backlash ---
G0 X21.432 Y18.662 F410
G1 X21.369 Y18.16 Z0 F600
G1 X21.323 Y17.716 Z0 F600
G1 Y17.676 Z0 F600
G1 X21.329 Z0 F600
; --- FIX X Backlash ---
G0 X22.029 Y17.676 F410
G1 X22.395 Z0 F600
G1 X22.724 Y17.664 Z0 F600
G1 X22.758 Z0 F600
G1 X22.754 Y17.675 Z0 F600
G0 Z3.5 F600
G0 X28.428 Y14.717 Z3.5
G1 Z0 F600
G1 Y14.577 Z0 F600
; --- FIX Y Backlash ---
G0 X28.428 Y15.077 F410
G1 X28.521 Y15.14 Z0 F600
; --- FIX X Backlash ---
G0 X27.821 Y15.14 F410
G1 X27.728 Y15.217 Z0 F600
G0 Z3.5 F600
G0 X27.232 Y15.658 Z3.5
G1 Z0 F600
; --- FIX Y Backlash ---
G0 X27.232 Y15.158 F410
G1 X27.215 Y13.31 Z0 F600
G1 X27.211 Y13.277 Z0 F600
G1 X27.162 Y13.044 Z0 F600
G1 X27.136 Y12.867 Z0 F600
G1 X27.126 Y12.711 Z0 F600
G1 Y12.577 Z0 F600
G1 X27.164 Y12.37 Z0 F600
; --- FIX X Backlash ---
G0 X27.864 Y12.37 F410
G1 X27.93 Y12.243 Z0 F600
G1 X28.027 Y12.166 Z0 F600
G1 X28.194 Y12.116 Z0 F600
G1 X28.314 Y12.105 Z0 F600
G1 X28.46 Z0 F600
G1 X28.629 Y12.125 Z0 F600
G1 X28.854 Y12.165 Z0 F600
G1 X28.887 Z0 F600
G1 X31.801 Z0 F600
; --- FIX Y Backlash ---
G0 X31.801 Y12.665 F410
G1 X31.807 Y12.942 Z0 F600
G1 X31.793 Y13.124 Z0 F600
G1 X31.777 Y13.16 Z0 F600
G1 X31.749 Y13.171 Z0 F600
G1 X31.708 Y13.177 Z0 F600
; --- FIX X Backlash ---
G0 X31.008 Y13.177 F410
G1 X30.94 Z0 F600
G1 X30.842 Y13.163 Z0 F600
G1 X30.669 Y13.122 Z0 F600
G1 X30.623 Y13.118 Z0 F600
G1 X28.314 Z0 F600
G1 X28.228 Y13.13 Z0 F600
G1 X28.15 Y13.163 Z0 F600
G1 X28.083 Y13.216 Z0 F600
G1 X28.031 Y13.286 Z0 F600
G1 X27.928 Y13.49 Z0 F600
G1 X27.851 Y13.684 Z0 F600
G1 X27.802 Y13.87 Z0 F600
G1 X27.781 Y14.052 Z0 F600
G1 X27.794 Y14.23 Z0 F600
G1 X27.843 Y14.4 Z0 F600
; --- FIX X Backlash ---
G0 X28.543 Y14.4 F410
G1 X28.624 Y14.553 Z0 F600
G1 X28.733 Y14.681 Z0 F600
G1 X28.998 Y14.859 Z0 F600
G1 X29.299 Y14.96 Z0 F600
G1 X29.629 Y15.005 Z0 F600
G1 X29.979 Y15.019 Z0 F600
G1 X30.715 Y14.996 Z0 F600
; --- FIX Y Backlash ---
G0 X30.715 Y14.496 F410
G1 X31.444 Y14.446 Z0 F600
G1 X31.781 Y14.43 Z0 F600
G1 X32.082 Y14.427 Z0 F600
G1 X32.328 Y14.438 Z0 F600
G1 X32.499 Y14.466 Z0 F600
G1 X32.569 Y14.473 Z0 F600
G1 X32.639 Y14.466 Z0 F600
G1 X32.651 Y14.485 Z0 F600
; --- FIX Y Backlash ---
G0 X32.651 Y14.985 F410
G1 X32.695 Y15.125 Z0 F600
G1 X32.709 Y15.315 Z0 F600
G1 X32.675 Y15.476 Z0 F600
G1 X32.637 Y15.55 Z0 F600
G1 X32.634 Y15.559 Z0 F600
G1 X32.627 Y15.562 Z0 F600
G1 X32.597 Y15.55 Z0 F600
; --- FIX X Backlash ---
G0 X31.897 Y15.55 F410
G1 X31.82 Y15.511 Z0 F600
G1 X31.747 Y15.483 Z0 F600
G1 X31.67 Y15.474 Z0 F600
G1 X28.314 Z0 F600
G1 X28.225 Y15.486 Z0 F600
G1 X28.144 Y15.521 Z0 F600
G1 X28.076 Y15.578 Z0 F600
G1 X28.025 Y15.651 Z0 F600
G1 X27.828 Y16.159 Z0 F600
G1 X27.724 Y16.687 Z0 F600
G1 X27.689 Y17.226 Z0 F600
G1 X27.697 Y17.767 Z0 F600
; --- FIX X Backlash ---
G0 X28.397 Y17.767 F410
G1 X28.45 Y18.826 Z0 F600
G1 X28.457 Y19.329 Z0 F600
G1 X28.426 Y19.802 Z0 F600
G1 X28.422 Y19.841 Z0 F600
G1 X28.436 Y20.426 Z0 F600
G1 X28.453 Y21.064 Z0 F600
G1 X28.439 Y21.698 Z0 F600
; --- FIX X Backlash ---
G0 X27.739 Y21.698 F410
G1 X27.662 Y22.269 Z0 F600
G1 X27.591 Y22.508 Z0 F600
G1 X27.499 Y22.707 Z0 F600
G1 X27.385 Y22.865 Z0 F600
G1 X27.25 Y22.981 Z0 F600
G1 X27.08 Y23.062 Z0 F600
G1 X26.857 Y23.104 Z0 F600
G1 X26.57 Y23.094 Z0 F600
; --- FIX Y Backlash ---
G0 X26.57 Y22.594 F410
G1 X26.174 Y22.514 Z0 F600
G1 X26.14 Y22.511 Z0 F600
G1 X25.706 Y22.5 Z0 F600
G1 X25.272 Z0 F600
G1 X24.851 Y22.494 Z0 F600
G1 X24.453 Y22.462 Z0 F600
G1 X24.092 Y22.391 Z0 F600
G1 X23.773 Y22.267 Z0 F600
G1 X23.629 Y22.179 Z0 F600
G1 X23.495 Y22.07 Z0 F600
G1 X23.372 Y21.938 Z0 F600
G1 X23.258 Y21.78 Z0 F600
G1 X23.277 Y21.817 Z0 F600
G1 X23.157 Y21.613 Z0 F600
G1 X23.009 Y21.448 Z0 F600
G1 X22.839 Y21.324 Z0 F600
G1 X22.654 Y21.247 Z0 F600
G1 X22.467 Y21.212 Z0 F600
G1 X22.287 Z0 F600
G1 X22.115 Y21.23 Z0 F600
G1 X21.951 Y21.263 Z0 F600
; --- FIX Y Backlash ---
G0 X21.951 Y21.763 F410
G1 X21.384 Y21.905 Z0 F600
G1 X21.187 Y21.926 Z0 F600
G1 X21.072 Y21.907 Z0 F600
G1 X21.078 Z0 F600
G1 X21.061 Y21.888 Z0 F600
G1 X21.03 Y21.847 Z0 F600
; --- FIX Y Backlash ---
G0 X21.03 Y21.347 F410
G1 X20.994 Y21.282 Z0 F600
G1 X20.925 Y21.091 Z0 F600
G1 X20.869 Y20.843 Z0 F600
G1 X20.837 Y20.56 Z0 F600
G1 X20.833 Y20.262 Z0 F600
G1 X20.857 Y19.969 Z0 F600
; --- FIX X Backlash ---
G0 X21.557 Y19.969 F410
G1 X21.612 Y19.7 Z0 F600
G1 Y19.704 Z0 F600
G1 X21.659 Y19.465 Z0 F600
G1 X21.672 Y19.22 Z0 F600
G1 X21.661 Y18.971 Z0 F600
G1 X21.635 Y18.718 Z0 F600
; --- FIX X Backlash ---
G0 X20.935 Y18.718 F410
G1 X20.872 Y18.211 Z0 F600
G1 X20.824 Y17.747 Z0 F600
G1 X20.821 Y17.55 Z0 F600
G1 X20.835 Y17.388 Z0 F600
G1 X20.859 Y17.269 Z0 F600
G1 X20.888 Y17.2 Z0 F600
G1 X20.915 Y17.17 Z0 F600
; --- FIX X Backlash ---
G0 X21.615 Y17.17 F410
G1 X21.667 Y17.151 Z0 F600
G1 X21.783 Y17.142 Z0 F600
G1 X21.981 Y17.169 Z0 F600
G1 X22.013 Y17.174 Z0 F600
G1 X22.045 Y17.177 Z0 F600
G1 X22.385 Y17.174 Z0 F600
G1 X22.709 Y17.164 Z0 F600
G1 X22.989 Z0 F600
G1 X23.196 Y17.187 Z0 F600
G1 X23.295 Y17.221 Z0 F600
G1 X23.325 Y17.265 Z0 F600
G1 X23.334 Y17.314 Z0 F600
; --- FIX Y Backlash ---
G0 X23.334 Y17.814 F410
G1 Y17.907 Z0 F600
G1 X23.312 Y18.044 Z0 F600
; --- FIX X Backlash ---
G0 X22.612 Y18.044 F410
G1 X22.546 Y18.273 Z0 F600
G1 X22.541 Y18.319 Z0 F600
G1 X22.509 Y18.958 Z0 F600
G1 X22.493 Y19.635 Z0 F600
G1 X22.525 Y20.325 Z0 F600
; --- FIX X Backlash ---
G0 X23.225 Y20.325 F410
G1 X23.334 Y21.003 Z0 F600
G1 X23.432 Y21.33 Z0 F600
G1 X23.566 Y21.643 Z0 F600
G1 X23.739 Y21.938 Z0 F600
G1 X23.953 Y22.208 Z0 F600
G1 X24.21 Y22.447 Z0 F600
G1 X24.513 Y22.651 Z0 F600
G1 X24.864 Y22.813 Z0 F600
G1 X25.264 Y22.929 Z0 F600
G1 X25.298 Y22.934 Z0 F600
G1 X25.786 Y22.951 Z0 F600
G1 X26.301 Y22.973 Z0 F600
G1 X26.838 Y22.966 Z0 F600
; --- FIX Y Backlash ---
G0 X26.838 Y22.466 F410
G1 X27.362 Y22.394 Z0 F600
G1 X27.611 Y22.316 Z0 F600
G1 X27.845 Y22.198 Z0 F600
G1 X28.049 Y22.03 Z0 F600
G1 X28.206 Y21.808 Z0 F600
G1 X28.298 Y21.538 Z0 F600
G1 X28.322 Y21.235 Z0 F600
G1 X28.279 Y20.898 Z0 F600
; --- FIX X Backlash ---
G0 X27.579 Y20.898 F410
G1 X27.486 Y20.574 Z0 F600
G1 X27.353 Y19.697 Z0 F600
G1 X27.273 Y18.806 Z0 F600
G1 X27.232 Y17.904 Z0 F600
G1 X27.219 Y16.995 Z0 F600
G1 X27.232 Y15.158 Z0 F600
;Layer C1 Pass 2 of 2
G0 Z3.5 F600
; --- FIX Y Backlash ---
G0 X27.232 Y15.658 F410
G0 X22.054 Y18.175 Z3.5
G1 Z0 F600
G1 X22.042 Y18.278 Z0 F600
G1 X22.009 Y18.94 Z0 F600
G1 X21.993 Y19.64 Z0 F600
G1 X22.027 Y20.376 Z0 F600
; --- FIX X Backlash ---
G0 X22.727 Y20.376 F410
G1 X22.846 Y21.115 Z0 F600
G1 X22.877 Y21.219 Z0 F600
; --- FIX X Backlash ---
G0 X22.177 Y21.219 F410
G1 X22.037 Y21.236 Z0 F600
G1 X21.841 Y21.275 Z0 F600
G1 X21.391 Y21.388 Z0 F600
; --- FIX Y Backlash ---
G0 X21.391 Y20.888 F410
G1 X21.363 Y20.762 Z0 F600
G1 X21.337 Y20.527 Z0 F600
G1 X21.333 Y20.276 Z0 F600
G1 X21.353 Y20.04 Z0 F600
; --- FIX X Backlash ---
G0 X22.053 Y20.04 F410
G1 X22.189 Y19.371 Z0 F600
G1 X22.165 Y19.362 Z0 F600
G1 X22.172 Y19.223 Z0 F600
G1 X22.16 Y18.935 Z0 F600
G1 X22.132 Y18.662 Z0 F600
; --- FIX X Backlash ---
G0 X21.432 Y18.662 F410
G1 X21.369 Y18.16 Z0 F600
G1 X21.323 Y17.716 Z0 F600
G1 Y17.676 Z0 F600
G1 X21.329 Z0 F600
; --- FIX X Backlash ---
G0 X22.029 Y17.676 F410
G1 X22.395 Z0 F600
G1 X22.724 Y17.664 Z0 F600
G1 X22.758 Z0 F600
G1 X22.754 Y17.675 Z0 F600
G0 Z3.5 F600
G0 X28.428 Y14.717 Z3.5
G1 Z0 F600
G1 Y14.577 Z0 F600
; --- FIX Y Backlash ---
G0 X28.428 Y15.077 F410
G1 X28.521 Y15.14 Z0 F600
; --- FIX X Backlash ---
G0 X27.821 Y15.14 F410
G1 X27.728 Y15.217 Z0 F600
G0 Z3.5 F600
G0 X27.232 Y15.658 Z3.5
G1 Z0 F600
; --- FIX Y Backlash ---
G0 X27.232 Y15.158 F410
G1 X27.215 Y13.31 Z0 F600
G1 X27.211 Y13.277 Z0 F600
G1 X27.162 Y13.044 Z0 F600
G1 X27.136 Y12.867 Z0 F600
G1 X27.126 Y12.711 Z0 F600
G1 Y12.577 Z0 F600
G1 X27.164 Y12.37 Z0 F600
; --- FIX X Backlash ---
G0 X27.864 Y12.37 F410
G1 X27.93 Y12.243 Z0 F600
G1 X28.027 Y12.166 Z0 F600
G1 X28.194 Y12.116 Z0 F600
G1 X28.314 Y12.105 Z0 F600
G1 X28.46 Z0 F600
G1 X28.629 Y12.125 Z0 F600
G1 X28.854 Y12.165 Z0 F600
G1 X28.887 Z0 F600
G1 X31.801 Z0 F600
; --- FIX Y Backlash ---
G0 X31.801 Y12.665 F410
G1 X31.807 Y12.942 Z0 F600
G1 X31.793 Y13.124 Z0 F600
G1 X31.777 Y13.16 Z0 F600
G1 X31.749 Y13.171 Z0 F600
G1 X31.708 Y13.177 Z0 F600
; --- FIX X Backlash ---
G0 X31.008 Y13.177 F410
G1 X30.94 Z0 F600
G1 X30.842 Y13.163 Z0 F600
G1 X30.669 Y13.122 Z0 F600
G1 X30.623 Y13.118 Z0 F600
G1 X28.314 Z0 F600
G1 X28.228 Y13.13 Z0 F600
G1 X28.15 Y13.163 Z0 F600
G1 X28.083 Y13.216 Z0 F600
G1 X28.031 Y13.286 Z0 F600
G1 X27.928 Y13.49 Z0 F600
G1 X27.851 Y13.684 Z0 F600
G1 X27.802 Y13.87 Z0 F600
G1 X27.781 Y14.052 Z0 F600
G1 X27.794 Y14.23 Z0 F600
G1 X27.843 Y14.4 Z0 F600
; --- FIX X Backlash ---
G0 X28.543 Y14.4 F410
G1 X28.624 Y14.553 Z0 F600
G1 X28.733 Y14.681 Z0 F600
G1 X28.998 Y14.859 Z0 F600
G1 X29.299 Y14.96 Z0 F600
G1 X29.629 Y15.005 Z0 F600
G1 X29.979 Y15.019 Z0 F600
G1 X30.715 Y14.996 Z0 F600
; --- FIX Y Backlash ---
G0 X30.715 Y14.496 F410
G1 X31.444 Y14.446 Z0 F600
G1 X31.781 Y14.43 Z0 F600
G1 X32.082 Y14.427 Z0 F600
G1 X32.328 Y14.438 Z0 F600
G1 X32.499 Y14.466 Z0 F600
G1 X32.569 Y14.473 Z0 F600
G1 X32.639 Y14.466 Z0 F600
G1 X32.651 Y14.485 Z0 F600
; --- FIX Y Backlash ---
G0 X32.651 Y14.985 F410
G1 X32.695 Y15.125 Z0 F600
G1 X32.709 Y15.315 Z0 F600
G1 X32.675 Y15.476 Z0 F600
G1 X32.637 Y15.55 Z0 F600
G1 X32.634 Y15.559 Z0 F600
G1 X32.627 Y15.562 Z0 F600
G1 X32.597 Y15.55 Z0 F600
; --- FIX X Backlash ---
G0 X31.897 Y15.55 F410
G1 X31.82 Y15.511 Z0 F600
G1 X31.747 Y15.483 Z0 F600
G1 X31.67 Y15.474 Z0 F600
G1 X28.314 Z0 F600
G1 X28.225 Y15.486 Z0 F600
G1 X28.144 Y15.521 Z0 F600
G1 X28.076 Y15.578 Z0 F600
G1 X28.025 Y15.651 Z0 F600
G1 X27.828 Y16.159 Z0 F600
G1 X27.724 Y16.687 Z0 F600
G1 X27.689 Y17.226 Z0 F600
G1 X27.697 Y17.767 Z0 F600
; --- FIX X Backlash ---
G0 X28.397 Y17.767 F410
G1 X28.45 Y18.826 Z0 F600
G1 X28.457 Y19.329 Z0 F600
G1 X28.426 Y19.802 Z0 F600
G1 X28.422 Y19.841 Z0 F600
G1 X28.436 Y20.426 Z0 F600
G1 X28.453 Y21.064 Z0 F600
G1 X28.439 Y21.698 Z0 F600
; --- FIX X Backlash ---
G0 X27.739 Y21.698 F410
G1 X27.662 Y22.269 Z0 F600
G1 X27.591 Y22.508 Z0 F600
G1 X27.499 Y22.707 Z0 F600
G1 X27.385 Y22.865 Z0 F600
G1 X27.25 Y22.981 Z0 F600
G1 X27.08 Y23.062 Z0 F600
G1 X26.857 Y23.104 Z0 F600
G1 X26.57 Y23.094 Z0 F600
; --- FIX Y Backlash ---
G0 X26.57 Y22.594 F410
G1 X26.174 Y22.514 Z0 F600
G1 X26.14 Y22.511 Z0 F600
G1 X25.706 Y22.5 Z0 F600
G1 X25.272 Z0 F600
G1 X24.851 Y22.494 Z0 F600
G1 X24.453 Y22.462 Z0 F600
G1 X24.092 Y22.391 Z0 F600
G1 X23.773 Y22.267 Z0 F600
G1 X23.629 Y22.179 Z0 F600
G1 X23.495 Y22.07 Z0 F600
G1 X23.372 Y21.938 Z0 F600
G1 X23.258 Y21.78 Z0 F600
G1 X23.277 Y21.817 Z0 F600
G1 X23.157 Y21.613 Z0 F600
G1 X23.009 Y21.448 Z0 F600
G1 X22.839 Y21.324 Z0 F600
G1 X22.654 Y21.247 Z0 F600
G1 X22.467 Y21.212 Z0 F600
G1 X22.287 Z0 F600
G1 X22.115 Y21.23 Z0 F600
G1 X21.951 Y21.263 Z0 F600
; --- FIX Y Backlash ---
G0 X21.951 Y21.763 F410
G1 X21.384 Y21.905 Z0 F600
G1 X21.187 Y21.926 Z0 F600
G1 X21.072 Y21.907 Z0 F600
G1 X21.078 Z0 F600
G1 X21.061 Y21.888 Z0 F600
G1 X21.03 Y21.847 Z0 F600
; --- FIX Y Backlash ---
G0 X21.03 Y21.347 F410
G1 X20.994 Y21.282 Z0 F600
G1 X20.925 Y21.091 Z0 F600
G1 X20.869 Y20.843 Z0 F600
G1 X20.837 Y20.56 Z0 F600
G1 X20.833 Y20.262 Z0 F600
G1 X20.857 Y19.969 Z0 F600
; --- FIX X Backlash ---
G0 X21.557 Y19.969 F410
G1 X21.612 Y19.7 Z0 F600
G1 Y19.704 Z0 F600
G1 X21.659 Y19.465 Z0 F600
G1 X21.672 Y19.22 Z0 F600
G1 X21.661 Y18.971 Z0 F600
G1 X21.635 Y18.718 Z0 F600
; --- FIX X Backlash ---
G0 X20.935 Y18.718 F410
G1 X20.872 Y18.211 Z0 F600
G1 X20.824 Y17.747 Z0 F600
G1 X20.821 Y17.55 Z0 F600
G1 X20.835 Y17.388 Z0 F600
G1 X20.859 Y17.269 Z0 F600
G1 X20.888 Y17.2 Z0 F600
G1 X20.915 Y17.17 Z0 F600
; --- FIX X Backlash ---
G0 X21.615 Y17.17 F410
G1 X21.667 Y17.151 Z0 F600
G1 X21.783 Y17.142 Z0 F600
G1 X21.981 Y17.169 Z0 F600
G1 X22.013 Y17.174 Z0 F600
G1 X22.045 Y17.177 Z0 F600
G1 X22.385 Y17.174 Z0 F600
G1 X22.709 Y17.164 Z0 F600
G1 X22.989 Z0 F600
G1 X23.196 Y17.187 Z0 F600
G1 X23.295 Y17.221 Z0 F600
G1 X23.325 Y17.265 Z0 F600
G1 X23.334 Y17.314 Z0 F600
; --- FIX Y Backlash ---
G0 X23.334 Y17.814 F410
G1 Y17.907 Z0 F600
G1 X23.312 Y18.044 Z0 F600
; --- FIX X Backlash ---
G0 X22.612 Y18.044 F410
G1 X22.546 Y18.273 Z0 F600
G1 X22.541 Y18.319 Z0 F600
G1 X22.509 Y18.958 Z0 F600
G1 X22.493 Y19.635 Z0 F600
G1 X22.525 Y20.325 Z0 F600
; --- FIX X Backlash ---
G0 X23.225 Y20.325 F410
G1 X23.334 Y21.003 Z0 F600
G1 X23.432 Y21.33 Z0 F600
G1 X23.566 Y21.643 Z0 F600
G1 X23.739 Y21.938 Z0 F600
G1 X23.953 Y22.208 Z0 F600
G1 X24.21 Y22.447 Z0 F600
G1 X24.513 Y22.651 Z0 F600
G1 X24.864 Y22.813 Z0 F600
G1 X25.264 Y22.929 Z0 F600
G1 X25.298 Y22.934 Z0 F600
G1 X25.786 Y22.951 Z0 F600
G1 X26.301 Y22.973 Z0 F600
G1 X26.838 Y22.966 Z0 F600
; --- FIX Y Backlash ---
G0 X26.838 Y22.466 F410
G1 X27.362 Y22.394 Z0 F600
G1 X27.611 Y22.316 Z0 F600
G1 X27.845 Y22.198 Z0 F600
G1 X28.049 Y22.03 Z0 F600
G1 X28.206 Y21.808 Z0 F600
G1 X28.298 Y21.538 Z0 F600
G1 X28.322 Y21.235 Z0 F600
G1 X28.279 Y20.898 Z0 F600
; --- FIX X Backlash ---
G0 X27.579 Y20.898 F410
G1 X27.486 Y20.574 Z0 F600
G1 X27.353 Y19.697 Z0 F600
G1 X27.273 Y18.806 Z0 F600
G1 X27.232 Y17.904 Z0 F600
G1 X27.219 Y16.995 Z0 F600
G1 X27.232 Y15.158 Z0 F600
G0 Z3.5 F600
G0 X24.688 Y14.894 Z3.5
G1 Z0 F600
;Layer C1 Pass 1 of 2
G1 X24.644 Y14.845 Z0 F600
G1 X24.547 Y14.777 Z0 F600
; --- FIX X Backlash ---
G0 X25.247 Y14.777 F410
G1 X25.389 Y14.697 Z0 F600
; --- FIX Y Backlash ---
G0 X25.389 Y15.197 F410
G1 Y15.394 Z0 F600
G0 Z3.5 F600
; --- FIX Y Backlash ---
G0 X25.389 Y14.894 F410
G0 X25.406 Y12.439 Z3.5
G1 Z0 F600
; --- FIX X Backlash ---
G0 X24.706 Y12.439 F410
G1 X24.645 Y12.383 Z0 F600
; --- FIX X Backlash ---
G0 X25.345 Y12.383 F410
G1 X25.407 Y12.341 Z0 F600
; --- FIX Y Backlash ---
G0 X25.407 Y12.841 F410
G1 Y12.939 Z0 F600
G0 Z3.5 F600
; --- FIX X Backlash ---
G0 X24.707 Y12.939 F410
G0 X24.644 Y13.612 Z3.5
G1 Z0 F600
; --- FIX Y Backlash ---
G0 X24.644 Y13.112 F410
G1 X24.505 Y12.931 Z0 F600
G1 X24.33 Y12.773 Z0 F600
G1 X24.126 Y12.644 Z0 F600
G1 X23.896 Y12.548 Z0 F600
G1 X23.646 Y12.492 Z0 F600
G1 X23.382 Y12.482 Z0 F600
G1 X23.108 Y12.523 Z0 F600
; --- FIX Y Backlash ---
G0 X23.108 Y13.023 F410
G1 X22.83 Y13.122 Z0 F600
G1 X22.416 Y13.074 Z0 F600
G1 X22.031 Y13.089 Z0 F600
G1 X21.691 Y13.133 Z0 F600
G1 X21.408 Y13.172 Z0 F600
G1 X21.288 Y13.18 Z0 F600
G1 X21.196 Y13.177 Z0 F600
G1 X21.13 Y13.165 Z0 F600
G1 X21.09 Y13.149 Z0 F600
G1 X21.063 Y13.122 Z0 F600
; --- FIX Y Backlash ---
G0 X21.063 Y12.622 F410
G1 X21.034 Y12.568 Z0 F600
G1 X21.006 Y12.485 Z0 F600
G1 X20.978 Y12.37 Z0 F600
G1 X21.002 Y12.228 Z0 F600
G1 X21.031 Y12.13 Z0 F600
G1 X21.066 Y12.069 Z0 F600
G1 X21.103 Y12.036 Z0 F600
; --- FIX X Backlash ---
G0 X21.803 Y12.036 F410
G1 X21.864 Y12.016 Z0 F600
G1 X21.96 Y12.004 Z0 F600
G1 X22.089 Z0 F600
G1 X22.249 Y12.018 Z0 F600
; --- FIX Y Backlash ---
G0 X22.249 Y12.518 F410
G1 X22.61 Y12.576 Z0 F600
G1 X23.03 Y12.634 Z0 F600
G1 X23.488 Y12.649 Z0 F600
; --- FIX Y Backlash ---
G0 X23.488 Y12.149 F410
G1 X23.967 Y12.075 Z0 F600
G1 X24.186 Y12.124 Z0 F600
G1 X24.392 Y12.151 Z0 F600
G1 X24.583 Z0 F600
G1 X24.762 Y12.124 Z0 F600
G1 X24.938 Y12.054 Z0 F600
G1 X25.091 Y11.951 Z0 F600
G1 X25.216 Y11.822 Z0 F600
G1 X25.309 Y11.676 Z0 F600
G1 X25.416 Y11.367 Z0 F600
G1 X25.455 Y11.048 Z0 F600
G1 X25.45 Y10.727 Z0 F600
G1 X25.43 Y10.411 Z0 F600
G1 X25.418 Y10.11 Z0 F600
G1 Y9.842 Z0 F600
G1 X25.436 Y9.632 Z0 F600
G1 X25.467 Y9.502 Z0 F600
G1 X25.494 Y9.455 Z0 F600
G1 X25.551 Y9.438 Z0 F600
G1 X25.62 Y9.434 Z0 F600
G1 X25.725 Y9.445 Z0 F600
G1 X25.866 Y9.476 Z0 F600
; --- FIX Y Backlash ---
G0 X25.866 Y9.976 F410
G1 X26.043 Y10.032 Z0 F600
G1 X26.095 Y10.046 Z0 F600
G1 X26.147 Y10.051 Z0 F600
G1 X26.922 Y10.057 Z0 F600
G1 X27.784 Y10.042 Z0 F600
G1 X28.704 Y10.015 Z0 F600
G1 X29.654 Y9.98 Z0 F600
G1 X30.607 Y9.942 Z0 F600
G1 X31.534 Y9.908 Z0 F600
G1 X32.406 Y9.883 Z0 F600
G1 X33.196 Y9.872 Z0 F600
G1 X33.217 Y10.059 Z0 F600
G1 Y10.206 Z0 F600
; --- FIX X Backlash ---
G0 X32.517 Y10.206 F410
G1 X32.435 Y10.346 Z0 F600
G1 X32.285 Y10.452 Z0 F600
G1 X32.039 Y10.535 Z0 F600
G1 X31.708 Y10.583 Z0 F600
G1 X31.309 Y10.597 Z0 F600
G1 X30.863 Y10.579 Z0 F600
; --- FIX Y Backlash ---
G0 X30.863 Y10.079 F410
G1 X29.898 Y9.973 Z0 F600
G1 X28.933 Y9.844 Z0 F600
G1 X28.526 Y9.799 Z0 F600
G1 X28.152 Y9.777 Z0 F600
G1 X27.806 Y9.79 Z0 F600
; --- FIX Y Backlash ---
G0 X27.806 Y10.29 F410
G1 X27.488 Y10.352 Z0 F600
; --- FIX Y Backlash ---
G0 X27.488 Y9.852 F410
G1 X27.186 Y9.792 Z0 F600
G1 X26.897 Y9.76 Z0 F600
G1 X26.622 Y9.757 Z0 F600
G1 X26.364 Y9.785 Z0 F600
; --- FIX Y Backlash ---
G0 X26.364 Y10.285 F410
G1 X26.125 Y10.343 Z0 F600
G1 X25.905 Y10.433 Z0 F600
G1 X25.709 Y10.554 Z0 F600
G1 X25.537 Y10.708 Z0 F600
G1 X25.388 Y10.896 Z0 F600
G1 X25.273 Y11.106 Z0 F600
G1 X25.189 Y11.338 Z0 F600
G1 X25.136 Y11.588 Z0 F600
G1 X25.114 Y11.854 Z0 F600
G1 X25.121 Y12.136 Z0 F600
G1 X25.156 Y12.43 Z0 F600
; --- FIX X Backlash ---
G0 X25.856 Y12.43 F410
G1 X25.909 Y12.686 Z0 F600
G1 X25.88 Y16.336 Z0 F600
G1 X25.846 Y20.016 Z0 F600
; --- FIX X Backlash ---
G0 X25.146 Y20.016 F410
G1 X24.995 Y20.028 Z0 F600
G1 X24.873 Y20.034 Z0 F600
G1 X24.792 Y20.024 Z0 F600
; --- FIX Y Backlash ---
G0 X24.792 Y19.524 F410
G1 X24.777 Y19.429 Z0 F600
G1 X24.773 Y19.211 Z0 F600
G1 X24.779 Y18.899 Z0 F600
G1 X24.776 Y18.852 Z0 F600
G1 X24.73 Y18.631 Z0 F600
G1 X24.713 Y18.433 Z0 F600
G1 X24.71 Y18.213 Z0 F600
G1 X24.718 Y17.978 Z0 F600
; --- FIX X Backlash ---
G0 X25.418 Y17.978 F410
G1 X25.493 Y16.942 Z0 F600
G1 X25.503 Y16.677 Z0 F600
G1 X25.5 Y16.415 Z0 F600
G1 X25.475 Y16.155 Z0 F600
; --- FIX X Backlash ---
G0 X24.775 Y16.155 F410
G1 X24.722 Y15.901 Z0 F600
G1 X24.632 Y15.655 Z0 F600
G1 X24.496 Y15.425 Z0 F600
G1 X24.312 Y15.223 Z0 F600
G1 X24.078 Y15.06 Z0 F600
G1 X24.019 Y15.035 Z0 F600
G1 X23.957 Y15.022 Z0 F600
G1 X23.425 Y14.992 Z0 F600
G1 X22.944 Y15.004 Z0 F600
; --- FIX Y Backlash ---
G0 X22.944 Y15.504 F410
G1 X22.121 Y15.562 Z0 F600
G1 X21.83 Z0 F600
G1 X21.566 Y15.525 Z0 F600
; --- FIX Y Backlash ---
G0 X21.566 Y15.025 F410
G1 X21.321 Y14.953 Z0 F600
G1 X21.082 Y14.839 Z0 F600
G1 X21.13 Y14.611 Z0 F600
; --- FIX X Backlash ---
G0 X21.83 Y14.611 F410
G1 X21.891 Y14.472 Z0 F600
G1 X21.962 Y14.435 Z0 F600
G1 X22.066 Y14.41 Z0 F600
G1 X22.205 Y14.398 Z0 F600
G1 X22.377 Y14.403 Z0 F600
; --- FIX Y Backlash ---
G0 X22.377 Y14.903 F410
G1 X22.801 Y14.957 Z0 F600
G1 X23.297 Y15.023 Z0 F600
G1 X23.564 Y15.042 Z0 F600
G1 X23.84 Z0 F600
G1 X24.121 Y15.013 Z0 F600
; --- FIX Y Backlash ---
G0 X24.121 Y14.513 F410
G1 X24.412 Y14.449 Z0 F600
G1 X24.729 Y14.418 Z0 F600
G1 X24.999 Y14.343 Z0 F600
G1 X25.22 Y14.219 Z0 F600
G1 X25.385 Y14.042 Z0 F600
G1 X25.485 Y13.809 Z0 F600
G1 X25.501 Y13.566 Z0 F600
; --- FIX X Backlash ---
G0 X24.801 Y13.566 F410
G1 X24.749 Y13.328 Z0 F600
G1 X24.644 Y13.112 Z0 F600
;Layer C1 Pass 2 of 2
G0 Z3.5 F600
; --- FIX Y Backlash ---
G0 X24.644 Y13.612 F410
G0 X24.688 Y15.394 Z3.5
G1 Z0 F600
G1 X24.644 Y15.345 Z0 F600
; --- FIX Y Backlash ---
G0 X24.644 Y14.845 F410
G1 X24.547 Y14.777 Z0 F600
; --- FIX X Backlash ---
G0 X25.247 Y14.777 F410
G1 X25.389 Y14.697 Z0 F600
; --- FIX Y Backlash ---
G0 X25.389 Y15.197 F410
G1 Y15.394 Z0 F600
G0 Z3.5 F600
; --- FIX Y Backlash ---
G0 X25.389 Y14.894 F410
G0 X25.406 Y12.439 Z3.5
G1 Z0 F600
; --- FIX X Backlash ---
G0 X24.706 Y12.439 F410
G1 X24.645 Y12.383 Z0 F600
; --- FIX X Backlash ---
G0 X25.345 Y12.383 F410
G1 X25.407 Y12.341 Z0 F600
; --- FIX Y Backlash ---
G0 X25.407 Y12.841 F410
G1 Y12.939 Z0 F600
G0 Z3.5 F600
; --- FIX X Backlash ---
G0 X24.707 Y12.939 F410
G0 X24.644 Y13.612 Z3.5
G1 Z0 F600
; --- FIX Y Backlash ---
G0 X24.644 Y13.112 F410
G1 X24.505 Y12.931 Z0 F600
G1 X24.33 Y12.773 Z0 F600
G1 X24.126 Y12.644 Z0 F600
G1 X23.896 Y12.548 Z0 F600
G1 X23.646 Y12.492 Z0 F600
G1 X23.382 Y12.482 Z0 F600
G1 X23.108 Y12.523 Z0 F600
; --- FIX Y Backlash ---
G0 X23.108 Y13.023 F410
G1 X22.83 Y13.122 Z0 F600
G1 X22.416 Y13.074 Z0 F600
G1 X22.031 Y13.089 Z0 F600
G1 X21.691 Y13.133 Z0 F600
G1 X21.408 Y13.172 Z0 F600
G1 X21.288 Y13.18 Z0 F600
G1 X21.196 Y13.177 Z0 F600
G1 X21.13 Y13.165 Z0 F600
G1 X21.09 Y13.149 Z0 F600
G1 X21.063 Y13.122 Z0 F600
; --- FIX Y Backlash ---
G0 X21.063 Y12.622 F410
G1 X21.034 Y12.568 Z0 F600
G1 X21.006 Y12.485 Z0 F600
G1 X20.978 Y12.37 Z0 F600
G1 X21.002 Y12.228 Z0 F600
G1 X21.031 Y12.13 Z0 F600
G1 X21.066 Y12.069 Z0 F600
G1 X21.103 Y12.036 Z0 F600
; --- FIX X Backlash ---
G0 X21.803 Y12.036 F410
G1 X21.864 Y12.016 Z0 F600
G1 X21.96 Y12.004 Z0 F600
G1 X22.089 Z0 F600
G1 X22.249 Y12.018 Z0 F600
; --- FIX Y Backlash ---
G0 X22.249 Y12.518 F410
G1 X22.61 Y12.576 Z0 F600
G1 X23.03 Y12.634 Z0 F600
G1 X23.488 Y12.649 Z0 F600
; --- FIX Y Backlash ---
G0 X23.488 Y12.149 F410
G1 X23.967 Y12.075 Z0 F600
G1 X24.186 Y12.124 Z0 F600
G1 X24.392 Y12.151 Z0 F600
G1 X24.583 Z0 F600
G1 X24.762 Y12.124 Z0 F600
G1 X24.938 Y12.054 Z0 F600
G1 X25.091 Y11.951 Z0 F600
G1 X25.216 Y11.822 Z0 F600
G1 X25.309 Y11.676 Z0 F600
G1 X25.416 Y11.367 Z0 F600
G1 X25.455 Y11.048 Z0 F600
G1 X25.45 Y10.727 Z0 F600
G1 X25.43 Y10.411 Z0 F600
G1 X25.418 Y10.11 Z0 F600
G1 Y9.842 Z0 F600
G1 X25.436 Y9.632 Z0 F600
G1 X25.467 Y9.502 Z0 F600
G1 X25.494 Y9.455 Z0 F600
G1 X25.551 Y9.438 Z0 F600
G1 X25.62 Y9.434 Z0 F600
G1 X25.725 Y9.445 Z0 F600
G1 X25.866 Y9.476 Z0 F600
; --- FIX Y Backlash ---
G0 X25.866 Y9.976 F410
G1 X26.043 Y10.032 Z0 F600
G1 X26.095 Y10.046 Z0 F600
G1 X26.147 Y10.051 Z0 F600
G1 X26.922 Y10.057 Z0 F600
G1 X27.784 Y10.042 Z0 F600
G1 X28.704 Y10.015 Z0 F600
G1 X29.654 Y9.98 Z0 F600
G1 X30.607 Y9.942 Z0 F600
G1 X31.534 Y9.908 Z0 F600
G1 X32.406 Y9.883 Z0 F600
G1 X33.196 Y9.872 Z0 F600
G1 X33.217 Y10.059 Z0 F600
G1 Y10.206 Z0 F600
; --- FIX X Backlash ---
G0 X32.517 Y10.206 F410
G1 X32.435 Y10.346 Z0 F600
G1 X32.285 Y10.452 Z0 F600
G1 X32.039 Y10.535 Z0 F600
G1 X31.708 Y10.583 Z0 F600
G1 X31.309 Y10.597 Z0 F600
G1 X30.863 Y10.579 Z0 F600
; --- FIX Y Backlash ---
G0 X30.863 Y10.079 F410
G1 X29.898 Y9.973 Z0 F600
G1 X28.933 Y9.844 Z0 F600
G1 X28.526 Y9.799 Z0 F600
G1 X28.152 Y9.777 Z0 F600
G1 X27.806 Y9.79 Z0 F600
; --- FIX Y Backlash ---
G0 X27.806 Y10.29 F410
G1 X27.488 Y10.352 Z0 F600
; --- FIX Y Backlash ---
G0 X27.488 Y9.852 F410
G1 X27.186 Y9.792 Z0 F600
G1 X26.897 Y9.76 Z0 F600
G1 X26.622 Y9.757 Z0 F600
G1 X26.364 Y9.785 Z0 F600
; --- FIX Y Backlash ---
G0 X26.364 Y10.285 F410
G1 X26.125 Y10.343 Z0 F600
G1 X25.905 Y10.433 Z0 F600
G1 X25.709 Y10.554 Z0 F600
G1 X25.537 Y10.708 Z0 F600
G1 X25.388 Y10.896 Z0 F600
G1 X25.273 Y11.106 Z0 F600
G1 X25.189 Y11.338 Z0 F600
G1 X25.136 Y11.588 Z0 F600
G1 X25.114 Y11.854 Z0 F600
G1 X25.121 Y12.136 Z0 F600
G1 X25.156 Y12.43 Z0 F600
; --- FIX X Backlash ---
G0 X25.856 Y12.43 F410
G1 X25.909 Y12.686 Z0 F600
G1 X25.88 Y16.336 Z0 F600
G1 X25.846 Y20.016 Z0 F600
; --- FIX X Backlash ---
G0 X25.146 Y20.016 F410
G1 X24.995 Y20.028 Z0 F600
G1 X24.873 Y20.034 Z0 F600
G1 X24.792 Y20.024 Z0 F600
; --- FIX Y Backlash ---
G0 X24.792 Y19.524 F410
G1 X24.777 Y19.429 Z0 F600
G1 X24.773 Y19.211 Z0 F600
G1 X24.779 Y18.899 Z0 F600
G1 X24.776 Y18.852 Z0 F600
G1 X24.73 Y18.631 Z0 F600
G1 X24.713 Y18.433 Z0 F600
G1 X24.71 Y18.213 Z0 F600
G1 X24.718 Y17.978 Z0 F600
; --- FIX X Backlash ---
G0 X25.418 Y17.978 F410
G1 X25.493 Y16.942 Z0 F600
G1 X25.503 Y16.677 Z0 F600
G1 X25.5 Y16.415 Z0 F600
G1 X25.475 Y16.155 Z0 F600
; --- FIX X Backlash ---
G0 X24.775 Y16.155 F410
G1 X24.722 Y15.901 Z0 F600
G1 X24.632 Y15.655 Z0 F600
G1 X24.496 Y15.425 Z0 F600
G1 X24.312 Y15.223 Z0 F600
G1 X24.078 Y15.06 Z0 F600
G1 X24.019 Y15.035 Z0 F600
G1 X23.957 Y15.022 Z0 F600
G1 X23.425 Y14.992 Z0 F600
G1 X22.944 Y15.004 Z0 F600
; --- FIX Y Backlash ---
G0 X22.944 Y15.504 F410
G1 X22.121 Y15.562 Z0 F600
G1 X21.83 Z0 F600
G1 X21.566 Y15.525 Z0 F600
; --- FIX Y Backlash ---
G0 X21.566 Y15.025 F410
G1 X21.321 Y14.953 Z0 F600
G1 X21.082 Y14.839 Z0 F600
G1 X21.13 Y14.611 Z0 F600
; --- FIX X Backlash ---
G0 X21.83 Y14.611 F410
G1 X21.891 Y14.472 Z0 F600
G1 X21.962 Y14.435 Z0 F600
G1 X22.066 Y14.41 Z0 F600
G1 X22.205 Y14.398 Z0 F600
G1 X22.377 Y14.403 Z0 F600
; --- FIX Y Backlash ---
G0 X22.377 Y14.903 F410
G1 X22.801 Y14.957 Z0 F600
G1 X23.297 Y15.023 Z0 F600
G1 X23.564 Y15.042 Z0 F600
G1 X23.84 Z0 F600
G1 X24.121 Y15.013 Z0 F600
; --- FIX Y Backlash ---
G0 X24.121 Y14.513 F410
G1 X24.412 Y14.449 Z0 F600
G1 X24.729 Y14.418 Z0 F600
G1 X24.999 Y14.343 Z0 F600
G1 X25.22 Y14.219 Z0 F600
G1 X25.385 Y14.042 Z0 F600
G1 X25.485 Y13.809 Z0 F600
G1 X25.501 Y13.566 Z0 F600
; --- FIX X Backlash ---
G0 X24.801 Y13.566 F410
G1 X24.749 Y13.328 Z0 F600
G1 X24.644 Y13.112 Z0 F600
G0 Z3.5 F600
; --- FIX X Backlash ---
G0 X25.344 Y13.112 F410
; --- FIX Y Backlash ---
G0 X25.344 Y13.612 F410
G0 X30.682 Y17.442 Z3.5
G1 Z0 F600
;Layer C1 Pass 1 of 2
G1 X30.856 Y17.464 Z0 F600
G1 X30.901 Y18.108 Z0 F600
G1 X30.874 Y18.771 Z0 F600
; --- FIX X Backlash ---
G0 X30.174 Y18.771 F410
G1 X30.095 Y19.448 Z0 F600
G1 X29.992 Y20.136 Z0 F600
G1 X29.946 Y20.544 Z0 F600
G1 X29.912 Y20.954 Z0 F600
; --- FIX Y Backlash ---
G0 X29.912 Y20.454 F410
G1 X29.838 Y19.949 Z0 F600
G1 X29.768 Y19.447 Z0 F600
G1 X29.716 Y18.958 Z0 F600
G1 X29.693 Y18.491 Z0 F600
G1 X29.689 Y18.112 Z0 F600
G1 X29.681 Y17.743 Z0 F600
G1 X29.688 Y17.414 Z0 F600
G1 X29.724 Y17.155 Z0 F600
; --- FIX X Backlash ---
G0 X30.424 Y17.155 F410
G1 X30.484 Y17.005 Z0 F600
G1 X30.561 Y16.94 Z0 F600
G1 X30.682 Z0 F600
;Layer C1 Pass 2 of 2
G1 X30.856 Y16.964 Z0 F600
; --- FIX Y Backlash ---
G0 X30.856 Y17.464 F410
G1 X30.901 Y18.108 Z0 F600
G1 X30.874 Y18.771 Z0 F600
; --- FIX X Backlash ---
G0 X30.174 Y18.771 F410
G1 X30.095 Y19.448 Z0 F600
G1 X29.992 Y20.136 Z0 F600
G1 X29.946 Y20.544 Z0 F600
G1 X29.912 Y20.954 Z0 F600
; --- FIX Y Backlash ---
G0 X29.912 Y20.454 F410
G1 X29.838 Y19.949 Z0 F600
G1 X29.768 Y19.447 Z0 F600
G1 X29.716 Y18.958 Z0 F600
G1 X29.693 Y18.491 Z0 F600
G1 X29.689 Y18.112 Z0 F600
G1 X29.681 Y17.743 Z0 F600
G1 X29.688 Y17.414 Z0 F600
G1 X29.724 Y17.155 Z0 F600
; --- FIX X Backlash ---
G0 X30.424 Y17.155 F410
G1 X30.484 Y17.005 Z0 F600
G1 X30.561 Y16.94 Z0 F600
G1 X30.682 Z0 F600
G0 Z3.5 F600
G0 X37.7 Y14.603 Z3.5
G1 Z0 F600
;Layer C1 Pass 1 of 2
; --- FIX Y Backlash ---
G0 X37.7 Y15.103 F410
G1 X37.721 Y22.929 Z0 F600
; --- FIX X Backlash ---
G0 X37.021 Y22.929 F410
G1 X36.964 Y22.936 Z0 F600
; --- FIX Y Backlash ---
G0 X36.964 Y22.436 F410
G1 X36.977 Y22.05 Z0 F600
G1 X36.974 Y21.522 Z0 F600
G1 X36.937 Y20.946 Z0 F600
G1 X36.842 Y20.323 Z0 F600
G1 X36.664 Y19.656 Z0 F600
G1 X36.368 Y18.96 Z0 F600
G1 X35.953 Y18.313 Z0 F600
; --- FIX X Backlash ---
G0 X36.653 Y18.313 F410
G1 X36.952 Y18.014 Z0 F600
G1 X37.445 Y17.142 Z0 F600
G1 X37.674 Y16.229 Z0 F600
G1 X37.695 Y15.768 Z0 F600
; --- FIX X Backlash ---
G0 X36.995 Y15.768 F410
G1 X36.939 Y15.146 Z0 F600
G1 X36.931 Y14.735 Z0 F600
G1 Y14.603 Z0 F600
; --- FIX X Backlash ---
G0 X37.631 Y14.603 F410
G1 X37.7 Z0 F600
G0 Z3.5 F600
G0 X38.199 Y14.104 Z3.5
G1 Z0 F600
; --- FIX Y Backlash ---
G0 X38.199 Y14.604 F410
G1 X38.222 Y23.38 Z0 F600
; --- FIX X Backlash ---
G0 X37.522 Y23.38 F410
G1 X37.298 Y23.403 Z0 F600
G1 X36.434 Y23.495 Z0 F600
; --- FIX Y Backlash ---
G0 X36.434 Y22.995 F410
G1 X36.461 Y22.509 Z0 F600
G1 X36.477 Y22.042 Z0 F600
G1 X36.474 Y21.54 Z0 F600
G1 X36.439 Y21 Z0 F600
G1 X36.352 Y20.425 Z0 F600
G1 X36.191 Y19.819 Z0 F600
G1 X35.925 Y19.195 Z0 F600
G1 X35.533 Y18.583 Z0 F600
G1 X35.261 Y18.298 Z0 F600
; --- FIX X Backlash ---
G0 X35.961 Y18.298 F410
G1 X36.55 Y17.708 Z0 F600
G1 X36.977 Y16.955 Z0 F600
G1 X37.177 Y16.156 Z0 F600
G1 X37.194 Y15.779 Z0 F600
; --- FIX X Backlash ---
G0 X36.494 Y15.779 F410
G1 X36.439 Y15.172 Z0 F600
G1 X36.431 Y14.742 Z0 F600
G1 X36.425 Y14.166 Z0 F600
G1 Y14.122 Z0 F600
; --- FIX X Backlash ---
G0 X37.125 Y14.122 F410
G1 X37.521 Y14.103 Z0 F600
G1 X38.199 Z0 F600
G0 Z3.5 F600
G0 X38.698 Y13.605 Z3.5
G1 Z0 F600
; --- FIX Y Backlash ---
G0 X38.698 Y14.105 F410
G1 X38.724 Y23.832 Z0 F600
; --- FIX X Backlash ---
G0 X38.024 Y23.832 F410
G1 X37.349 Y23.9 Z0 F600
G1 X35.904 Y24.054 Z0 F600
; --- FIX Y Backlash ---
G0 X35.904 Y23.554 F410
G1 X35.92 Y23.231 Z0 F600
G1 X35.961 Y22.486 Z0 F600
G1 X35.977 Y22.035 Z0 F600
G1 Y21.557 Z0 F600
G1 X35.942 Y21.053 Z0 F600
G1 X35.862 Y20.527 Z0 F600
G1 X35.717 Y19.982 Z0 F600
G1 X35.481 Y19.43 Z0 F600
G1 X35.137 Y18.894 Z0 F600
G1 X34.614 Y18.344 Z0 F600
G1 X34.389 Y18.222 Z0 F600
; --- FIX X Backlash ---
G0 X35.089 Y18.222 F410
G1 X35.648 Y17.903 Z0 F600
G1 X36.149 Y17.403 Z0 F600
G1 X36.508 Y16.768 Z0 F600
G1 X36.679 Y16.083 Z0 F600
G1 X36.693 Y15.79 Z0 F600
; --- FIX X Backlash ---
G0 X35.993 Y15.79 F410
G1 X35.94 Y15.193 Z0 F600
G1 X35.931 Y14.747 Z0 F600
G1 X35.925 Y14.182 Z0 F600
G1 X35.895 Y13.646 Z0 F600
; --- FIX X Backlash ---
G0 X36.595 Y13.646 F410
G1 X36.657 Z0 F600
G1 X37.508 Y13.603 Z0 F600
G1 X38.224 Z0 F600
G1 X38.238 Z0 F600
G1 X38.698 Z0 F600
G0 Z3.5 F600
G0 X39.196 Y13.106 Z3.5
G1 Z0 F600
; --- FIX Y Backlash ---
G0 X39.196 Y13.606 F410
G1 X39.225 Y24.284 Z0 F600
; --- FIX X Backlash ---
G0 X38.525 Y24.284 F410
G1 X37.401 Y24.397 Z0 F600
G1 X35.877 Y24.561 Z0 F600
G1 X35.387 Y24.589 Z0 F600
; --- FIX Y Backlash ---
G0 X35.387 Y24.089 F410
G1 Y23.89 Z0 F600
G1 X35.421 Y23.204 Z0 F600
G1 X35.462 Y22.464 Z0 F600
G1 X35.477 Y22.028 Z0 F600
G1 Y21.575 Z0 F600
G1 X35.444 Y21.107 Z0 F600
G1 X35.372 Y20.63 Z0 F600
G1 X35.242 Y20.146 Z0 F600
G1 X35.038 Y19.664 Z0 F600
G1 X34.742 Y19.204 Z0 F600
G1 X34.306 Y18.746 Z0 F600
G1 X33.971 Y18.564 Z0 F600
G1 X33.628 Y18.485 Z0 F600
G1 X33.434 Y18.492 Z0 F600
G1 X33.204 Y18.444 Z0 F600
G1 X33.171 Z0 F600
G1 X33.18 Y18.201 Z0 F600
G1 X33.194 Y17.967 Z0 F600
; --- FIX X Backlash ---
G0 X33.894 Y17.967 F410
G1 X34.075 Y17.956 Z0 F600
G1 X34.448 Y17.897 Z0 F600
G1 X34.881 Y17.765 Z0 F600
G1 X35.342 Y17.502 Z0 F600
G1 X35.747 Y17.097 Z0 F600
G1 X36.04 Y16.581 Z0 F600
G1 X36.182 Y16.01 Z0 F600
G1 X36.192 Y15.8 Z0 F600
; --- FIX X Backlash ---
G0 X35.492 Y15.8 F410
G1 X35.441 Y15.227 Z0 F600
G1 X35.431 Y14.741 Z0 F600
G1 X35.425 Y14.198 Z0 F600
G1 X35.391 Y13.584 Z0 F600
G1 X35.31 Y13.139 Z0 F600
; --- FIX X Backlash ---
G0 X36.01 Y13.139 F410
G1 X36.146 Y13.147 Z0 F600
G1 X36.644 Z0 F600
G1 X37.494 Y13.103 Z0 F600
G1 X38.244 Z0 F600
G1 X38.258 Z0 F600
G1 X39.196 Y13.106 Z0 F600
G0 Z3.5 F600
G0 X39.695 Y12.606 Z3.5
G1 Z0 F600
; --- FIX Y Backlash ---
G0 X39.695 Y13.106 F410
G1 X39.725 Y24.522 Z0 F600
G1 X39.76 Y24.733 Z0 F600
G1 X39.731 Z0 F600
; --- FIX X Backlash ---
G0 X39.031 Y24.733 F410
G1 X37.453 Y24.895 Z0 F600
G1 X35.919 Y25.059 Z0 F600
G1 X34.894 Y25.12 Z0 F600
; --- FIX Y Backlash ---
G0 X34.894 Y24.62 F410
G1 X34.885 Y24.516 Z0 F600
G1 X34.888 Y23.875 Z0 F600
G1 X34.922 Y23.173 Z0 F600
G1 X34.962 Y22.441 Z0 F600
G1 X34.977 Y22.02 Z0 F600
G1 Y21.592 Z0 F600
G1 X34.946 Y21.161 Z0 F600
G1 X34.882 Y20.732 Z0 F600
G1 X34.769 Y20.309 Z0 F600
G1 X34.594 Y19.899 Z0 F600
G1 X34.347 Y19.514 Z0 F600
G1 X33.999 Y19.148 Z0 F600
G1 X33.793 Y19.036 Z0 F600
G1 X33.58 Y18.987 Z0 F600
G1 X33.38 Y18.994 Z0 F600
G1 X33.363 Y18.988 Z0 F600
G1 X33.149 Y18.943 Z0 F600
G1 X32.933 Y18.94 Z0 F600
; --- FIX Y Backlash ---
G0 X32.933 Y19.44 F410
G1 X32.661 Y19.513 Z0 F600
; --- FIX Y Backlash ---
G0 X32.661 Y19.013 F410
G1 Y18.857 Z0 F600
G1 X32.668 Y18.494 Z0 F600
G1 X32.681 Y18.171 Z0 F600
G1 X32.698 Y17.877 Z0 F600
G1 X32.72 Y17.601 Z0 F600
G1 Y17.487 Z0 F600
; --- FIX X Backlash ---
G0 X33.42 Y17.487 F410
G1 X33.5 Y17.483 Z0 F600
G1 X33.738 Y17.476 Z0 F600
G1 X34.02 Y17.458 Z0 F600
G1 X34.336 Y17.408 Z0 F600
G1 X34.682 Y17.303 Z0 F600
G1 X35.037 Y17.101 Z0 F600
G1 X35.346 Y16.792 Z0 F600
G1 X35.571 Y16.393 Z0 F600
G1 X35.685 Y15.937 Z0 F600
G1 X35.691 Y15.812 Z0 F600
; --- FIX X Backlash ---
G0 X34.991 Y15.812 F410
G1 X34.941 Y15.253 Z0 F600
G1 X34.931 Y14.751 Z0 F600
G1 X34.926 Y14.214 Z0 F600
G1 X34.894 Y13.643 Z0 F600
G1 X34.793 Y13.089 Z0 F600
G1 X34.585 Y12.551 Z0 F600
; --- FIX X Backlash ---
G0 X35.285 Y12.551 F410
; --- FIX Y Backlash ---
G0 X35.285 Y13.051 F410
G1 X35.675 Y13.117 Z0 F600
G1 X36.161 Y13.147 Z0 F600
G1 X36.63 Z0 F600
G1 X37.489 Y13.103 Z0 F600
G1 X38.264 Z0 F600
G1 X38.277 Z0 F600
G1 X39.695 Y13.106 Z0 F600
G0 Z3.5 F600
; --- FIX Y Backlash ---
G0 X39.695 Y12.606 F410
G0 X40.194 Y12.106 Z3.5
G1 Z0 F600
; --- FIX Y Backlash ---
G0 X40.194 Y12.606 F410
G1 X40.225 Y24.481 Z0 F600
G1 X40.242 Y24.583 Z0 F600
G1 X40.289 Y24.673 Z0 F600
G1 X40.361 Y24.744 Z0 F600
G1 X40.454 Y24.79 Z0 F600
G1 X41.068 Y24.947 Z0 F600
G1 X41.719 Y25.059 Z0 F600
G1 X42.392 Y25.125 Z0 F600
G1 X43.059 Y25.148 Z0 F600
; --- FIX X Backlash ---
G0 X42.359 Y25.148 F410
G1 X40.642 Y25.165 Z0 F600
G1 X39.067 Y25.234 Z0 F600
G1 X37.505 Y25.392 Z0 F600
G1 X35.96 Y25.557 Z0 F600
G1 X34.437 Y25.647 Z0 F600
; --- FIX Y Backlash ---
G0 X34.437 Y25.147 F410
G1 X34.385 Y24.533 Z0 F600
G1 X34.388 Y23.86 Z0 F600
G1 X34.423 Y23.149 Z0 F600
G1 X34.463 Y22.419 Z0 F600
G1 X34.477 Y22.013 Z0 F600
G1 Y21.61 Z0 F600
G1 X34.449 Y21.215 Z0 F600
G1 X34.391 Y20.834 Z0 F600
G1 X34.295 Y20.472 Z0 F600
G1 X34.151 Y20.133 Z0 F600
G1 X33.952 Y19.824 Z0 F600
G1 X33.691 Y19.55 Z0 F600
G1 X33.614 Y19.508 Z0 F600
G1 X33.531 Y19.489 Z0 F600
G1 X33.446 Y19.492 Z0 F600
G1 X33.363 Y19.519 Z0 F600
G1 X33.308 Y19.501 Z0 F600
G1 X33.224 Y19.47 Z0 F600
G1 X33.093 Y19.442 Z0 F600
G1 X32.995 Z0 F600
G1 X32.873 Y19.474 Z0 F600
; --- FIX Y Backlash ---
G0 X32.873 Y19.974 F410
G1 X32.752 Y20.061 Z0 F600
G1 X32.672 Y20.179 Z0 F600
G1 X32.56 Y20.425 Z0 F600
G1 X32.457 Y20.63 Z0 F600
G1 X32.365 Y20.795 Z0 F600
G1 X32.285 Y20.921 Z0 F600
; --- FIX Y Backlash ---
G0 X32.285 Y20.421 F410
G1 X32.254 Y20.324 Z0 F600
G1 X32.226 Y20.2 Z0 F600
G1 X32.192 Y19.908 Z0 F600
G1 X32.171 Y19.575 Z0 F600
G1 X32.161 Y19.216 Z0 F600
G1 Y18.847 Z0 F600
G1 X32.168 Y18.484 Z0 F600
G1 X32.182 Y18.142 Z0 F600
G1 X32.2 Y17.836 Z0 F600
G1 X32.22 Y17.583 Z0 F600
G1 Y17.52 Z0 F600
G1 X32.207 Y17.458 Z0 F600
G1 X32.175 Y17.333 Z0 F600
G1 X32.158 Y17.235 Z0 F600
G1 X32.154 Y17.162 Z0 F600
G1 X32.158 Y17.114 Z0 F600
G1 X32.167 Y17.077 Z0 F600
G1 X32.187 Y17.063 Z0 F600
; --- FIX X Backlash ---
G0 X32.887 Y17.063 F410
G1 X32.957 Y17.039 Z0 F600
G1 X33.087 Y17.015 Z0 F600
G1 X33.266 Y16.995 Z0 F600
G1 X33.479 Y16.983 Z0 F600
G1 X33.715 Y16.977 Z0 F600
G1 X33.965 Y16.96 Z0 F600
G1 X34.224 Y16.92 Z0 F600
G1 X34.483 Y16.841 Z0 F600
G1 X34.73 Y16.7 Z0 F600
G1 X34.944 Y16.486 Z0 F600
G1 X35.103 Y16.206 Z0 F600
G1 X35.188 Y15.864 Z0 F600
G1 Y15.822 Z0 F600
G1 X35.141 Y15.28 Z0 F600
G1 X35.131 Y14.761 Z0 F600
G1 X35.126 Y14.231 Z0 F600
G1 X35.096 Y13.702 Z0 F600
; --- FIX X Backlash ---
G0 X34.396 Y13.702 F410
G1 X34.309 Y13.226 Z0 F600
G1 X34.133 Y12.77 Z0 F600
G1 X34.006 Y12.556 Z0 F600
G1 X33.85 Y12.355 Z0 F600
G1 X33.663 Y12.17 Z0 F600
G1 X33.443 Y12.003 Z0 F600
G1 X33.449 Y11.962 Z0 F600
G1 X33.467 Y11.899 Z0 F600
G1 X33.503 Y11.809 Z0 F600
; --- FIX X Backlash ---
G0 X34.203 Y11.809 F410
G1 X34.266 Y11.685 Z0 F600
G1 X34.281 Y11.62 Z0 F600
G1 X34.295 Y11.488 Z0 F600
G1 X34.31 Y11.296 Z0 F600
G1 X34.324 Y11.057 Z0 F600
G1 X34.352 Y10.469 Z0 F600
G1 X34.406 Y9.131 Z0 F600
G1 X34.434 Y8.536 Z0 F600
G1 X34.447 Y8.29 Z0 F600
G1 X34.461 Y8.092 Z0 F600
G1 X34.475 Y7.952 Z0 F600
G1 X34.489 Y7.878 Z0 F600
; --- FIX Y Backlash ---
G0 X34.489 Y8.378 F410
G1 X34.496 Y8.454 Z0 F600
G1 X34.503 Y8.596 Z0 F600
G1 X34.519 Y9.042 Z0 F600
G1 X34.558 Y10.315 Z0 F600
G1 X34.581 Y10.989 Z0 F600
G1 X34.607 Y11.586 Z0 F600
G1 X34.621 Y11.832 Z0 F600
G1 X34.636 Y12.03 Z0 F600
G1 X34.652 Y12.171 Z0 F600
G1 X34.668 Y12.245 Z0 F600
G1 X34.742 Y12.347 Z0 F600
G1 X34.848 Y12.413 Z0 F600
G1 X35.289 Y12.545 Z0 F600
G1 X35.732 Y12.619 Z0 F600
G1 X36.176 Y12.647 Z0 F600
G1 X36.616 Z0 F600
G1 X37.475 Y12.603 Z0 F600
G1 X38.284 Z0 F600
G1 X38.296 Z0 F600
G1 X40.194 Y12.606 Z0 F600
G0 Z3.5 F600
G0 X46.979 Y20.667 Z3.5
G1 Z0 F600
G1 Y25.609 Z0 F600
; --- FIX X Backlash ---
G0 X46.279 Y25.609 F410
; --- FIX Y Backlash ---
G0 X46.279 Y25.109 F410
G1 X46.173 Y25.008 Z0 F600
G1 X46.019 Y24.818 Z0 F600
G1 X45.96 Y24.727 Z0 F600
; --- FIX X Backlash ---
G0 X46.66 Y24.727 F410
G1 X46.721 Y24.64 Z0 F600
G1 X46.825 Y24.333 Z0 F600
G1 X46.917 Y23.694 Z0 F600
G1 X46.963 Y23.121 Z0 F600
G1 X46.979 Y22.565 Z0 F600
G1 X46.976 Y22.028 Z0 F600
G1 X46.951 Y21.03 Z0 F600
G1 X46.957 Y20.167 Z0 F600
G1 X46.979 Z0 F600
G0 Z3.5 F600
G0 X47.479 Y19.667 Z3.5
G1 Z0 F600
; --- FIX Y Backlash ---
G0 X47.479 Y20.167 F410
G1 Y26.279 Z0 F600
; --- FIX X Backlash ---
G0 X46.779 Y26.279 F410
G1 X46.582 Y26.304 Z0 F600
G1 X46.41 Y26.275 Z0 F600
; --- FIX Y Backlash ---
G0 X46.41 Y25.775 F410
G1 X46.221 Y25.692 Z0 F600
G1 X46.013 Y25.547 Z0 F600
G1 X45.805 Y25.348 Z0 F600
G1 X45.614 Y25.111 Z0 F600
G1 X45.452 Y24.862 Z0 F600
G1 X45.355 Y24.67 Z0 F600
; --- FIX X Backlash ---
G0 X46.055 Y24.67 F410
G1 X46.139 Y24.602 Z0 F600
G1 X46.27 Y24.413 Z0 F600
G1 X46.336 Y24.215 Z0 F600
G1 X46.42 Y23.639 Z0 F600
G1 X46.463 Y23.094 Z0 F600
G1 X46.479 Y22.56 Z0 F600
G1 X46.476 Y22.035 Z0 F600
G1 X46.451 Y21.021 Z0 F600
G1 X46.458 Y20.042 Z0 F600
G1 X46.454 Y19.762 Z0 F600
G1 X46.451 Y19.667 Z0 F600
G1 X47.479 Z0 F600
G0 Z3.5 F600
G0 X47.979 Y19.167 Z3.5
G1 Z0 F600
; --- FIX Y Backlash ---
G0 X47.979 Y19.667 F410
G1 Y26.757 Z0 F600
; --- FIX X Backlash ---
G0 X47.279 Y26.757 F410
G1 X46.978 Z0 F600
G1 X46.936 Y26.76 Z0 F600
G1 X46.894 Y26.769 Z0 F600
G1 X46.572 Y26.809 Z0 F600
; --- FIX Y Backlash ---
G0 X46.572 Y26.309 F410
G1 X46.266 Y26.258 Z0 F600
G1 X45.974 Y26.13 Z0 F600
G1 X45.695 Y25.935 Z0 F600
G1 X45.436 Y25.686 Z0 F600
G1 X45.208 Y25.405 Z0 F600
G1 X45.021 Y25.116 Z0 F600
G1 X44.881 Y24.841 Z0 F600
G1 X44.832 Y24.762 Z0 F600
G1 X44.764 Y24.702 Z0 F600
G1 X44.683 Y24.663 Z0 F600
G1 X44.592 Y24.647 Z0 F600
G1 X42.609 Z0 F600
G1 X42.416 Z0 F600
; --- FIX X Backlash ---
G0 X43.116 Y24.647 F410
G1 X43.751 Y24.632 Z0 F600
G1 X44.409 Y24.576 Z0 F600
G1 X45.035 Y24.482 Z0 F600
G1 X45.614 Y24.353 Z0 F600
G1 X45.698 Y24.316 Z0 F600
G1 X45.768 Y24.259 Z0 F600
G1 X45.819 Y24.186 Z0 F600
G1 X45.848 Y24.099 Z0 F600
G1 X45.923 Y23.583 Z0 F600
G1 X45.964 Y23.067 Z0 F600
G1 X45.979 Y22.554 Z0 F600
G1 X45.976 Y22.042 Z0 F600
G1 X45.951 Y21.033 Z0 F600
G1 X45.958 Y20.043 Z0 F600
G1 X45.954 Y19.774 Z0 F600
G1 X45.946 Y19.526 Z0 F600
G1 X45.943 Y19.316 Z0 F600
G1 X45.958 Y19.169 Z0 F600
G1 X45.975 Y19.114 Z0 F600
G1 X45.99 Y19.111 Z0 F600
G1 X46.037 Z0 F600
G1 X46.12 Y19.12 Z0 F600
G1 X46.291 Y19.163 Z0 F600
G1 X46.34 Y19.167 Z0 F600
G1 X47.979 Z0 F600
;Layer C1 Pass 2 of 2
G0 Z3.5 F600
; --- FIX X Backlash ---
G0 X47.279 Y19.167 F410
G0 X37 Y14.603 Z3.5
G1 Z0 F600
; --- FIX Y Backlash ---
G0 X37 Y15.103 F410
G1 X37.021 Y22.929 Z0 F600
G1 X36.964 Y22.936 Z0 F600
; --- FIX Y Backlash ---
G0 X36.964 Y22.436 F410
G1 X36.977 Y22.05 Z0 F600
G1 X36.974 Y21.522 Z0 F600
G1 X36.937 Y20.946 Z0 F600
G1 X36.842 Y20.323 Z0 F600
G1 X36.664 Y19.656 Z0 F600
G1 X36.368 Y18.96 Z0 F600
G1 X35.953 Y18.313 Z0 F600
; --- FIX X Backlash ---
G0 X36.653 Y18.313 F410
G1 X36.952 Y18.014 Z0 F600
G1 X37.445 Y17.142 Z0 F600
G1 X37.674 Y16.229 Z0 F600
G1 X37.695 Y15.768 Z0 F600
; --- FIX X Backlash ---
G0 X36.995 Y15.768 F410
G1 X36.939 Y15.146 Z0 F600
G1 X36.931 Y14.735 Z0 F600
G1 Y14.603 Z0 F600
; --- FIX X Backlash ---
G0 X37.631 Y14.603 F410
G1 X37.7 Z0 F600
G0 Z3.5 F600
G0 X38.199 Y14.104 Z3.5
G1 Z0 F600
; --- FIX Y Backlash ---
G0 X38.199 Y14.604 F410
G1 X38.222 Y23.38 Z0 F600
; --- FIX X Backlash ---
G0 X37.522 Y23.38 F410
G1 X37.298 Y23.403 Z0 F600
G1 X36.434 Y23.495 Z0 F600
; --- FIX Y Backlash ---
G0 X36.434 Y22.995 F410
G1 X36.461 Y22.509 Z0 F600
G1 X36.477 Y22.042 Z0 F600
G1 X36.474 Y21.54 Z0 F600
G1 X36.439 Y21 Z0 F600
G1 X36.352 Y20.425 Z0 F600
G1 X36.191 Y19.819 Z0 F600
G1 X35.925 Y19.195 Z0 F600
G1 X35.533 Y18.583 Z0 F600
G1 X35.261 Y18.298 Z0 F600
; --- FIX X Backlash ---
G0 X35.961 Y18.298 F410
G1 X36.55 Y17.708 Z0 F600
G1 X36.977 Y16.955 Z0 F600
G1 X37.177 Y16.156 Z0 F600
G1 X37.194 Y15.779 Z0 F600
; --- FIX X Backlash ---
G0 X36.494 Y15.779 F410
G1 X36.439 Y15.172 Z0 F600
G1 X36.431 Y14.742 Z0 F600
G1 X36.425 Y14.166 Z0 F600
G1 Y14.122 Z0 F600
; --- FIX X Backlash ---
G0 X37.125 Y14.122 F410
G1 X37.521 Y14.103 Z0 F600
G1 X38.199 Z0 F600
G0 Z3.5 F600
G0 X38.698 Y13.605 Z3.5
G1 Z0 F600
; --- FIX Y Backlash ---
G0 X38.698 Y14.105 F410
G1 X38.724 Y23.832 Z0 F600
; --- FIX X Backlash ---
G0 X38.024 Y23.832 F410
G1 X37.349 Y23.9 Z0 F600
G1 X35.904 Y24.054 Z0 F600
; --- FIX Y Backlash ---
G0 X35.904 Y23.554 F410
G1 X35.92 Y23.231 Z0 F600
G1 X35.961 Y22.486 Z0 F600
G1 X35.977 Y22.035 Z0 F600
G1 Y21.557 Z0 F600
G1 X35.942 Y21.053 Z0 F600
G1 X35.862 Y20.527 Z0 F600
G1 X35.717 Y19.982 Z0 F600
G1 X35.481 Y19.43 Z0 F600
G1 X35.137 Y18.894 Z0 F600
G1 X34.614 Y18.344 Z0 F600
G1 X34.389 Y18.222 Z0 F600
; --- FIX X Backlash ---
G0 X35.089 Y18.222 F410
G1 X35.648 Y17.903 Z0 F600
G1 X36.149 Y17.403 Z0 F600
G1 X36.508 Y16.768 Z0 F600
G1 X36.679 Y16.083 Z0 F600
G1 X36.693 Y15.79 Z0 F600
; --- FIX X Backlash ---
G0 X35.993 Y15.79 F410
G1 X35.94 Y15.193 Z0 F600
G1 X35.931 Y14.747 Z0 F600
G1 X35.925 Y14.182 Z0 F600
G1 X35.895 Y13.646 Z0 F600
; --- FIX X Backlash ---
G0 X36.595 Y13.646 F410
G1 X36.657 Z0 F600
G1 X37.508 Y13.603 Z0 F600
G1 X38.224 Z0 F600
G1 X38.238 Z0 F600
G1 X38.698 Z0 F600
G0 Z3.5 F600
G0 X39.196 Y13.106 Z3.5
G1 Z0 F600
; --- FIX Y Backlash ---
G0 X39.196 Y13.606 F410
G1 X39.225 Y24.284 Z0 F600
; --- FIX X Backlash ---
G0 X38.525 Y24.284 F410
G1 X37.401 Y24.397 Z0 F600
G1 X35.877 Y24.561 Z0 F600
G1 X35.387 Y24.589 Z0 F600
; --- FIX Y Backlash ---
G0 X35.387 Y24.089 F410
G1 Y23.89 Z0 F600
G1 X35.421 Y23.204 Z0 F600
G1 X35.462 Y22.464 Z0 F600
G1 X35.477 Y22.028 Z0 F600
G1 Y21.575 Z0 F600
G1 X35.444 Y21.107 Z0 F600
G1 X35.372 Y20.63 Z0 F600
G1 X35.242 Y20.146 Z0 F600
G1 X35.038 Y19.664 Z0 F600
G1 X34.742 Y19.204 Z0 F600
G1 X34.306 Y18.746 Z0 F600
G1 X33.971 Y18.564 Z0 F600
G1 X33.628 Y18.485 Z0 F600
G1 X33.434 Y18.492 Z0 F600
G1 X33.204 Y18.444 Z0 F600
G1 X33.171 Z0 F600
G1 X33.18 Y18.201 Z0 F600
G1 X33.194 Y17.967 Z0 F600
; --- FIX X Backlash ---
G0 X33.894 Y17.967 F410
G1 X34.075 Y17.956 Z0 F600
G1 X34.448 Y17.897 Z0 F600
G1 X34.881 Y17.765 Z0 F600
G1 X35.342 Y17.502 Z0 F600
G1 X35.747 Y17.097 Z0 F600
G1 X36.04 Y16.581 Z0 F600
G1 X36.182 Y16.01 Z0 F600
G1 X36.192 Y15.8 Z0 F600
; --- FIX X Backlash ---
G0 X35.492 Y15.8 F410
G1 X35.441 Y15.227 Z0 F600
G1 X35.431 Y14.741 Z0 F600
G1 X35.425 Y14.198 Z0 F600
G1 X35.391 Y13.584 Z0 F600
G1 X35.31 Y13.139 Z0 F600
; --- FIX X Backlash ---
G0 X36.01 Y13.139 F410
G1 X36.146 Y13.147 Z0 F600
G1 X36.644 Z0 F600
G1 X37.494 Y13.103 Z0 F600
G1 X38.244 Z0 F600
G1 X38.258 Z0 F600
G1 X39.196 Y13.106 Z0 F600
G0 Z3.5 F600
G0 X39.695 Y12.606 Z3.5
G1 Z0 F600
; --- FIX Y Backlash ---
G0 X39.695 Y13.106 F410
G1 X39.725 Y24.522 Z0 F600
G1 X39.76 Y24.733 Z0 F600
G1 X39.731 Z0 F600
; --- FIX X Backlash ---
G0 X39.031 Y24.733 F410
G1 X37.453 Y24.895 Z0 F600
G1 X35.919 Y25.059 Z0 F600
G1 X34.894 Y25.12 Z0 F600
; --- FIX Y Backlash ---
G0 X34.894 Y24.62 F410
G1 X34.885 Y24.516 Z0 F600
G1 X34.888 Y23.875 Z0 F600
G1 X34.922 Y23.173 Z0 F600
G1 X34.962 Y22.441 Z0 F600
G1 X34.977 Y22.02 Z0 F600
G1 Y21.592 Z0 F600
G1 X34.946 Y21.161 Z0 F600
G1 X34.882 Y20.732 Z0 F600
G1 X34.769 Y20.309 Z0 F600
G1 X34.594 Y19.899 Z0 F600
G1 X34.347 Y19.514 Z0 F600
G1 X33.999 Y19.148 Z0 F600
G1 X33.793 Y19.036 Z0 F600
G1 X33.58 Y18.987 Z0 F600
G1 X33.38 Y18.994 Z0 F600
G1 X33.363 Y18.988 Z0 F600
G1 X33.149 Y18.943 Z0 F600
G1 X32.933 Y18.94 Z0 F600
; --- FIX Y Backlash ---
G0 X32.933 Y19.44 F410
G1 X32.661 Y19.513 Z0 F600
; --- FIX Y Backlash ---
G0 X32.661 Y19.013 F410
G1 Y18.857 Z0 F600
G1 X32.668 Y18.494 Z0 F600
G1 X32.681 Y18.171 Z0 F600
G1 X32.698 Y17.877 Z0 F600
G1 X32.72 Y17.601 Z0 F600
G1 Y17.487 Z0 F600
; --- FIX X Backlash ---
G0 X33.42 Y17.487 F410
G1 X33.5 Y17.483 Z0 F600
G1 X33.738 Y17.476 Z0 F600
G1 X34.02 Y17.458 Z0 F600
G1 X34.336 Y17.408 Z0 F600
G1 X34.682 Y17.303 Z0 F600
G1 X35.037 Y17.101 Z0 F600
G1 X35.346 Y16.792 Z0 F600
G1 X35.571 Y16.393 Z0 F600
G1 X35.685 Y15.937 Z0 F600
G1 X35.691 Y15.812 Z0 F600
; --- FIX X Backlash ---
G0 X34.991 Y15.812 F410
G1 X34.941 Y15.253 Z0 F600
G1 X34.931 Y14.751 Z0 F600
G1 X34.926 Y14.214 Z0 F600
G1 X34.894 Y13.643 Z0 F600
G1 X34.793 Y13.089 Z0 F600
G1 X34.585 Y12.551 Z0 F600
; --- FIX X Backlash ---
G0 X35.285 Y12.551 F410
; --- FIX Y Backlash ---
G0 X35.285 Y13.051 F410
G1 X35.675 Y13.117 Z0 F600
G1 X36.161 Y13.147 Z0 F600
G1 X36.63 Z0 F600
G1 X37.489 Y13.103 Z0 F600
G1 X38.264 Z0 F600
G1 X38.277 Z0 F600
G1 X39.695 Y13.106 Z0 F600
G0 Z3.5 F600
; --- FIX Y Backlash ---
G0 X39.695 Y12.606 F410
G0 X40.194 Y12.106 Z3.5
G1 Z0 F600
; --- FIX Y Backlash ---
G0 X40.194 Y12.606 F410
G1 X40.225 Y24.481 Z0 F600
G1 X40.242 Y24.583 Z0 F600
G1 X40.289 Y24.673 Z0 F600
G1 X40.361 Y24.744 Z0 F600
G1 X40.454 Y24.79 Z0 F600
G1 X41.068 Y24.947 Z0 F600
G1 X41.719 Y25.059 Z0 F600
G1 X42.392 Y25.125 Z0 F600
G1 X43.059 Y25.148 Z0 F600
; --- FIX X Backlash ---
G0 X42.359 Y25.148 F410
G1 X40.642 Y25.165 Z0 F600
G1 X39.067 Y25.234 Z0 F600
G1 X37.505 Y25.392 Z0 F600
G1 X35.96 Y25.557 Z0 F600
G1 X34.437 Y25.647 Z0 F600
; --- FIX Y Backlash ---
G0 X34.437 Y25.147 F410
G1 X34.385 Y24.533 Z0 F600
G1 X34.388 Y23.86 Z0 F600
G1 X34.423 Y23.149 Z0 F600
G1 X34.463 Y22.419 Z0 F600
G1 X34.477 Y22.013 Z0 F600
G1 Y21.61 Z0 F600
G1 X34.449 Y21.215 Z0 F600
G1 X34.391 Y20.834 Z0 F600
G1 X34.295 Y20.472 Z0 F600
G1 X34.151 Y20.133 Z0 F600
G1 X33.952 Y19.824 Z0 F600
G1 X33.691 Y19.55 Z0 F600
G1 X33.614 Y19.508 Z0 F600
G1 X33.531 Y19.489 Z0 F600
G1 X33.446 Y19.492 Z0 F600
G1 X33.363 Y19.519 Z0 F600
G1 X33.308 Y19.501 Z0 F600
G1 X33.224 Y19.47 Z0 F600
G1 X33.093 Y19.442 Z0 F600
G1 X32.995 Z0 F600
G1 X32.873 Y19.474 Z0 F600
; --- FIX Y Backlash ---
G0 X32.873 Y19.974 F410
G1 X32.752 Y20.061 Z0 F600
G1 X32.672 Y20.179 Z0 F600
G1 X32.56 Y20.425 Z0 F600
G1 X32.457 Y20.63 Z0 F600
G1 X32.365 Y20.795 Z0 F600
G1 X32.285 Y20.921 Z0 F600
; --- FIX Y Backlash ---
G0 X32.285 Y20.421 F410
G1 X32.254 Y20.324 Z0 F600
G1 X32.226 Y20.2 Z0 F600
G1 X32.192 Y19.908 Z0 F600
G1 X32.171 Y19.575 Z0 F600
G1 X32.161 Y19.216 Z0 F600
G1 Y18.847 Z0 F600
G1 X32.168 Y18.484 Z0 F600
G1 X32.182 Y18.142 Z0 F600
G1 X32.2 Y17.836 Z0 F600
G1 X32.22 Y17.583 Z0 F600
G1 Y17.52 Z0 F600
G1 X32.207 Y17.458 Z0 F600
G1 X32.175 Y17.333 Z0 F600
G1 X32.158 Y17.235 Z0 F600
G1 X32.154 Y17.162 Z0 F600
G1 X32.158 Y17.114 Z0 F600
G1 X32.167 Y17.077 Z0 F600
G1 X32.187 Y17.063 Z0 F600
; --- FIX X Backlash ---
G0 X32.887 Y17.063 F410
G1 X32.957 Y17.039 Z0 F600
G1 X33.087 Y17.015 Z0 F600
G1 X33.266 Y16.995 Z0 F600
G1 X33.479 Y16.983 Z0 F600
G1 X33.715 Y16.977 Z0 F600
G1 X33.965 Y16.96 Z0 F600
G1 X34.224 Y16.92 Z0 F600
G1 X34.483 Y16.841 Z0 F600
G1 X34.73 Y16.7 Z0 F600
G1 X34.944 Y16.486 Z0 F600
G1 X35.103 Y16.206 Z0 F600
G1 X35.188 Y15.864 Z0 F600
G1 Y15.822 Z0 F600
G1 X35.141 Y15.28 Z0 F600
G1 X35.131 Y14.761 Z0 F600
G1 X35.126 Y14.231 Z0 F600
G1 X35.096 Y13.702 Z0 F600
; --- FIX X Backlash ---
G0 X34.396 Y13.702 F410
G1 X34.309 Y13.226 Z0 F600
G1 X34.133 Y12.77 Z0 F600
G1 X34.006 Y12.556 Z0 F600
G1 X33.85 Y12.355 Z0 F600
G1 X33.663 Y12.17 Z0 F600
G1 X33.443 Y12.003 Z0 F600
G1 X33.449 Y11.962 Z0 F600
G1 X33.467 Y11.899 Z0 F600
G1 X33.503 Y11.809 Z0 F600
; --- FIX X Backlash ---
G0 X34.203 Y11.809 F410
G1 X34.266 Y11.685 Z0 F600
G1 X34.281 Y11.62 Z0 F600
G1 X34.295 Y11.488 Z0 F600
G1 X34.31 Y11.296 Z0 F600
G1 X34.324 Y11.057 Z0 F600
G1 X34.352 Y10.469 Z0 F600
G1 X34.406 Y9.131 Z0 F600
G1 X34.434 Y8.536 Z0 F600
G1 X34.447 Y8.29 Z0 F600
G1 X34.461 Y8.092 Z0 F600
G1 X34.475 Y7.952 Z0 F600
G1 X34.489 Y7.878 Z0 F600
; --- FIX Y Backlash ---
G0 X34.489 Y8.378 F410
G1 X34.496 Y8.454 Z0 F600
G1 X34.503 Y8.596 Z0 F600
G1 X34.519 Y9.042 Z0 F600
G1 X34.558 Y10.315 Z0 F600
G1 X34.581 Y10.989 Z0 F600
G1 X34.607 Y11.586 Z0 F600
G1 X34.621 Y11.832 Z0 F600
G1 X34.636 Y12.03 Z0 F600
G1 X34.652 Y12.171 Z0 F600
G1 X34.668 Y12.245 Z0 F600
G1 X34.742 Y12.347 Z0 F600
G1 X34.848 Y12.413 Z0 F600
G1 X35.289 Y12.545 Z0 F600
G1 X35.732 Y12.619 Z0 F600
G1 X36.176 Y12.647 Z0 F600
G1 X36.616 Z0 F600
G1 X37.475 Y12.603 Z0 F600
G1 X38.284 Z0 F600
G1 X38.296 Z0 F600
G1 X40.194 Y12.606 Z0 F600
G0 Z3.5 F600
G0 X46.979 Y20.667 Z3.5
G1 Z0 F600
G1 Y25.609 Z0 F600
; --- FIX X Backlash ---
G0 X46.279 Y25.609 F410
; --- FIX Y Backlash ---
G0 X46.279 Y25.109 F410
G1 X46.173 Y25.008 Z0 F600
G1 X46.019 Y24.818 Z0 F600
G1 X45.96 Y24.727 Z0 F600
; --- FIX X Backlash ---
G0 X46.66 Y24.727 F410
G1 X46.721 Y24.64 Z0 F600
G1 X46.825 Y24.333 Z0 F600
G1 X46.917 Y23.694 Z0 F600
G1 X46.963 Y23.121 Z0 F600
G1 X46.979 Y22.565 Z0 F600
G1 X46.976 Y22.028 Z0 F600
G1 X46.951 Y21.03 Z0 F600
G1 X46.957 Y20.167 Z0 F600
G1 X46.979 Z0 F600
G0 Z3.5 F600
G0 X47.479 Y19.667 Z3.5
G1 Z0 F600
; --- FIX Y Backlash ---
G0 X47.479 Y20.167 F410
G1 Y26.279 Z0 F600
; --- FIX X Backlash ---
G0 X46.779 Y26.279 F410
G1 X46.582 Y26.304 Z0 F600
G1 X46.41 Y26.275 Z0 F600
; --- FIX Y Backlash ---
G0 X46.41 Y25.775 F410
G1 X46.221 Y25.692 Z0 F600
G1 X46.013 Y25.547 Z0 F600
G1 X45.805 Y25.348 Z0 F600
G1 X45.614 Y25.111 Z0 F600
G1 X45.452 Y24.862 Z0 F600
G1 X45.355 Y24.67 Z0 F600
; --- FIX X Backlash ---
G0 X46.055 Y24.67 F410
G1 X46.139 Y24.602 Z0 F600
G1 X46.27 Y24.413 Z0 F600
G1 X46.336 Y24.215 Z0 F600
G1 X46.42 Y23.639 Z0 F600
G1 X46.463 Y23.094 Z0 F600
G1 X46.479 Y22.56 Z0 F600
G1 X46.476 Y22.035 Z0 F600
G1 X46.451 Y21.021 Z0 F600
G1 X46.458 Y20.042 Z0 F600
G1 X46.454 Y19.762 Z0 F600
G1 X46.451 Y19.667 Z0 F600
G1 X47.479 Z0 F600
G0 Z3.5 F600
G0 X47.979 Y19.167 Z3.5
G1 Z0 F600
; --- FIX Y Backlash ---
G0 X47.979 Y19.667 F410
G1 Y26.757 Z0 F600
; --- FIX X Backlash ---
G0 X47.279 Y26.757 F410
G1 X46.978 Z0 F600
G1 X46.936 Y26.76 Z0 F600
G1 X46.894 Y26.769 Z0 F600
G1 X46.572 Y26.809 Z0 F600
; --- FIX Y Backlash ---
G0 X46.572 Y26.309 F410
G1 X46.266 Y26.258 Z0 F600
G1 X45.974 Y26.13 Z0 F600
G1 X45.695 Y25.935 Z0 F600
G1 X45.436 Y25.686 Z0 F600
G1 X45.208 Y25.405 Z0 F600
G1 X45.021 Y25.116 Z0 F600
G1 X44.881 Y24.841 Z0 F600
G1 X44.832 Y24.762 Z0 F600
G1 X44.764 Y24.702 Z0 F600
G1 X44.683 Y24.663 Z0 F600
G1 X44.592 Y24.647 Z0 F600
G1 X42.609 Z0 F600
G1 X42.416 Z0 F600
; --- FIX X Backlash ---
G0 X43.116 Y24.647 F410
G1 X43.751 Y24.632 Z0 F600
G1 X44.409 Y24.576 Z0 F600
G1 X45.035 Y24.482 Z0 F600
G1 X45.614 Y24.353 Z0 F600
G1 X45.698 Y24.316 Z0 F600
G1 X45.768 Y24.259 Z0 F600
G1 X45.819 Y24.186 Z0 F600
G1 X45.848 Y24.099 Z0 F600
G1 X45.923 Y23.583 Z0 F600
G1 X45.964 Y23.067 Z0 F600
G1 X45.979 Y22.554 Z0 F600
G1 X45.976 Y22.042 Z0 F600
G1 X45.951 Y21.033 Z0 F600
G1 X45.958 Y20.043 Z0 F600
G1 X45.954 Y19.774 Z0 F600
G1 X45.946 Y19.526 Z0 F600
G1 X45.943 Y19.316 Z0 F600
G1 X45.958 Y19.169 Z0 F600
G1 X45.975 Y19.114 Z0 F600
G1 X45.99 Y19.111 Z0 F600
G1 X46.037 Z0 F600
G1 X46.12 Y19.12 Z0 F600
G1 X46.291 Y19.163 Z0 F600
G1 X46.34 Y19.167 Z0 F600
G1 X47.979 Z0 F600
G0 Z3.5 F600
; --- FIX X Backlash ---
G0 X47.279 Y19.167 F410
G0 X42.382 Y18.617 Z3.5
G1 Z0 F600
;Layer C1 Pass 1 of 2
; --- FIX Y Backlash ---
G0 X42.382 Y19.117 F410
G1 X42.409 Y21.064 Z0 F600
G1 X42.449 Y22.819 Z0 F600
G1 X42.39 Z0 F600
; --- FIX Y Backlash ---
G0 X42.39 Y22.319 F410
G1 X42.316 Y20.207 Z0 F600
G1 X42.243 Y19.657 Z0 F600
G1 X42.238 Y19.207 Z0 F600
G1 X42.253 Y19.03 Z0 F600
G1 X42.28 Y18.864 Z0 F600
G1 X42.314 Y18.741 Z0 F600
G1 X42.351 Y18.651 Z0 F600
G1 X42.373 Y18.616 Z0 F600
G1 X42.382 Z0 F600
G0 Z3.5 F600
; --- FIX X Backlash ---
G0 X43.082 Y18.616 F410
G0 X43.577 Y18.235 Z3.5
G1 Z0 F600
; --- FIX Y Backlash ---
G0 X43.577 Y18.735 F410
G1 X43.609 Y21.055 Z0 F600
G1 X43.66 Y23.313 Z0 F600
; --- FIX X Backlash ---
G0 X42.96 Y23.313 F410
G1 X42.613 Z0 F600
G1 X42.292 Y23.323 Z0 F600
G1 X42.079 Y23.326 Z0 F600
G1 X41.933 Y23.309 Z0 F600
G1 X41.907 Y23.301 Z0 F600
; --- FIX Y Backlash ---
G0 X41.907 Y22.801 F410
G1 X41.817 Y20.249 Z0 F600
G1 X41.744 Y19.69 Z0 F600
G1 X41.738 Y19.191 Z0 F600
G1 X41.757 Y18.964 Z0 F600
G1 X41.791 Y18.758 Z0 F600
G1 X41.84 Y18.577 Z0 F600
; --- FIX X Backlash ---
G0 X42.54 Y18.577 F410
G1 X42.604 Y18.425 Z0 F600
G1 X42.677 Y18.306 Z0 F600
G1 X42.759 Y18.217 Z0 F600
G1 X42.854 Y18.155 Z0 F600
G1 X42.965 Y18.116 Z0 F600
G1 X43.079 Y18.11 Z0 F600
G1 X43.226 Y18.133 Z0 F600
G1 X43.395 Y18.177 Z0 F600
; --- FIX Y Backlash ---
G0 X43.395 Y18.677 F410
G1 X43.577 Y18.735 Z0 F600
;Layer C1 Pass 2 of 2
G0 Z3.5 F600
; --- FIX X Backlash ---
G0 X42.877 Y18.735 F410
G0 X42.382 Y19.117 Z3.5
G1 Z0 F600
G1 X42.409 Y21.064 Z0 F600
G1 X42.449 Y22.819 Z0 F600
G1 X42.39 Z0 F600
; --- FIX Y Backlash ---
G0 X42.39 Y22.319 F410
G1 X42.316 Y20.207 Z0 F600
G1 X42.243 Y19.657 Z0 F600
G1 X42.238 Y19.207 Z0 F600
G1 X42.253 Y19.03 Z0 F600
G1 X42.28 Y18.864 Z0 F600
G1 X42.314 Y18.741 Z0 F600
G1 X42.351 Y18.651 Z0 F600
G1 X42.373 Y18.616 Z0 F600
G1 X42.382 Z0 F600
G0 Z3.5 F600
; --- FIX X Backlash ---
G0 X43.082 Y18.616 F410
G0 X43.577 Y18.235 Z3.5
G1 Z0 F600
; --- FIX Y Backlash ---
G0 X43.577 Y18.735 F410
G1 X43.609 Y21.055 Z0 F600
G1 X43.66 Y23.313 Z0 F600
; --- FIX X Backlash ---
G0 X42.96 Y23.313 F410
G1 X42.613 Z0 F600
G1 X42.292 Y23.323 Z0 F600
G1 X42.079 Y23.326 Z0 F600
G1 X41.933 Y23.309 Z0 F600
G1 X41.907 Y23.301 Z0 F600
; --- FIX Y Backlash ---
G0 X41.907 Y22.801 F410
G1 X41.817 Y20.249 Z0 F600
G1 X41.744 Y19.69 Z0 F600
G1 X41.738 Y19.191 Z0 F600
G1 X41.757 Y18.964 Z0 F600
G1 X41.791 Y18.758 Z0 F600
G1 X41.84 Y18.577 Z0 F600
; --- FIX X Backlash ---
G0 X42.54 Y18.577 F410
G1 X42.604 Y18.425 Z0 F600
G1 X42.677 Y18.306 Z0 F600
G1 X42.759 Y18.217 Z0 F600
G1 X42.854 Y18.155 Z0 F600
G1 X42.965 Y18.116 Z0 F600
G1 X43.079 Y18.11 Z0 F600
G1 X43.226 Y18.133 Z0 F600
G1 X43.395 Y18.177 Z0 F600
; --- FIX Y Backlash ---
G0 X43.395 Y18.677 F410
G1 X43.577 Y18.735 Z0 F600
G0 Z3.5 F600
; --- FIX X Backlash ---
G0 X42.877 Y18.735 F410
; --- FIX Y Backlash ---
G0 X42.877 Y18.235 F410
G0 X42.226 Y12.984 Z3.5
G1 Z0 F600
;Layer C1 Pass 1 of 2
; --- FIX Y Backlash ---
G0 X42.226 Y13.484 F410
