
G0 Z10 F500;      ; Move to clearance level
; G0 X-10 Y-10 F1200; Homing
; G0 X-5 Y-5 F1200; go in
; G10 P0 L20 X0 Y0; set to zero
G1 F1200;           ; Set feed rate
%
(Batak Toba 'Horas' Single Stroke)
(Generated with Graph Tracing)
G21 G90
G0 Z5.0
G0 X5 Y40.597
G1 Z0.0 F1600.0
G1 X5.312 Y40.722
G1 X5.436 Y40.847
G1 X5.748 Y40.971
G1 X5.873 Y41.096
G1 X6.87 Y41.595
G1 X6.995 Y41.595
G1 X7.119 Y41.719
G1 X7.244 Y41.719
G1 X7.431 Y41.844
G1 X7.743 Y41.906
G1 X8.055 Y42.094
G1 X8.242 Y42.094
G1 X8.491 Y42.218
G1 X8.927 Y42.281
G1 X9.177 Y42.405
G1 X9.925 Y42.468
G1 X9.987 Y42.53
G1 X10.236 Y42.53
G1 X10.299 Y42.592
G1 X10.922 Y42.592
G1 X10.984 Y42.655
G1 X11.732 Y42.655
G1 X11.795 Y42.717
G1 X12.979 Y42.717
; --- FIX Y Backlash ---
G0 X12.979 Y41.017 F1200
G1 X13.042 Y40.955
G1 X14.413 Y40.892
G1 X14.475 Y40.83
G1 X14.662 Y40.83
G1 X14.725 Y40.768
G1 X15.223 Y40.768
G1 X15.473 Y40.643
G1 X15.971 Y40.581
G1 X16.034 Y40.518
G1 X16.532 Y40.394
G1 X16.719 Y40.269
G1 X16.844 Y40.269
G1 X17.405 Y39.957
G1 X17.53 Y39.957
G1 X18.029 Y39.708
G1 X18.091 Y39.645
G1 X18.091 Y39.521
G1 X18.216 Y39.271
G1 X18.465 Y39.022
G0 Z5.0
; --- FIX X Backlash ---
G0 X16.765 Y39.022 F1200
G0 X8.661 Y28.3
G1 Z0.0 F1600.0
; --- FIX Y Backlash ---
G0 X8.661 Y30 F1200
G1 X8.599 Y30.062
G1 X8.599 Y30.312
; --- FIX X Backlash ---
G0 X10.299 Y30.312 F1200
G1 X10.486 Y30.499
G1 X10.735 Y30.935
G1 X10.922 Y31.122
G1 X11.171 Y31.558
G1 X11.358 Y31.745
G1 X11.358 Y31.808
G1 X11.483 Y31.932
G1 X11.483 Y31.995
G1 X11.608 Y32.119
G1 X11.857 Y32.556
G1 X12.294 Y33.055
G1 X12.418 Y33.304
G1 X12.917 Y33.865
G1 X12.917 Y33.927
G1 X13.104 Y34.114
G1 X13.166 Y34.301
G1 X13.478 Y34.613
G1 X13.478 Y34.675
G1 X14.164 Y35.486
G1 X14.164 Y35.548
G1 X14.6 Y35.984
G1 X14.6 Y36.047
G1 X15.036 Y36.483
G1 X15.036 Y36.545
G1 X15.909 Y37.418
G1 X15.909 Y37.481
G1 X16.719 Y38.291
G1 X16.782 Y38.291
G1 X17.405 Y38.914
G1 X17.468 Y38.914
G1 X17.966 Y39.351
G1 X18.465 Y40.66
G0 Z5.0
G0 X18.527 Y40.722
G1 Z0.0 F1600.0
G1 X18.714 Y40.722
G1 X18.777 Y40.784
G1 X18.964 Y40.784
G1 X19.026 Y40.847
G1 X19.213 Y40.847
G1 X19.275 Y40.909
G1 X19.525 Y40.909
G1 X19.587 Y40.971
G1 X19.774 Y40.971
G1 X19.836 Y41.034
G1 X20.023 Y41.034
G1 X20.086 Y41.096
G1 X20.584 Y41.158
G1 X21.208 Y41.532
G1 X21.332 Y41.532
G1 X21.894 Y41.844
G1 X22.205 Y41.906
G1 X22.392 Y42.031
G1 X22.704 Y42.094
G1 X22.891 Y42.218
G1 X23.078 Y42.218
G1 X23.14 Y42.281
G1 X23.577 Y42.343
G1 X23.826 Y42.468
G1 X24.262 Y42.468
G1 X24.325 Y42.53
G1 X24.512 Y42.53
G1 X24.574 Y42.592
G1 X25.073 Y42.592
G1 X25.135 Y42.655
G1 X25.821 Y42.655
G1 X25.883 Y42.717
G1 X27.192 Y42.717
; --- FIX Y Backlash ---
G0 X27.192 Y41.017 F1200
G1 X27.255 Y40.955
G1 X27.816 Y40.955
G1 X27.878 Y40.892
G1 X28.19 Y40.892
G1 X28.252 Y40.83
G1 X28.501 Y40.83
G1 X28.751 Y40.705
G1 X28.938 Y40.705
G1 X29.748 Y40.331
G1 X29.997 Y40.082
G1 X30.06 Y40.082
G1 X30.558 Y39.521
G1 X30.621 Y39.271
G1 X30.683 Y39.209
G1 X30.683 Y39.022
G1 X30.745 Y38.96
G1 X30.745 Y38.71
G1 X30.808 Y38.648
G1 X30.808 Y38.336
G1 X30.87 Y38.274
G1 X30.87 Y38.087
; --- FIX X Backlash ---
G0 X29.17 Y38.087 F1200
G1 X29.108 Y38.025
G1 X29.108 Y37.588
G1 X29.045 Y37.526
G1 X29.045 Y37.214
G1 X28.983 Y37.152
G1 X28.921 Y36.529
G1 X28.858 Y36.466
G1 X28.858 Y36.279
G1 X28.671 Y35.905
G1 X28.671 Y35.781
G1 X28.609 Y35.718
G1 X28.547 Y35.469
G1 X28.422 Y35.344
G1 X28.048 Y34.596
G1 X27.861 Y34.409
G1 X27.612 Y33.973
G1 X27.175 Y33.474
G1 X27.175 Y33.412
G1 X26.988 Y33.225
G1 X26.988 Y33.162
G1 X26.365 Y32.477
G1 X26.365 Y32.414
G1 X25.866 Y31.916
G1 X25.866 Y31.853
G1 X23.934 Y29.858
G1 X23.934 Y29.796
G1 X23.684 Y29.547
G1 X23.684 Y29.484
G1 X23.373 Y29.173
G1 X23.31 Y28.986
G1 X22.874 Y28.487
; --- FIX X Backlash ---
G0 X24.574 Y28.487 F1200
G1 X24.636 Y28.362
G0 Z5.0
; --- FIX Y Backlash ---
G0 X24.636 Y30.062 F1200
G0 X36.418 Y40.161
G1 Z0.0 F1600.0
G1 X36.543 Y40.161
; --- FIX Y Backlash ---
G0 X36.543 Y38.461 F1200
G1 X36.668 Y38.336
G1 X36.979 Y38.212
G1 X37.291 Y37.962
G1 X37.478 Y37.9
G1 X37.603 Y37.775
G1 X37.665 Y37.775
G1 X37.79 Y37.651
G1 X37.852 Y37.651
G1 X37.977 Y37.526
G1 X38.039 Y37.526
G1 X38.164 Y37.401
G1 X38.6 Y37.152
G1 X39.535 Y36.404
G1 X39.784 Y36.279
G1 X39.971 Y36.092
G1 X40.034 Y36.092
G1 X40.221 Y35.905
G1 X40.283 Y35.905
G1 X40.47 Y35.718
G1 X40.532 Y35.718
G1 X40.719 Y35.531
G1 X40.782 Y35.531
G1 X40.969 Y35.344
G1 X41.031 Y35.344
G1 X41.218 Y35.157
G1 X41.281 Y35.157
G1 X41.53 Y34.908
G1 X41.592 Y34.908
G1 X42.652 Y33.848
G0 Z5.0
; --- FIX X Backlash ---
G0 X40.952 Y33.848 F1200
G0 X34.843 Y28.736
G1 Z0.0 F1600.0
; --- FIX X Backlash ---
G0 X36.543 Y28.736 F1200
G1 X36.605 Y28.736
; --- FIX Y Backlash ---
G0 X36.605 Y30.436 F1200
G1 X36.73 Y30.561
G1 X36.792 Y30.561
G1 X36.917 Y30.686
G1 X36.979 Y30.686
G1 X37.291 Y30.935
G1 X37.478 Y30.997
G1 X37.665 Y31.184
G1 X38.101 Y31.434
G1 X38.288 Y31.621
G1 X38.351 Y31.621
G1 X38.538 Y31.808
G1 X38.6 Y31.808
G1 X38.787 Y31.995
G1 X39.036 Y32.119
G1 X39.286 Y32.369
G1 X39.348 Y32.369
G1 X39.535 Y32.556
G1 X39.597 Y32.556
G1 X40.221 Y33.117
G1 X40.283 Y33.117
G1 X40.657 Y33.491
G1 X40.719 Y33.491
G1 X41.094 Y33.865
G1 X41.156 Y33.865
G1 X41.842 Y34.551
G1 X41.904 Y34.8
G1 X42.652 Y35.548
G0 Z5.0
G0 X42.652 Y35.548
G1 Z0.0 F1600.0
G1 X43.088 Y35.548
G0 Z5.0
G0 X43.151 Y35.61
G1 Z0.0 F1600.0
G1 X43.961 Y36.421
G1 X44.023 Y36.608
G1 X46.392 Y39.039
G1 X46.392 Y39.101
G1 X46.891 Y39.6
G1 X46.891 Y39.662
G1 X47.514 Y40.348
G1 X47.514 Y40.41
G1 X47.701 Y40.597
G1 X47.701 Y40.66
G1 X48.075 Y41.034
G0 Z5.0
; --- FIX X Backlash ---
G0 X46.375 Y41.034 F1200
; --- FIX Y Backlash ---
G0 X46.375 Y39.334 F1200
G0 X41.451 Y33.786
G1 Z0.0 F1600.0
; --- FIX X Backlash ---
G0 X43.151 Y33.786 F1200
G1 X44.148 Y32.788
G1 X44.21 Y32.788
G1 X44.709 Y32.29
G1 X44.771 Y32.29
G1 X45.27 Y31.791
G1 X45.332 Y31.791
G1 X45.956 Y31.168
G1 X46.018 Y31.168
G1 X48.387 Y28.799
G0 Z5.0
; --- FIX Y Backlash ---
G0 X48.387 Y30.499 F1200
G0 X54.558 Y41.158
G1 Z0.0 F1600.0
G1 X55.057 Y41.408
G1 X55.244 Y41.408
G1 X55.306 Y41.47
G1 X55.431 Y41.47
G1 X55.494 Y41.532
G1 X55.618 Y41.532
G1 X55.681 Y41.595
G1 X55.805 Y41.595
G1 X56.055 Y41.719
G1 X56.304 Y41.719
G1 X56.366 Y41.782
G1 X56.553 Y41.782
G1 X56.616 Y41.844
G1 X56.865 Y41.844
G1 X56.927 Y41.906
G1 X57.488 Y41.969
G1 X57.551 Y42.031
G1 X57.738 Y42.031
G1 X57.8 Y42.094
G1 X58.486 Y42.156
G1 X58.548 Y42.218
G1 X59.421 Y42.281
G1 X59.483 Y42.343
G1 X59.919 Y42.343
G1 X59.982 Y42.405
G1 X60.855 Y42.468
G1 X60.917 Y42.53
G1 X61.416 Y42.53
G1 X61.478 Y42.592
G1 X62.351 Y42.592
G1 X62.413 Y42.655
G1 X63.223 Y42.655
G1 X63.286 Y42.717
G1 X65.156 Y42.717
G1 X65.218 Y42.779
G1 X68.148 Y42.779
; --- FIX Y Backlash ---
G0 X68.148 Y41.079 F1200
G1 X68.21 Y41.017
G1 X69.956 Y41.017
G1 X70.018 Y40.955
G1 X71.265 Y40.955
G1 X71.327 Y40.892
G1 X72.138 Y40.892
G1 X72.2 Y40.83
G1 X72.761 Y40.83
G1 X72.823 Y40.768
G1 X73.322 Y40.768
G1 X73.384 Y40.705
G1 X74.07 Y40.705
G1 X74.132 Y40.643
G1 X74.569 Y40.643
G1 X74.631 Y40.581
G1 X74.943 Y40.581
G1 X75.005 Y40.518
G1 X75.255 Y40.518
G1 X75.317 Y40.456
G1 X75.691 Y40.456
G1 X75.753 Y40.394
G1 X76.003 Y40.394
G1 X76.252 Y40.269
G1 X76.688 Y40.206
G1 X77.062 Y40.019
G1 X77.312 Y40.019
G0 Z5.0
; --- FIX X Backlash ---
G0 X75.612 Y40.019 F1200
G0 X52.858 Y33.599
G1 Z0.0 F1600.0
; --- FIX X Backlash ---
G0 X54.558 Y33.599 F1200
; --- FIX Y Backlash ---
G0 X54.558 Y35.299 F1200
G1 X54.87 Y35.486
G1 X54.995 Y35.486
G1 X55.057 Y35.548
G1 X55.182 Y35.548
G1 X55.244 Y35.61
G1 X55.369 Y35.61
G1 X55.431 Y35.673
G1 X55.556 Y35.673
G1 X55.618 Y35.735
G1 X55.743 Y35.735
G1 X55.805 Y35.797
G1 X55.93 Y35.797
G1 X56.179 Y35.922
G1 X56.366 Y35.922
G1 X56.429 Y35.984
G1 X56.616 Y35.984
G1 X56.678 Y36.047
G1 X56.927 Y36.047
G1 X56.99 Y36.109
G1 X57.177 Y36.109
G1 X57.239 Y36.171
G1 X57.488 Y36.171
G1 X57.551 Y36.234
G1 X57.738 Y36.234
G1 X57.8 Y36.296
G1 X57.987 Y36.296
G1 X58.049 Y36.358
G1 X58.299 Y36.358
G1 X58.361 Y36.421
G1 X59.047 Y36.483
G1 X59.109 Y36.545
G1 X59.545 Y36.545
G1 X59.608 Y36.608
G1 X60.356 Y36.67
G1 X60.418 Y36.732
G1 X61.166 Y36.795
G1 X61.229 Y36.857
G1 X61.665 Y36.857
G1 X61.727 Y36.919
G1 X62.351 Y36.919
G1 X62.413 Y36.982
G1 X63.286 Y36.982
G1 X63.348 Y37.044
G1 X63.971 Y37.044
G1 X64.034 Y37.106
G1 X65.904 Y37.106
G1 X65.966 Y37.169
G1 X67.088 Y37.169
; --- FIX Y Backlash ---
G0 X67.088 Y35.469 F1200
G1 X67.151 Y35.406
G1 X69.644 Y35.406
G1 X69.706 Y35.344
G1 X70.704 Y35.344
G1 X70.766 Y35.282
G1 X71.452 Y35.282
G1 X71.514 Y35.219
G1 X72.512 Y35.219
G1 X72.574 Y35.157
G1 X72.948 Y35.157
G1 X73.01 Y35.095
G1 X73.384 Y35.095
G1 X73.447 Y35.032
G1 X74.07 Y35.032
G1 X74.132 Y34.97
G1 X74.756 Y34.908
G1 X74.818 Y34.845
G1 X75.005 Y34.845
G1 X75.068 Y34.783
G1 X75.255 Y34.783
G1 X75.317 Y34.721
G1 X75.504 Y34.721
G1 X75.566 Y34.658
G1 X75.94 Y34.596
G1 X76.314 Y33.91
G0 Z5.0
; --- FIX X Backlash ---
G0 X74.614 Y33.91 F1200
G0 X69.877 Y28.487
G1 Z0.0 F1600.0
; --- FIX X Backlash ---
G0 X71.577 Y28.487 F1200
; --- FIX Y Backlash ---
G0 X71.577 Y30.187 F1200
G1 X72.574 Y31.309
G1 X72.574 Y31.371
G1 X73.571 Y32.369
G1 X73.634 Y32.369
G1 X74.943 Y33.553
G1 X75.005 Y33.553
G1 X75.255 Y33.803
G1 X75.317 Y33.803
G1 X75.629 Y34.114
G1 X75.753 Y34.177
G1 X75.816 Y34.426
G1 X75.94 Y34.613
G1 X75.94 Y34.738
G1 X76.065 Y34.925
G1 X76.065 Y35.049
G1 X76.19 Y35.236
G1 X76.19 Y35.361
G1 X76.314 Y35.548
G0 Z5.0
G0 X76.377 Y35.61
G1 Z0.0 F1600.0
G1 X77.062 Y35.61
G0 Z5.0
G0 X83.732 Y43.777
G1 Z0.0 F1600.0
G1 X84.73 Y43.777
G1 X84.792 Y43.839
G1 X84.979 Y43.839
; --- FIX Y Backlash ---
G0 X84.979 Y42.139 F1200
G1 X85.042 Y42.077
G1 X86.039 Y42.077
G1 X86.101 Y42.014
G1 X86.662 Y42.014
G1 X86.725 Y41.952
G1 X87.099 Y41.952
G1 X87.161 Y41.89
G1 X87.535 Y41.89
G1 X87.597 Y41.827
G1 X88.034 Y41.827
G1 X88.096 Y41.765
G1 X88.532 Y41.765
G1 X88.595 Y41.703
G1 X88.906 Y41.703
G1 X88.969 Y41.64
G1 X89.53 Y41.578
G1 X89.592 Y41.516
G1 X89.779 Y41.516
G1 X89.842 Y41.453
G1 X90.029 Y41.453
G1 X90.091 Y41.391
G1 X90.34 Y41.391
G1 X90.403 Y41.329
G1 X90.59 Y41.329
G1 X90.652 Y41.266
G1 X90.901 Y41.266
G1 X90.964 Y41.204
G1 X91.151 Y41.204
G1 X91.213 Y41.142
G1 X91.649 Y41.079
G1 X91.899 Y40.955
G1 X92.086 Y40.955
G1 X92.148 Y40.892
G1 X92.273 Y40.892
G1 X92.522 Y40.768
G1 X92.709 Y40.768
G1 X92.771 Y40.705
G1 X92.896 Y40.705
G1 X92.958 Y40.643
G1 X93.457 Y40.518
G1 X93.644 Y40.394
G1 X94.143 Y40.269
G1 X94.33 Y40.144
G1 X94.455 Y40.144
G1 X94.642 Y40.019
G1 X94.766 Y40.019
G1 X94.953 Y39.895
G1 X95.078 Y39.895
G1 X95.265 Y39.77
G1 X95.514 Y39.708
G1 X95.639 Y39.583
G1 X96.013 Y38.773
G0 Z5.0
; --- FIX X Backlash ---
G0 X94.313 Y38.773 F1200
G0 X86.583 Y31.604
G1 Z0.0 F1600.0
; --- FIX X Backlash ---
G0 X88.283 Y31.604 F1200
; --- FIX Y Backlash ---
G0 X88.283 Y33.304 F1200
G1 X88.345 Y33.366
G1 X88.532 Y33.366
G0 Z5.0
; --- FIX Y Backlash ---
G0 X88.532 Y31.666 F1200
G0 X88.595 Y31.604
G1 Z0.0 F1600.0
G1 X88.657 Y31.542
G1 X88.657 Y31.417
G1 X88.782 Y31.168
G1 X89.031 Y30.918
G1 X89.156 Y30.918
G1 X89.343 Y30.794
G1 X89.468 Y30.794
G1 X89.53 Y30.731
G1 X90.029 Y30.606
G1 X90.216 Y30.482
G1 X90.714 Y30.357
G1 X90.901 Y30.232
G1 X91.213 Y30.17
G1 X91.4 Y30.045
G1 X91.525 Y30.045
G1 X91.587 Y29.983
G1 X91.712 Y29.983
G1 X91.774 Y29.921
G1 X91.899 Y29.921
G1 X91.961 Y29.858
G1 X92.46 Y29.734
G1 X92.647 Y29.609
G1 X92.771 Y29.609
G1 X93.145 Y29.422
G1 X93.644 Y29.297
G1 X93.831 Y29.173
G1 X94.33 Y29.048
G1 X94.517 Y28.923
G1 X94.642 Y28.923
G1 X95.016 Y28.736
G1 X95.14 Y28.736
G1 X95.701 Y28.425
G1 X96.138 Y28.425
; --- FIX Y Backlash ---
G0 X96.138 Y30.125 F1200
G1 X96.262 Y30.187
G0 Z5.0
; --- FIX X Backlash ---
G0 X94.562 Y30.187 F1200
G0 X86.895 Y33.429
G1 Z0.0 F1600.0
G1 X86.895 Y33.553
; --- FIX X Backlash ---
G0 X88.595 Y33.553 F1200
G1 X88.657 Y33.616
G1 X88.657 Y33.74
G1 X88.719 Y33.803
G1 X88.719 Y33.927
G1 X88.782 Y33.99
G1 X88.844 Y34.364
G1 X88.906 Y34.426
G1 X88.969 Y34.675
G1 X90.091 Y35.797
G1 X90.153 Y35.797
G1 X90.465 Y36.109
G1 X90.527 Y36.109
G1 X91.088 Y36.608
G1 X91.338 Y36.732
G1 X91.774 Y37.106
G1 X91.836 Y37.106
G1 X93.083 Y37.979
G1 X93.27 Y38.042
G1 X93.706 Y38.353
G1 X94.018 Y38.478
G1 X94.143 Y38.603
G1 X94.455 Y38.727
G1 X94.579 Y38.852
G1 X94.891 Y38.977
G1 X95.016 Y39.101
G1 X95.452 Y39.288
G1 X96.013 Y40.348
G0 Z5.0
G0 X96.075 Y40.41
G1 Z0.0 F1600.0
G1 X96.262 Y40.41
G1 X96.325 Y40.473
G1 X96.636 Y40.473
G1 X96.699 Y40.535
G1 X96.948 Y40.535
G1 X97.01 Y40.597
G1 X97.322 Y40.597
G1 X97.384 Y40.66
G1 X97.696 Y40.66
G1 X97.758 Y40.722
G1 X98.07 Y40.722
G1 X98.132 Y40.784
G1 X98.444 Y40.784
G1 X98.506 Y40.847
G1 X98.818 Y40.847
G1 X98.881 Y40.909
G1 X99.379 Y41.034
G1 X99.566 Y41.158
G1 X99.878 Y41.221
G1 X100.065 Y41.345
G1 X100.19 Y41.345
G1 X100.252 Y41.408
G1 X100.377 Y41.408
G1 X100.439 Y41.47
G1 X100.938 Y41.595
G1 X101.125 Y41.719
G1 X101.312 Y41.719
G1 X101.374 Y41.782
G1 X101.499 Y41.782
G1 X101.748 Y41.906
G1 X101.935 Y41.906
G1 X102.184 Y42.031
G1 X102.371 Y42.031
G1 X102.434 Y42.094
G1 X102.87 Y42.156
G1 X102.932 Y42.218
G1 X103.306 Y42.281
G1 X103.369 Y42.343
G1 X103.556 Y42.343
G1 X103.618 Y42.405
G1 X104.242 Y42.468
G1 X104.304 Y42.53
G1 X104.553 Y42.53
G1 X104.616 Y42.592
G1 X104.865 Y42.592
G1 X104.927 Y42.655
G1 X105.177 Y42.655
G1 X105.239 Y42.717
G1 X105.551 Y42.717
G1 X105.613 Y42.779
G1 X105.925 Y42.779
G1 X105.987 Y42.842
G1 X106.299 Y42.842
G1 X106.361 Y42.904
G1 X106.735 Y42.904
G1 X106.797 Y42.966
G1 X107.421 Y42.966
G1 X107.483 Y43.029
G1 X108.044 Y43.029
G1 X108.106 Y43.091
G0 Z5.0
; --- FIX Y Backlash ---
G0 X108.106 Y41.391 F1200
G0 X112.47 Y38.212
G1 Z0.0 F1600.0
G1 X112.595 Y38.212
G1 X112.969 Y38.025
G1 X113.094 Y37.9
G1 X113.779 Y37.588
G1 X113.904 Y37.464
G1 X114.652 Y37.09
G1 X114.964 Y36.84
G1 X115.151 Y36.778
G1 X115.462 Y36.529
G1 X115.649 Y36.466
G1 X115.774 Y36.342
G1 X115.836 Y36.342
G1 X115.961 Y36.217
G1 X116.023 Y36.217
G1 X116.148 Y36.092
G1 X116.21 Y36.092
G1 X116.335 Y35.968
G1 X116.397 Y35.968
G1 X116.522 Y35.843
G1 X116.958 Y35.594
G1 X117.145 Y35.406
G1 X117.208 Y35.406
G1 X117.332 Y35.282
G1 X117.582 Y35.157
G1 X117.769 Y34.97
G1 X118.018 Y34.845
G1 X118.205 Y34.658
G1 X118.455 Y34.534
G1 X118.642 Y34.347
G1 X118.704 Y34.347
G1 X118.891 Y34.16
G1 X118.953 Y34.16
G1 X119.14 Y33.973
G1 X119.203 Y33.973
G1 X119.39 Y33.786
G1 X119.452 Y33.786
G1 X119.639 Y33.599
G1 X119.701 Y33.599
G1 X119.951 Y33.349
G1 X120.013 Y33.349
G1 X120.2 Y33.162
G1 X120.262 Y33.162
G1 X120.512 Y32.913
G1 X120.574 Y32.913
G1 X120.761 Y32.726
G1 X120.823 Y32.726
G1 X121.073 Y32.477
G1 X121.135 Y32.477
G1 X121.384 Y32.227
G1 X121.447 Y32.227
G1 X121.696 Y31.978
G1 X121.758 Y31.978
G1 X122.008 Y31.729
G1 X122.07 Y31.729
G1 X122.881 Y30.981
G1 X122.943 Y30.981
G1 X124.564 Y29.422
G1 X124.564 Y29.36
G1 X125 Y28.923
G1 X125 Y28.861
G0 Z5.0
; --- FIX X Backlash ---
G0 X123.3 Y28.861 F1200
; --- FIX Y Backlash ---
G0 X123.3 Y30.561 F1200
G0 X8.3 Y130
M30
%

; Return to 2,0 wash and park
G1 Z10 F1000;        ; Raise brush
G0 X5 Y5 F1200;     ; Rapid move to clean
G1 Z-1 F800;         ; Lower brush
G1 X10 Y12 Z8 F1200;     ; Move
G1 Z-1 F800;         ; Lower
G1 X25 Y14 Z6 F800;     ; Move
G0 X5 Y5 F1200;     ; Rapid
G1 Z-1 F800;         ; Lower
G1 X15 Y12 Z8 F1200;     ; Move
G1 Z-1 F800;         ; Lower
G1 X25 Y14 Z6 F800;     ; Move
G1 Z10 F800;         ; Maintain
G0 X20 Y130 Z10 F500;; Move to park
M2;                 ; End program
