G90 ; Force absolute mode
;LightBurn 1.6.04
;Custom GCode device profile, absolute coords
;Bounds: X15.07 Y13.07 to X58.93 Y56.93
G00 G17 G40 G21 G54
M3
G1 Z10 F600
;Offset @ 555 mm/min, 90% power

M8
G0 Z3.5 F600
G0 X26.016 Y20.323 Z3.5
G1 Z0 F600
;Layer C1
G1 X26.074 Y20.402 Z0 F600
G1 X26.158 Y20.539 Z0 F600
; --- FIX X Backlash ---
G0 X25.358 Y20.539 F410
G1 X25.218 Y20.638 Z0 F600
G1 X25.078 Y20.711 Z0 F600
G1 X25.074 Y20.708 Z0 F600
G1 Y20.698 Z0 F600
G1 X25.08 Y20.681 Z0 F600
; --- FIX Y Backlash ---
G0 X25.08 Y19.981 F410
G1 X25.121 Y19.748 Z0 F600
G1 X25.152 Y19.611 Z0 F600
G1 X25.177 Y19.595 Z0 F600
G1 X25.216 Y19.623 Z0 F600
G0 Z3.5 F600
; --- FIX Y Backlash ---
G0 X25.216 Y20.323 F410
G0 X23.152 Y21.955 Z3.5 F600
G1 Z0 F600
; --- FIX X Backlash ---
G0 X23.952 Y21.955 F410
G1 X24.024 Y22.283 Z0 F600
G1 X24.159 Y22.576 Z0 F600
G1 X24.271 Y22.74 Z0 F600
; --- FIX X Backlash ---
G0 X23.471 Y22.74 F410
; --- FIX Y Backlash ---
G0 X23.471 Y22.04 F410
G1 X23.243 Y21.843 Z0 F600
G1 X22.827 Y21.564 Z0 F600
G1 X22.684 Y21.487 Z0 F600
G1 X22.615 Y21.418 Z0 F600
G1 X22.558 Y21.321 Z0 F600
G1 X22.526 Y21.217 Z0 F600
G1 X22.521 Y21.131 Z0 F600
G1 X22.534 Y21.083 Z0 F600
G1 X22.55 Y21.063 Z0 F600
G1 X22.575 Y21.049 Z0 F600
; --- FIX X Backlash ---
G0 X23.375 Y21.049 F410
G1 X23.97 Y21.029 Z0 F600
; --- FIX Y Backlash ---
G0 X23.97 Y21.729 F410
G1 X23.952 Y21.955 Z0 F600
G0 Z3.5 F600
; --- FIX X Backlash ---
G0 X23.152 Y21.955 F410
G0 X23 Y22.862 Z3.5
G1 Z0 F600
; --- FIX Y Backlash ---
G0 X23 Y22.162 F410
G1 X22.62 Y21.906 Z0 F600
G1 X22.443 Y21.811 Z0 F600
G1 X22.297 Y21.665 Z0 F600
G1 X22.19 Y21.485 Z0 F600
G1 X22.129 Y21.287 Z0 F600
G1 X22.119 Y21.089 Z0 F600
G1 X22.167 Y20.905 Z0 F600
; --- FIX X Backlash ---
G0 X22.967 Y20.905 F410
G1 X23.081 Y20.754 Z0 F600
G1 X23.266 Y20.652 Z0 F600
G1 X24.016 Y20.628 Z0 F600
G1 X24.668 Y20.615 Z0 F600
; --- FIX X Backlash ---
G0 X23.868 Y20.615 F410
; --- FIX Y Backlash ---
G0 X23.868 Y21.315 F410
G1 X23.673 Y21.498 Z0 F600
G1 X23.574 Y21.706 Z0 F600
G1 X23.555 Y21.928 Z0 F600
; --- FIX X Backlash ---
G0 X24.355 Y21.928 F410
G1 X24.405 Y22.155 Z0 F600
G1 X24.508 Y22.378 Z0 F600
G1 X24.651 Y22.587 Z0 F600
G1 X24.818 Y22.773 Z0 F600
G1 X24.996 Y22.927 Z0 F600
G1 X25.104 Y22.986 Z0 F600
G1 X25.202 Y23.076 Z0 F600
G1 X25.279 Y23.187 Z0 F600
G1 X25.33 Y23.306 Z0 F600
G1 X25.345 Y23.423 Z0 F600
G1 X25.316 Y23.527 Z0 F600
; --- FIX X Backlash ---
G0 X24.516 Y23.527 F410
G1 X24.437 Y23.606 Z0 F600
G1 X24.298 Y23.65 Z0 F600
G1 X24.2 Y23.663 Z0 F600
G1 X24.101 Z0 F600
; --- FIX Y Backlash ---
G0 X24.101 Y22.963 F410
G1 X23.707 Y22.754 Z0 F600
G1 X23.351 Y22.465 Z0 F600
G1 X23 Y22.162 Z0 F600
G0 Z3.5 F600
; --- FIX X Backlash ---
G0 X23.8 Y22.162 F410
; --- FIX Y Backlash ---
G0 X23.8 Y22.862 F410
G0 X27.549 Y25.832 Z3.5
G1 Z0 F600
G1 X27.983 Y25.965 Z0 F600
G1 X28.027 Y25.98 Z0 F600
G1 X27.979 Y26.006 Z0 F600
; --- FIX X Backlash ---
G0 X27.179 Y26.006 F410
G1 X27.044 Y25.961 Z0 F600
; --- FIX Y Backlash ---
G0 X27.044 Y25.261 F410
G1 X26.683 Y25.122 Z0 F600
G1 X26.679 Y25.119 Z0 F600
; --- FIX X Backlash ---
G0 X27.479 Y25.119 F410
G1 X27.549 Y25.132 Z0 F600
G0 Z3.5 F600
; --- FIX Y Backlash ---
G0 X27.549 Y25.832 F410
G0 X28.501 Y26.125 Z3.5
G1 Z0 F600
; --- FIX X Backlash ---
G0 X27.701 Y26.125 F410
G1 X27.509 Y26.282 Z0 F600
G1 X27.314 Y26.388 Z0 F600
G1 X27.179 Y26.427 Z0 F600
; --- FIX Y Backlash ---
G0 X27.179 Y25.727 F410
G1 X26.903 Y25.636 Z0 F600
G1 X26.513 Y25.485 Z0 F600
G1 X26.378 Y25.407 Z0 F600
G1 X26.285 Y25.328 Z0 F600
G1 X26.235 Y25.256 Z0 F600
G1 X26.213 Y25.179 Z0 F600
G1 X26.219 Y25.081 Z0 F600
G1 X26.254 Y24.977 Z0 F600
; --- FIX X Backlash ---
G0 X27.054 Y24.977 F410
G1 X27.111 Y24.886 Z0 F600
G1 X27.188 Y24.811 Z0 F600
G1 X27.282 Y24.756 Z0 F600
G1 X27.386 Y24.723 Z0 F600
G1 X27.5 Y24.716 Z0 F600
G1 X27.641 Y24.742 Z0 F600
; --- FIX Y Backlash ---
G0 X27.641 Y25.442 F410
G1 X28.113 Y25.587 Z0 F600
G1 X28.647 Y25.766 Z0 F600
G1 X28.787 Y25.79 Z0 F600
; --- FIX X Backlash ---
G0 X27.987 Y25.79 F410
G1 X27.881 Y25.934 Z0 F600
G1 X27.701 Y26.125 Z0 F600
G0 Z3.5 F600
G0 X27.169 Y26.845 Z3.5
G1 Z0 F600
; --- FIX Y Backlash ---
G0 X27.169 Y26.145 F410
G1 X26.768 Y26.012 Z0 F600
G1 X26.34 Y25.846 Z0 F600
G1 X26.147 Y25.736 Z0 F600
G1 X25.987 Y25.599 Z0 F600
G1 X25.869 Y25.431 Z0 F600
G1 X25.809 Y25.224 Z0 F600
G1 X25.824 Y25.004 Z0 F600
; --- FIX X Backlash ---
G0 X26.624 Y25.004 F410
G1 X26.689 Y24.805 Z0 F600
G1 X26.798 Y24.632 Z0 F600
G1 X26.944 Y24.491 Z0 F600
G1 X27.118 Y24.387 Z0 F600
G1 X27.314 Y24.326 Z0 F600
G1 X27.523 Y24.313 Z0 F600
G1 X27.738 Y24.353 Z0 F600
; --- FIX Y Backlash ---
G0 X27.738 Y25.053 F410
G1 X28.237 Y25.207 Z0 F600
G1 X28.746 Y25.377 Z0 F600
G1 X28.998 Y25.421 Z0 F600
G1 X29.244 Y25.412 Z0 F600
; --- FIX Y Backlash ---
G0 X29.244 Y24.712 F410
G1 X29.482 Y24.631 Z0 F600
G1 X29.71 Y24.459 Z0 F600
; --- FIX X Backlash ---
G0 X28.91 Y24.459 F410
; --- FIX Y Backlash ---
G0 X28.91 Y25.159 F410
G1 X28.57 Y25.673 Z0 F600
G1 X28.189 Y26.191 Z0 F600
G1 X27.972 Y26.421 Z0 F600
G1 X27.733 Y26.615 Z0 F600
G1 X27.467 Y26.761 Z0 F600
G1 X27.169 Y26.845 Z0 F600
G0 Z3.5 F600
G0 X24.898 Y28.891 Z3.5
G1 Z0 F600
; --- FIX X Backlash ---
G0 X25.698 Y28.891 F410
G1 X25.939 Y29.269 Z0 F600
G1 X26.07 Y29.442 Z0 F600
G1 X26.225 Y29.584 Z0 F600
G1 X26.416 Y29.678 Z0 F600
G1 X26.653 Y29.707 Z0 F600
; --- FIX X Backlash ---
G0 X25.853 Y29.707 F410
G1 X25.575 Y29.832 Z0 F600
G1 X25.306 Y29.982 Z0 F600
G1 X25.058 Y30.16 Z0 F600
G1 X24.837 Y30.367 Z0 F600
; --- FIX X Backlash ---
G0 X25.637 Y30.367 F410
; --- FIX Y Backlash ---
G0 X25.637 Y29.667 F410
G1 X25.717 Y29.444 Z0 F600
G1 X25.773 Y29.205 Z0 F600
G1 X25.802 Y28.958 Z0 F600
G1 X25.799 Y28.711 Z0 F600
G1 X25.762 Y28.472 Z0 F600
; --- FIX X Backlash ---
G0 X24.962 Y28.472 F410
G1 X24.886 Y28.249 Z0 F600
G1 X24.774 Y28.061 Z0 F600
; --- FIX X Backlash ---
G0 X25.574 Y28.061 F410
; --- FIX Y Backlash ---
G0 X25.574 Y28.761 F410
G1 X25.698 Y28.891 Z0 F600
G0 Z3.5 F600
; --- FIX X Backlash ---
G0 X24.898 Y28.891 F410
G0 X18.091 Y32.324 Z3.5
G1 Z0 F600
; --- FIX X Backlash ---
G0 X18.891 Y32.324 F410
G1 X19.063 Y32.371 Z0 F600
G1 X19.137 Y32.379 Z0 F600
G1 X19.175 Y32.426 Z0 F600
G1 X19.184 Y32.5 Z0 F600
G1 X19.171 Y32.588 Z0 F600
; --- FIX X Backlash ---
G0 X18.371 Y32.588 F410
G1 X18.314 Y32.763 Z0 F600
G1 X18.263 Y32.854 Z0 F600
G1 X18.26 Z0 F600
G1 Y32.851 Z0 F600
G1 Y32.831 Z0 F600
G1 X18.271 Y32.79 Z0 F600
; --- FIX Y Backlash ---
G0 X18.271 Y32.09 F410
G1 X18.172 Y31.952 Z0 F600
G1 X18.004 Y31.74 Z0 F600
G1 X17.957 Y31.67 Z0 F600
G1 X17.949 Y31.626 Z0 F600
G1 X17.99 Y31.61 Z0 F600
; --- FIX X Backlash ---
G0 X18.79 Y31.61 F410
G1 X18.891 Y31.624 Z0 F600
G0 Z3.5 F600
; --- FIX X Backlash ---
G0 X18.091 Y31.624 F410
; --- FIX Y Backlash ---
G0 X18.091 Y32.324 F410
G0 X17.373 Y35.462 Z3.5
G1 Z0 F600
G1 X17.332 Y35.429 Z0 F600
G1 X17.301 Y35.385 Z0 F600
G1 X17.282 Y35.338 Z0 F600
G1 X17.276 Y35.293 Z0 F600
G1 X17.28 Y35.261 Z0 F600
G1 X17.292 Y35.235 Z0 F600
; --- FIX X Backlash ---
G0 X18.092 Y35.235 F410
; --- FIX Y Backlash ---
G0 X18.092 Y34.535 F410
G1 X18.153 Y34.467 Z0 F600
G1 X18.458 Y34.14 Z0 F600
; --- FIX Y Backlash ---
G0 X18.458 Y34.84 F410
G1 X18.554 Y34.974 Z0 F600
G1 X18.816 Y35.178 Z0 F600
G1 X19.111 Y35.312 Z0 F600
G1 X19.253 Y35.344 Z0 F600
; --- FIX X Backlash ---
G0 X18.453 Y35.344 F410
G1 X18.065 Y35.398 Z0 F600
G1 X17.66 Y35.442 Z0 F600
G1 X17.373 Y35.462 Z0 F600
G0 Z3.5 F600
G0 X16.892 Y35.441 Z3.5
G1 Z0 F600
; --- FIX Y Backlash ---
G0 X16.892 Y34.741 F410
G1 X16.872 Y34.596 Z0 F600
G1 X16.891 Y34.451 Z0 F600
; --- FIX X Backlash ---
G0 X17.691 Y34.451 F410
G1 X17.753 Y34.314 Z0 F600
G1 X17.86 Y34.194 Z0 F600
G1 X18.282 Y33.741 Z0 F600
G1 X18.667 Y33.336 Z0 F600
; --- FIX Y Backlash ---
G0 X18.667 Y34.036 F410
G1 X18.651 Y34.294 Z0 F600
G1 X18.716 Y34.514 Z0 F600
G1 X18.845 Y34.694 Z0 F600
G1 X19.024 Y34.833 Z0 F600
G1 X19.239 Y34.931 Z0 F600
G1 X19.475 Y34.984 Z0 F600
G1 X19.717 Y34.993 Z0 F600
G1 X19.951 Y34.954 Z0 F600
G1 X20.091 Y34.917 Z0 F600
G1 X20.252 Y34.909 Z0 F600
G1 X20.417 Y34.928 Z0 F600
G1 X20.563 Y34.976 Z0 F600
G1 X20.675 Y35.05 Z0 F600
G1 X20.73 Y35.151 Z0 F600
G1 X20.711 Y35.278 Z0 F600
; --- FIX X Backlash ---
G0 X19.911 Y35.278 F410
G1 X19.797 Y35.432 Z0 F600
G1 X19.629 Y35.57 Z0 F600
G1 X19.435 Y35.657 Z0 F600
G1 X19.224 Y35.704 Z0 F600
G1 X19 Y35.724 Z0 F600
G1 X18.541 Y35.736 Z0 F600
G1 X18.108 Y35.796 Z0 F600
G1 X17.703 Y35.84 Z0 F600
G1 X17.296 Y35.869 Z0 F600
; --- FIX Y Backlash ---
G0 X17.296 Y35.169 F410
G1 X17.154 Y35.101 Z0 F600
G1 X17.036 Y35.002 Z0 F600
G1 X16.948 Y34.88 Z0 F600
G1 X16.892 Y34.741 Z0 F600
G0 Z3.5 F600
; --- FIX X Backlash ---
G0 X17.692 Y34.741 F410
G0 X24.319 Y34.329 Z3.5
G1 Z0 F600
; --- FIX X Backlash ---
G0 X23.519 Y34.329 F410
G1 X23.459 Y34.371 Z0 F600
; --- FIX Y Backlash ---
G0 X23.459 Y35.071 F410
G1 X23.25 Y35.172 Z0 F600
G1 X23.14 Y35.205 Z0 F600
; --- FIX X Backlash ---
G0 X23.94 Y35.205 F410
; --- FIX Y Backlash ---
G0 X23.94 Y34.505 F410
G1 X24.158 Y34.361 Z0 F600
G1 X24.329 Y34.288 Z0 F600
G1 X24.319 Y34.329 Z0 F600
G0 Z3.5 F600
; --- FIX X Backlash ---
G0 X23.519 Y34.329 F410
; --- FIX Y Backlash ---
G0 X23.519 Y35.029 F410
G0 X23.397 Y35.545 Z3.5
G1 Z0 F600
G1 X23.122 Y35.629 Z0 F600
G1 X22.878 Y35.659 Z0 F600
G1 X22.789 Y35.638 Z0 F600
G1 X22.725 Y35.59 Z0 F600
; --- FIX Y Backlash ---
G0 X22.725 Y34.89 F410
G1 X22.663 Y34.799 Z0 F600
G1 X22.622 Y34.67 Z0 F600
G1 X22.616 Y34.531 Z0 F600
G1 X22.642 Y34.414 Z0 F600
; --- FIX X Backlash ---
G0 X23.442 Y34.414 F410
G1 X23.492 Y34.332 Z0 F600
G1 X23.616 Y34.24 Z0 F600
G1 X23.968 Y34.007 Z0 F600
G1 X24.388 Y33.828 Z0 F600
G1 X24.639 Y33.7 Z0 F600
G1 X24.728 Y33.633 Z0 F600
; --- FIX Y Backlash ---
G0 X24.728 Y34.333 F410
G1 X24.754 Y34.543 Z0 F600
G1 X24.76 Y34.779 Z0 F600
G1 X24.741 Y34.994 Z0 F600
G1 X24.692 Y35.184 Z0 F600
; --- FIX X Backlash ---
G0 X23.892 Y35.184 F410
G1 X23.839 Y35.295 Z0 F600
G1 X23.663 Y35.416 Z0 F600
G1 X23.397 Y35.545 Z0 F600
G0 Z3.5 F600
G0 X22.618 Y36.009 Z3.5
G1 Z0 F600
; --- FIX Y Backlash ---
G0 X22.618 Y35.309 F410
G1 X22.431 Y35.171 Z0 F600
G1 X22.299 Y34.974 Z0 F600
G1 X22.225 Y34.741 Z0 F600
G1 X22.213 Y34.496 Z0 F600
; --- FIX X Backlash ---
G0 X23.013 Y34.496 F410
G1 X23.067 Y34.26 Z0 F600
G1 X23.191 Y34.057 Z0 F600
G1 X23.389 Y33.911 Z0 F600
G1 X23.777 Y33.654 Z0 F600
G1 X24.218 Y33.466 Z0 F600
G1 X24.426 Y33.36 Z0 F600
G1 X24.606 Y33.224 Z0 F600
G1 X24.748 Y33.044 Z0 F600
G1 X24.836 Y32.804 Z0 F600
G1 X24.871 Y32.658 Z0 F600
G1 X24.898 Y32.533 Z0 F600
G1 X24.921 Y32.442 Z0 F600
G1 X24.942 Y32.402 Z0 F600
G1 X24.947 Z0 F600
G1 X24.96 Y32.428 Z0 F600
; --- FIX Y Backlash ---
G0 X24.96 Y33.128 F410
G1 X24.975 Y33.186 Z0 F600
G1 X24.99 Y33.28 Z0 F600
G1 X25.084 Y33.954 Z0 F600
G1 X25.153 Y34.514 Z0 F600
G1 X25.16 Y34.791 Z0 F600
G1 X25.136 Y35.062 Z0 F600
; --- FIX X Backlash ---
G0 X24.336 Y35.062 F410
G1 X24.27 Y35.321 Z0 F600
G1 X24.153 Y35.563 Z0 F600
G1 X23.864 Y35.764 Z0 F600
G1 X23.544 Y35.919 Z0 F600
G1 X23.204 Y36.021 Z0 F600
G1 X22.855 Y36.064 Z0 F600
; --- FIX Y Backlash ---
G0 X22.855 Y35.364 F410
G1 X22.618 Y35.309 Z0 F600
G0 Z3.5 F600
; --- FIX X Backlash ---
G0 X23.418 Y35.309 F410
; --- FIX Y Backlash ---
G0 X23.418 Y36.009 F410
G0 X24.646 Y38.632 Z3.5
G1 Z0 F600
G1 X24.859 Y38.664 Z0 F600
G1 X25.075 Y38.707 Z0 F600
G1 X25.292 Y38.747 Z0 F600
G1 X25.508 Y38.767 Z0 F600
G1 X25.721 Y38.753 Z0 F600
; --- FIX Y Backlash ---
G0 X25.721 Y38.053 F410
G1 X25.929 Y37.989 Z0 F600
; --- FIX X Backlash ---
G0 X25.129 Y37.989 F410
; --- FIX Y Backlash ---
G0 X25.129 Y38.689 F410
G1 X25.044 Y38.962 Z0 F600
G1 X24.991 Y39.243 Z0 F600
G1 X24.971 Y39.528 Z0 F600
G1 X24.984 Y39.813 Z0 F600
; --- FIX Y Backlash ---
G0 X24.984 Y39.113 F410
G1 X24.853 Y38.814 Z0 F600
G1 X24.721 Y38.598 Z0 F600
G1 X24.561 Y38.401 Z0 F600
G1 X24.375 Y38.23 Z0 F600
G1 X24.167 Y38.093 Z0 F600
G1 X23.94 Y37.999 Z0 F600
G1 X23.697 Y37.954 Z0 F600
G1 X23.441 Y37.967 Z0 F600
; --- FIX X Backlash ---
G0 X24.241 Y37.967 F410
G1 X24.44 Y37.928 Z0 F600
G1 X24.646 Y37.932 Z0 F600
G0 Z3.5 F600
; --- FIX Y Backlash ---
G0 X24.646 Y38.632 F410
G0 X28.117 Y43.954 Z3.5
G1 Z0 F600
G1 X28.122 Y43.976 Z0 F600
G1 X28.073 Y44.15 Z0 F600
; --- FIX X Backlash ---
G0 X27.273 Y44.15 F410
G1 X27.144 Y44.479 Z0 F600
G1 X27.13 Y44.501 Z0 F600
G1 X27.124 Y44.495 Z0 F600
G1 X27.121 Y44.49 Z0 F600
G1 Y44.487 Z0 F600
; --- FIX Y Backlash ---
G0 X27.121 Y43.787 F410
G1 X27.149 Y43.689 Z0 F600
; --- FIX X Backlash ---
G0 X27.949 Y43.689 F410
G1 X28.106 Y43.234 Z0 F600
G1 X28.117 Y43.254 Z0 F600
G0 Z3.5 F600
; --- FIX Y Backlash ---
G0 X28.117 Y43.954 F410
G0 X28.453 Y44.276 Z3.5
G1 Z0 F600
; --- FIX X Backlash ---
G0 X27.653 Y44.276 F410
G1 X27.502 Y44.662 Z0 F600
G1 X27.425 Y44.786 Z0 F600
G1 X27.348 Y44.866 Z0 F600
G1 X27.282 Y44.903 Z0 F600
G1 X27.186 Y44.918 Z0 F600
G1 X27.066 Y44.908 Z0 F600
G1 X26.96 Y44.87 Z0 F600
; --- FIX Y Backlash ---
G0 X26.96 Y44.17 F410
G1 X26.868 Y44.109 Z0 F600
G1 X26.796 Y44.029 Z0 F600
G1 X26.746 Y43.937 Z0 F600
G1 X26.72 Y43.834 Z0 F600
G1 Y43.728 Z0 F600
G1 X26.766 Y43.574 Z0 F600
; --- FIX X Backlash ---
G0 X27.566 Y43.574 F410
G1 X27.738 Y43.073 Z0 F600
G1 X27.892 Y42.512 Z0 F600
G1 X27.898 Y42.449 Z0 F600
; --- FIX Y Backlash ---
G0 X27.898 Y43.149 F410
G1 X28.04 Y43.251 Z0 F600
G1 X28.242 Y43.434 Z0 F600
G1 X28.396 Y43.623 Z0 F600
G1 X28.496 Y43.817 Z0 F600
G1 X28.533 Y43.987 Z0 F600
; --- FIX X Backlash ---
G0 X27.733 Y43.987 F410
G1 X27.653 Y44.276 Z0 F600
G0 Z3.5 F600
G0 X27.416 Y45.287 Z3.5
G1 Z0 F600
G1 X27.2 Y45.321 Z0 F600
G1 X26.979 Y45.302 Z0 F600
; --- FIX Y Backlash ---
G0 X26.979 Y44.602 F410
G1 X26.779 Y44.53 Z0 F600
G1 X26.606 Y44.415 Z0 F600
G1 X26.468 Y44.262 Z0 F600
G1 X26.37 Y44.082 Z0 F600
G1 X26.32 Y43.882 Z0 F600
G1 X26.323 Y43.668 Z0 F600
; --- FIX X Backlash ---
G0 X27.123 Y43.668 F410
G1 X27.186 Y43.45 Z0 F600
G1 X27.356 Y42.955 Z0 F600
G1 X27.497 Y42.44 Z0 F600
G1 X27.521 Y42.185 Z0 F600
G1 X27.493 Y41.937 Z0 F600
; --- FIX X Backlash ---
G0 X26.693 Y41.937 F410
G1 X26.599 Y41.701 Z0 F600
G1 X26.426 Y41.48 Z0 F600
; --- FIX X Backlash ---
G0 X27.226 Y41.48 F410
; --- FIX Y Backlash ---
G0 X27.226 Y42.18 F410
G1 X28.292 Y42.939 Z0 F600
G1 X28.533 Y43.158 Z0 F600
G1 X28.733 Y43.402 Z0 F600
G1 X28.875 Y43.68 Z0 F600
G1 X28.945 Y43.998 Z0 F600
; --- FIX X Backlash ---
G0 X28.145 Y43.998 F410
G1 X28.032 Y44.405 Z0 F600
G1 X27.861 Y44.841 Z0 F600
G1 X27.742 Y45.032 Z0 F600
G1 X27.596 Y45.186 Z0 F600
G1 X27.416 Y45.287 Z0 F600
G0 Z3.5 F600
; --- FIX X Backlash ---
G0 X28.216 Y45.287 F410
G0 X31.974 Y45.615 Z3.5
G1 Z0 F600
G1 X32.109 Y45.854 Z0 F600
G1 X32.266 Y46.079 Z0 F600
G1 X32.45 Y46.283 Z0 F600
; --- FIX X Backlash ---
G0 X31.65 Y46.283 F410
; --- FIX Y Backlash ---
G0 X31.65 Y45.583 F410
G1 X31.428 Y45.513 Z0 F600
G1 X31.186 Y45.466 Z0 F600
G1 X30.935 Y45.444 Z0 F600
G1 X30.684 Y45.452 Z0 F600
G1 X30.442 Y45.492 Z0 F600
; --- FIX Y Backlash ---
G0 X30.442 Y46.192 F410
G1 X30.22 Y46.27 Z0 F600
G1 X30.088 Y46.349 Z0 F600
; --- FIX X Backlash ---
G0 X30.888 Y46.349 F410
; --- FIX Y Backlash ---
G0 X30.888 Y45.649 F410
G1 X30.979 Y45.566 Z0 F600
G1 X31.352 Y45.334 Z0 F600
G1 X31.528 Y45.21 Z0 F600
G1 X31.681 Y45.064 Z0 F600
G1 X31.795 Y44.887 Z0 F600
G1 X31.859 Y44.666 Z0 F600
; --- FIX Y Backlash ---
G0 X31.859 Y45.366 F410
G1 X31.974 Y45.615 Z0 F600
G0 Z3.5 F600
G0 X37.144 Y47.639 Z3.5
G1 Z0 F600
G1 X37.214 Y47.684 Z0 F600
G1 X37.217 Y47.688 Z0 F600
G1 X37.232 Y47.719 Z0 F600
G1 X37.276 Y47.869 Z0 F600
G1 X37.349 Y48.041 Z0 F600
G1 X37.364 Y48.103 Z0 F600
; --- FIX X Backlash ---
G0 X36.564 Y48.103 F410
; --- FIX Y Backlash ---
G0 X36.564 Y47.403 F410
G1 X36.456 Y47.24 Z0 F600
G1 X36.337 Y46.991 Z0 F600
G1 X36.308 Y46.928 Z0 F600
G1 X36.344 Y46.939 Z0 F600
G0 Z3.5 F600
; --- FIX X Backlash ---
G0 X37.144 Y46.939 F410
; --- FIX Y Backlash ---
G0 X37.144 Y47.639 F410
G0 X37.653 Y47.733 Z3.5
G1 Z0 F600
G1 X37.732 Y47.919 Z0 F600
G1 X37.767 Y48.068 Z0 F600
G1 X37.774 Y48.218 Z0 F600
G1 X37.756 Y48.347 Z0 F600
G1 X37.722 Y48.43 Z0 F600
G1 X37.686 Y48.472 Z0 F600
G1 X37.64 Y48.496 Z0 F600
; --- FIX X Backlash ---
G0 X36.84 Y48.496 F410
G1 X36.679 Y48.511 Z0 F600
G1 X36.595 Y48.517 Z0 F600
G1 X36.544 Z0 F600
G1 X36.454 Y48.497 Z0 F600
G1 X36.375 Y48.462 Z0 F600
G1 X36.312 Y48.417 Z0 F600
; --- FIX Y Backlash ---
G0 X36.312 Y47.717 F410
G1 X36.251 Y47.655 Z0 F600
G1 X36.105 Y47.434 Z0 F600
G1 X35.969 Y47.15 Z0 F600
G1 X35.823 Y46.824 Z0 F600
G1 X35.642 Y46.497 Z0 F600
; --- FIX X Backlash ---
G0 X36.442 Y46.497 F410
G1 X36.593 Y46.483 Z0 F600
G1 X36.868 Y46.48 Z0 F600
G1 X37.114 Y46.51 Z0 F600
; --- FIX Y Backlash ---
G0 X37.114 Y47.21 F410
G1 X37.312 Y47.272 Z0 F600
G1 X37.472 Y47.373 Z0 F600
G1 X37.516 Y47.417 Z0 F600
G1 X37.565 Y47.488 Z0 F600
G1 X37.606 Y47.573 Z0 F600
G1 X37.653 Y47.733 Z0 F600
G0 Z3.5 F600
G0 X37.939 Y48.792 Z3.5
G1 Z0 F600
; --- FIX X Backlash ---
G0 X37.139 Y48.792 F410
G1 X36.955 Y48.886 Z0 F600
G1 X36.711 Y48.91 Z0 F600
G1 X36.606 Y48.917 Z0 F600
G1 X36.501 Z0 F600
G1 X36.327 Y48.879 Z0 F600
; --- FIX Y Backlash ---
G0 X36.327 Y48.179 F410
G1 X36.178 Y48.113 Z0 F600
G1 X36.049 Y48.021 Z0 F600
G1 X35.939 Y47.908 Z0 F600
G1 X35.757 Y47.634 Z0 F600
G1 X35.608 Y47.322 Z0 F600
G1 X35.465 Y47.004 Z0 F600
G1 X35.302 Y46.71 Z0 F600
G1 X35.205 Y46.582 Z0 F600
G1 X35.093 Y46.471 Z0 F600
G1 X34.963 Y46.383 Z0 F600
G1 X34.812 Y46.319 Z0 F600
G1 X34.679 Z0 F600
G1 X34.586 Y46.315 Z0 F600
G1 X34.529 Y46.309 Z0 F600
G1 X34.503 Y46.299 Z0 F600
G1 Y46.294 Z0 F600
; --- FIX X Backlash ---
G0 X35.303 Y46.294 F410
G1 X35.389 Y46.263 Z0 F600
G1 X35.565 Y46.228 Z0 F600
G1 X35.963 Y46.16 Z0 F600
G1 X36.258 Y46.113 Z0 F600
G1 X36.572 Y46.083 Z0 F600
G1 X36.891 Y46.08 Z0 F600
G1 X37.199 Y46.118 Z0 F600
; --- FIX Y Backlash ---
G0 X37.199 Y46.818 F410
G1 X37.481 Y46.907 Z0 F600
G1 X37.724 Y47.059 Z0 F600
G1 X37.826 Y47.162 Z0 F600
G1 X37.912 Y47.285 Z0 F600
G1 X37.98 Y47.43 Z0 F600
G1 X38.03 Y47.598 Z0 F600
G1 X38.114 Y47.794 Z0 F600
G1 X38.164 Y48.013 Z0 F600
G1 X38.176 Y48.237 Z0 F600
G1 X38.145 Y48.452 Z0 F600
; --- FIX X Backlash ---
G0 X37.345 Y48.452 F410
G1 X37.267 Y48.642 Z0 F600
G1 X37.139 Y48.792 Z0 F600
G0 Z3.5 F600
; --- FIX X Backlash ---
G0 X37.939 Y48.792 F410
; --- FIX Y Backlash ---
G0 X37.939 Y48.092 F410
G0 X41.004 Y45.374 Z3.5
G1 Z0 F600
; --- FIX Y Backlash ---
G0 X41.004 Y46.074 F410
G1 X41.365 Y46.17 Z0 F600
G1 X41.568 Y46.174 Z0 F600
G1 X41.677 Y46.167 Z0 F600
G1 X41.755 Z0 F600
G1 X41.805 Z0 F600
G1 X41.831 Y46.178 Z0 F600
G1 X41.81 Y46.205 Z0 F600
; --- FIX X Backlash ---
G0 X41.01 Y46.205 F410
G1 X40.949 Y46.24 Z0 F600
G1 X40.74 Y46.348 Z0 F600
G1 X40.411 Y46.578 Z0 F600
G1 X40.147 Y46.885 Z0 F600
G1 X40.05 Y47.059 Z0 F600
G1 X39.982 Y47.241 Z0 F600
G1 X39.948 Y47.43 Z0 F600
G1 X39.952 Y47.621 Z0 F600
; --- FIX Y Backlash ---
G0 X39.952 Y46.921 F410
G1 X39.919 Y46.738 Z0 F600
G1 X39.941 Y46.553 Z0 F600
; --- FIX X Backlash ---
G0 X40.741 Y46.553 F410
G1 X40.797 Y46.368 Z0 F600
G1 X40.867 Y46.181 Z0 F600
G1 X40.93 Y45.993 Z0 F600
G1 X40.966 Y45.805 Z0 F600
G1 X40.954 Y45.617 Z0 F600
; --- FIX X Backlash ---
G0 X40.154 Y45.617 F410
G1 X40.075 Y45.428 Z0 F600
G1 X40.072 Y45.375 Z0 F600
G1 X40.119 Y45.361 Z0 F600
; --- FIX X Backlash ---
G0 X40.919 Y45.361 F410
G1 X41.004 Y45.374 Z0 F600
G0 Z3.5 F600
G0 X46.127 Y43.1 Z3.5
G1 Z0 F600
G1 X46.243 Y43.147 Z0 F600
; --- FIX Y Backlash ---
G0 X46.243 Y43.847 F410
G1 X46.485 Y43.96 Z0 F600
; --- FIX X Backlash ---
G0 X45.685 Y43.96 F410
; --- FIX Y Backlash ---
G0 X45.685 Y43.26 F410
G1 X45.464 Y43.208 Z0 F600
G1 X45.227 Y43.129 Z0 F600
; --- FIX X Backlash ---
G0 X46.027 Y43.129 F410
G1 X46.085 Y43.104 Z0 F600
G1 X46.112 Y43.099 Z0 F600
G1 X46.127 Z0 F600
G0 Z3.5 F600
; --- FIX Y Backlash ---
G0 X46.127 Y43.799 F410
G0 X47.07 Y43.884 Z3.5
G1 Z0 F600
G1 X47.088 Y43.922 Z0 F600
G1 Y43.935 Z0 F600
G1 X47.047 Y44.04 Z0 F600
; --- FIX X Backlash ---
G0 X46.247 Y44.04 F410
G1 X46.158 Y44.21 Z0 F600
G1 X46.067 Y44.326 Z0 F600
G1 X45.985 Y44.386 Z0 F600
G1 X45.882 Y44.414 Z0 F600
G1 X45.855 Y44.41 Z0 F600
; --- FIX Y Backlash ---
G0 X45.855 Y43.71 F410
G1 X45.351 Y43.592 Z0 F600
G1 X44.807 Y43.411 Z0 F600
G1 X44.494 Y43.341 Z0 F600
; --- FIX X Backlash ---
G0 X45.294 Y43.341 F410
G1 X45.42 Y43.155 Z0 F600
G1 X45.552 Y43.001 Z0 F600
G1 X45.689 Y42.875 Z0 F600
G1 X45.835 Y42.776 Z0 F600
G1 X45.971 Y42.717 Z0 F600
G1 X46.098 Y42.696 Z0 F600
G1 X46.222 Y42.708 Z0 F600
; --- FIX Y Backlash ---
G0 X46.222 Y43.408 F410
G1 X46.399 Y43.479 Z0 F600
G1 X46.719 Y43.628 Z0 F600
G1 X47.009 Y43.819 Z0 F600
G1 X47.07 Y43.884 Z0 F600
G0 Z3.5 F600
G0 X47.411 Y44.208 Z3.5
G1 Z0 F600
; --- FIX X Backlash ---
G0 X46.611 Y44.208 F410
G1 X46.496 Y44.427 Z0 F600
G1 X46.347 Y44.617 Z0 F600
G1 X46.16 Y44.753 Z0 F600
G1 X45.933 Y44.813 Z0 F600
G1 X45.86 Z0 F600
G1 X45.783 Y44.804 Z0 F600
; --- FIX Y Backlash ---
G0 X45.783 Y44.104 F410
G1 X45.244 Y43.978 Z0 F600
G1 X44.7 Y43.797 Z0 F600
G1 X44.428 Y43.736 Z0 F600
G1 X44.158 Y43.722 Z0 F600
; --- FIX Y Backlash ---
G0 X44.158 Y44.422 F410
G1 X43.89 Y44.477 Z0 F600
G1 X43.627 Y44.62 Z0 F600
G1 X43.616 Y44.616 Z0 F600
G1 X43.619 Y44.576 Z0 F600
; --- FIX Y Backlash ---
G0 X43.619 Y43.876 F410
G1 X43.66 Y43.8 Z0 F600
; --- FIX X Backlash ---
G0 X44.46 Y43.8 F410
G1 X44.53 Y43.698 Z0 F600
G1 X44.618 Y43.578 Z0 F600
G1 X44.812 Y43.324 Z0 F600
G1 X44.968 Y43.11 Z0 F600
G1 X45.103 Y42.912 Z0 F600
G1 X45.262 Y42.724 Z0 F600
G1 X45.443 Y42.558 Z0 F600
G1 X45.642 Y42.424 Z0 F600
G1 X45.855 Y42.332 Z0 F600
G1 X46.082 Y42.292 Z0 F600
G1 X46.317 Y42.315 Z0 F600
; --- FIX Y Backlash ---
G0 X46.317 Y43.015 F410
G1 X46.559 Y43.111 Z0 F600
G1 X46.914 Y43.277 Z0 F600
G1 X47.27 Y43.512 Z0 F600
G1 X47.404 Y43.657 Z0 F600
G1 X47.484 Y43.82 Z0 F600
G1 X47.492 Y44.004 Z0 F600
; --- FIX X Backlash ---
G0 X46.692 Y44.004 F410
G1 X46.611 Y44.208 Z0 F600
G0 Z3.5 F600
; --- FIX X Backlash ---
G0 X47.411 Y44.208 F410
; --- FIX Y Backlash ---
G0 X47.411 Y43.508 F410
G0 X48.449 Y40.375 Z3.5
G1 Z0 F600
; --- FIX Y Backlash ---
G0 X48.449 Y41.075 F410
G1 X48.532 Y41.18 Z0 F600
; --- FIX X Backlash ---
G0 X47.732 Y41.18 F410
; --- FIX Y Backlash ---
G0 X47.732 Y40.48 F410
G1 X47.642 Y40.376 Z0 F600
G1 X47.571 Y40.263 Z0 F600
; --- FIX X Backlash ---
G0 X48.371 Y40.263 F410
; --- FIX Y Backlash ---
G0 X48.371 Y40.963 F410
G1 X48.449 Y41.075 Z0 F600
G0 Z3.5 F600
; --- FIX X Backlash ---
G0 X47.649 Y41.075 F410
; --- FIX Y Backlash ---
G0 X47.649 Y40.375 F410
G0 X47.549 Y39.049 Z3.5
G1 Z0 F600
; --- FIX Y Backlash ---
G0 X47.549 Y39.749 F410
G1 X47.462 Y40.167 Z0 F600
G1 X47.447 Y40.377 Z0 F600
G1 X47.456 Y40.583 Z0 F600
G1 X47.496 Y40.78 Z0 F600
; --- FIX X Backlash ---
G0 X48.296 Y40.78 F410
G1 X48.371 Y40.963 Z0 F600
; --- FIX X Backlash ---
G0 X47.571 Y40.963 F410
; --- FIX Y Backlash ---
G0 X47.571 Y40.263 F410
G1 X47.403 Y39.997 Z0 F600
G1 X47.223 Y39.74 Z0 F600
G1 X47.006 Y39.526 Z0 F600
G1 X46.725 Y39.389 Z0 F600
; --- FIX X Backlash ---
G0 X47.525 Y39.389 F410
G1 X47.802 Y39.251 Z0 F600
G1 X48.067 Y39.064 Z0 F600
G1 X48.299 Y38.858 Z0 F600
G1 X48.479 Y38.661 Z0 F600
; --- FIX X Backlash ---
G0 X47.679 Y38.661 F410
; --- FIX Y Backlash ---
G0 X47.679 Y39.361 F410
G1 X47.549 Y39.749 Z0 F600
G0 Z3.5 F600
; --- FIX X Backlash ---
G0 X48.349 Y39.749 F410
; --- FIX Y Backlash ---
G0 X48.349 Y39.049 F410
G0 X54.993 Y36.509 Z3.5
G1 Z0 F600
; --- FIX Y Backlash ---
G0 X54.993 Y37.209 F410
G1 X55.102 Y37.343 Z0 F600
G1 X55.153 Y37.401 Z0 F600
G1 X55.185 Y37.446 Z0 F600
G1 Y37.47 Z0 F600
G1 X55.139 Z0 F600
G1 X55.104 Y37.473 Z0 F600
G1 X55.071 Z0 F600
; --- FIX X Backlash ---
G0 X54.271 Y37.473 F410
G1 X54.148 Y37.432 Z0 F600
; --- FIX Y Backlash ---
G0 X54.148 Y36.732 F410
G1 X54.086 Y36.634 Z0 F600
G1 X54.089 Y36.51 Z0 F600
; --- FIX X Backlash ---
G0 X54.889 Y36.51 F410
G1 X54.958 Y36.392 Z0 F600
; --- FIX Y Backlash ---
G0 X54.958 Y37.092 F410
G1 X54.993 Y37.209 Z0 F600
G0 Z3.5 F600
; --- FIX Y Backlash ---
G0 X54.993 Y36.509 F410
G0 X55.839 Y33.679 Z3.5
G1 Z0 F600
G1 X55.934 Y33.705 Z0 F600
G1 X55.979 Y33.734 Z0 F600
G1 X56 Y33.766 Z0 F600
G1 Y33.776 Z0 F600
; --- FIX X Backlash ---
G0 X55.2 Y33.776 F410
; --- FIX Y Backlash ---
G0 X55.2 Y34.476 F410
G1 X55.098 Y34.653 Z0 F600
G1 X54.857 Y34.936 Z0 F600
G1 X54.815 Y34.98 Z0 F600
; --- FIX Y Backlash ---
G0 X54.815 Y34.28 F410
G1 X54.637 Y34.09 Z0 F600
G1 X54.344 Y33.917 Z0 F600
G1 X54.035 Y33.813 Z0 F600
G1 X53.943 Y33.797 Z0 F600
; --- FIX X Backlash ---
G0 X54.743 Y33.797 F410
G1 X55.079 Y33.729 Z0 F600
G1 X55.466 Y33.674 Z0 F600
G1 X55.839 Y33.679 Z0 F600
G0 Z3.5 F600
G0 X56.377 Y33.609 Z3.5
G1 Z0 F600
; --- FIX Y Backlash ---
G0 X56.377 Y34.309 F410
G1 X56.424 Y34.548 Z0 F600
; --- FIX X Backlash ---
G0 X55.624 Y34.548 F410
G1 X55.425 Y34.887 Z0 F600
G1 X55.155 Y35.203 Z0 F600
G1 X54.872 Y35.496 Z0 F600
G1 X54.636 Y35.763 Z0 F600
; --- FIX Y Backlash ---
G0 X54.636 Y35.063 F410
G1 X54.645 Y34.92 Z0 F600
G1 X54.63 Y34.79 Z0 F600
G1 X54.595 Y34.675 Z0 F600
G1 X54.54 Y34.572 Z0 F600
G1 X54.384 Y34.405 Z0 F600
G1 X54.177 Y34.283 Z0 F600
G1 X53.936 Y34.202 Z0 F600
G1 X53.679 Y34.156 Z0 F600
G1 X53.424 Y34.143 Z0 F600
G1 X52.996 Y34.164 Z0 F600
G1 X52.766 Y34.139 Z0 F600
G1 X52.663 Y34.104 Z0 F600
G1 X52.583 Y34.05 Z0 F600
G1 X52.537 Y33.974 Z0 F600
G1 Y33.872 Z0 F600
; --- FIX X Backlash ---
G0 X53.337 Y33.872 F410
G1 X53.474 Y33.665 Z0 F600
G1 X53.65 Y33.537 Z0 F600
G1 X53.857 Y33.468 Z0 F600
G1 X54.083 Y33.44 Z0 F600
G1 X54.562 Y33.425 Z0 F600
G1 X55.014 Y33.335 Z0 F600
G1 X55.44 Y33.274 Z0 F600
G1 X55.896 Y33.279 Z0 F600
; --- FIX Y Backlash ---
G0 X55.896 Y33.979 F410
G1 X56.099 Y34.035 Z0 F600
G1 X56.264 Y34.141 Z0 F600
G1 X56.377 Y34.309 Z0 F600
G0 Z3.5 F600
; --- FIX X Backlash ---
G0 X55.577 Y34.309 F410
G0 X49.35 Y34.618 Z3.5
G1 Z0 F600
G1 X48.945 Y34.854 Z0 F600
G1 X48.913 Y34.872 Z0 F600
; --- FIX Y Backlash ---
G0 X48.913 Y34.172 F410
G1 X48.933 Y34.101 Z0 F600
G1 X48.936 Y34.095 Z0 F600
G1 X48.95 Y34.077 Z0 F600
G1 X48.973 Y34.055 Z0 F600
G1 X49.011 Y34.031 Z0 F600
; --- FIX X Backlash ---
G0 X49.811 Y34.031 F410
G1 X50.074 Y33.92 Z0 F600
G1 X50.183 Y33.898 Z0 F600
G1 X50.15 Y33.918 Z0 F600
G0 Z3.5 F600
; --- FIX X Backlash ---
G0 X49.35 Y33.918 F410
; --- FIX Y Backlash ---
G0 X49.35 Y34.618 F410
G0 X48.483 Y35.125 Z3.5
G1 Z0 F600
; --- FIX Y Backlash ---
G0 X48.483 Y34.425 F410
G1 X48.498 Y34.172 Z0 F600
; --- FIX X Backlash ---
G0 X49.298 Y34.172 F410
G1 X49.36 Y33.95 Z0 F600
G1 X49.397 Y33.879 Z0 F600
G1 X49.455 Y33.805 Z0 F600
G1 X49.526 Y33.739 Z0 F600
G1 X49.619 Y33.677 Z0 F600
G1 X49.958 Y33.534 Z0 F600
G1 X50.316 Y33.464 Z0 F600
G1 X50.431 Y33.471 Z0 F600
G1 X50.514 Y33.499 Z0 F600
G1 X50.573 Y33.544 Z0 F600
; --- FIX Y Backlash ---
G0 X50.573 Y34.244 F410
G1 X50.614 Y34.309 Z0 F600
G1 X50.636 Y34.503 Z0 F600
G1 X50.605 Y34.71 Z0 F600
G1 X50.58 Y34.769 Z0 F600
G1 X50.537 Y34.831 Z0 F600
; --- FIX X Backlash ---
G0 X49.737 Y34.831 F410
G1 X49.677 Y34.888 Z0 F600
G1 X49.567 Y34.955 Z0 F600
G1 X49.136 Y35.207 Z0 F600
G1 X48.661 Y35.462 Z0 F600
G1 X48.534 Y35.552 Z0 F600
; --- FIX Y Backlash ---
G0 X48.534 Y34.852 F410
G1 X48.483 Y34.425 Z0 F600
G0 Z3.5 F600
G0 X48.357 Y33.536 Z3.5
G1 Z0 F600
; --- FIX X Backlash ---
G0 X49.157 Y33.536 F410
G1 X49.28 Y33.422 Z0 F600
G1 X49.432 Y33.322 Z0 F600
G1 X49.839 Y33.15 Z0 F600
G1 X50.291 Y33.061 Z0 F600
G1 X50.507 Y33.075 Z0 F600
; --- FIX Y Backlash ---
G0 X50.507 Y33.775 F410
G1 X50.705 Y33.841 Z0 F600
G1 X50.873 Y33.97 Z0 F600
G1 X51 Y34.172 Z0 F600
G1 X51.04 Y34.508 Z0 F600
G1 X50.993 Y34.822 Z0 F600
; --- FIX X Backlash ---
G0 X50.193 Y34.822 F410
G1 X50.131 Y34.964 Z0 F600
G1 X50.041 Y35.094 Z0 F600
G1 X49.921 Y35.207 Z0 F600
G1 X49.768 Y35.3 Z0 F600
G1 X49.331 Y35.556 Z0 F600
G1 X48.873 Y35.802 Z0 F600
G1 X48.668 Y35.948 Z0 F600
G1 X48.497 Y36.124 Z0 F600
G1 X48.372 Y36.338 Z0 F600
G1 X48.306 Y36.604 Z0 F600
; --- FIX Y Backlash ---
G0 X48.306 Y35.904 F410
G1 X48.165 Y35.128 Z0 F600
G1 X48.081 Y34.436 Z0 F600
G1 X48.101 Y34.105 Z0 F600
; --- FIX X Backlash ---
G0 X48.901 Y34.105 F410
G1 X48.986 Y33.8 Z0 F600
G1 X49.06 Y33.662 Z0 F600
G1 X49.157 Y33.536 Z0 F600
G0 Z3.5 F600
; --- FIX X Backlash ---
G0 X48.357 Y33.536 F410
G0 X47.572 Y29.529 Z3.5
G1 Z0 F600
; --- FIX X Backlash ---
G0 X48.372 Y29.529 F410
; --- FIX Y Backlash ---
G0 X48.372 Y30.229 F410
G1 X48.5 Y30.453 Z0 F600
G1 X48.655 Y30.661 Z0 F600
G1 X48.835 Y30.846 Z0 F600
G1 X49.038 Y30.999 Z0 F600
G1 X49.258 Y31.112 Z0 F600
G1 X49.493 Y31.177 Z0 F600
G1 X49.74 Y31.186 Z0 F600
; --- FIX X Backlash ---
G0 X48.94 Y31.186 F410
G1 X48.848 Y31.218 Z0 F600
G1 X48.752 Y31.227 Z0 F600
; --- FIX Y Backlash ---
G0 X48.752 Y30.527 F410
G1 X48.403 Y30.431 Z0 F600
G1 X48.041 Y30.351 Z0 F600
G1 X47.687 Y30.325 Z0 F600
; --- FIX Y Backlash ---
G0 X47.687 Y31.025 F410
G1 X47.359 Y31.088 Z0 F600
; --- FIX X Backlash ---
G0 X48.159 Y31.088 F410
; --- FIX Y Backlash ---
G0 X48.159 Y30.388 F410
G1 X48.231 Y30.107 Z0 F600
G1 X48.258 Y29.779 Z0 F600
G1 X48.269 Y29.371 Z0 F600
G1 X48.276 Y29.297 Z0 F600
; --- FIX Y Backlash ---
G0 X48.276 Y29.997 F410
G1 X48.372 Y30.229 Z0 F600
G0 Z3.5 F600
; --- FIX X Backlash ---
G0 X47.572 Y30.229 F410
; --- FIX Y Backlash ---
G0 X47.572 Y29.529 F410
G0 X45.312 Y24.766 Z3.5
G1 Z0 F600
; --- FIX Y Backlash ---
G0 X45.312 Y25.466 F410
G1 X45.296 Y25.567 Z0 F600
G1 X45.234 Y25.724 Z0 F600
G1 X45.165 Y25.884 Z0 F600
G1 X45.151 Y25.86 Z0 F600
; --- FIX Y Backlash ---
G0 X45.151 Y25.16 F410
G1 X45.185 Y25.015 Z0 F600
; --- FIX X Backlash ---
G0 X45.985 Y25.015 F410
G1 X46.106 Y24.696 Z0 F600
G1 Y24.692 Z0 F600
; --- FIX Y Backlash ---
G0 X46.106 Y25.392 F410
G1 X46.112 Y25.466 Z0 F600
G0 Z3.5 F600
G0 X46.227 Y26.29 Z3.5
G1 Z0 F600
; --- FIX X Backlash ---
G0 X45.427 Y26.29 F410
G1 X45.352 Y26.645 Z0 F600
; --- FIX Y Backlash ---
G0 X45.352 Y25.945 F410
G1 X45.258 Y25.876 Z0 F600
G1 X45.059 Y25.698 Z0 F600
G1 X44.9 Y25.516 Z0 F600
G1 X44.783 Y25.323 Z0 F600
G1 X44.735 Y25.186 Z0 F600
; --- FIX X Backlash ---
G0 X45.535 Y25.186 F410
G1 X45.602 Y24.898 Z0 F600
G1 X45.745 Y24.521 Z0 F600
G1 X45.827 Y24.382 Z0 F600
G1 X45.919 Y24.271 Z0 F600
G1 X46.014 Y24.198 Z0 F600
G1 X46.096 Y24.163 Z0 F600
G1 X46.134 Z0 F600
G1 X46.2 Y24.174 Z0 F600
G1 X46.26 Y24.195 Z0 F600
G1 X46.292 Y24.213 Z0 F600
; --- FIX Y Backlash ---
G0 X46.292 Y24.913 F410
G1 X46.39 Y25.009 Z0 F600
G1 X46.461 Y25.138 Z0 F600
G1 X46.505 Y25.304 Z0 F600
G1 X46.514 Y25.488 Z0 F600
G1 X46.484 Y25.673 Z0 F600
; --- FIX X Backlash ---
G0 X45.684 Y25.673 F410
G1 X45.607 Y25.868 Z0 F600
G1 X45.427 Y26.29 Z0 F600
G0 Z3.5 F600
G0 X45.006 Y26.887 Z3.5
G1 Z0 F600
; --- FIX Y Backlash ---
G0 X45.006 Y26.187 F410
G1 X44.775 Y25.981 Z0 F600
G1 X44.575 Y25.753 Z0 F600
G1 X44.42 Y25.497 Z0 F600
G1 X44.319 Y25.207 Z0 F600
; --- FIX X Backlash ---
G0 X45.119 Y25.207 F410
G1 X45.218 Y24.781 Z0 F600
G1 X45.383 Y24.347 Z0 F600
G1 X45.499 Y24.151 Z0 F600
G1 X45.64 Y23.982 Z0 F600
G1 X45.81 Y23.85 Z0 F600
G1 X46.014 Y23.763 Z0 F600
G1 X46.165 Z0 F600
G1 X46.302 Y23.785 Z0 F600
G1 X46.425 Y23.829 Z0 F600
; --- FIX Y Backlash ---
G0 X46.425 Y24.529 F410
G1 X46.535 Y24.591 Z0 F600
G1 X46.712 Y24.765 Z0 F600
G1 X46.835 Y24.987 Z0 F600
G1 X46.902 Y25.242 Z0 F600
G1 X46.915 Y25.512 Z0 F600
G1 X46.872 Y25.778 Z0 F600
; --- FIX X Backlash ---
G0 X46.072 Y25.778 F410
G1 X45.975 Y26.025 Z0 F600
G1 X45.81 Y26.411 Z0 F600
G1 X45.724 Y26.819 Z0 F600
G1 X45.727 Y27.021 Z0 F600
G1 X45.772 Y27.215 Z0 F600
; --- FIX X Backlash ---
G0 X46.572 Y27.215 F410
G1 X46.664 Y27.398 Z0 F600
G1 X46.81 Y27.567 Z0 F600
G1 X46.855 Y27.625 Z0 F600
G1 X46.898 Y27.683 Z0 F600
G1 X46.872 Y27.663 Z0 F600
; --- FIX X Backlash ---
G0 X46.072 Y27.663 F410
; --- FIX Y Backlash ---
G0 X46.072 Y26.963 F410
G1 X46.014 Y26.912 Z0 F600
G1 X45.516 Y26.558 Z0 F600
G1 X45.006 Y26.187 Z0 F600
G0 Z3.5 F600
G0 X42.562 Y22.612 Z3.5
G1 Z0 F600
; --- FIX Y Backlash ---
G0 X42.562 Y23.312 F410
G1 X42.512 Y23.373 Z0 F600
G1 X42.521 Y23.357 Z0 F600
; --- FIX X Backlash ---
G0 X43.321 Y23.357 F410
; --- FIX Y Backlash ---
G0 X43.321 Y22.657 F410
G1 X43.415 Y22.544 Z0 F600
; --- FIX X Backlash ---
G0 X42.615 Y22.544 F410
; --- FIX Y Backlash ---
G0 X42.615 Y23.244 F410
G1 X42.562 Y23.312 Z0 F600
G0 Z3.5 F600
G0 X41.1 Y23.619 Z3.5
G1 Z0 F600
; --- FIX X Backlash ---
G0 X41.9 Y23.619 F410
G1 X42.357 Y23.687 Z0 F600
G1 X42.581 Z0 F600
G1 X42.79 Y23.66 Z0 F600
; --- FIX Y Backlash ---
G0 X42.79 Y22.96 F410
G1 X42.975 Y22.907 Z0 F600
G1 X43.126 Y22.827 Z0 F600
; --- FIX X Backlash ---
G0 X42.326 Y22.827 F410
; --- FIX Y Backlash ---
G0 X42.326 Y23.527 F410
G1 X42.047 Y23.712 Z0 F600
G1 X41.734 Y23.903 Z0 F600
G1 X41.592 Y23.999 Z0 F600
G1 X41.473 Y24.096 Z0 F600
G1 X41.388 Y24.192 Z0 F600
G1 X41.347 Y24.289 Z0 F600
; --- FIX Y Backlash ---
G0 X41.347 Y23.589 F410
G1 X41.22 Y23.357 Z0 F600
G1 X41.066 Y23.142 Z0 F600
G1 X40.889 Y22.946 Z0 F600
G1 X40.691 Y22.77 Z0 F600
; --- FIX X Backlash ---
G0 X41.491 Y22.77 F410
; --- FIX Y Backlash ---
G0 X41.491 Y23.47 F410
G1 X41.9 Y23.619 Z0 F600
G0 Z3.5 F600
; --- FIX X Backlash ---
G0 X41.1 Y23.619 F410
; --- FIX Y Backlash ---
G0 X41.1 Y22.919 F410
G0 X36.117 Y21.406 Z3.5
G1 Z0 F600
; --- FIX X Backlash ---
G0 X36.917 Y21.406 F410
; --- FIX Y Backlash ---
G0 X36.917 Y22.106 F410
G1 X36.973 Y22.228 Z0 F600
G1 X36.956 Z0 F600
G1 X36.928 Y22.199 Z0 F600
; --- FIX Y Backlash ---
G0 X36.928 Y21.499 F410
G1 X36.882 Y21.433 Z0 F600
; --- FIX X Backlash ---
G0 X36.082 Y21.433 F410
G1 X35.948 Y21.102 Z0 F600
G1 Y21.096 Z0 F600
; --- FIX X Backlash ---
G0 X36.748 Y21.096 F410
; --- FIX Y Backlash ---
G0 X36.748 Y21.796 F410
G1 X36.917 Y22.106 Z0 F600
G0 Z3.5 F600
G0 X37.391 Y22.622 Z3.5
G1 Z0 F600
; --- FIX X Backlash ---
G0 X36.591 Y22.622 F410
G1 X36.207 Y22.631 Z0 F600
G1 X36.173 Z0 F600
G1 X36.027 Y22.61 Z0 F600
; --- FIX Y Backlash ---
G0 X36.027 Y21.91 F410
G1 X35.925 Y21.857 Z0 F600
G1 X35.822 Y21.76 Z0 F600
G1 X35.729 Y21.626 Z0 F600
G1 X35.563 Y21.218 Z0 F600
G1 X35.483 Y20.83 Z0 F600
G1 Y20.805 Z0 F600
G1 X35.495 Y20.773 Z0 F600
G1 X35.51 Y20.748 Z0 F600
G1 X35.528 Y20.729 Z0 F600
; --- FIX X Backlash ---
G0 X36.328 Y20.729 F410
G1 X36.445 Y20.656 Z0 F600
G1 X36.589 Y20.617 Z0 F600
G1 X36.749 Z0 F600
G1 X36.885 Y20.65 Z0 F600
; --- FIX Y Backlash ---
G0 X36.885 Y21.35 F410
G1 X36.972 Y21.406 Z0 F600
G1 X37.057 Y21.531 Z0 F600
G1 X37.274 Y21.924 Z0 F600
G1 X37.485 Y22.384 Z0 F600
G1 X37.615 Y22.602 Z0 F600
; --- FIX X Backlash ---
G0 X36.815 Y22.602 F410
G1 X36.591 Y22.622 Z0 F600
G0 Z3.5 F600
G0 X35.517 Y22.723 Z3.5
G1 Z0 F600
; --- FIX Y Backlash ---
G0 X35.517 Y22.023 F410
G1 X35.375 Y21.817 Z0 F600
G1 X35.179 Y21.335 Z0 F600
G1 X35.079 Y20.855 Z0 F600
G1 X35.09 Y20.724 Z0 F600
G1 X35.128 Y20.608 Z0 F600
; --- FIX X Backlash ---
G0 X35.928 Y20.608 F410
G1 X35.99 Y20.505 Z0 F600
G1 X36.072 Y20.417 Z0 F600
G1 X36.282 Y20.286 Z0 F600
G1 X36.533 Y20.218 Z0 F600
G1 X36.797 Y20.215 Z0 F600
; --- FIX Y Backlash ---
G0 X36.797 Y20.915 F410
G1 X37.047 Y20.979 Z0 F600
G1 X37.256 Y21.114 Z0 F600
G1 X37.398 Y21.322 Z0 F600
G1 X37.632 Y21.746 Z0 F600
G1 X37.839 Y22.198 Z0 F600
G1 X37.963 Y22.405 Z0 F600
G1 X38.116 Y22.583 Z0 F600
G1 X38.311 Y22.722 Z0 F600
G1 X38.559 Y22.809 Z0 F600
G1 X38.633 Y22.824 Z0 F600
G1 X38.665 Y22.84 Z0 F600
G1 Y22.847 Z0 F600
; --- FIX X Backlash ---
G0 X37.865 Y22.847 F410
G1 X37.472 Y22.918 Z0 F600
G1 X37.004 Y22.987 Z0 F600
G1 X36.613 Y23.021 Z0 F600
G1 X36.221 Y23.031 Z0 F600
G1 X36.15 Y23.034 Z0 F600
G1 X35.902 Y22.996 Z0 F600
; --- FIX Y Backlash ---
G0 X35.902 Y22.296 F410
G1 X35.692 Y22.187 Z0 F600
G1 X35.517 Y22.023 Z0 F600
G0 Z3.5 F600
G0 X32.525 Y21.66 Z3.5
G1 Z0 F600
; --- FIX Y Backlash ---
G0 X32.525 Y22.36 F410
G1 X32.499 Y22.554 Z0 F600
; --- FIX Y Backlash ---
G0 X32.499 Y21.854 F410
G1 X32.515 Y21.654 Z0 F600
G1 X32.505 Y21.461 Z0 F600
; --- FIX Y Backlash ---
G0 X32.505 Y22.161 F410
G1 X32.525 Y22.36 Z0 F600
G0 Z3.5 F600
G0 X32.393 Y23.202 Z3.5
G1 Z0 F600
G1 X32.383 Y23.515 Z0 F600
; --- FIX X Backlash ---
G0 X33.183 Y23.515 F410
G1 X33.259 Y23.809 Z0 F600
; --- FIX X Backlash ---
G0 X32.459 Y23.809 F410
; --- FIX Y Backlash ---
G0 X32.459 Y23.109 F410
G1 X32.167 Y23.026 Z0 F600
G1 X31.845 Y22.984 Z0 F600
G1 X31.538 Y22.969 Z0 F600
G1 X31.291 Y22.972 Z0 F600
; --- FIX X Backlash ---
G0 X32.091 Y22.972 F410
G1 X32.479 Y22.8 Z0 F600
G1 X32.841 Y22.544 Z0 F600
G1 X32.997 Y22.39 Z0 F600
G1 X33.129 Y22.223 Z0 F600
G1 X33.232 Y22.043 Z0 F600
G1 X33.299 Y21.854 Z0 F600
; --- FIX X Backlash ---
G0 X32.499 Y21.854 F410
; --- FIX Y Backlash ---
G0 X32.499 Y22.554 F410
G1 X32.393 Y23.202 Z0 F600
G0 Z3.5 F600
; --- FIX X Backlash ---
G0 X33.193 Y23.202 F410
; --- FIX Y Backlash ---
G0 X33.193 Y22.502 F410
G0 X36.758 Y15.341 Z3.5
G1 Z0 F600
; --- FIX Y Backlash ---
G0 X36.758 Y16.041 F410
G1 X37.02 Y16.261 Z0 F600
G1 X37.11 Y16.35 Z0 F600
; --- FIX X Backlash ---
G0 X36.31 Y16.35 F410
G1 X36.132 Y16.498 Z0 F600
G1 X35.939 Y16.778 Z0 F600
G1 X35.818 Y17.086 Z0 F600
G1 X35.797 Y17.2 Z0 F600
; --- FIX Y Backlash ---
G0 X35.797 Y16.5 F410
G1 X35.761 Y16.199 Z0 F600
G1 X35.704 Y15.804 Z0 F600
G1 X35.696 Y15.422 Z0 F600
G1 X35.719 Y15.318 Z0 F600
G1 X35.745 Y15.268 Z0 F600
G1 X35.77 Y15.248 Z0 F600
; --- FIX X Backlash ---
G0 X36.57 Y15.248 F410
; --- FIX Y Backlash ---
G0 X36.57 Y15.948 F410
G1 X36.758 Y16.041 Z0 F600
G0 Z3.5 F600
G0 X37.633 Y16.534 Z3.5
G1 Z0 F600
; --- FIX X Backlash ---
G0 X36.833 Y16.534 F410
G1 X36.61 Y16.621 Z0 F600
G1 X36.43 Y16.77 Z0 F600
G1 X36.295 Y16.967 Z0 F600
G1 X36.204 Y17.197 Z0 F600
G1 X36.158 Y17.446 Z0 F600
G1 Y17.699 Z0 F600
G1 X36.205 Y17.94 Z0 F600
G1 Y18.12 Z0 F600
G1 X36.188 Y18.339 Z0 F600
G1 X36.164 Y18.443 Z0 F600
G1 X36.125 Y18.534 Z0 F600
G1 X36.067 Y18.602 Z0 F600
G1 X35.985 Y18.64 Z0 F600
; --- FIX Y Backlash ---
G0 X35.985 Y17.94 F410
G1 X35.748 Y17.835 Z0 F600
G1 X35.592 Y17.673 Z0 F600
G1 X35.499 Y17.468 Z0 F600
G1 X35.45 Y17.233 Z0 F600
G1 X35.421 Y16.725 Z0 F600
G1 X35.364 Y16.252 Z0 F600
G1 X35.304 Y15.837 Z0 F600
G1 X35.295 Y15.382 Z0 F600
G1 X35.34 Y15.176 Z0 F600
; --- FIX X Backlash ---
G0 X36.14 Y15.176 F410
G1 X36.233 Y15.005 Z0 F600
G1 X36.388 Y14.883 Z0 F600
G1 X36.616 Y14.823 Z0 F600
; --- FIX Y Backlash ---
G0 X36.616 Y15.523 F410
G1 X36.979 Y15.703 Z0 F600
G1 X37.292 Y15.967 Z0 F600
G1 X37.588 Y16.259 Z0 F600
G1 X37.899 Y16.524 Z0 F600
; --- FIX X Backlash ---
G0 X37.099 Y16.524 F410
G1 X36.833 Y16.534 Z0 F600
G0 Z3.5 F600
; --- FIX X Backlash ---
G0 X37.633 Y16.534 F410
G0 X39.622 Y16.693 Z3.5
G1 Z0 F600
G1 X39.632 Y16.74 Z0 F600
G1 X39.624 Y16.813 Z0 F600
; --- FIX X Backlash ---
G0 X38.824 Y16.813 F410
G1 X38.758 Y16.979 Z0 F600
G1 X38.642 Y17.065 Z0 F600
G1 X38.471 Y17.042 Z0 F600
G1 X38.395 Y17.018 Z0 F600
G1 X38.382 Y16.99 Z0 F600
G1 X38.416 Y16.957 Z0 F600
; --- FIX X Backlash ---
G0 X39.216 Y16.957 F410
; --- FIX Y Backlash ---
G0 X39.216 Y16.257 F410
G1 X39.37 Y16.169 Z0 F600
G1 X39.539 Y16.043 Z0 F600
G1 X39.592 Y15.989 Z0 F600
G1 X39.622 Y15.993 Z0 F600
G0 Z3.5 F600
; --- FIX Y Backlash ---
G0 X39.622 Y16.693 F410
G0 X50.156 Y21.241 Z3.5
G1 Z0 F600
G1 X50.18 Y21.268 Z0 F600
G1 X50.204 Y21.332 Z0 F600
G1 X50.218 Y21.464 Z0 F600
G1 X50.207 Y21.799 Z0 F600
G1 X50.197 Y21.796 Z0 F600
; --- FIX X Backlash ---
G0 X49.397 Y21.796 F410
G1 X49.209 Y21.831 Z0 F600
G1 X48.908 Y21.859 Z0 F600
G1 X48.593 Y21.999 Z0 F600
G1 X48.485 Y22.083 Z0 F600
; --- FIX X Backlash ---
G0 X49.285 Y22.083 F410
; --- FIX Y Backlash ---
G0 X49.285 Y21.383 F410
G1 X49.597 Y20.892 Z0 F600
G1 X49.738 Y20.71 Z0 F600
G1 X49.883 Y20.58 Z0 F600
G1 X49.934 Y20.55 Z0 F600
G1 X49.997 Y20.527 Z0 F600
G1 X50.067 Y20.514 Z0 F600
G1 X50.096 Z0 F600
G1 X50.156 Y20.541 Z0 F600
G0 Z3.5 F600
; --- FIX Y Backlash ---
G0 X50.156 Y21.241 F410
G0 X50.619 Y21.45 Z3.5
G1 Z0 F600
G1 X50.603 Y21.905 Z0 F600
G1 X50.626 Y22.33 Z0 F600
G1 X50.647 Y22.456 Z0 F600
G1 X50.625 Y22.494 Z0 F600
; --- FIX X Backlash ---
G0 X49.825 Y22.494 F410
G1 X49.769 Y22.467 Z0 F600
; --- FIX Y Backlash ---
G0 X49.769 Y21.767 F410
G1 X49.587 Y21.619 Z0 F600
G1 X49.477 Y21.547 Z0 F600
G1 X49.366 Y21.508 Z0 F600
G1 X49.261 Y21.528 Z0 F600
G1 X49.011 Y21.551 Z0 F600
; --- FIX Y Backlash ---
G0 X49.011 Y22.251 F410
G1 X48.8 Y22.345 Z0 F600
G1 X48.616 Y22.488 Z0 F600
G1 X48.449 Y22.661 Z0 F600
G1 X48.287 Y22.843 Z0 F600
G1 X48.119 Y23.012 Z0 F600
G1 X47.934 Y23.15 Z0 F600
G1 X47.72 Y23.235 Z0 F600
; --- FIX Y Backlash ---
G0 X47.72 Y22.535 F410
G1 X47.59 Y22.465 Z0 F600
G1 X47.508 Y22.359 Z0 F600
G1 X47.469 Y22.227 Z0 F600
G1 Y22.083 Z0 F600
G1 X47.506 Y21.937 Z0 F600
; --- FIX X Backlash ---
G0 X48.306 Y21.937 F410
G1 X48.373 Y21.802 Z0 F600
G1 X48.467 Y21.69 Z0 F600
G1 X48.584 Y21.611 Z0 F600
G1 X48.944 Y21.173 Z0 F600
G1 X49.267 Y20.664 Z0 F600
G1 X49.444 Y20.436 Z0 F600
G1 X49.647 Y20.255 Z0 F600
G1 X49.763 Y20.187 Z0 F600
G1 X49.89 Y20.14 Z0 F600
G1 X50.028 Y20.114 Z0 F600
G1 X50.182 Z0 F600
; --- FIX Y Backlash ---
G0 X50.182 Y20.814 F410
G1 X50.396 Y20.91 Z0 F600
G1 X50.528 Y21.056 Z0 F600
G1 X50.597 Y21.24 Z0 F600
G1 X50.619 Y21.45 Z0 F600
G0 Z3.5 F600
G0 X51.365 Y23.657 Z3.5
G1 Z0 F600
G1 X51.512 Y23.717 Z0 F600
G1 X51.683 Y23.707 Z0 F600
G1 X51.77 Y23.72 Z0 F600
G1 X51.79 Y23.752 Z0 F600
G1 X51.757 Y23.8 Z0 F600
; --- FIX X Backlash ---
G0 X50.957 Y23.8 F410
G1 X50.798 Y23.92 Z0 F600
G1 X50.617 Y24.043 Z0 F600
; --- FIX Y Backlash ---
G0 X50.617 Y23.343 F410
G1 X50.525 Y23.24 Z0 F600
G1 X50.454 Y23.144 Z0 F600
G1 X50.408 Y23.06 Z0 F600
G1 X50.391 Y22.993 Z0 F600
G1 X50.408 Y22.95 Z0 F600
; --- FIX X Backlash ---
G0 X51.208 Y22.95 F410
G1 X51.265 Y22.936 Z0 F600
G1 X51.365 Y22.957 Z0 F600
G0 Z3.5 F600
; --- FIX X Backlash ---
G0 X50.565 Y22.957 F410
; --- FIX Y Backlash ---
G0 X50.565 Y23.657 F410
G0 X36.219 Y34.868 Z3.5
G1 Z0 F600
G1 X36.25 Y34.904 Z0 F600
G1 X36.268 Y34.945 Z0 F600
G1 Y34.958 Z0 F600
G1 X36.259 Y34.967 Z0 F600
G1 X36.254 Z0 F600
G1 X36.24 Y34.973 Z0 F600
G1 X36.207 Z0 F600
G1 X36.2 Y34.963 Z0 F600
; --- FIX Y Backlash ---
G0 X36.2 Y34.263 F410
G1 X36.183 Y34.211 Z0 F600
G1 Y34.165 Z0 F600
G1 X36.187 Z0 F600
G1 X36.204 Y34.158 Z0 F600
G1 X36.219 Y34.168 Z0 F600
G0 Z3.5 F600
; --- FIX X Backlash ---
G0 X37.019 Y34.168 F410
; --- FIX Y Backlash ---
G0 X37.019 Y34.868 F410
G0 X37.451 Y35.115 Z3.5
G1 Z0 F600
G1 X37.414 Y35.177 Z0 F600
; --- FIX X Backlash ---
G0 X36.614 Y35.177 F410
G1 X36.555 Y35.242 Z0 F600
G1 X36.476 Y35.305 Z0 F600
G1 X36.393 Y35.346 Z0 F600
G1 X36.296 Y35.371 Z0 F600
G1 X36.186 Y35.375 Z0 F600
G1 X36.094 Y35.368 Z0 F600
G1 X36.033 Y35.349 Z0 F600
G1 X35.975 Y35.317 Z0 F600
G1 X35.935 Y35.284 Z0 F600
; --- FIX Y Backlash ---
G0 X35.935 Y34.584 F410
G1 X35.836 Y34.44 Z0 F600
G1 X35.784 Y34.274 Z0 F600
G1 Y34.103 Z0 F600
G1 X35.832 Y33.944 Z0 F600
G1 X35.858 Y33.904 Z0 F600
G1 X35.9 Y33.862 Z0 F600
; --- FIX X Backlash ---
G0 X36.7 Y33.862 F410
G1 X36.756 Y33.824 Z0 F600
G1 X36.855 Y33.786 Z0 F600
G1 X36.958 Y33.755 Z0 F600
G1 X37.022 Y33.749 Z0 F600
G1 X37.09 Y33.756 Z0 F600
G1 X37.138 Y33.771 Z0 F600
; --- FIX Y Backlash ---
G0 X37.138 Y34.471 F410
G1 X37.282 Y34.56 Z0 F600
G1 X37.391 Y34.686 Z0 F600
G1 X37.458 Y34.837 Z0 F600
G1 X37.478 Y35.005 Z0 F600
G1 X37.471 Y35.057 Z0 F600
G1 X37.451 Y35.115 Z0 F600
G0 Z3.5 F600
; --- FIX X Backlash ---
G0 X36.651 Y35.115 F410
G0 X36.357 Y35.768 Z3.5
G1 Z0 F600
G1 X36.178 Y35.776 Z0 F600
G1 X36.017 Y35.763 Z0 F600
G1 X35.874 Y35.719 Z0 F600
; --- FIX Y Backlash ---
G0 X35.874 Y35.019 F410
G1 X35.747 Y34.948 Z0 F600
G1 X35.637 Y34.855 Z0 F600
G1 X35.472 Y34.618 Z0 F600
G1 X35.385 Y34.338 Z0 F600
G1 X35.382 Y34.045 Z0 F600
; --- FIX X Backlash ---
G0 X36.182 Y34.045 F410
G1 X36.267 Y33.772 Z0 F600
G1 X36.344 Y33.652 Z0 F600
G1 X36.446 Y33.549 Z0 F600
G1 X36.573 Y33.466 Z0 F600
G1 X36.726 Y33.407 Z0 F600
G1 X36.878 Y33.361 Z0 F600
G1 X37.026 Y33.347 Z0 F600
G1 X37.169 Y33.362 Z0 F600
G1 X37.305 Y33.404 Z0 F600
; --- FIX Y Backlash ---
G0 X37.305 Y34.104 F410
G1 X37.545 Y34.252 Z0 F600
G1 X37.731 Y34.469 Z0 F600
G1 X37.849 Y34.73 Z0 F600
G1 X37.881 Y35.01 Z0 F600
G1 X37.861 Y35.15 Z0 F600
G1 X37.814 Y35.286 Z0 F600
; --- FIX X Backlash ---
G0 X37.014 Y35.286 F410
G1 X36.938 Y35.415 Z0 F600
G1 X36.832 Y35.533 Z0 F600
G1 X36.692 Y35.645 Z0 F600
G1 X36.531 Y35.724 Z0 F600
G1 X36.357 Y35.768 Z0 F600
G0 Z3.5 F600
G0 X21.97 Y45.931 Z3.5
G1 Z0 F600
; --- FIX X Backlash ---
G0 X22.77 Y45.931 F410
G1 X22.829 Y46.064 Z0 F600
; --- FIX X Backlash ---
G0 X22.029 Y46.064 F410
; --- FIX Y Backlash ---
G0 X22.029 Y45.364 F410
G1 X21.802 Y45.309 Z0 F600
G1 X21.641 Y45.278 Z0 F600
G1 X21.611 Y45.255 Z0 F600
G1 X21.629 Y45.22 Z0 F600
; --- FIX X Backlash ---
G0 X22.429 Y45.22 F410
G1 X22.505 Y45.166 Z0 F600
G1 X22.649 Y45.087 Z0 F600
; --- FIX Y Backlash ---
G0 X22.649 Y45.787 F410
G1 X22.77 Y45.931 Z0 F600
G0 Z3.5 F600
G0 X24.641 Y47.951 Z3.5
G1 Z0 F600
; --- FIX X Backlash ---
G0 X23.841 Y47.951 F410
G1 X23.666 Y48.227 Z0 F600
G1 X23.465 Y48.463 Z0 F600
G1 X23.377 Y48.538 Z0 F600
G1 X23.283 Y48.594 Z0 F600
G1 X23.2 Y48.624 Z0 F600
G1 X23.131 Y48.632 Z0 F600
G1 X23.086 Y48.622 Z0 F600
G1 X23.077 Y48.605 Z0 F600
; --- FIX Y Backlash ---
G0 X23.077 Y47.905 F410
G1 X23.057 Y47.825 Z0 F600
G1 X23.041 Y47.486 Z0 F600
G1 X23.031 Y47.294 Z0 F600
; --- FIX X Backlash ---
G0 X23.831 Y47.294 F410
G1 X24.173 Y47.307 Z0 F600
G1 X24.488 Y47.229 Z0 F600
G1 X24.73 Y47.108 Z0 F600
; --- FIX X Backlash ---
G0 X23.93 Y47.108 F410
; --- FIX Y Backlash ---
G0 X23.93 Y47.808 F410
G1 X23.841 Y47.951 Z0 F600
G0 Z3.5 F600
G0 X23.11 Y49.037 Z3.5
G1 Z0 F600
G1 X22.913 Y48.993 Z0 F600
; --- FIX Y Backlash ---
G0 X22.913 Y48.293 F410
G1 X22.782 Y48.194 Z0 F600
G1 X22.701 Y48.054 Z0 F600
G1 X22.66 Y47.884 Z0 F600
G1 X22.641 Y47.507 Z0 F600
G1 X22.622 Y47.159 Z0 F600
G1 X22.613 Y46.946 Z0 F600
G1 X22.575 Y46.683 Z0 F600
G1 X22.569 Y46.583 Z0 F600
G1 X22.582 Y46.532 Z0 F600
G1 X22.624 Y46.55 Z0 F600
; --- FIX X Backlash ---
G0 X23.424 Y46.55 F410
; --- FIX Y Backlash ---
G0 X23.424 Y47.25 F410
G1 X23.505 Y47.356 Z0 F600
G1 X23.701 Y47.518 Z0 F600
G1 X23.913 Y47.598 Z0 F600
G1 X24.131 Y47.605 Z0 F600
; --- FIX Y Backlash ---
G0 X24.131 Y46.905 F410
G1 X24.349 Y46.851 Z0 F600
G1 X24.558 Y46.747 Z0 F600
G1 X24.749 Y46.603 Z0 F600
G1 X24.914 Y46.43 Z0 F600
G1 X25.045 Y46.239 Z0 F600
G1 X25.111 Y46.131 Z0 F600
G1 X25.213 Y46.034 Z0 F600
G1 X25.335 Y45.958 Z0 F600
G1 X25.465 Y45.911 Z0 F600
G1 X25.586 Y45.903 Z0 F600
G1 X25.686 Y45.941 Z0 F600
; --- FIX Y Backlash ---
G0 X25.686 Y46.641 F410
G1 X25.75 Y46.735 Z0 F600
G1 X25.762 Y46.894 Z0 F600
G1 Y47.091 Z0 F600
; --- FIX X Backlash ---
G0 X24.962 Y47.091 F410
G1 X24.901 Y47.262 Z0 F600
G1 X24.797 Y47.416 Z0 F600
G1 X24.665 Y47.558 Z0 F600
G1 X24.383 Y47.839 Z0 F600
G1 X24.179 Y48.165 Z0 F600
G1 X23.989 Y48.466 Z0 F600
G1 X23.748 Y48.748 Z0 F600
G1 X23.609 Y48.865 Z0 F600
G1 X23.457 Y48.957 Z0 F600
G1 X23.29 Y49.016 Z0 F600
G1 X23.11 Y49.037 Z0 F600
G0 Z3.5 F600
; --- FIX X Backlash ---
G0 X23.91 Y49.037 F410
G0 X34.888 Y52.841 Z3.5
G1 Z0 F600
; --- FIX X Backlash ---
G0 X34.088 Y52.841 F410
G1 X33.985 Y52.864 Z0 F600
G1 X33.867 Y52.946 Z0 F600
G1 X33.762 Y53.032 Z0 F600
G1 X33.696 Y53.069 Z0 F600
G1 X33.69 Y53.066 Z0 F600
G1 X33.685 Y53.056 Z0 F600
G1 Y53.037 Z0 F600
; --- FIX Y Backlash ---
G0 X33.685 Y52.337 F410
G1 Y52.24 Z0 F600
G1 X33.705 Y52.164 Z0 F600
G1 X33.744 Y52.109 Z0 F600
; --- FIX X Backlash ---
G0 X34.544 Y52.109 F410
G1 X34.598 Y52.074 Z0 F600
G1 X34.734 Y52.067 Z0 F600
; --- FIX Y Backlash ---
G0 X34.734 Y52.767 F410
G1 X34.888 Y52.841 Z0 F600
G0 Z3.5 F600
G0 X37.487 Y52.843 Z3.5
G1 Z0 F600
G1 X37.515 Y53.236 Z0 F600
G1 X37.568 Y53.646 Z0 F600
G1 X37.565 Y53.77 Z0 F600
G1 X37.55 Y53.824 Z0 F600
G1 X37.542 Y53.835 Z0 F600
G1 X37.507 Y53.854 Z0 F600
G1 X37.477 Z0 F600
G1 X37.435 Z0 F600
; --- FIX X Backlash ---
G0 X36.635 Y53.854 F410
G1 X36.543 Y53.827 Z0 F600
; --- FIX Y Backlash ---
G0 X36.543 Y53.127 F410
G1 X36.433 Y53.065 Z0 F600
G1 X36.317 Y52.973 Z0 F600
G1 X36.179 Y52.84 Z0 F600
G1 X36.117 Y52.777 Z0 F600
; --- FIX X Backlash ---
G0 X36.917 Y52.777 F410
G1 X37.067 Y52.664 Z0 F600
G1 X37.27 Y52.391 Z0 F600
G1 X37.403 Y52.09 Z0 F600
G1 X37.454 Y51.88 Z0 F600
; --- FIX Y Backlash ---
G0 X37.454 Y52.58 F410
G1 X37.487 Y52.843 Z0 F600
G0 Z3.5 F600
G0 X37.616 Y54.248 Z3.5
G1 Z0 F600
; --- FIX X Backlash ---
G0 X36.816 Y54.248 F410
G1 X36.695 Y54.255 Z0 F600
G1 X36.573 Z0 F600
; --- FIX Y Backlash ---
G0 X36.573 Y53.555 F410
G1 X36.383 Y53.496 Z0 F600
G1 X36.21 Y53.398 Z0 F600
G1 X36.051 Y53.272 Z0 F600
G1 X35.901 Y53.128 Z0 F600
G1 X35.609 Y52.826 Z0 F600
G1 X35.298 Y52.571 Z0 F600
; --- FIX X Backlash ---
G0 X36.098 Y52.571 F410
G1 X36.37 Y52.586 Z0 F600
G1 X36.597 Y52.517 Z0 F600
G1 X36.78 Y52.379 Z0 F600
G1 X36.922 Y52.189 Z0 F600
G1 X37.022 Y51.961 Z0 F600
G1 X37.083 Y51.712 Z0 F600
G1 X37.104 Y51.459 Z0 F600
G1 X37.087 Y51.216 Z0 F600
G1 X37.078 Y50.977 Z0 F600
G1 X37.128 Y50.702 Z0 F600
G1 X37.182 Y50.592 Z0 F600
G1 X37.259 Y50.523 Z0 F600
G1 X37.361 Y50.508 Z0 F600
; --- FIX Y Backlash ---
G0 X37.361 Y51.208 F410
G1 X37.492 Y51.266 Z0 F600
G1 X37.654 Y51.4 Z0 F600
G1 X37.755 Y51.568 Z0 F600
G1 X37.809 Y51.759 Z0 F600
G1 X37.831 Y51.968 Z0 F600
G1 X37.835 Y52.401 Z0 F600
G1 X37.885 Y52.803 Z0 F600
G1 X37.913 Y53.196 Z0 F600
G1 X37.969 Y53.626 Z0 F600
G1 X37.964 Y53.827 Z0 F600
G1 X37.916 Y54.005 Z0 F600
; --- FIX X Backlash ---
G0 X37.116 Y54.005 F410
G1 X37.005 Y54.149 Z0 F600
G1 X36.816 Y54.248 Z0 F600
G0 Z3.5 F600
; --- FIX X Backlash ---
G0 X37.616 Y54.248 F410
; --- FIX Y Backlash ---
G0 X37.616 Y53.548 F410
G0 X48.303 Y48.416 Z3.5
G1 Z0 F600
; --- FIX Y Backlash ---
G0 X48.303 Y49.116 F410
G1 X48.285 Y49.213 Z0 F600
G1 X48.256 Y49.335 Z0 F600
G1 X48.234 Y49.466 Z0 F600
G1 X48.237 Y49.588 Z0 F600
G1 X48.283 Y49.685 Z0 F600
G1 X48.316 Y49.8 Z0 F600
G1 X48.313 Z0 F600
G1 X48.304 Y49.793 Z0 F600
G1 X48.285 Y49.773 Z0 F600
; --- FIX X Backlash ---
G0 X47.485 Y49.773 F410
; --- FIX Y Backlash ---
G0 X47.485 Y49.073 F410
G1 X47.311 Y48.925 Z0 F600
G1 X47.153 Y48.751 Z0 F600
G1 X47.114 Y48.664 Z0 F600
G1 X47.12 Y48.582 Z0 F600
; --- FIX X Backlash ---
G0 X47.92 Y48.582 F410
G1 X47.985 Y48.508 Z0 F600
G1 X48.122 Y48.447 Z0 F600
G1 X48.239 Y48.366 Z0 F600
G1 X48.294 Y48.362 Z0 F600
; --- FIX Y Backlash ---
G0 X48.294 Y49.062 F410
G1 X48.303 Y49.116 Z0 F600
G0 Z3.5 F600
; --- FIX Y Backlash ---
G0 X48.303 Y48.416 F410
G0 X49.967 Y46.525 Z3.5
G1 Z0 F600
; --- FIX Y Backlash ---
G0 X49.967 Y47.225 F410
G1 X50.317 Y47.458 Z0 F600
G1 X50.635 Y47.728 Z0 F600
G1 X50.709 Y47.828 Z0 F600
G1 X50.742 Y47.91 Z0 F600
G1 Y47.976 Z0 F600
G1 X50.712 Y48.053 Z0 F600
G1 X50.697 Y48.067 Z0 F600
; --- FIX X Backlash ---
G0 X49.897 Y48.067 F410
G1 X49.846 Y48.091 Z0 F600
G1 X49.754 Y48.108 Z0 F600
G1 X49.611 Y48.112 Z0 F600
G1 X49.267 Y48.095 Z0 F600
; --- FIX Y Backlash ---
G0 X49.267 Y47.395 F410
G1 X49.299 Y47.175 Z0 F600
G1 X49.256 Y46.832 Z0 F600
G1 X49.135 Y46.51 Z0 F600
G1 X49.128 Y46.5 Z0 F600
G1 X49.167 Y46.525 Z0 F600
G0 Z3.5 F600
; --- FIX X Backlash ---
G0 X49.967 Y46.525 F410
; --- FIX Y Backlash ---
G0 X49.967 Y47.225 F410
G0 X51.144 Y48.048 Z3.5
G1 Z0 F600
; --- FIX X Backlash ---
G0 X50.344 Y48.048 F410
G1 X50.253 Y48.282 Z0 F600
G1 X50.123 Y48.404 Z0 F600
G1 X49.969 Y48.475 Z0 F600
G1 X49.795 Y48.507 Z0 F600
G1 X49.609 Y48.513 Z0 F600
G1 X49.225 Y48.493 Z0 F600
G1 X48.57 Y48.528 Z0 F600
; --- FIX X Backlash ---
G0 X49.37 Y48.528 F410
; --- FIX Y Backlash ---
G0 X49.37 Y47.828 F410
G1 X49.554 Y47.634 Z0 F600
G1 X49.661 Y47.411 Z0 F600
G1 X49.695 Y47.172 Z0 F600
G1 X49.665 Y46.928 Z0 F600
; --- FIX X Backlash ---
G0 X48.865 Y46.928 F410
G1 X48.777 Y46.695 Z0 F600
G1 X48.636 Y46.486 Z0 F600
G1 X48.45 Y46.313 Z0 F600
G1 X48.224 Y46.19 Z0 F600
G1 X48.121 Y46.129 Z0 F600
G1 X48.033 Y46.034 Z0 F600
G1 X47.964 Y45.917 Z0 F600
G1 X47.923 Y45.792 Z0 F600
G1 X47.917 Y45.672 Z0 F600
G1 X47.952 Y45.571 Z0 F600
; --- FIX X Backlash ---
G0 X48.752 Y45.571 F410
G1 X48.835 Y45.503 Z0 F600
G1 X48.974 Y45.48 Z0 F600
G1 X49.162 Y45.47 Z0 F600
G1 X49.327 Y45.519 Z0 F600
; --- FIX Y Backlash ---
G0 X49.327 Y46.219 F410
G1 X49.474 Y46.311 Z0 F600
G1 X49.609 Y46.431 Z0 F600
G1 X49.876 Y46.693 Z0 F600
G1 X50.182 Y46.888 Z0 F600
G1 X50.56 Y47.139 Z0 F600
G1 X50.928 Y47.452 Z0 F600
G1 X51.063 Y47.633 Z0 F600
G1 X51.141 Y47.832 Z0 F600
G1 X51.144 Y48.048 Z0 F600
;Cut @ 444 mm/min, 80% power

M8
G0 Z3.5 F600
; --- FIX X Backlash ---
G0 X50.344 Y48.048 F410
; --- FIX Y Backlash ---
G0 X50.344 Y47.348 F410
G0 X48.165 Y45.748 Z3.5
G1 Z0 F600
;Layer C3 Pass 1 of 2
; --- FIX X Backlash ---
G0 X48.965 Y45.748 F410
; --- FIX Y Backlash ---
G0 X48.965 Y46.448 F410
G1 X49.233 Y46.711 Z0 F600
G1 X49.5 Y46.936 Z0 F600
G1 X49.657 Y47.085 Z0 F600
G1 X49.759 Y47.264 Z0 F600
G1 X49.852 Y47.483 Z0 F600
G1 X49.938 Y47.714 Z0 F600
G1 X49.975 Y47.864 Z0 F600
G1 X49.96 Y47.996 Z0 F600
; --- FIX X Backlash ---
G0 X49.16 Y47.996 F410
G1 X49.088 Y48.127 Z0 F600
G1 X49.03 Y48.193 Z0 F600
G1 X48.925 Y48.307 Z0 F600
G1 X48.813 Y48.416 Z0 F600
G1 X48.784 Y48.45 Z0 F600
G1 X48.746 Y48.49 Z0 F600
G1 X48.678 Y48.532 Z0 F600
G1 X48.559 Y48.572 Z0 F600
G1 X48.311 Y48.623 Z0 F600
G1 X47.858 Y48.703 Z0 F600
G1 X47.66 Y48.769 Z0 F600
G1 X47.57 Y48.83 Z0 F600
G1 X47.505 Y48.901 Z0 F600
G1 X47.45 Y49.002 Z0 F600
G1 X47.386 Y49.149 Z0 F600
G1 X47.351 Y49.246 Z0 F600
G1 X47.34 Y49.317 Z0 F600
G1 X47.347 Y49.381 Z0 F600
G1 X47.369 Y49.459 Z0 F600
; --- FIX X Backlash ---
G0 X48.169 Y49.459 F410
G1 X48.229 Y49.656 Z0 F600
G1 X48.306 Y49.853 Z0 F600
G1 X48.373 Y49.993 Z0 F600
G1 X48.451 Y50.118 Z0 F600
G1 X48.558 Y50.23 Z0 F600
G1 X48.713 Y50.333 Z0 F600
G1 X48.878 Y50.409 Z0 F600
G1 X49.05 Y50.48 Z0 F600
G1 X49.411 Y50.607 Z0 F600
G1 X49.781 Y50.715 Z0 F600
G1 X50.106 Y50.782 Z0 F600
G1 X50.429 Y50.809 Z0 F600
G1 X50.596 Y50.827 Z0 F600
G1 X50.766 Y50.837 Z0 F600
G1 X50.921 Y50.826 Z0 F600
G1 X51.076 Y50.81 Z0 F600
G1 X51.374 Y50.788 Z0 F600
; --- FIX Y Backlash ---
G0 X51.374 Y50.088 F410
G1 X51.667 Y50.036 Z0 F600
G1 X52.005 Y49.939 Z0 F600
G1 X52.321 Y49.819 Z0 F600
G1 X52.612 Y49.663 Z0 F600
G1 X52.877 Y49.459 Z0 F600
G1 X53.102 Y49.217 Z0 F600
G1 X53.269 Y48.964 Z0 F600
G1 X53.394 Y48.684 Z0 F600
G1 X53.492 Y48.365 Z0 F600
G1 X53.559 Y48.009 Z0 F600
G1 X53.581 Y47.661 Z0 F600
G1 Y46.93 Z0 F600
G1 X53.547 Y46.198 Z0 F600
G1 X53.514 Y45.955 Z0 F600
; --- FIX X Backlash ---
G0 X52.714 Y45.955 F410
G1 X52.657 Y45.72 Z0 F600
G1 X52.521 Y45.324 Z0 F600
G1 X52.359 Y44.978 Z0 F600
G1 X52.152 Y44.665 Z0 F600
G1 X51.88 Y44.371 Z0 F600
G1 X51.661 Y44.199 Z0 F600
G1 X51.402 Y44.067 Z0 F600
G1 X51.242 Y44.01 Z0 F600
G1 X51.09 Y43.982 Z0 F600
G1 X50.783 Y43.95 Z0 F600
G1 X50.378 Y43.886 Z0 F600
G1 X49.995 Y43.774 Z0 F600
G1 X49.832 Y43.707 Z0 F600
G1 X49.696 Y43.604 Z0 F600
G1 X49.592 Y43.432 Z0 F600
G1 X49.538 Y43.243 Z0 F600
G1 X49.518 Y43.094 Z0 F600
G1 X49.541 Y42.962 Z0 F600
G1 X49.585 Y42.745 Z0 F600
; --- FIX X Backlash ---
G0 X50.385 Y42.745 F410
G1 X50.46 Y42.511 Z0 F600
G1 X50.602 Y42.233 Z0 F600
G1 X50.807 Y41.949 Z0 F600
G1 X50.944 Y41.801 Z0 F600
G1 X51.095 Y41.673 Z0 F600
G1 X51.26 Y41.553 Z0 F600
G1 X51.543 Y41.357 Z0 F600
G1 X51.639 Y41.286 Z0 F600
G1 X51.997 Y40.97 Z0 F600
G1 X52.331 Y40.598 Z0 F600
G1 X52.447 Y40.443 Z0 F600
G1 X52.545 Y40.291 Z0 F600
G1 X52.626 Y40.13 Z0 F600
G1 X52.692 Y39.95 Z0 F600
G1 X52.736 Y39.795 Z0 F600
G1 X52.774 Y39.641 Z0 F600
G1 X52.822 Y39.425 Z0 F600
G1 X52.85 Y39.219 Z0 F600
G1 X52.842 Y38.964 Z0 F600
; --- FIX X Backlash ---
G0 X52.042 Y38.964 F410
G1 X51.991 Y38.586 Z0 F600
G1 X51.967 Y38.459 Z0 F600
G1 X51.911 Y38.25 Z0 F600
G1 X51.829 Y38.035 Z0 F600
G1 X51.731 Y37.843 Z0 F600
G1 X51.623 Y37.704 Z0 F600
G1 X51.498 Y37.618 Z0 F600
G1 X51.317 Y37.542 Z0 F600
G1 X51.159 Y37.492 Z0 F600
G1 X51.008 Z0 F600
G1 X50.855 Y37.532 Z0 F600
; --- FIX Y Backlash ---
G0 X50.855 Y38.232 F410
G1 X50.698 Y38.287 Z0 F600
G1 X50.536 Y38.361 Z0 F600
G1 X50.408 Y38.485 Z0 F600
G1 X50.291 Y38.675 Z0 F600
G1 X50.19 Y38.877 Z0 F600
G1 X50.087 Y39.157 Z0 F600
G1 X50.022 Y39.44 Z0 F600
G1 X49.943 Y39.668 Z0 F600
G1 X49.73 Y40.191 Z0 F600
G1 X49.584 Y40.486 Z0 F600
G1 X49.403 Y40.763 Z0 F600
G1 X49.178 Y41.011 Z0 F600
G1 X48.98 Y41.169 Z0 F600
G1 X48.756 Y41.269 Z0 F600
G1 X48.582 Y41.318 Z0 F600
G1 X48.248 Y41.393 Z0 F600
G1 X48.109 Y41.408 Z0 F600
G1 X47.987 Y41.404 Z0 F600
G1 X47.854 Y41.38 Z0 F600
; --- FIX Y Backlash ---
G0 X47.854 Y40.68 F410
G1 X47.717 Y40.62 Z0 F600
G1 X47.582 Y40.509 Z0 F600
G1 X47.512 Y40.406 Z0 F600
G1 X47.469 Y40.288 Z0 F600
G1 X47.419 Y40.078 Z0 F600
G1 X47.377 Y39.838 Z0 F600
G1 X47.331 Y39.632 Z0 F600
G1 X47.306 Y39.444 Z0 F600
G1 X47.342 Y39.301 Z0 F600
; --- FIX X Backlash ---
G0 X48.142 Y39.301 F410
G1 X48.201 Y39.162 Z0 F600
G1 X48.26 Y39.006 Z0 F600
G1 X48.314 Y38.853 Z0 F600
G1 X48.421 Y38.606 Z0 F600
G1 X48.553 Y38.346 Z0 F600
G1 X48.701 Y38.026 Z0 F600
G1 X48.839 Y37.671 Z0 F600
G1 X48.946 Y37.295 Z0 F600
G1 X48.99 Y36.939 Z0 F600
G1 X48.996 Y36.592 Z0 F600
G1 X48.991 Y36.026 Z0 F600
G1 X48.984 Y35.878 Z0 F600
G1 X48.973 Y35.762 Z0 F600
G1 X48.96 Y35.645 Z0 F600
G1 X48.946 Y35.305 Z0 F600
G1 X48.98 Y34.997 Z0 F600
G1 X49.079 Y34.733 Z0 F600
G1 X49.194 Y34.568 Z0 F600
G1 X49.325 Y34.454 Z0 F600
G1 X49.528 Y34.302 Z0 F600
G1 X49.733 Y34.152 Z0 F600
G1 X49.853 Y34.059 Z0 F600
G1 X49.944 Y33.984 Z0 F600
G1 X50.006 Y33.928 Z0 F600
;Layer C3 Pass 2 of 2
; --- FIX X Backlash ---
G0 X49.206 Y33.928 F410
; --- FIX Y Backlash ---
G0 X49.206 Y34.628 F410
G1 X49.144 Y34.684 Z0 F600
G1 X49.053 Y34.759 Z0 F600
G1 X48.933 Y34.852 Z0 F600
G1 X48.728 Y35.002 Z0 F600
G1 X48.525 Y35.154 Z0 F600
G1 X48.394 Y35.268 Z0 F600
G1 X48.279 Y35.433 Z0 F600
G1 X48.18 Y35.697 Z0 F600
G1 X48.146 Y36.005 Z0 F600
G1 X48.16 Y36.345 Z0 F600
G1 X48.173 Y36.462 Z0 F600
G1 X48.184 Y36.578 Z0 F600
G1 X48.191 Y36.726 Z0 F600
G1 X48.196 Y37.292 Z0 F600
G1 X48.19 Y37.639 Z0 F600
G1 X48.146 Y37.995 Z0 F600
G1 X48.039 Y38.371 Z0 F600
G1 X47.901 Y38.726 Z0 F600
G1 X47.753 Y39.046 Z0 F600
G1 X47.621 Y39.306 Z0 F600
G1 X47.514 Y39.553 Z0 F600
G1 X47.46 Y39.706 Z0 F600
G1 X47.401 Y39.862 Z0 F600
G1 X47.342 Y40.001 Z0 F600
G1 X47.306 Y40.144 Z0 F600
G1 X47.331 Y40.332 Z0 F600
G1 X47.377 Y40.538 Z0 F600
G1 X47.419 Y40.778 Z0 F600
G1 X47.469 Y40.988 Z0 F600
G1 X47.512 Y41.106 Z0 F600
; --- FIX X Backlash ---
G0 X48.312 Y41.106 F410
G1 X48.382 Y41.209 Z0 F600
G1 X48.517 Y41.32 Z0 F600
G1 X48.654 Y41.38 Z0 F600
G1 X48.787 Y41.404 Z0 F600
G1 X48.909 Y41.408 Z0 F600
G1 X49.048 Y41.393 Z0 F600
; --- FIX Y Backlash ---
G0 X49.048 Y40.693 F410
G1 X49.382 Y40.618 Z0 F600
G1 X49.556 Y40.569 Z0 F600
G1 X49.78 Y40.469 Z0 F600
G1 X49.978 Y40.311 Z0 F600
G1 X50.203 Y40.063 Z0 F600
G1 X50.384 Y39.786 Z0 F600
G1 X50.53 Y39.491 Z0 F600
G1 X50.743 Y38.968 Z0 F600
G1 X50.822 Y38.74 Z0 F600
G1 X50.887 Y38.457 Z0 F600
G1 X50.99 Y38.177 Z0 F600
G1 X51.091 Y37.975 Z0 F600
G1 X51.208 Y37.785 Z0 F600
G1 X51.336 Y37.661 Z0 F600
G1 X51.498 Y37.587 Z0 F600
G1 X51.655 Y37.532 Z0 F600
G1 X51.808 Y37.494 Z0 F600
G1 X51.959 Z0 F600
G1 X52.117 Y37.542 Z0 F600
; --- FIX Y Backlash ---
G0 X52.117 Y38.242 F410
G1 X52.298 Y38.318 Z0 F600
G1 X52.423 Y38.404 Z0 F600
G1 X52.531 Y38.543 Z0 F600
G1 X52.629 Y38.735 Z0 F600
G1 X52.711 Y38.95 Z0 F600
G1 X52.767 Y39.159 Z0 F600
G1 X52.791 Y39.286 Z0 F600
G1 X52.842 Y39.664 Z0 F600
G1 X52.85 Y39.919 Z0 F600
G1 X52.822 Y40.125 Z0 F600
G1 X52.774 Y40.341 Z0 F600
G1 X52.736 Y40.495 Z0 F600
G1 X52.692 Y40.65 Z0 F600
; --- FIX X Backlash ---
G0 X51.892 Y40.65 F410
G1 X51.826 Y40.83 Z0 F600
G1 X51.745 Y40.991 Z0 F600
G1 X51.647 Y41.143 Z0 F600
G1 X51.531 Y41.298 Z0 F600
G1 X51.197 Y41.67 Z0 F600
G1 X50.839 Y41.986 Z0 F600
G1 X50.743 Y42.057 Z0 F600
G1 X50.46 Y42.253 Z0 F600
G1 X50.295 Y42.373 Z0 F600
G1 X50.144 Y42.501 Z0 F600
G1 X50.007 Y42.649 Z0 F600
G1 X49.802 Y42.933 Z0 F600
G1 X49.66 Y43.211 Z0 F600
G1 X49.585 Y43.445 Z0 F600
G1 X49.541 Y43.662 Z0 F600
G1 X49.518 Y43.794 Z0 F600
G1 X49.538 Y43.943 Z0 F600
; --- FIX X Backlash ---
G0 X50.338 Y43.943 F410
G1 X50.392 Y44.132 Z0 F600
G1 X50.496 Y44.304 Z0 F600
G1 X50.632 Y44.407 Z0 F600
G1 X50.795 Y44.474 Z0 F600
G1 X51.178 Y44.586 Z0 F600
G1 X51.583 Y44.65 Z0 F600
G1 X51.89 Y44.682 Z0 F600
G1 X52.042 Y44.71 Z0 F600
G1 X52.202 Y44.767 Z0 F600
G1 X52.461 Y44.899 Z0 F600
G1 X52.68 Y45.071 Z0 F600
G1 X52.952 Y45.365 Z0 F600
G1 X53.159 Y45.678 Z0 F600
G1 X53.321 Y46.024 Z0 F600
G1 X53.457 Y46.42 Z0 F600
G1 X53.514 Y46.655 Z0 F600
G1 X53.547 Y46.898 Z0 F600
G1 X53.583 Y47.63 Z0 F600
G1 Y48.361 Z0 F600
G1 X53.559 Y48.709 Z0 F600
; --- FIX X Backlash ---
G0 X52.759 Y48.709 F410
G1 X52.692 Y49.065 Z0 F600
G1 X52.594 Y49.384 Z0 F600
G1 X52.469 Y49.664 Z0 F600
G1 X52.302 Y49.917 Z0 F600
G1 X52.077 Y50.159 Z0 F600
G1 X51.812 Y50.363 Z0 F600
G1 X51.521 Y50.519 Z0 F600
G1 X51.205 Y50.639 Z0 F600
G1 X50.867 Y50.736 Z0 F600
G1 X50.574 Y50.788 Z0 F600
G1 X50.276 Y50.81 Z0 F600
G1 X50.121 Y50.826 Z0 F600
G1 X49.966 Y50.837 Z0 F600
G1 X49.796 Y50.827 Z0 F600
G1 X49.629 Y50.809 Z0 F600
G1 X49.306 Y50.782 Z0 F600
; --- FIX Y Backlash ---
G0 X49.306 Y50.082 F410
G1 X48.981 Y50.015 Z0 F600
G1 X48.611 Y49.907 Z0 F600
G1 X48.25 Y49.78 Z0 F600
G1 X48.078 Y49.709 Z0 F600
G1 X47.913 Y49.633 Z0 F600
G1 X47.758 Y49.53 Z0 F600
G1 X47.651 Y49.418 Z0 F600
G1 X47.573 Y49.293 Z0 F600
G1 X47.506 Y49.153 Z0 F600
G1 X47.429 Y48.956 Z0 F600
G1 X47.369 Y48.759 Z0 F600
G1 X47.347 Y48.681 Z0 F600
G1 X47.34 Y48.617 Z0 F600
G1 X47.351 Y48.546 Z0 F600
G1 X47.386 Y48.449 Z0 F600
; --- FIX X Backlash ---
G0 X48.186 Y48.449 F410
G1 X48.25 Y48.302 Z0 F600
G1 X48.305 Y48.201 Z0 F600
G1 X48.37 Y48.13 Z0 F600
G1 X48.46 Y48.069 Z0 F600
G1 X48.658 Y48.003 Z0 F600
G1 X49.111 Y47.923 Z0 F600
G1 X49.359 Y47.872 Z0 F600
G1 X49.478 Y47.832 Z0 F600
G1 X49.546 Y47.79 Z0 F600
G1 X49.584 Y47.75 Z0 F600
G1 X49.613 Y47.716 Z0 F600
G1 X49.725 Y47.607 Z0 F600
G1 X49.83 Y47.493 Z0 F600
G1 X49.888 Y47.427 Z0 F600
G1 X49.96 Y47.296 Z0 F600
G1 X49.975 Y47.164 Z0 F600
G1 X49.938 Y47.014 Z0 F600
; --- FIX X Backlash ---
G0 X49.138 Y47.014 F410
G1 X49.052 Y46.783 Z0 F600
G1 X48.959 Y46.564 Z0 F600
G1 X48.857 Y46.385 Z0 F600
G1 X48.7 Y46.236 Z0 F600
G1 X48.433 Y46.011 Z0 F600
G1 X48.165 Y45.748 Z0 F600
G0 Z3.5 F600
; --- FIX X Backlash ---
G0 X48.965 Y45.748 F410
G0 X53.918 Y33.956 Z3.5 F600
G1 Z0 F600
;Layer C3 Pass 1 of 2
G1 X54.239 Y33.911 Z0 F600
G1 X54.481 Y33.899 Z0 F600
G1 X54.704 Z0 F600
G1 X54.988 Z0 F600
G1 X55.153 Y33.884 Z0 F600
G1 X55.296 Y33.881 Z0 F600
G1 X55.346 Y33.894 Z0 F600
G1 X55.385 Y33.918 Z0 F600
G1 X55.414 Y33.956 Z0 F600
; --- FIX Y Backlash ---
G0 X55.414 Y34.656 F410
G1 X55.432 Y34.714 Z0 F600
G1 X55.436 Y34.79 Z0 F600
G1 X55.431 Y34.825 Z0 F600
G1 X55.405 Y34.926 Z0 F600
; --- FIX X Backlash ---
G0 X54.605 Y34.926 F410
G1 X54.47 Y35.306 Z0 F600
G1 X54.369 Y35.617 Z0 F600
G1 X54.331 Y35.73 Z0 F600
G1 X54.298 Y35.838 Z0 F600
G1 X54.264 Y35.991 Z0 F600
G1 X54.236 Y36.147 Z0 F600
G1 X54.106 Y36.738 Z0 F600
G1 X54.075 Y36.907 Z0 F600
G1 X54.036 Y37.087 Z0 F600
G1 X54.017 Y37.217 Z0 F600
G1 X54.011 Y37.278 Z0 F600
G1 X54.022 Y37.385 Z0 F600
G1 X54.054 Y37.467 Z0 F600
G1 X54.095 Y37.521 Z0 F600
G1 X54.134 Y37.555 Z0 F600
G1 X54.162 Y37.573 Z0 F600
; --- FIX X Backlash ---
G0 X54.962 Y37.573 F410
G1 X55.023 Y37.607 Z0 F600
G1 X55.129 Y37.636 Z0 F600
G1 X55.322 Y37.643 Z0 F600
G1 X55.494 Y37.622 Z0 F600
G1 X55.581 Y37.607 Z0 F600
G1 X55.72 Y37.588 Z0 F600
G1 X55.917 Y37.57 Z0 F600
; --- FIX Y Backlash ---
G0 X55.917 Y36.87 F410
G1 X56.182 Y36.814 Z0 F600
G1 X56.451 Y36.724 Z0 F600
G1 X57.024 Y36.448 Z0 F600
G1 X57.577 Y36.131 Z0 F600
G1 X57.738 Y36.008 Z0 F600
G1 X57.887 Y35.869 Z0 F600
G1 X58.105 Y35.651 Z0 F600
G1 X58.293 Y35.419 Z0 F600
G1 X58.49 Y35.112 Z0 F600
G1 X58.666 Y34.8 Z0 F600
G1 X58.778 Y34.545 Z0 F600
G1 X58.852 Y34.291 Z0 F600
G1 X58.897 Y34.031 Z0 F600
G1 X58.927 Y33.759 Z0 F600
G1 Y33.454 Z0 F600
G1 X58.882 Y33.167 Z0 F600
; --- FIX X Backlash ---
G0 X58.082 Y33.167 F410
G1 X57.988 Y32.887 Z0 F600
G1 X57.854 Y32.605 Z0 F600
G1 X57.766 Y32.458 Z0 F600
G1 X57.665 Y32.324 Z0 F600
G1 X57.316 Y31.937 Z0 F600
G1 X56.946 Y31.564 Z0 F600
G1 X56.735 Y31.355 Z0 F600
G1 X56.517 Y31.149 Z0 F600
G1 X56.288 Y30.958 Z0 F600
G1 X56.045 Y30.79 Z0 F600
G1 X55.825 Y30.655 Z0 F600
G1 X55.595 Y30.532 Z0 F600
G1 X55.303 Y30.43 Z0 F600
G1 X55.004 Y30.383 Z0 F600
G1 X54.697 Y30.355 Z0 F600
G1 X54.385 Y30.34 Z0 F600
G1 X54.138 Y30.363 Z0 F600
; --- FIX Y Backlash ---
G0 X54.138 Y31.063 F410
G1 X53.906 Y31.129 Z0 F600
G1 X53.63 Y31.251 Z0 F600
G1 X53.372 Y31.417 Z0 F600
G1 X52.95 Y31.777 Z0 F600
G1 X52.846 Y31.841 Z0 F600
G1 X52.725 Y31.888 Z0 F600
G1 X52.582 Y31.931 Z0 F600
G1 X52.443 Y31.963 Z0 F600
G1 X52.314 Y31.979 Z0 F600
G1 X52.197 Y31.974 Z0 F600
G1 X52.083 Y31.953 Z0 F600
G1 X51.965 Y31.921 Z0 F600
; --- FIX Y Backlash ---
G0 X51.965 Y31.221 F410
G1 X51.825 Y31.168 Z0 F600
G1 X51.722 Y31.098 Z0 F600
G1 X51.599 Y30.924 Z0 F600
G1 X51.515 Y30.719 Z0 F600
G1 X51.438 Y30.483 Z0 F600
G1 X51.4 Y30.241 Z0 F600
G1 X51.385 Y30.054 Z0 F600
G1 X51.374 Y29.847 Z0 F600
G1 X51.381 Y29.515 Z0 F600
; --- FIX X Backlash ---
G0 X52.181 Y29.515 F410
G1 X52.234 Y29.172 Z0 F600
G1 X52.286 Y28.91 Z0 F600
G1 X52.313 Y28.665 Z0 F600
G1 X52.307 Y28.304 Z0 F600
G1 X52.281 Y27.933 Z0 F600
G1 X52.249 Y27.657 Z0 F600
; --- FIX X Backlash ---
G0 X51.449 Y27.657 F410
G1 X51.399 Y27.388 Z0 F600
G1 X51.32 Y27.131 Z0 F600
G1 X51.201 Y26.892 Z0 F600
G1 X51.039 Y26.689 Z0 F600
G1 X50.855 Y26.498 Z0 F600
G1 X50.71 Y26.352 Z0 F600
G1 X50.558 Y26.225 Z0 F600
G1 X50.293 Y26.053 Z0 F600
G1 X49.995 Y25.936 Z0 F600
G1 X49.764 Y25.884 Z0 F600
G1 X49.573 Y25.847 Z0 F600
G1 X49.351 Y25.813 Z0 F600
G1 X49.15 Y25.821 Z0 F600
G1 X49.035 Y25.869 Z0 F600
; --- FIX Y Backlash ---
G0 X49.035 Y26.569 F410
G1 X48.941 Y26.645 Z0 F600
G1 X48.867 Y26.742 Z0 F600
G1 X48.811 Y26.85 Z0 F600
G1 X48.746 Y27.067 Z0 F600
G1 X48.734 Y27.226 Z0 F600
G1 X48.743 Y27.305 Z0 F600
G1 X48.76 Y27.423 Z0 F600
G1 X48.792 Y27.599 Z0 F600
G1 X48.831 Y27.761 Z0 F600
; --- FIX X Backlash ---
G0 X49.631 Y27.761 F410
G1 X49.7 Y27.958 Z0 F600
G1 X49.789 Y28.155 Z0 F600
G1 X49.872 Y28.315 Z0 F600
G1 X50.076 Y28.653 Z0 F600
G1 X50.166 Y28.858 Z0 F600
G1 X50.281 Y29.191 Z0 F600
G1 X50.36 Y29.534 Z0 F600
G1 X50.371 Y29.663 Z0 F600
G1 X50.378 Y29.787 Z0 F600
G1 X50.4 Y30.013 Z0 F600
G1 X50.411 Y30.237 Z0 F600
G1 X50.368 Y30.518 Z0 F600
; --- FIX X Backlash ---
G0 X49.568 Y30.518 F410
G1 X49.486 Y30.773 Z0 F600
G1 X49.42 Y30.885 Z0 F600
G1 X49.33 Y30.985 Z0 F600
G1 X49.214 Y31.071 Z0 F600
G1 X49.066 Y31.14 Z0 F600
G1 X48.852 Y31.218 Z0 F600
G1 X48.644 Y31.259 Z0 F600
G1 X48.419 Y31.245 Z0 F600
G1 X48.194 Y31.222 Z0 F600
G1 X47.988 Z0 F600
G1 X47.8 Y31.187 Z0 F600
G1 X47.685 Y31.157 Z0 F600
G1 X47.607 Y31.133 Z0 F600
G1 X47.518 Y31.101 Z0 F600
G1 X47.482 Y31.091 Z0 F600
G1 X47.406 Y31.098 Z0 F600
G1 X47.26 Y31.183 Z0 F600
G1 X47.181 Y31.259 Z0 F600
G1 X47.081 Y31.37 Z0 F600
G1 X46.979 Y31.516 Z0 F600
G1 X46.843 Y31.721 Z0 F600
G1 X46.752 Y31.854 Z0 F600
G1 X46.641 Y32.01 Z0 F600
G1 X46.379 Y32.348 Z0 F600
G1 X46.121 Y32.658 Z0 F600
G1 X46.016 Y32.808 Z0 F600
G1 X45.758 Y33.245 Z0 F600
G1 X45.622 Y33.53 Z0 F600
G1 X45.553 Y33.746 Z0 F600
G1 X45.509 Y33.964 Z0 F600
G1 X45.493 Y34.19 Z0 F600
G1 X45.508 Y34.431 Z0 F600
G1 X45.541 Y34.684 Z0 F600
; --- FIX X Backlash ---
G0 X46.341 Y34.684 F410
G1 X46.396 Y34.946 Z0 F600
G1 X46.477 Y35.219 Z0 F600
G1 X46.543 Y35.425 Z0 F600
G1 X46.591 Y35.637 Z0 F600
G1 X46.62 Y35.857 Z0 F600
G1 X46.63 Y36.091 Z0 F600
G1 X46.622 Y36.294 Z0 F600
G1 X46.595 Y36.487 Z0 F600
; --- FIX X Backlash ---
G0 X45.795 Y36.487 F410
G1 X45.744 Y36.672 Z0 F600
G1 X45.666 Y36.851 Z0 F600
G1 X45.551 Y37.025 Z0 F600
G1 X45.407 Y37.191 Z0 F600
G1 X45.25 Y37.349 Z0 F600
G1 X45.098 Y37.498 Z0 F600
G1 X44.788 Y37.811 Z0 F600
G1 X44.451 Y38.085 Z0 F600
G1 X44.163 Y38.258 Z0 F600
G1 X43.863 Y38.407 Z0 F600
G1 X43.555 Y38.533 Z0 F600
G1 X43.24 Y38.636 Z0 F600
G1 X42.846 Y38.756 Z0 F600
G1 X42.452 Y38.873 Z0 F600
G1 X42.269 Y38.919 Z0 F600
G1 X42.087 Y38.962 Z0 F600
G1 X41.793 Y39.049 Z0 F600
G1 X41.512 Y39.17 Z0 F600
G1 X41.251 Y39.327 Z0 F600
G1 X41.018 Y39.525 Z0 F600
G1 X40.797 Y39.807 Z0 F600
G1 X40.593 Y40.087 Z0 F600
G1 X40.519 Y40.182 Z0 F600
G1 X40.446 Y40.268 Z0 F600
G1 X40.362 Y40.341 Z0 F600
G1 X40.257 Y40.395 Z0 F600
G1 X40.033 Y40.467 Z0 F600
G1 X39.779 Y40.506 Z0 F600
G1 X39.589 Y40.5 Z0 F600
; --- FIX Y Backlash ---
G0 X39.589 Y39.8 F410
G1 X39.385 Y39.743 Z0 F600
G1 X39.263 Y39.696 Z0 F600
G1 X39.161 Y39.64 Z0 F600
G1 X39.061 Y39.556 Z0 F600
G1 X38.984 Y39.455 Z0 F600
G1 X38.928 Y39.341 Z0 F600
G1 X38.892 Y39.218 Z0 F600
G1 X38.85 Y38.911 Z0 F600
G1 X38.858 Y38.571 Z0 F600
G1 X38.882 Y38.375 Z0 F600
G1 X38.91 Y38.205 Z0 F600
; --- FIX X Backlash ---
G0 X39.71 Y38.205 F410
G1 X39.831 Y37.878 Z0 F600
G1 X40.009 Y37.558 Z0 F600
G1 X40.066 Y37.45 Z0 F600
G1 X40.11 Y37.333 Z0 F600
G1 X40.222 Y36.995 Z0 F600
G1 X40.271 Y36.84 Z0 F600
G1 X40.289 Y36.714 Z0 F600
G1 X40.283 Y36.635 Z0 F600
G1 X40.24 Y36.489 Z0 F600
; --- FIX X Backlash ---
G0 X39.44 Y36.489 F410
G1 X39.348 Y36.333 Z0 F600
G1 X39.232 Y36.244 Z0 F600
G1 X39.1 Y36.198 Z0 F600
G1 X38.963 Y36.17 Z0 F600
G1 X38.792 Y36.149 Z0 F600
G1 X38.597 Y36.137 Z0 F600
G1 X38.412 Y36.157 Z0 F600
G1 X38.259 Y36.203 Z0 F600
; --- FIX Y Backlash ---
G0 X38.259 Y36.903 F410
G1 X38.035 Y36.954 Z0 F600
G1 X37.864 Y36.97 Z0 F600
G1 X37.722 Z0 F600
G1 X37.584 Y36.964 Z0 F600
;Layer C3 Pass 2 of 2
; --- FIX X Backlash ---
G0 X38.384 Y36.964 F410
G1 X38.522 Y36.968 Z0 F600
G1 X38.664 Z0 F600
G1 X38.835 Y36.954 Z0 F600
; --- FIX Y Backlash ---
G0 X38.835 Y36.254 F410
G1 X39.059 Y36.203 Z0 F600
G1 X39.212 Y36.157 Z0 F600
G1 X39.397 Y36.137 Z0 F600
G1 X39.592 Y36.149 Z0 F600
G1 X39.763 Y36.17 Z0 F600
G1 X39.9 Y36.198 Z0 F600
G1 X40.032 Y36.244 Z0 F600
; --- FIX Y Backlash ---
G0 X40.032 Y36.944 F410
G1 X40.148 Y37.033 Z0 F600
G1 X40.24 Y37.189 Z0 F600
G1 X40.283 Y37.335 Z0 F600
G1 X40.289 Y37.414 Z0 F600
G1 X40.271 Y37.54 Z0 F600
G1 X40.222 Y37.695 Z0 F600
; --- FIX X Backlash ---
G0 X39.422 Y37.695 F410
G1 X39.31 Y38.033 Z0 F600
G1 X39.266 Y38.15 Z0 F600
G1 X39.209 Y38.258 Z0 F600
G1 X39.031 Y38.578 Z0 F600
G1 X38.91 Y38.905 Z0 F600
G1 X38.882 Y39.075 Z0 F600
G1 X38.858 Y39.271 Z0 F600
G1 X38.85 Y39.611 Z0 F600
G1 X38.892 Y39.918 Z0 F600
G1 X38.928 Y40.041 Z0 F600
; --- FIX X Backlash ---
G0 X39.728 Y40.041 F410
G1 X39.784 Y40.155 Z0 F600
G1 X39.861 Y40.256 Z0 F600
G1 X39.961 Y40.34 Z0 F600
G1 X40.063 Y40.396 Z0 F600
G1 X40.185 Y40.443 Z0 F600
G1 X40.389 Y40.5 Z0 F600
G1 X40.579 Y40.506 Z0 F600
G1 X40.833 Y40.467 Z0 F600
; --- FIX Y Backlash ---
G0 X40.833 Y39.767 F410
G1 X41.057 Y39.695 Z0 F600
G1 X41.162 Y39.641 Z0 F600
G1 X41.246 Y39.568 Z0 F600
G1 X41.319 Y39.482 Z0 F600
G1 X41.393 Y39.387 Z0 F600
G1 X41.597 Y39.107 Z0 F600
G1 X41.818 Y38.825 Z0 F600
G1 X42.051 Y38.627 Z0 F600
G1 X42.312 Y38.47 Z0 F600
G1 X42.593 Y38.349 Z0 F600
G1 X42.887 Y38.262 Z0 F600
G1 X43.069 Y38.219 Z0 F600
G1 X43.252 Y38.173 Z0 F600
G1 X43.646 Y38.056 Z0 F600
G1 X44.04 Y37.936 Z0 F600
G1 X44.355 Y37.833 Z0 F600
G1 X44.663 Y37.707 Z0 F600
G1 X44.963 Y37.558 Z0 F600
G1 X45.251 Y37.385 Z0 F600
G1 X45.588 Y37.111 Z0 F600
G1 X45.898 Y36.798 Z0 F600
G1 X46.05 Y36.649 Z0 F600
G1 X46.207 Y36.491 Z0 F600
G1 X46.351 Y36.325 Z0 F600
G1 X46.466 Y36.151 Z0 F600
G1 X46.544 Y35.972 Z0 F600
G1 X46.595 Y35.787 Z0 F600
G1 X46.622 Y35.594 Z0 F600
G1 X46.63 Y35.391 Z0 F600
G1 X46.62 Y35.157 Z0 F600
G1 X46.591 Y34.937 Z0 F600
G1 X46.543 Y34.725 Z0 F600
; --- FIX X Backlash ---
G0 X45.743 Y34.725 F410
G1 X45.677 Y34.519 Z0 F600
G1 X45.596 Y34.246 Z0 F600
G1 X45.541 Y33.984 Z0 F600
G1 X45.508 Y33.731 Z0 F600
G1 X45.493 Y33.49 Z0 F600
G1 X45.509 Y33.264 Z0 F600
G1 X45.553 Y33.046 Z0 F600
; --- FIX X Backlash ---
G0 X46.353 Y33.046 F410
G1 X46.422 Y32.83 Z0 F600
G1 X46.558 Y32.545 Z0 F600
G1 X46.816 Y32.108 Z0 F600
G1 X46.921 Y31.958 Z0 F600
G1 X47.179 Y31.648 Z0 F600
G1 X47.441 Y31.31 Z0 F600
G1 X47.552 Y31.154 Z0 F600
G1 X47.643 Y31.021 Z0 F600
G1 X47.779 Y30.816 Z0 F600
G1 X47.881 Y30.67 Z0 F600
G1 X47.981 Y30.559 Z0 F600
G1 X48.06 Y30.483 Z0 F600
G1 X48.206 Y30.398 Z0 F600
G1 X48.282 Y30.391 Z0 F600
G1 X48.318 Y30.401 Z0 F600
G1 X48.407 Y30.433 Z0 F600
G1 X48.485 Y30.457 Z0 F600
G1 X48.6 Y30.487 Z0 F600
G1 X48.788 Y30.52 Z0 F600
G1 X48.994 Z0 F600
G1 X49.219 Y30.545 Z0 F600
G1 X49.444 Y30.559 Z0 F600
G1 X49.652 Y30.518 Z0 F600
G1 X49.866 Y30.44 Z0 F600
G1 X50.014 Y30.371 Z0 F600
G1 X50.13 Y30.285 Z0 F600
G1 X50.22 Y30.185 Z0 F600
G1 X50.286 Y30.073 Z0 F600
G1 X50.368 Y29.818 Z0 F600
G1 X50.411 Y29.537 Z0 F600
G1 X50.4 Y29.313 Z0 F600
G1 X50.378 Y29.087 Z0 F600
G1 X50.371 Y28.963 Z0 F600
G1 X50.36 Y28.834 Z0 F600
; --- FIX X Backlash ---
G0 X49.56 Y28.834 F410
G1 X49.481 Y28.491 Z0 F600
G1 X49.366 Y28.158 Z0 F600
G1 X49.276 Y27.953 Z0 F600
G1 X49.072 Y27.615 Z0 F600
G1 X48.989 Y27.455 Z0 F600
G1 X48.9 Y27.258 Z0 F600
G1 X48.831 Y27.061 Z0 F600
G1 X48.792 Y26.899 Z0 F600
G1 X48.76 Y26.723 Z0 F600
G1 X48.743 Y26.605 Z0 F600
G1 X48.734 Y26.526 Z0 F600
G1 X48.746 Y26.367 Z0 F600
; --- FIX X Backlash ---
G0 X49.546 Y26.367 F410
G1 X49.611 Y26.15 Z0 F600
G1 X49.667 Y26.042 Z0 F600
G1 X49.741 Y25.945 Z0 F600
G1 X49.835 Y25.869 Z0 F600
G1 X49.95 Y25.821 Z0 F600
G1 X50.151 Y25.813 Z0 F600
G1 X50.373 Y25.847 Z0 F600
G1 X50.564 Y25.884 Z0 F600
; --- FIX Y Backlash ---
G0 X50.564 Y26.584 F410
G1 X50.795 Y26.636 Z0 F600
G1 X51.093 Y26.753 Z0 F600
G1 X51.358 Y26.925 Z0 F600
G1 X51.51 Y27.052 Z0 F600
G1 X51.655 Y27.198 Z0 F600
G1 X51.839 Y27.389 Z0 F600
G1 X52.001 Y27.592 Z0 F600
G1 X52.12 Y27.831 Z0 F600
G1 X52.199 Y28.088 Z0 F600
G1 X52.249 Y28.357 Z0 F600
G1 X52.281 Y28.633 Z0 F600
G1 X52.307 Y29.004 Z0 F600
G1 X52.313 Y29.365 Z0 F600
G1 X52.286 Y29.61 Z0 F600
; --- FIX X Backlash ---
G0 X51.486 Y29.61 F410
G1 X51.434 Y29.872 Z0 F600
G1 X51.381 Y30.215 Z0 F600
G1 X51.374 Y30.547 Z0 F600
G1 X51.385 Y30.754 Z0 F600
G1 X51.4 Y30.941 Z0 F600
G1 X51.438 Y31.183 Z0 F600
; --- FIX X Backlash ---
G0 X52.238 Y31.183 F410
G1 X52.315 Y31.419 Z0 F600
G1 X52.399 Y31.624 Z0 F600
G1 X52.522 Y31.798 Z0 F600
G1 X52.625 Y31.868 Z0 F600
G1 X52.765 Y31.921 Z0 F600
G1 X52.883 Y31.953 Z0 F600
G1 X52.997 Y31.974 Z0 F600
G1 X53.114 Y31.979 Z0 F600
G1 X53.243 Y31.963 Z0 F600
G1 X53.382 Y31.931 Z0 F600
G1 X53.525 Y31.888 Z0 F600
G1 X53.646 Y31.841 Z0 F600
; --- FIX Y Backlash ---
G0 X53.646 Y31.141 F410
G1 X53.75 Y31.077 Z0 F600
G1 X54.172 Y30.717 Z0 F600
G1 X54.43 Y30.551 Z0 F600
G1 X54.706 Y30.429 Z0 F600
G1 X54.938 Y30.363 Z0 F600
G1 X55.185 Y30.34 Z0 F600
G1 X55.497 Y30.355 Z0 F600
G1 X55.804 Y30.383 Z0 F600
G1 X56.103 Y30.43 Z0 F600
; --- FIX Y Backlash ---
G0 X56.103 Y31.13 F410
G1 X56.395 Y31.232 Z0 F600
G1 X56.625 Y31.355 Z0 F600
G1 X56.845 Y31.49 Z0 F600
G1 X57.088 Y31.658 Z0 F600
G1 X57.317 Y31.849 Z0 F600
G1 X57.535 Y32.055 Z0 F600
G1 X57.746 Y32.264 Z0 F600
G1 X58.116 Y32.637 Z0 F600
G1 X58.465 Y33.024 Z0 F600
G1 X58.566 Y33.158 Z0 F600
G1 X58.654 Y33.305 Z0 F600
G1 X58.788 Y33.587 Z0 F600
G1 X58.882 Y33.867 Z0 F600
G1 X58.929 Y34.154 Z0 F600
G1 Y34.459 Z0 F600
G1 X58.897 Y34.731 Z0 F600
G1 X58.852 Y34.991 Z0 F600
; --- FIX X Backlash ---
G0 X58.052 Y34.991 F410
G1 X57.978 Y35.245 Z0 F600
G1 X57.866 Y35.5 Z0 F600
G1 X57.69 Y35.812 Z0 F600
G1 X57.493 Y36.119 Z0 F600
G1 X57.305 Y36.351 Z0 F600
G1 X57.087 Y36.569 Z0 F600
G1 X56.938 Y36.708 Z0 F600
G1 X56.777 Y36.831 Z0 F600
G1 X56.224 Y37.148 Z0 F600
G1 X55.651 Y37.424 Z0 F600
G1 X55.382 Y37.514 Z0 F600
G1 X55.117 Y37.57 Z0 F600
G1 X54.92 Y37.588 Z0 F600
G1 X54.781 Y37.607 Z0 F600
G1 X54.694 Y37.622 Z0 F600
G1 X54.522 Y37.643 Z0 F600
G1 X54.329 Y37.636 Z0 F600
G1 X54.223 Y37.607 Z0 F600
G1 X54.162 Y37.573 Z0 F600
G1 X54.134 Y37.555 Z0 F600
G1 X54.095 Y37.521 Z0 F600
; --- FIX Y Backlash ---
G0 X54.095 Y36.821 F410
G1 X54.054 Y36.767 Z0 F600
G1 X54.022 Y36.685 Z0 F600
G1 X54.011 Y36.578 Z0 F600
G1 X54.017 Y36.517 Z0 F600
G1 X54.036 Y36.387 Z0 F600
G1 X54.075 Y36.207 Z0 F600
G1 X54.106 Y36.038 Z0 F600
; --- FIX X Backlash ---
G0 X54.906 Y36.038 F410
G1 X55.036 Y35.447 Z0 F600
G1 X55.064 Y35.291 Z0 F600
G1 X55.098 Y35.138 Z0 F600
G1 X55.131 Y35.03 Z0 F600
G1 X55.169 Y34.917 Z0 F600
G1 X55.27 Y34.606 Z0 F600
G1 X55.405 Y34.226 Z0 F600
G1 X55.431 Y34.125 Z0 F600
G1 X55.436 Y34.09 Z0 F600
G1 X55.432 Y34.014 Z0 F600
G1 X55.414 Y33.956 Z0 F600
G1 X55.385 Y33.918 Z0 F600
G1 X55.346 Y33.894 Z0 F600
G1 X55.296 Y33.881 Z0 F600
; --- FIX X Backlash ---
G0 X54.496 Y33.881 F410
G1 X54.353 Y33.884 Z0 F600
G1 X54.188 Y33.899 Z0 F600
G1 X53.904 Z0 F600
G1 X53.681 Z0 F600
G1 X53.439 Y33.911 Z0 F600
G1 X53.118 Y33.956 Z0 F600
G0 Z3.5 F600
; --- FIX Y Backlash ---
G0 X53.118 Y34.656 F410
G0 X36.317 Y37.639 Z3.5
G1 Z0 F600
;Layer C3 Pass 1 of 2
G1 X36.335 Y37.703 Z0 F600
; --- FIX X Backlash ---
G0 X37.135 Y37.703 F410
G1 X37.194 Y37.808 Z0 F600
G1 X37.283 Y37.912 Z0 F600
G1 X37.391 Y38.033 Z0 F600
G1 X37.456 Y38.125 Z0 F600
G1 X37.504 Y38.23 Z0 F600
G1 X37.573 Y38.418 Z0 F600
G1 X37.63 Y38.596 Z0 F600
G1 X37.66 Y38.676 Z0 F600
G1 X37.683 Y38.764 Z0 F600
G1 Y38.88 Z0 F600
G1 X37.642 Y39.046 Z0 F600
G1 X37.599 Y39.155 Z0 F600
G1 X37.556 Y39.229 Z0 F600
G1 X37.515 Y39.277 Z0 F600
G1 X37.481 Y39.308 Z0 F600
; --- FIX X Backlash ---
G0 X36.681 Y39.308 F410
G1 X36.585 Y39.366 Z0 F600
G1 X36.454 Y39.416 Z0 F600
G1 X36.283 Y39.462 Z0 F600
G1 X36.064 Y39.509 Z0 F600
G1 X35.748 Y39.567 Z0 F600
G1 X35.445 Y39.64 Z0 F600
G1 X35.317 Y39.687 Z0 F600
G1 X35.209 Y39.746 Z0 F600
G1 X35.107 Y39.821 Z0 F600
G1 X34.995 Y39.917 Z0 F600
G1 X34.832 Y40.084 Z0 F600
G1 X34.721 Y40.284 Z0 F600
G1 X34.646 Y40.523 Z0 F600
G1 X34.598 Y40.735 Z0 F600
G1 X34.578 Y40.852 Z0 F600
G1 X34.571 Y40.935 Z0 F600
G1 X34.585 Y41.031 Z0 F600
G1 X34.626 Y41.185 Z0 F600
G1 X34.661 Y41.288 Z0 F600
; --- FIX X Backlash ---
G0 X35.461 Y41.288 F410
G1 X35.511 Y41.39 Z0 F600
G1 X35.583 Y41.483 Z0 F600
G1 X35.686 Y41.56 Z0 F600
G1 X35.896 Y41.659 Z0 F600
G1 X36.056 Y41.694 Z0 F600
G1 X36.206 Y41.689 Z0 F600
G1 X36.386 Y41.669 Z0 F600
G1 X36.717 Y41.649 Z0 F600
G1 X37.061 Y41.637 Z0 F600
G1 X37.189 Y41.643 Z0 F600
G1 X37.314 Y41.659 Z0 F600
G1 X37.568 Y41.698 Z0 F600
G1 X37.821 Y41.756 Z0 F600
G1 X38.071 Y41.842 Z0 F600
G1 X38.312 Y41.95 Z0 F600
G1 X38.547 Y42.077 Z0 F600
G1 X38.778 Y42.22 Z0 F600
G1 X39.313 Y42.514 Z0 F600
G1 X39.875 Y42.755 Z0 F600
G1 X40.231 Y42.875 Z0 F600
G1 X40.579 Y42.956 Z0 F600
G1 X40.729 Y42.989 Z0 F600
G1 X40.888 Y43.021 Z0 F600
G1 X41.04 Y43.038 Z0 F600
G1 X41.425 Y43.067 Z0 F600
G1 X41.656 Z0 F600
G1 X41.884 Y43.047 Z0 F600
G1 X42.099 Y43.009 Z0 F600
; --- FIX Y Backlash ---
G0 X42.099 Y42.309 F410
G1 X42.482 Y42.209 Z0 F600
G1 X42.633 Y42.155 Z0 F600
G1 X42.783 Y42.085 Z0 F600
G1 X42.907 Y42.003 Z0 F600
G1 X43.028 Y41.896 Z0 F600
G1 X43.165 Y41.751 Z0 F600
G1 X43.28 Y41.604 Z0 F600
G1 X43.366 Y41.47 Z0 F600
G1 X43.488 Y41.257 Z0 F600
G1 X43.713 Y40.819 Z0 F600
G1 X43.811 Y40.644 Z0 F600
G1 X43.923 Y40.487 Z0 F600
G1 X44.069 Y40.336 Z0 F600
G1 X44.331 Y40.126 Z0 F600
G1 X44.603 Y39.973 Z0 F600
G1 X44.784 Y39.908 Z0 F600
G1 X44.969 Y39.849 Z0 F600
G1 X45.42 Y39.735 Z0 F600
G1 X45.87 Y39.644 Z0 F600
G1 X46.008 Y39.62 Z0 F600
G1 X46.151 Y39.604 Z0 F600
G1 X46.366 Y39.573 Z0 F600
G1 X46.573 Y39.556 Z0 F600
G1 X46.804 Y39.544 Z0 F600
G1 X47.186 Y39.519 Z0 F600
G1 X47.458 Y39.487 Z0 F600
G1 X47.923 Y39.421 Z0 F600
G1 X48.003 Y39.416 Z0 F600
G1 X48.065 Z0 F600
;Layer C3 Pass 2 of 2
; --- FIX X Backlash ---
G0 X47.265 Y39.416 F410
G1 X47.203 Z0 F600
G1 X47.123 Y39.421 Z0 F600
; --- FIX Y Backlash ---
G0 X47.123 Y40.121 F410
G1 X46.658 Y40.187 Z0 F600
G1 X46.386 Y40.219 Z0 F600
G1 X46.004 Y40.244 Z0 F600
G1 X45.773 Y40.256 Z0 F600
G1 X45.566 Y40.273 Z0 F600
G1 X45.351 Y40.304 Z0 F600
G1 X45.208 Y40.32 Z0 F600
G1 X45.07 Y40.344 Z0 F600
G1 X44.62 Y40.435 Z0 F600
G1 X44.169 Y40.549 Z0 F600
G1 X43.984 Y40.608 Z0 F600
G1 X43.803 Y40.673 Z0 F600
G1 X43.531 Y40.826 Z0 F600
G1 X43.269 Y41.036 Z0 F600
G1 X43.123 Y41.187 Z0 F600
G1 X43.011 Y41.344 Z0 F600
G1 X42.913 Y41.519 Z0 F600
G1 X42.688 Y41.957 Z0 F600
G1 X42.566 Y42.17 Z0 F600
G1 X42.48 Y42.304 Z0 F600
G1 X42.365 Y42.451 Z0 F600
G1 X42.228 Y42.596 Z0 F600
G1 X42.107 Y42.703 Z0 F600
G1 X41.983 Y42.785 Z0 F600
G1 X41.833 Y42.855 Z0 F600
G1 X41.682 Y42.909 Z0 F600
G1 X41.299 Y43.009 Z0 F600
G1 X41.084 Y43.047 Z0 F600
G1 X40.856 Y43.066 Z0 F600
G1 X40.625 Z0 F600
G1 X40.24 Y43.038 Z0 F600
G1 X40.088 Y43.021 Z0 F600
G1 X39.929 Y42.989 Z0 F600
G1 X39.779 Y42.956 Z0 F600
; --- FIX Y Backlash ---
G0 X39.779 Y42.256 F410
G1 X39.431 Y42.175 Z0 F600
G1 X39.075 Y42.055 Z0 F600
G1 X38.513 Y41.814 Z0 F600
G1 X37.978 Y41.52 Z0 F600
G1 X37.747 Y41.377 Z0 F600
G1 X37.512 Y41.25 Z0 F600
G1 X37.271 Y41.142 Z0 F600
G1 X37.021 Y41.056 Z0 F600
G1 X36.768 Y40.998 Z0 F600
G1 X36.514 Y40.959 Z0 F600
G1 X36.389 Y40.943 Z0 F600
G1 X36.261 Y40.937 Z0 F600
G1 X35.917 Y40.949 Z0 F600
G1 X35.586 Y40.969 Z0 F600
G1 X35.406 Y40.989 Z0 F600
G1 X35.256 Y40.994 Z0 F600
G1 X35.096 Y40.959 Z0 F600
G1 X34.886 Y40.86 Z0 F600
G1 X34.783 Y40.783 Z0 F600
G1 X34.711 Y40.69 Z0 F600
G1 X34.661 Y40.588 Z0 F600
G1 X34.626 Y40.485 Z0 F600
G1 X34.585 Y40.331 Z0 F600
G1 X34.571 Y40.235 Z0 F600
G1 X34.578 Y40.152 Z0 F600
G1 X34.598 Y40.035 Z0 F600
G1 X34.646 Y39.823 Z0 F600
; --- FIX X Backlash ---
G0 X35.446 Y39.823 F410
G1 X35.521 Y39.584 Z0 F600
G1 X35.632 Y39.384 Z0 F600
G1 X35.795 Y39.217 Z0 F600
G1 X35.907 Y39.121 Z0 F600
G1 X36.009 Y39.046 Z0 F600
G1 X36.117 Y38.987 Z0 F600
G1 X36.245 Y38.94 Z0 F600
G1 X36.548 Y38.867 Z0 F600
G1 X36.864 Y38.809 Z0 F600
G1 X37.083 Y38.762 Z0 F600
G1 X37.254 Y38.716 Z0 F600
G1 X37.385 Y38.666 Z0 F600
G1 X37.481 Y38.608 Z0 F600
G1 X37.515 Y38.577 Z0 F600
G1 X37.556 Y38.529 Z0 F600
G1 X37.599 Y38.455 Z0 F600
G1 X37.642 Y38.346 Z0 F600
G1 X37.683 Y38.18 Z0 F600
G1 Y38.064 Z0 F600
G1 X37.66 Y37.976 Z0 F600
G1 X37.63 Y37.896 Z0 F600
; --- FIX X Backlash ---
G0 X36.83 Y37.896 F410
G1 X36.773 Y37.718 Z0 F600
G1 X36.704 Y37.53 Z0 F600
G1 X36.656 Y37.425 Z0 F600
G1 X36.591 Y37.333 Z0 F600
G1 X36.483 Y37.212 Z0 F600
G1 X36.394 Y37.108 Z0 F600
G1 X36.335 Y37.003 Z0 F600
G1 X36.317 Y36.939 Z0 F600
G0 Z3.5 F600
; --- FIX X Backlash ---
G0 X37.117 Y36.939 F410
; --- FIX Y Backlash ---
G0 X37.117 Y37.639 F410
G0 X46.376 Y44.027 Z3.5
G1 Z0 F600
;Layer C3 Pass 1 of 2
; --- FIX X Backlash ---
G0 X45.576 Y44.027 F410
G1 X45.48 Y43.982 Z0 F600
G1 X45.323 Y43.933 Z0 F600
G1 X45.208 Y43.93 Z0 F600
G1 X45.032 Y43.982 Z0 F600
G1 X44.929 Y44.018 Z0 F600
G1 X44.675 Y44.115 Z0 F600
G1 X44.422 Y44.215 Z0 F600
G1 X44.288 Y44.264 Z0 F600
G1 X44.056 Y44.352 Z0 F600
G1 X43.841 Y44.436 Z0 F600
G1 X43.606 Y44.54 Z0 F600
G1 X43.432 Y44.662 Z0 F600
G1 X43.296 Y44.818 Z0 F600
G1 X43.221 Y44.912 Z0 F600
G1 X43.132 Y45.018 Z0 F600
G1 X43.019 Y45.139 Z0 F600
G1 X42.874 Y45.274 Z0 F600
G1 X42.526 Y45.56 Z0 F600
G1 X42.143 Y45.809 Z0 F600
G1 X41.959 Y45.892 Z0 F600
G1 X41.759 Y45.958 Z0 F600
G1 X41.56 Y46.005 Z0 F600
G1 X41.383 Y46.031 Z0 F600
G1 X41.169 Y46.054 Z0 F600
G1 X40.723 Y46.116 Z0 F600
G1 X40.56 Y46.14 Z0 F600
G1 X40.435 Y46.161 Z0 F600
G1 X40.342 Y46.182 Z0 F600
G1 X40.285 Y46.193 Z0 F600
G1 X40.182 Y46.228 Z0 F600
G1 X40.118 Y46.278 Z0 F600
G1 X40.081 Y46.351 Z0 F600
G1 X40.062 Y46.399 Z0 F600
G1 X40.04 Y46.473 Z0 F600
G1 X40.011 Y46.588 Z0 F600
G1 X39.979 Y46.789 Z0 F600
G1 X39.976 Y47.011 Z0 F600
G1 X39.957 Y47.236 Z0 F600
G1 X39.948 Y47.461 Z0 F600
G1 X39.996 Y47.692 Z0 F600
; --- FIX X Backlash ---
G0 X40.796 Y47.692 F410
G1 X40.888 Y47.939 Z0 F600
G1 X41.001 Y48.13 Z0 F600
G1 X41.151 Y48.259 Z0 F600
G1 X41.324 Y48.338 Z0 F600
G1 X41.507 Y48.383 Z0 F600
G1 X41.64 Y48.404 Z0 F600
G1 X41.789 Y48.417 Z0 F600
G1 X41.974 Y48.408 Z0 F600
G1 X42.155 Y48.392 Z0 F600
G1 X42.38 Y48.367 Z0 F600
G1 X42.531 Y48.353 Z0 F600
G1 X42.689 Y48.325 Z0 F600
; --- FIX Y Backlash ---
G0 X42.689 Y47.625 F410
G1 X42.929 Y47.545 Z0 F600
G1 X43.168 Y47.456 Z0 F600
G1 X43.359 Y47.378 Z0 F600
G1 X43.534 Y47.274 Z0 F600
G1 X43.669 Y47.185 Z0 F600
G1 X43.815 Y47.106 Z0 F600
G1 X44.039 Y47 Z0 F600
G1 X44.265 Y46.92 Z0 F600
G1 X44.418 Y46.889 Z0 F600
G1 X44.575 Y46.862 Z0 F600
G1 X44.699 Y46.843 Z0 F600
G1 X44.8 Y46.831 Z0 F600
G1 X44.939 Z0 F600
G1 X45.104 Y46.86 Z0 F600
; --- FIX Y Backlash ---
G0 X45.104 Y47.56 F410
G1 X45.269 Y47.642 Z0 F600
G1 X45.406 Y47.799 Z0 F600
G1 X45.484 Y47.983 Z0 F600
G1 X45.498 Y48.126 Z0 F600
G1 X45.476 Y48.253 Z0 F600
G1 X45.447 Y48.389 Z0 F600
G1 X45.408 Y48.608 Z0 F600
; --- FIX X Backlash ---
G0 X44.608 Y48.608 F410
G1 X44.55 Y48.868 Z0 F600
G1 X44.42 Y49.151 Z0 F600
G1 X44.247 Y49.403 Z0 F600
G1 X44.133 Y49.538 Z0 F600
G1 X44.001 Y49.668 Z0 F600
G1 X43.796 Y49.862 Z0 F600
G1 X43.578 Y50.031 Z0 F600
G1 X43.357 Y50.137 Z0 F600
G1 X43.11 Y50.208 Z0 F600
G1 X42.851 Y50.252 Z0 F600
G1 X42.593 Y50.278 Z0 F600
G1 X42.208 Y50.313 Z0 F600
G1 X41.833 Y50.323 Z0 F600
G1 X41.588 Y50.294 Z0 F600
G1 X41.327 Y50.25 Z0 F600
; --- FIX Y Backlash ---
G0 X41.327 Y49.55 F410
G1 X40.969 Y49.486 Z0 F600
G1 X40.623 Y49.482 Z0 F600
G1 X40.199 Y49.525 Z0 F600
; --- FIX Y Backlash ---
G0 X40.199 Y50.225 F410
G1 X39.835 Y50.298 Z0 F600
G1 X39.693 Y50.354 Z0 F600
G1 X39.553 Y50.423 Z0 F600
G1 X39.428 Y50.515 Z0 F600
G1 X39.335 Y50.641 Z0 F600
G1 X39.269 Y50.8 Z0 F600
G1 X39.231 Y50.955 Z0 F600
G1 X39.222 Y51.107 Z0 F600
G1 X39.241 Y51.26 Z0 F600
G1 X39.277 Y51.412 Z0 F600
; --- FIX X Backlash ---
G0 X40.077 Y51.412 F410
G1 X40.13 Y51.57 Z0 F600
G1 X40.218 Y51.74 Z0 F600
G1 X40.336 Y51.897 Z0 F600
G1 X40.468 Y52.052 Z0 F600
G1 X40.597 Y52.217 Z0 F600
G1 X40.738 Y52.431 Z0 F600
G1 X40.844 Y52.667 Z0 F600
G1 X40.921 Y52.922 Z0 F600
G1 X40.951 Y53.174 Z0 F600
G1 X40.941 Y53.515 Z0 F600
G1 X40.909 Y53.849 Z0 F600
; --- FIX X Backlash ---
G0 X40.109 Y53.849 F410
G1 X40.049 Y54.143 Z0 F600
G1 X39.95 Y54.44 Z0 F600
G1 X39.831 Y54.659 Z0 F600
G1 X39.693 Y54.862 Z0 F600
G1 X39.52 Y55.101 Z0 F600
G1 X39.329 Y55.327 Z0 F600
G1 X39.128 Y55.545 Z0 F600
G1 X38.922 Y55.757 Z0 F600
G1 X38.687 Y56.005 Z0 F600
G1 X38.448 Y56.249 Z0 F600
G1 X38.196 Y56.472 Z0 F600
G1 X37.921 Y56.656 Z0 F600
G1 X37.639 Y56.79 Z0 F600
G1 X37.378 Y56.871 Z0 F600
G1 X37.115 Y56.914 Z0 F600
G1 X36.824 Y56.933 Z0 F600
G1 X36.554 Y56.925 Z0 F600
G1 X36.282 Y56.883 Z0 F600
; --- FIX Y Backlash ---
G0 X36.282 Y56.183 F410
G1 X36.02 Y56.111 Z0 F600
G1 X35.782 Y56.013 Z0 F600
G1 X35.623 Y55.932 Z0 F600
G1 X35.473 Y55.845 Z0 F600
G1 X35.275 Y55.721 Z0 F600
G1 X35.079 Y55.594 Z0 F600
G1 X34.82 Y55.384 Z0 F600
G1 X34.578 Y55.144 Z0 F600
G1 X34.356 Y54.852 Z0 F600
G1 X34.166 Y54.528 Z0 F600
G1 X33.955 Y54.155 Z0 F600
G1 X33.773 Y53.768 Z0 F600
G1 X33.688 Y53.496 Z0 F600
G1 X33.632 Y53.234 Z0 F600
G1 X33.61 Y53.008 Z0 F600
G1 X33.59 Y52.863 Z0 F600
G1 X33.572 Y52.755 Z0 F600
G1 X33.56 Y52.625 Z0 F600
G1 Y52.491 Z0 F600
G1 X33.579 Y52.37 Z0 F600
G1 X33.615 Y52.278 Z0 F600
G1 X33.634 Y52.245 Z0 F600
G1 X33.665 Y52.203 Z0 F600
; --- FIX X Backlash ---
G0 X34.465 Y52.203 F410
G1 X34.521 Y52.16 Z0 F600
G1 X34.613 Y52.123 Z0 F600
G1 X34.736 Y52.109 Z0 F600
G1 X34.809 Y52.117 Z0 F600
G1 X34.931 Y52.137 Z0 F600
; --- FIX Y Backlash ---
G0 X34.931 Y52.837 F410
G1 X35.207 Y52.901 Z0 F600
G1 X35.288 Y52.915 Z0 F600
G1 X35.568 Y52.977 Z0 F600
G1 X35.879 Y53.049 Z0 F600
G1 X35.999 Y53.071 Z0 F600
G1 X36.132 Y53.105 Z0 F600
G1 X36.691 Y53.29 Z0 F600
G1 X36.976 Y53.392 Z0 F600
G1 X37.072 Y53.421 Z0 F600
G1 X37.173 Y53.44 Z0 F600
G1 X37.208 Y53.445 Z0 F600
G1 X37.285 Y53.435 Z0 F600
G1 X37.377 Y53.387 Z0 F600
; --- FIX Y Backlash ---
G0 X37.377 Y52.687 F410
G1 X37.412 Y52.612 Z0 F600
G1 Y52.474 Z0 F600
G1 X37.399 Y52.305 Z0 F600
G1 Y51.77 Z0 F600
G1 X37.384 Y51.547 Z0 F600
G1 X37.342 Y51.264 Z0 F600
;Layer C3 Pass 2 of 2
; --- FIX Y Backlash ---
G0 X37.342 Y51.964 F410
G1 X37.384 Y52.247 Z0 F600
G1 X37.399 Y52.47 Z0 F600
G1 Y53.005 Z0 F600
G1 X37.412 Y53.174 Z0 F600
G1 Y53.312 Z0 F600
G1 X37.377 Y53.387 Z0 F600
; --- FIX X Backlash ---
G0 X36.577 Y53.387 F410
G1 X36.485 Y53.435 Z0 F600
G1 X36.408 Y53.445 Z0 F600
G1 X36.373 Y53.44 Z0 F600
G1 X36.272 Y53.421 Z0 F600
G1 X36.176 Y53.392 Z0 F600
; --- FIX Y Backlash ---
G0 X36.176 Y52.692 F410
G1 X35.891 Y52.59 Z0 F600
G1 X35.332 Y52.405 Z0 F600
G1 X35.199 Y52.371 Z0 F600
G1 X35.079 Y52.349 Z0 F600
G1 X34.768 Y52.277 Z0 F600
G1 X34.488 Y52.215 Z0 F600
G1 X34.407 Y52.201 Z0 F600
G1 X34.131 Y52.137 Z0 F600
G1 X34.009 Y52.117 Z0 F600
G1 X33.936 Y52.109 Z0 F600
G1 X33.813 Y52.123 Z0 F600
G1 X33.721 Y52.16 Z0 F600
G1 X33.665 Y52.203 Z0 F600
G1 X33.634 Y52.245 Z0 F600
G1 X33.615 Y52.278 Z0 F600
; --- FIX Y Backlash ---
G0 X33.615 Y52.978 F410
G1 X33.579 Y53.07 Z0 F600
G1 X33.561 Y53.191 Z0 F600
G1 Y53.325 Z0 F600
G1 X33.572 Y53.455 Z0 F600
G1 X33.59 Y53.563 Z0 F600
G1 X33.61 Y53.708 Z0 F600
G1 X33.632 Y53.934 Z0 F600
; --- FIX X Backlash ---
G0 X34.432 Y53.934 F410
G1 X34.488 Y54.196 Z0 F600
G1 X34.573 Y54.468 Z0 F600
G1 X34.755 Y54.855 Z0 F600
G1 X34.966 Y55.228 Z0 F600
G1 X35.156 Y55.552 Z0 F600
G1 X35.378 Y55.844 Z0 F600
G1 X35.62 Y56.084 Z0 F600
G1 X35.879 Y56.294 Z0 F600
G1 X36.075 Y56.421 Z0 F600
G1 X36.273 Y56.545 Z0 F600
G1 X36.423 Y56.632 Z0 F600
G1 X36.582 Y56.713 Z0 F600
G1 X36.82 Y56.811 Z0 F600
G1 X37.082 Y56.883 Z0 F600
G1 X37.354 Y56.925 Z0 F600
G1 X37.624 Y56.933 Z0 F600
G1 X37.915 Y56.914 Z0 F600
G1 X38.178 Y56.871 Z0 F600
; --- FIX Y Backlash ---
G0 X38.178 Y56.171 F410
G1 X38.439 Y56.09 Z0 F600
G1 X38.721 Y55.956 Z0 F600
G1 X38.996 Y55.772 Z0 F600
G1 X39.248 Y55.549 Z0 F600
G1 X39.487 Y55.305 Z0 F600
G1 X39.722 Y55.057 Z0 F600
G1 X39.928 Y54.845 Z0 F600
G1 X40.129 Y54.627 Z0 F600
G1 X40.32 Y54.401 Z0 F600
G1 X40.493 Y54.162 Z0 F600
G1 X40.631 Y53.959 Z0 F600
G1 X40.75 Y53.74 Z0 F600
G1 X40.849 Y53.443 Z0 F600
G1 X40.909 Y53.149 Z0 F600
G1 X40.941 Y52.815 Z0 F600
G1 X40.951 Y52.474 Z0 F600
G1 X40.921 Y52.222 Z0 F600
; --- FIX X Backlash ---
G0 X40.121 Y52.222 F410
G1 X40.044 Y51.967 Z0 F600
G1 X39.938 Y51.731 Z0 F600
G1 X39.797 Y51.517 Z0 F600
G1 X39.668 Y51.352 Z0 F600
G1 X39.536 Y51.197 Z0 F600
G1 X39.418 Y51.04 Z0 F600
G1 X39.33 Y50.87 Z0 F600
G1 X39.277 Y50.712 Z0 F600
G1 X39.241 Y50.56 Z0 F600
G1 X39.222 Y50.407 Z0 F600
G1 X39.231 Y50.255 Z0 F600
G1 X39.269 Y50.1 Z0 F600
; --- FIX X Backlash ---
G0 X40.069 Y50.1 F410
G1 X40.135 Y49.941 Z0 F600
G1 X40.228 Y49.815 Z0 F600
G1 X40.353 Y49.723 Z0 F600
G1 X40.493 Y49.654 Z0 F600
G1 X40.635 Y49.598 Z0 F600
G1 X40.999 Y49.525 Z0 F600
G1 X41.423 Y49.482 Z0 F600
G1 X41.769 Y49.486 Z0 F600
; --- FIX Y Backlash ---
G0 X41.769 Y50.186 F410
G1 X42.127 Y50.25 Z0 F600
G1 X42.388 Y50.294 Z0 F600
G1 X42.633 Y50.323 Z0 F600
G1 X43.008 Y50.313 Z0 F600
G1 X43.393 Y50.278 Z0 F600
G1 X43.651 Y50.252 Z0 F600
G1 X43.91 Y50.208 Z0 F600
; --- FIX Y Backlash ---
G0 X43.91 Y49.508 F410
G1 X44.157 Y49.437 Z0 F600
G1 X44.378 Y49.331 Z0 F600
G1 X44.596 Y49.162 Z0 F600
G1 X44.801 Y48.968 Z0 F600
G1 X44.933 Y48.838 Z0 F600
G1 X45.047 Y48.703 Z0 F600
G1 X45.22 Y48.451 Z0 F600
G1 X45.35 Y48.168 Z0 F600
G1 X45.408 Y47.908 Z0 F600
G1 X45.447 Y47.689 Z0 F600
G1 X45.476 Y47.553 Z0 F600
G1 X45.498 Y47.426 Z0 F600
G1 X45.484 Y47.283 Z0 F600
; --- FIX X Backlash ---
G0 X44.684 Y47.283 F410
G1 X44.606 Y47.099 Z0 F600
G1 X44.469 Y46.942 Z0 F600
G1 X44.304 Y46.86 Z0 F600
G1 X44.139 Y46.83 Z0 F600
G1 X44 Z0 F600
G1 X43.899 Y46.843 Z0 F600
G1 X43.775 Y46.862 Z0 F600
G1 X43.618 Y46.889 Z0 F600
G1 X43.465 Y46.92 Z0 F600
; --- FIX Y Backlash ---
G0 X43.465 Y47.62 F410
G1 X43.239 Y47.7 Z0 F600
G1 X43.015 Y47.806 Z0 F600
G1 X42.869 Y47.885 Z0 F600
G1 X42.734 Y47.974 Z0 F600
G1 X42.559 Y48.078 Z0 F600
G1 X42.368 Y48.156 Z0 F600
G1 X42.129 Y48.245 Z0 F600
G1 X41.889 Y48.325 Z0 F600
G1 X41.731 Y48.353 Z0 F600
G1 X41.58 Y48.367 Z0 F600
G1 X41.355 Y48.392 Z0 F600
G1 X41.174 Y48.408 Z0 F600
G1 X40.989 Y48.417 Z0 F600
G1 X40.84 Y48.404 Z0 F600
G1 X40.707 Y48.383 Z0 F600
G1 X40.524 Y48.338 Z0 F600
; --- FIX Y Backlash ---
G0 X40.524 Y47.638 F410
G1 X40.351 Y47.559 Z0 F600
G1 X40.201 Y47.43 Z0 F600
G1 X40.088 Y47.239 Z0 F600
G1 X39.996 Y46.992 Z0 F600
G1 X39.948 Y46.761 Z0 F600
G1 X39.957 Y46.536 Z0 F600
G1 X39.976 Y46.311 Z0 F600
G1 X39.979 Y46.089 Z0 F600
G1 X40.011 Y45.888 Z0 F600
G1 X40.04 Y45.773 Z0 F600
G1 X40.062 Y45.699 Z0 F600
G1 X40.081 Y45.651 Z0 F600
G1 X40.118 Y45.578 Z0 F600
; --- FIX X Backlash ---
G0 X40.918 Y45.578 F410
G1 X40.982 Y45.528 Z0 F600
G1 X41.085 Y45.493 Z0 F600
G1 X41.142 Y45.482 Z0 F600
G1 X41.235 Y45.461 Z0 F600
G1 X41.36 Y45.44 Z0 F600
G1 X41.523 Y45.416 Z0 F600
G1 X41.969 Y45.354 Z0 F600
G1 X42.183 Y45.331 Z0 F600
G1 X42.36 Y45.305 Z0 F600
G1 X42.559 Y45.258 Z0 F600
G1 X42.759 Y45.192 Z0 F600
G1 X42.943 Y45.109 Z0 F600
G1 X43.326 Y44.86 Z0 F600
G1 X43.674 Y44.574 Z0 F600
G1 X43.819 Y44.439 Z0 F600
G1 X43.932 Y44.318 Z0 F600
G1 X44.021 Y44.212 Z0 F600
G1 X44.096 Y44.118 Z0 F600
G1 X44.232 Y43.962 Z0 F600
G1 X44.406 Y43.84 Z0 F600
G1 X44.641 Y43.736 Z0 F600
G1 X44.856 Y43.652 Z0 F600
G1 X45.088 Y43.564 Z0 F600
G1 X45.222 Y43.515 Z0 F600
G1 X45.475 Y43.415 Z0 F600
G1 X45.729 Y43.318 Z0 F600
G1 X45.832 Y43.282 Z0 F600
G1 X46.008 Y43.23 Z0 F600
G1 X46.123 Y43.233 Z0 F600
G1 X46.28 Y43.282 Z0 F600
G1 X46.376 Y43.327 Z0 F600
G0 Z3.5 F600
; --- FIX X Backlash ---
G0 X45.576 Y43.327 F410
; --- FIX Y Backlash ---
G0 X45.576 Y44.027 F410
G0 X36.571 Y48.024 Z3.5
G1 Z0 F600
;Layer C3 Pass 1 of 2
; --- FIX Y Backlash ---
G0 X36.571 Y47.324 F410
G1 X36.22 Y46.878 Z0 F600
G1 X36.073 Y46.698 Z0 F600
G1 X35.888 Y46.5 Z0 F600
G1 X35.784 Y46.405 Z0 F600
G1 X35.713 Y46.362 Z0 F600
G1 X35.623 Y46.321 Z0 F600
G1 X35.507 Y46.286 Z0 F600
G1 X35.36 Y46.256 Z0 F600
G1 X35.111 Y46.245 Z0 F600
G1 X34.854 Y46.26 Z0 F600
G1 X34.691 Y46.273 Z0 F600
G1 X34.515 Y46.28 Z0 F600
G1 X34.298 Z0 F600
G1 X34.01 Z0 F600
G1 X33.668 Y46.285 Z0 F600
G1 X33.385 Y46.279 Z0 F600
G1 X33.12 Y46.241 Z0 F600
G1 X32.828 Y46.149 Z0 F600
G1 X32.487 Y46.012 Z0 F600
G1 X32.18 Y45.871 Z0 F600
G1 X31.872 Y45.717 Z0 F600
G1 X31.589 Y45.596 Z0 F600
G1 X31.294 Y45.484 Z0 F600
G1 X31.083 Y45.382 Z0 F600
;Layer C3 Pass 2 of 2
; --- FIX X Backlash ---
G0 X31.883 Y45.382 F410
; --- FIX Y Backlash ---
G0 X31.883 Y46.082 F410
G1 X32.094 Y46.184 Z0 F600
G1 X32.389 Y46.296 Z0 F600
G1 X32.672 Y46.417 Z0 F600
G1 X32.98 Y46.571 Z0 F600
G1 X33.287 Y46.712 Z0 F600
G1 X33.628 Y46.849 Z0 F600
G1 X33.92 Y46.941 Z0 F600
G1 X34.185 Y46.979 Z0 F600
G1 X34.468 Y46.985 Z0 F600
G1 X34.81 Y46.982 Z0 F600
G1 X35.098 Z0 F600
G1 X35.315 Z0 F600
G1 X35.491 Y46.973 Z0 F600
G1 X35.654 Y46.96 Z0 F600
G1 X35.911 Y46.945 Z0 F600
G1 X36.16 Y46.956 Z0 F600
G1 X36.307 Y46.986 Z0 F600
G1 X36.423 Y47.021 Z0 F600
G1 X36.513 Y47.062 Z0 F600
G1 X36.584 Y47.105 Z0 F600
G1 X36.688 Y47.2 Z0 F600
G1 X36.873 Y47.398 Z0 F600
G1 X37.02 Y47.578 Z0 F600
G1 X37.371 Y48.024 Z0 F600
G0 Z3.5 F600
; --- FIX X Backlash ---
G0 X36.571 Y48.024 F410
; --- FIX Y Backlash ---
G0 X36.571 Y47.324 F410
G0 X27.171 Y43.665 Z3.5
G1 Z0 F600
;Layer C3 Pass 1 of 2
; --- FIX X Backlash ---
G0 X27.971 Y43.665 F410
G1 X28.022 Y43.536 Z0 F600
G1 X28.048 Y43.424 Z0 F600
G1 X28.051 Y43.328 Z0 F600
G1 X28.036 Y43.243 Z0 F600
; --- FIX X Backlash ---
G0 X27.236 Y43.243 F410
G1 X27.184 Y43.08 Z0 F600
G1 X27.13 Y42.933 Z0 F600
G1 X26.951 Y42.483 Z0 F600
G1 X26.835 Y42.174 Z0 F600
G1 X26.745 Y41.944 Z0 F600
G1 X26.634 Y41.695 Z0 F600
G1 X26.559 Y41.571 Z0 F600
G1 X26.47 Y41.47 Z0 F600
G1 X26.352 Y41.368 Z0 F600
G1 X26.186 Y41.238 Z0 F600
G1 X26.01 Y41.084 Z0 F600
G1 X25.854 Y40.919 Z0 F600
G1 X25.718 Y40.754 Z0 F600
G1 X25.6 Y40.598 Z0 F600
G1 X25.503 Y40.447 Z0 F600
G1 X25.398 Y40.26 Z0 F600
G1 X25.248 Y39.888 Z0 F600
G1 X25.171 Y39.528 Z0 F600
G1 X25.154 Y39.344 Z0 F600
G1 X25.128 Y39.134 Z0 F600
G1 X25.069 Y38.703 Z0 F600
G1 X25.046 Y38.556 Z0 F600
G1 X25.027 Y38.459 Z0 F600
G1 X25.008 Y38.402 Z0 F600
G1 Y38.29 Z0 F600
G1 X25.037 Y38.217 Z0 F600
G1 X25.067 Y38.181 Z0 F600
; --- FIX X Backlash ---
G0 X25.867 Y38.181 F410
G1 X25.947 Y38.103 Z0 F600
G1 X26.029 Y38.031 Z0 F600
G1 X26.148 Y37.892 Z0 F600
G1 X26.351 Y37.582 Z0 F600
G1 X26.443 Y37.445 Z0 F600
G1 X26.555 Y37.288 Z0 F600
G1 X26.692 Y37.108 Z0 F600
G1 X27.07 Y36.658 Z0 F600
G1 X27.182 Y36.507 Z0 F600
G1 X27.284 Y36.348 Z0 F600
G1 X27.427 Y36.098 Z0 F600
G1 X27.544 Y35.841 Z0 F600
G1 X27.621 Y35.62 Z0 F600
G1 X27.677 Y35.405 Z0 F600
G1 X27.705 Y35.183 Z0 F600
G1 X27.696 Y34.941 Z0 F600
; --- FIX X Backlash ---
G0 X26.896 Y34.941 F410
G1 X26.842 Y34.569 Z0 F600
G1 X26.741 Y34.181 Z0 F600
G1 X26.669 Y33.94 Z0 F600
G1 X26.618 Y33.725 Z0 F600
G1 X26.585 Y33.505 Z0 F600
G1 X26.569 Y33.252 Z0 F600
G1 X26.575 Y33.061 Z0 F600
G1 X26.602 Y32.855 Z0 F600
G1 X26.649 Y32.658 Z0 F600
; --- FIX X Backlash ---
G0 X27.449 Y32.658 F410
G1 X27.516 Y32.493 Z0 F600
G1 X27.723 Y32.183 Z0 F600
G1 X27.971 Y31.902 Z0 F600
G1 X28.275 Y31.615 Z0 F600
G1 X28.591 Y31.363 Z0 F600
G1 X28.927 Y31.137 Z0 F600
G1 X29.294 Y30.931 Z0 F600
G1 X29.634 Y30.777 Z0 F600
G1 X29.987 Y30.652 Z0 F600
G1 X30.345 Y30.547 Z0 F600
G1 X31.067 Y30.354 Z0 F600
G1 X31.409 Y30.247 Z0 F600
G1 X31.742 Y30.105 Z0 F600
G1 X31.981 Y29.961 Z0 F600
G1 X32.19 Y29.789 Z0 F600
G1 X32.378 Y29.561 Z0 F600
G1 X32.534 Y29.324 Z0 F600
G1 X32.687 Y29.108 Z0 F600
G1 X32.868 Y28.944 Z0 F600
G1 X33 Y28.874 Z0 F600
G1 X33.106 Y28.841 Z0 F600
G1 X33.213 Y28.825 Z0 F600
G1 X33.519 Y28.785 Z0 F600
G1 X33.655 Y28.794 Z0 F600
G1 X33.792 Y28.84 Z0 F600
; --- FIX Y Backlash ---
G0 X33.792 Y29.54 F410
G1 X33.965 Y29.628 Z0 F600
G1 X34.141 Y29.779 Z0 F600
G1 X34.269 Y29.984 Z0 F600
G1 X34.316 Y30.151 Z0 F600
G1 X34.339 Y30.354 Z0 F600
G1 X34.344 Y30.568 Z0 F600
G1 X34.334 Y30.772 Z0 F600
G1 X34.314 Y30.965 Z0 F600
G1 X34.281 Y31.138 Z0 F600
; --- FIX X Backlash ---
G0 X33.481 Y31.138 F410
G1 X33.307 Y31.519 Z0 F600
G1 X33.111 Y31.898 Z0 F600
G1 X33.043 Y32.091 Z0 F600
G1 X32.948 Y32.388 Z0 F600
G1 X32.925 Y32.467 Z0 F600
G1 X32.913 Y32.521 Z0 F600
G1 X32.907 Y32.573 Z0 F600
G1 Y32.647 Z0 F600
G1 X32.94 Y32.798 Z0 F600
G1 X32.981 Y32.9 Z0 F600
G1 X33.025 Y32.967 Z0 F600
G1 X33.069 Y33.01 Z0 F600
G1 X33.11 Y33.038 Z0 F600
; --- FIX X Backlash ---
G0 X33.91 Y33.038 F410
G1 X34.118 Y33.109 Z0 F600
G1 X34.359 Y33.145 Z0 F600
G1 X34.48 Y33.158 Z0 F600
G1 X34.641 Y33.164 Z0 F600
;Layer C3 Pass 2 of 2
; --- FIX X Backlash ---
G0 X33.841 Y33.164 F410
G1 X33.68 Y33.158 Z0 F600
G1 X33.559 Y33.145 Z0 F600
G1 X33.318 Y33.109 Z0 F600
; --- FIX Y Backlash ---
G0 X33.318 Y32.409 F410
G1 X33.11 Y32.338 Z0 F600
G1 X33.069 Y32.31 Z0 F600
G1 X33.025 Y32.267 Z0 F600
G1 X32.981 Y32.2 Z0 F600
G1 X32.94 Y32.098 Z0 F600
G1 X32.905 Y31.947 Z0 F600
G1 Y31.873 Z0 F600
G1 X32.913 Y31.821 Z0 F600
G1 X32.925 Y31.767 Z0 F600
G1 X32.948 Y31.688 Z0 F600
; --- FIX X Backlash ---
G0 X33.748 Y31.688 F410
G1 X33.843 Y31.391 Z0 F600
G1 X33.911 Y31.198 Z0 F600
G1 X34.107 Y30.819 Z0 F600
G1 X34.281 Y30.438 Z0 F600
G1 X34.314 Y30.265 Z0 F600
G1 X34.334 Y30.072 Z0 F600
G1 X34.344 Y29.868 Z0 F600
G1 X34.339 Y29.654 Z0 F600
G1 X34.316 Y29.451 Z0 F600
G1 X34.269 Y29.284 Z0 F600
; --- FIX X Backlash ---
G0 X33.469 Y29.284 F410
G1 X33.341 Y29.079 Z0 F600
G1 X33.165 Y28.928 Z0 F600
G1 X32.992 Y28.84 Z0 F600
G1 X32.855 Y28.794 Z0 F600
G1 X32.719 Y28.785 Z0 F600
G1 X32.413 Y28.825 Z0 F600
G1 X32.306 Y28.841 Z0 F600
G1 X32.2 Y28.874 Z0 F600
; --- FIX Y Backlash ---
G0 X32.2 Y29.574 F410
G1 X32.068 Y29.644 Z0 F600
G1 X31.887 Y29.808 Z0 F600
G1 X31.734 Y30.024 Z0 F600
G1 X31.578 Y30.261 Z0 F600
G1 X31.39 Y30.489 Z0 F600
G1 X31.181 Y30.661 Z0 F600
G1 X30.942 Y30.805 Z0 F600
G1 X30.609 Y30.947 Z0 F600
G1 X30.267 Y31.054 Z0 F600
G1 X29.545 Y31.247 Z0 F600
G1 X29.187 Y31.352 Z0 F600
G1 X28.834 Y31.477 Z0 F600
G1 X28.494 Y31.631 Z0 F600
G1 X28.127 Y31.837 Z0 F600
G1 X27.791 Y32.063 Z0 F600
G1 X27.475 Y32.315 Z0 F600
G1 X27.171 Y32.602 Z0 F600
G1 X26.923 Y32.883 Z0 F600
G1 X26.716 Y33.193 Z0 F600
G1 X26.649 Y33.358 Z0 F600
G1 X26.602 Y33.555 Z0 F600
G1 X26.575 Y33.761 Z0 F600
G1 X26.569 Y33.952 Z0 F600
G1 X26.585 Y34.205 Z0 F600
G1 X26.618 Y34.425 Z0 F600
; --- FIX X Backlash ---
G0 X27.418 Y34.425 F410
G1 X27.469 Y34.64 Z0 F600
G1 X27.541 Y34.881 Z0 F600
G1 X27.642 Y35.269 Z0 F600
G1 X27.696 Y35.641 Z0 F600
G1 X27.705 Y35.883 Z0 F600
G1 X27.677 Y36.105 Z0 F600
; --- FIX X Backlash ---
G0 X26.877 Y36.105 F410
G1 X26.821 Y36.32 Z0 F600
G1 X26.744 Y36.541 Z0 F600
G1 X26.627 Y36.798 Z0 F600
G1 X26.484 Y37.048 Z0 F600
G1 X26.382 Y37.207 Z0 F600
G1 X26.27 Y37.358 Z0 F600
G1 X25.892 Y37.808 Z0 F600
G1 X25.755 Y37.988 Z0 F600
G1 X25.643 Y38.145 Z0 F600
G1 X25.551 Y38.282 Z0 F600
G1 X25.348 Y38.592 Z0 F600
G1 X25.229 Y38.731 Z0 F600
G1 X25.147 Y38.803 Z0 F600
G1 X25.067 Y38.881 Z0 F600
G1 X25.037 Y38.917 Z0 F600
