G90 ; Force absolute mode
;LightBurn 1.6.04
;Custom GCode device profile, absolute coords
;Bounds: X24.93 Y32.41 to X65.07 Y63.59
G00 G17 G40 G21 G54
M3
G1 Z10 F600
;Offset @ 555 mm/min, 90% power

M8
G0 Z3.5 F600
G0 X33.284 Y36.265 Z3.5
G1 Z0 F600
;Layer C1 Pass 1 of 2
G1 X33.262 Y36.747 Z0 F600
; --- FIX X Backlash ---
G0 X32.562 Y36.747 F410
G1 X32.027 Y36.706 Z0 F600
; --- FIX X Backlash ---
G0 X32.727 Y36.706 F410
; --- FIX Y Backlash ---
G0 X32.727 Y36.206 F410
G1 X32.799 Y36.111 Z0 F600
G1 X32.948 Y35.988 Z0 F600
G1 X33.093 Y35.743 Z0 F600
G1 X33.262 Y35.544 Z0 F600
G1 X33.3 Y35.448 Z0 F600
G1 X33.367 Y35.36 Z0 F600
; --- FIX X Backlash ---
G0 X32.667 Y35.36 F410
; --- FIX Y Backlash ---
G0 X32.667 Y35.86 F410
G1 X32.584 Y36.265 Z0 F600
G0 Z3.5 F600
G0 X32.562 Y37.248 Z3.5 F600
G1 Z0 F600
; --- FIX Y Backlash ---
G0 X32.562 Y36.748 F410
G1 X31.736 Y36.686 Z0 F600
G1 X31.236 Y36.68 Z0 F600
G1 X30.726 Y36.705 Z0 F600
; --- FIX Y Backlash ---
G0 X30.726 Y37.205 F410
G1 X30.188 Y37.27 Z0 F600
G1 X29.611 Y37.394 Z0 F600
G1 X29.08 Y37.575 Z0 F600
; --- FIX Y Backlash ---
G0 X29.08 Y37.075 F410
G1 Y36.785 Z0 F600
; --- FIX X Backlash ---
G0 X29.78 Y36.785 F410
G1 X30.26 Y36.705 Z0 F600
G1 X30.704 Y36.61 Z0 F600
G1 X31.333 Y36.461 Z0 F600
G1 X31.523 Y36.42 Z0 F600
G1 X31.765 Y36.264 Z0 F600
G1 X31.983 Y36.165 Z0 F600
G1 X32.126 Y36.032 Z0 F600
G1 X32.328 Y35.905 Z0 F600
G1 X32.436 Y35.762 Z0 F600
G1 X32.562 Y35.658 Z0 F600
G1 X32.684 Y35.453 Z0 F600
G1 X32.828 Y35.284 Z0 F600
G1 X32.861 Y35.2 Z0 F600
G1 X32.946 Y35.087 Z0 F600
G1 X33.017 Y34.842 Z0 F600
G1 X33.102 Y34.67 Z0 F600
G1 X33.12 Y34.543 Z0 F600
G1 X33.239 Z0 F600
G1 X34.158 Z0 F600
; --- FIX X Backlash ---
G0 X33.458 Y34.543 F410
; --- FIX Y Backlash ---
G0 X33.458 Y35.043 F410
G1 X33.227 Y35.617 Z0 F600
G1 X33.082 Y36.327 Z0 F600
G1 X33.05 Y36.995 Z0 F600
G1 X33.075 Y37.316 Z0 F600
; --- FIX Y Backlash ---
G0 X33.075 Y36.816 F410
G1 X32.562 Y36.748 Z0 F600
G0 Z3.5 F600
G0 X29.467 Y36.213 Z3.5
G1 Z0 F600
; --- FIX X Backlash ---
G0 X30.167 Y36.213 F410
G1 X30.594 Y36.123 Z0 F600
G1 X31.215 Y35.975 Z0 F600
G1 X31.328 Y35.951 Z0 F600
G1 X31.526 Y35.823 Z0 F600
G1 X31.703 Y35.743 Z0 F600
G1 X31.818 Y35.636 Z0 F600
G1 X31.984 Y35.531 Z0 F600
G1 X32.073 Y35.413 Z0 F600
G1 X32.176 Y35.328 Z0 F600
G1 X32.276 Y35.16 Z0 F600
G1 X32.393 Y35.022 Z0 F600
G1 X32.42 Y34.953 Z0 F600
G1 X32.491 Y34.859 Z0 F600
G1 X32.548 Y34.662 Z0 F600
G1 X32.619 Y34.52 Z0 F600
G1 X32.686 Y34.044 Z0 F600
G1 X33.237 Z0 F600
G1 X35.066 Y34.039 Z0 F600
G1 X35.032 Y34.072 Z0 F600
; --- FIX X Backlash ---
G0 X34.332 Y34.072 F410
; --- FIX Y Backlash ---
G0 X34.332 Y34.572 F410
G1 X33.956 Y35.141 Z0 F600
G1 X33.708 Y35.761 Z0 F600
G1 X33.579 Y36.389 Z0 F600
G1 X33.551 Y36.988 Z0 F600
G1 X33.595 Y37.562 Z0 F600
; --- FIX X Backlash ---
G0 X34.295 Y37.562 F410
G1 X34.353 Y37.894 Z0 F600
G1 X34.339 Z0 F600
; --- FIX X Backlash ---
G0 X33.639 Y37.894 F410
; --- FIX Y Backlash ---
G0 X33.639 Y37.394 F410
G1 X33.172 Y37.333 Z0 F600
G1 X32.51 Y37.245 Z0 F600
G1 X31.715 Y37.186 Z0 F600
G1 X31.245 Y37.18 Z0 F600
G1 X30.768 Y37.203 Z0 F600
; --- FIX Y Backlash ---
G0 X30.768 Y37.703 F410
G1 X30.271 Y37.764 Z0 F600
G1 X29.745 Y37.876 Z0 F600
G1 X29.18 Y38.069 Z0 F600
G1 X28.591 Y38.378 Z0 F600
G1 X28.58 Y38.387 Z0 F600
; --- FIX Y Backlash ---
G0 X28.58 Y37.887 F410
G1 Y36.334 Z0 F600
; --- FIX X Backlash ---
G0 X29.28 Y36.334 F410
G1 X29.687 Y36.293 Z0 F600
G1 X30.167 Y36.213 Z0 F600
G0 Z3.5 F600
G0 X34.888 Y35.405 Z3.5
G1 Z0 F600
; --- FIX X Backlash ---
G0 X34.188 Y35.405 F410
; --- FIX Y Backlash ---
G0 X34.188 Y35.905 F410
G1 X34.077 Y36.451 Z0 F600
G1 X34.052 Y36.98 Z0 F600
G1 X34.092 Y37.5 Z0 F600
; --- FIX X Backlash ---
G0 X34.792 Y37.5 F410
G1 X34.882 Y38.018 Z0 F600
G1 X34.954 Y38.301 Z0 F600
G1 X34.95 Y38.418 Z0 F600
G1 Y38.446 Z0 F600
; --- FIX X Backlash ---
G0 X34.25 Y38.446 F410
G1 X33.982 Y38.429 Z0 F600
G1 X33.564 Y38.387 Z0 F600
; --- FIX Y Backlash ---
G0 X33.564 Y37.887 F410
G1 X33.113 Y37.83 Z0 F600
G1 X32.458 Y37.743 Z0 F600
G1 X31.693 Y37.685 Z0 F600
G1 X31.254 Y37.68 Z0 F600
G1 X30.811 Y37.702 Z0 F600
; --- FIX Y Backlash ---
G0 X30.811 Y38.202 F410
G1 X30.353 Y38.257 Z0 F600
G1 X29.878 Y38.359 Z0 F600
G1 X29.379 Y38.53 Z0 F600
G1 X28.866 Y38.799 Z0 F600
G1 X28.372 Y39.196 Z0 F600
G1 X28.08 Y39.573 Z0 F600
; --- FIX Y Backlash ---
G0 X28.08 Y39.073 F410
G1 Y35.853 Z0 F600
; --- FIX X Backlash ---
G0 X28.78 Y35.853 F410
G1 X29.128 Y35.847 Z0 F600
G1 X29.621 Y35.798 Z0 F600
G1 X30.074 Y35.722 Z0 F600
G1 X30.484 Y35.635 Z0 F600
G1 X31.068 Y35.496 Z0 F600
G1 X31.134 Y35.481 Z0 F600
G1 X31.284 Y35.384 Z0 F600
G1 X31.422 Y35.321 Z0 F600
G1 X31.512 Y35.238 Z0 F600
G1 X31.64 Y35.157 Z0 F600
G1 X31.709 Y35.065 Z0 F600
G1 X31.791 Y34.998 Z0 F600
G1 X31.867 Y34.87 Z0 F600
G1 X31.958 Y34.762 Z0 F600
G1 X31.98 Y34.706 Z0 F600
G1 X32.037 Y34.632 Z0 F600
G1 X32.081 Y34.478 Z0 F600
G1 X32.135 Y34.369 Z0 F600
G1 X32.215 Y33.803 Z0 F600
G1 X32.209 Y33.546 Z0 F600
G1 X33.235 Y33.542 Z0 F600
G1 X36.648 Y33.535 Z0 F600
; --- FIX X Backlash ---
G0 X35.948 Y33.535 F410
; --- FIX Y Backlash ---
G0 X35.948 Y34.035 F410
G1 X35.581 Y34.194 Z0 F600
G1 X35.128 Y34.488 Z0 F600
G1 X34.72 Y34.891 Z0 F600
G1 X34.402 Y35.374 Z0 F600
G1 X34.188 Y35.905 Z0 F600
G0 Z3.5 F600
G0 X33.048 Y38.826 Z3.5
G1 Z0 F600
; --- FIX Y Backlash ---
G0 X33.048 Y38.326 F410
G1 X32.406 Y38.24 Z0 F600
G1 X31.671 Y38.185 Z0 F600
G1 X31.263 Y38.18 Z0 F600
G1 X30.853 Y38.2 Z0 F600
; --- FIX Y Backlash ---
G0 X30.853 Y38.7 F410
G1 X30.436 Y38.751 Z0 F600
G1 X30.012 Y38.842 Z0 F600
G1 X29.577 Y38.99 Z0 F600
G1 X29.142 Y39.219 Z0 F600
G1 X28.731 Y39.548 Z0 F600
G1 X28.387 Y39.992 Z0 F600
G1 X28.164 Y40.511 Z0 F600
G1 X28.07 Y41.065 Z0 F600
G1 X28.089 Y41.624 Z0 F600
; --- FIX X Backlash ---
G0 X28.789 Y41.624 F410
G1 X28.868 Y42.022 Z0 F600
G1 Y43.743 Z0 F600
; --- FIX X Backlash ---
G0 X28.168 Y43.743 F410
G1 X27.778 Y43.753 Z0 F600
G1 X27.175 Y43.749 Z0 F600
G1 X26.801 Y43.731 Z0 F600
G1 X26.479 Y43.697 Z0 F600
G1 X26.169 Y43.661 Z0 F600
; --- FIX X Backlash ---
G0 X26.869 Y43.661 F410
G1 X27.098 Y43.625 Z0 F600
; --- FIX Y Backlash ---
G0 X27.098 Y43.125 F410
G1 X27.503 Y42.959 Z0 F600
G1 X27.872 Y42.667 Z0 F600
G1 X28.071 Y42.394 Z0 F600
G1 X28.191 Y42.129 Z0 F600
G1 X28.26 Y41.862 Z0 F600
G1 X28.28 Y41.63 Z0 F600
G1 Y35.324 Z0 F600
G1 X28.619 Y35.355 Z0 F600
G1 X29.1 Y35.347 Z0 F600
G1 X29.555 Y35.302 Z0 F600
G1 X29.981 Y35.231 Z0 F600
G1 X30.375 Y35.147 Z0 F600
G1 X30.884 Y35.026 Z0 F600
G1 X30.891 Y35.022 Z0 F600
G1 X30.939 Y35.012 Z0 F600
G1 X31.045 Y34.943 Z0 F600
G1 X31.142 Y34.899 Z0 F600
G1 X31.208 Y34.838 Z0 F600
G1 X31.296 Y34.782 Z0 F600
G1 X31.346 Y34.717 Z0 F600
G1 X31.405 Y34.668 Z0 F600
G1 X31.46 Y34.575 Z0 F600
G1 X31.523 Y34.501 Z0 F600
G1 X31.54 Y34.459 Z0 F600
G1 X31.582 Y34.404 Z0 F600
G1 X31.612 Y34.296 Z0 F600
G1 X31.651 Y34.218 Z0 F600
G1 X31.714 Y33.773 Z0 F600
G1 X31.707 Y33.427 Z0 F600
; --- FIX X Backlash ---
G0 X31.007 Y33.427 F410
G1 X30.939 Y33.082 Z0 F600
G1 X30.925 Y33.048 Z0 F600
; --- FIX X Backlash ---
G0 X31.625 Y33.048 F410
G1 X33.233 Y33.042 Z0 F600
G1 X39.179 Y33.03 Z0 F600
G1 X39.346 Z0 F600
; --- FIX Y Backlash ---
G0 X39.346 Y33.53 F410
G1 X39.319 Y33.631 Z0 F600
; --- FIX X Backlash ---
G0 X38.619 Y33.631 F410
G1 X38.56 Y33.938 Z0 F600
G1 X38.502 Y34.363 Z0 F600
G1 X38.432 Y34.372 Z0 F600
; --- FIX Y Backlash ---
G0 X38.432 Y33.872 F410
G1 X37.738 Y33.664 Z0 F600
; --- FIX Y Backlash ---
G0 X37.738 Y34.164 F410
G1 X37.69 Y34.31 Z0 F600
G1 X37.01 Z0 F600
G1 X36.601 Y34.365 Z0 F600
G1 X36.206 Y34.469 Z0 F600
G1 X35.818 Y34.636 Z0 F600
G1 X35.444 Y34.88 Z0 F600
G1 X35.109 Y35.21 Z0 F600
G1 X34.846 Y35.607 Z0 F600
G1 X34.669 Y36.049 Z0 F600
G1 X34.575 Y36.513 Z0 F600
G1 X34.553 Y36.973 Z0 F600
G1 X34.589 Y37.438 Z0 F600
; --- FIX X Backlash ---
G0 X35.289 Y37.438 F410
G1 X35.372 Y37.914 Z0 F600
G1 X35.456 Y38.247 Z0 F600
G1 X35.45 Y38.455 Z0 F600
G1 X35.434 Y38.723 Z0 F600
G1 X35.412 Y38.923 Z0 F600
G1 X35.408 Y38.948 Z0 F600
; --- FIX X Backlash ---
G0 X34.708 Y38.948 F410
G1 X34.542 Y38.955 Z0 F600
G1 X34.273 Y38.949 Z0 F600
G1 X33.942 Y38.927 Z0 F600
G1 X33.514 Y38.884 Z0 F600
; --- FIX Y Backlash ---
G0 X33.514 Y38.384 F410
G1 X33.048 Y38.326 Z0 F600
G0 Z3.5 F600
; --- FIX Y Backlash ---
G0 X33.048 Y38.826 F410
G0 X31.65 Y39.185 Z3.5
G1 Z0 F600
G1 X31.273 Y39.181 Z0 F600
G1 X30.895 Y39.199 Z0 F600
G1 X30.519 Y39.245 Z0 F600
G1 X30.145 Y39.324 Z0 F600
G1 X29.775 Y39.451 Z0 F600
G1 X29.417 Y39.639 Z0 F600
G1 X29.091 Y39.901 Z0 F600
G1 X28.821 Y40.248 Z0 F600
G1 X28.647 Y40.654 Z0 F600
G1 X28.571 Y41.099 Z0 F600
G1 X28.587 Y41.566 Z0 F600
; --- FIX X Backlash ---
G0 X29.287 Y41.566 F410
G1 X29.368 Y41.976 Z0 F600
G1 Y44.225 Z0 F600
G1 X29.318 Y44.228 Z0 F600
; --- FIX X Backlash ---
G0 X28.618 Y44.228 F410
G1 X28.365 Y44.238 Z0 F600
G1 X27.771 Y44.253 Z0 F600
G1 X27.161 Y44.249 Z0 F600
G1 X26.765 Y44.23 Z0 F600
G1 X26.418 Y44.193 Z0 F600
; --- FIX Y Backlash ---
G0 X26.418 Y43.693 F410
G1 X25.842 Y43.626 Z0 F600
G1 X25.3 Y43.553 Z0 F600
G1 X25.113 Y43.506 Z0 F600
G1 X24.969 Y43.45 Z0 F600
G1 X24.878 Y43.392 Z0 F600
G1 X24.816 Y43.328 Z0 F600
G1 X24.793 Y43.289 Z0 F600
G1 X24.763 Y43.208 Z0 F600
G1 X24.741 Y43.108 Z0 F600
G1 X24.733 Y43 Z0 F600
G1 X24.741 Y42.892 Z0 F600
G1 X24.761 Y42.793 Z0 F600
G1 X24.785 Y42.73 Z0 F600
G1 X24.828 Y42.722 Z0 F600
; --- FIX X Backlash ---
G0 X25.528 Y42.722 F410
G1 X25.785 Y42.708 Z0 F600
G1 X26.129 Y42.711 Z0 F600
G1 X26.527 Y42.708 Z0 F600
G1 X26.963 Y42.64 Z0 F600
G1 X27.249 Y42.523 Z0 F600
G1 X27.507 Y42.318 Z0 F600
G1 X27.637 Y42.14 Z0 F600
G1 X27.718 Y41.961 Z0 F600
G1 X27.766 Y41.778 Z0 F600
G1 X27.78 Y41.609 Z0 F600
G1 Y34.72 Z0 F600
; --- FIX Y Backlash ---
G0 X27.78 Y35.22 F410
G1 X28.192 Y35.314 Z0 F600
G1 X28.638 Y35.355 Z0 F600
G1 X29.07 Y35.348 Z0 F600
G1 X29.488 Y35.306 Z0 F600
; --- FIX Y Backlash ---
G0 X29.488 Y34.806 F410
G1 X29.888 Y34.739 Z0 F600
G1 X30.265 Y34.659 Z0 F600
G1 X30.7 Y34.556 Z0 F600
G1 X30.711 Y34.549 Z0 F600
G1 X30.745 Y34.542 Z0 F600
G1 X30.804 Y34.503 Z0 F600
G1 X30.861 Y34.478 Z0 F600
G1 X30.9 Y34.441 Z0 F600
G1 X30.953 Y34.408 Z0 F600
G1 X30.982 Y34.369 Z0 F600
G1 X31.02 Y34.338 Z0 F600
G1 X31.051 Y34.285 Z0 F600
G1 X31.089 Y34.24 Z0 F600
G1 X31.101 Y34.211 Z0 F600
G1 X31.126 Y34.177 Z0 F600
G1 X31.145 Y34.113 Z0 F600
G1 X31.167 Y34.067 Z0 F600
G1 X31.214 Y33.743 Z0 F600
G1 X31.208 Y33.481 Z0 F600
; --- FIX X Backlash ---
G0 X30.508 Y33.481 F410
G1 X30.457 Y33.225 Z0 F600
G1 X30.361 Y32.983 Z0 F600
G1 X30.226 Y32.77 Z0 F600
G1 X30.064 Y32.59 Z0 F600
G1 X30.016 Y32.551 Z0 F600
; --- FIX X Backlash ---
G0 X30.716 Y32.551 F410
G1 X33.232 Y32.542 Z0 F600
G1 X39.179 Y32.53 Z0 F600
G1 X40.067 Z0 F600
; --- FIX X Backlash ---
G0 X39.367 Y32.53 F410
; --- FIX Y Backlash ---
G0 X39.367 Y33.03 F410
G1 X39.295 Y33.163 Z0 F600
G1 X39.183 Y33.455 Z0 F600
G1 X39.107 Y33.743 Z0 F600
G1 X39.053 Y34.019 Z0 F600
G1 X38.988 Y34.493 Z0 F600
G1 X38.92 Y34.881 Z0 F600
G1 X38.888 Y34.988 Z0 F600
G1 X38.878 Y35.01 Z0 F600
G1 X38.772 Y34.995 Z0 F600
; --- FIX Y Backlash ---
G0 X38.772 Y34.495 F410
G1 X38.601 Y34.444 Z0 F600
G1 X38.534 Y34.395 Z0 F600
G1 X38.528 Z0 F600
G1 X38.522 Y34.391 Z0 F600
G1 X38.481 Z0 F600
G1 X38.447 Y34.373 Z0 F600
G1 X38.387 Y34.38 Z0 F600
G1 X38.061 Y34.283 Z0 F600
; --- FIX Y Backlash ---
G0 X38.061 Y34.783 F410
G1 X38.039 Y34.849 Z0 F600
G1 X37.716 Y34.81 Z0 F600
G1 X37.044 Z0 F600
G1 X36.698 Y34.856 Z0 F600
G1 X36.37 Y34.942 Z0 F600
G1 X36.055 Y35.078 Z0 F600
G1 X35.758 Y35.271 Z0 F600
G1 X35.497 Y35.529 Z0 F600
G1 X35.292 Y35.84 Z0 F600
G1 X35.15 Y36.194 Z0 F600
G1 X35.072 Y36.575 Z0 F600
G1 X35.054 Y36.965 Z0 F600
G1 X35.086 Y37.375 Z0 F600
; --- FIX X Backlash ---
G0 X35.786 Y37.375 F410
G1 X35.861 Y37.809 Z0 F600
G1 X35.958 Y38.191 Z0 F600
G1 X35.949 Y38.479 Z0 F600
G1 X35.932 Y38.765 Z0 F600
G1 X35.907 Y39.001 Z0 F600
G1 X35.873 Y39.184 Z0 F600
G1 X35.838 Y39.299 Z0 F600
G1 X35.813 Y39.353 Z0 F600
G1 X35.801 Y39.368 Z0 F600
G1 X35.79 Y39.377 Z0 F600
G1 X35.75 Y39.396 Z0 F600
; --- FIX X Backlash ---
G0 X35.05 Y39.396 F410
G1 X34.95 Y39.423 Z0 F600
G1 X34.779 Y39.446 Z0 F600
G1 X34.551 Y39.455 Z0 F600
G1 X34.25 Y39.449 Z0 F600
G1 X33.889 Y39.424 Z0 F600
G1 X33.462 Y39.381 Z0 F600
; --- FIX Y Backlash ---
G0 X33.462 Y38.881 F410
G1 X32.978 Y38.821 Z0 F600
G1 X32.355 Y38.738 Z0 F600
G1 X31.65 Y38.685 Z0 F600
G0 Z3.5 F600
; --- FIX Y Backlash ---
G0 X31.65 Y39.185 F410
G0 X30.601 Y39.738 Z3.5
G1 Z0 F600
G1 X30.279 Y39.807 Z0 F600
G1 X29.973 Y39.912 Z0 F600
G1 X29.693 Y40.059 Z0 F600
G1 X29.449 Y40.254 Z0 F600
G1 X29.256 Y40.504 Z0 F600
G1 X29.13 Y40.796 Z0 F600
G1 X29.073 Y41.132 Z0 F600
G1 X29.086 Y41.509 Z0 F600
; --- FIX X Backlash ---
G0 X29.786 Y41.509 F410
G1 X29.868 Y41.926 Z0 F600
G1 Y44.698 Z0 F600
; --- FIX X Backlash ---
G0 X29.168 Y44.698 F410
G1 X28.64 Y44.727 Z0 F600
G1 X28.378 Y44.738 Z0 F600
G1 X27.78 Y44.753 Z0 F600
G1 X27.146 Y44.749 Z0 F600
G1 X26.729 Y44.729 Z0 F600
G1 X26.365 Y44.69 Z0 F600
; --- FIX Y Backlash ---
G0 X26.365 Y44.19 F410
G1 X25.775 Y44.122 Z0 F600
G1 X25.209 Y44.045 Z0 F600
G1 X24.959 Y43.983 Z0 F600
G1 X24.741 Y43.897 Z0 F600
G1 X24.56 Y43.783 Z0 F600
G1 X24.416 Y43.633 Z0 F600
G1 X24.34 Y43.503 Z0 F600
G1 X24.282 Y43.35 Z0 F600
G1 X24.245 Y43.179 Z0 F600
G1 X24.232 Y43 Z0 F600
G1 X24.245 Y42.822 Z0 F600
G1 X24.28 Y42.652 Z0 F600
; --- FIX X Backlash ---
G0 X24.98 Y42.652 F410
G1 X25.038 Y42.499 Z0 F600
G1 X25.114 Y42.37 Z0 F600
G1 X25.163 Y42.323 Z0 F600
G1 X25.236 Y42.283 Z0 F600
G1 X25.336 Y42.25 Z0 F600
G1 X25.463 Y42.225 Z0 F600
G1 X25.777 Y42.208 Z0 F600
G1 X26.129 Y42.211 Z0 F600
G1 X26.486 Y42.208 Z0 F600
G1 X26.829 Y42.155 Z0 F600
G1 X26.994 Y42.087 Z0 F600
G1 X27.143 Y41.969 Z0 F600
G1 X27.203 Y41.887 Z0 F600
G1 X27.245 Y41.794 Z0 F600
G1 X27.271 Y41.694 Z0 F600
G1 X27.28 Y41.588 Z0 F600
G1 Y33.614 Z0 F600
; --- FIX Y Backlash ---
G0 X27.28 Y34.114 F410
G1 X27.328 Y34.31 Z0 F600
G1 X27.43 Y34.506 Z0 F600
G1 X27.436 Y34.512 Z0 F600
G1 X27.44 Y34.519 Z0 F600
G1 X27.446 Y34.524 Z0 F600
G1 X27.451 Y34.531 Z0 F600
G1 X27.458 Y34.536 Z0 F600
G1 X27.462 Y34.542 Z0 F600
G1 X27.469 Y34.545 Z0 F600
G1 X27.474 Y34.553 Z0 F600
G1 X27.487 Y34.563 Z0 F600
G1 X27.495 Y34.567 Z0 F600
G1 X27.501 Y34.572 Z0 F600
G1 X27.508 Y34.575 Z0 F600
G1 X27.515 Y34.58 Z0 F600
G1 X27.891 Y34.732 Z0 F600
G1 X28.271 Y34.819 Z0 F600
G1 X28.656 Y34.854 Z0 F600
G1 X29.042 Y34.848 Z0 F600
G1 X29.422 Y34.81 Z0 F600
; --- FIX Y Backlash ---
G0 X29.422 Y34.31 F410
G1 X29.794 Y34.248 Z0 F600
G1 X30.155 Y34.171 Z0 F600
G1 X30.516 Y34.085 Z0 F600
G1 X30.532 Y34.077 Z0 F600
G1 X30.55 Y34.073 Z0 F600
G1 X30.565 Y34.063 Z0 F600
G1 X30.581 Y34.056 Z0 F600
G1 X30.594 Y34.043 Z0 F600
G1 X30.609 Y34.034 Z0 F600
G1 X30.62 Y34.02 Z0 F600
G1 X30.634 Y34.008 Z0 F600
G1 X30.643 Y33.993 Z0 F600
G1 X30.654 Y33.979 Z0 F600
G1 X30.661 Y33.963 Z0 F600
G1 X30.671 Y33.949 Z0 F600
G1 X30.676 Y33.932 Z0 F600
G1 X30.684 Y33.917 Z0 F600
G1 X30.713 Y33.713 Z0 F600
G1 X30.709 Y33.535 Z0 F600
G1 X30.676 Y33.367 Z0 F600
; --- FIX X Backlash ---
G0 X29.976 Y33.367 F410
G1 X29.914 Y33.211 Z0 F600
G1 X29.826 Y33.073 Z0 F600
G1 X29.718 Y32.954 Z0 F600
G1 X29.593 Y32.852 Z0 F600
G1 X29.457 Y32.766 Z0 F600
G1 X29.158 Y32.638 Z0 F600
G1 X28.832 Y32.559 Z0 F600
G1 X28.491 Y32.524 Z0 F600
G1 X28.144 Y32.528 Z0 F600
G1 X27.804 Y32.567 Z0 F600
; --- FIX Y Backlash ---
G0 X27.804 Y33.067 F410
G1 X27.48 Y33.141 Z0 F600
G1 X27.183 Y33.253 Z0 F600
G1 X26.924 Y33.407 Z0 F600
G1 X26.811 Y33.502 Z0 F600
G1 X26.713 Y33.613 Z0 F600
G1 X26.636 Y33.739 Z0 F600
G1 X26.586 Y33.881 Z0 F600
G1 X26.58 Y33.94 Z0 F600
; --- FIX Y Backlash ---
G0 X26.58 Y33.44 F410
G1 Y32.063 Z0 F600
; --- FIX X Backlash ---
G0 X27.28 Y32.063 F410
G1 X33.23 Y32.042 Z0 F600
G1 X39.179 Y32.03 Z0 F600
G1 X45.127 Y32.043 Z0 F600
; --- FIX Y Backlash ---
G0 X45.127 Y32.543 F410
G1 X51.075 Y32.602 Z0 F600
G1 X51.261 Y32.781 Z0 F600
G1 X51.404 Y32.974 Z0 F600
G1 X51.508 Y33.182 Z0 F600
G1 X51.579 Y33.409 Z0 F600
G1 X51.586 Y33.479 Z0 F600
G1 X51.589 Y33.602 Z0 F600
G1 Y33.771 Z0 F600
G1 X51.584 Y33.978 Z0 F600
G1 X51.569 Y34.477 Z0 F600
G1 X51.547 Y35.039 Z0 F600
; --- FIX X Backlash ---
G0 X50.847 Y35.039 F410
G1 X50.781 Y36.493 Z0 F600
G1 X50.774 Y36.699 Z0 F600
; --- FIX Y Backlash ---
G0 X50.774 Y36.199 F410
G1 X50.765 Y36.122 Z0 F600
G1 X50.758 Y35.992 Z0 F600
G1 X50.754 Y35.817 Z0 F600
G1 X50.738 Y34.538 Z0 F600
G1 X50.725 Y33.979 Z0 F600
G1 X50.701 Y33.482 Z0 F600
G1 X50.684 Y33.277 Z0 F600
G1 X50.662 Y33.111 Z0 F600
G1 X50.635 Y32.991 Z0 F600
G1 X50.603 Y32.924 Z0 F600
G1 X50.415 Y32.764 Z0 F600
G1 X50.188 Y32.639 Z0 F600
G1 X49.922 Y32.549 Z0 F600
G1 X49.628 Y32.498 Z0 F600
G1 X49.613 Z0 F600
G1 X49.608 Y32.495 Z0 F600
G1 X49.603 Z0 F600
G1 X49.599 Z0 F600
G1 X49.595 Z0 F600
G1 X49.591 Z0 F600
G1 X49.584 Z0 F600
G1 X48.444 Y32.525 Z0 F600
G1 X47.265 Y32.541 Z0 F600
G1 X46.06 Y32.546 Z0 F600
G1 X44.841 Z0 F600
G1 X42.412 Y32.535 Z0 F600
G1 X40.08 Y32.54 Z0 F600
G1 X40.064 Z0 F600
G1 X40.049 Z0 F600
G1 X40.032 Z0 F600
G1 X40.017 Y32.547 Z0 F600
G1 X40.002 Y32.55 Z0 F600
G1 X39.988 Y32.557 Z0 F600
G1 X39.973 Y32.562 Z0 F600
G1 X39.961 Y32.571 Z0 F600
G1 X39.946 Y32.577 Z0 F600
G1 X39.935 Y32.586 Z0 F600
G1 X39.921 Y32.594 Z0 F600
G1 X39.898 Y32.616 Z0 F600
G1 X39.89 Y32.629 Z0 F600
G1 X39.879 Y32.64 Z0 F600
; --- FIX Y Backlash ---
G0 X39.879 Y33.14 F410
G1 X39.75 Y33.374 Z0 F600
G1 X39.659 Y33.609 Z0 F600
G1 X39.594 Y33.854 Z0 F600
G1 X39.547 Y34.101 Z0 F600
G1 X39.481 Y34.579 Z0 F600
G1 X39.408 Y34.997 Z0 F600
G1 X39.356 Y35.166 Z0 F600
G1 X39.295 Y35.299 Z0 F600
G1 X39.224 Y35.398 Z0 F600
G1 X39.142 Y35.463 Z0 F600
G1 X39.034 Y35.503 Z0 F600
G1 X38.879 Y35.515 Z0 F600
G1 X38.666 Y35.485 Z0 F600
; --- FIX Y Backlash ---
G0 X38.666 Y34.985 F410
G1 X38.384 Y34.901 Z0 F600
G1 X38.417 Y34.913 Z0 F600
G1 X38.377 Y34.899 Z0 F600
G1 X38.371 Y34.895 Z0 F600
G1 X38.365 Z0 F600
G1 X38.36 Y34.891 Z0 F600
G1 X38.353 Z0 F600
G1 X38.348 Y34.888 Z0 F600
G1 X38.34 Z0 F600
G1 X37.685 Y34.81 Z0 F600
G1 X37.077 Z0 F600
G1 X36.796 Y34.847 Z0 F600
; --- FIX Y Backlash ---
G0 X36.796 Y35.347 F410
G1 X36.533 Y35.417 Z0 F600
G1 X36.292 Y35.521 Z0 F600
G1 X36.074 Y35.663 Z0 F600
G1 X35.886 Y35.848 Z0 F600
G1 X35.737 Y36.074 Z0 F600
G1 X35.631 Y36.338 Z0 F600
G1 X35.57 Y36.637 Z0 F600
G1 X35.555 Y36.958 Z0 F600
G1 X35.582 Y37.313 Z0 F600
; --- FIX X Backlash ---
G0 X36.282 Y37.313 F410
G1 X36.351 Y37.705 Z0 F600
G1 X36.459 Y38.137 Z0 F600
G1 X36.449 Y38.494 Z0 F600
G1 X36.43 Y38.807 Z0 F600
G1 X36.401 Y39.076 Z0 F600
G1 X36.36 Y39.299 Z0 F600
; --- FIX X Backlash ---
G0 X35.66 Y39.299 F410
G1 X35.606 Y39.479 Z0 F600
G1 X35.541 Y39.617 Z0 F600
G1 X35.459 Y39.722 Z0 F600
G1 X35.357 Y39.803 Z0 F600
G1 X35.225 Y39.867 Z0 F600
G1 X35.049 Y39.914 Z0 F600
G1 X34.825 Y39.944 Z0 F600
G1 X34.552 Y39.956 Z0 F600
G1 X34.227 Y39.948 Z0 F600
G1 X33.848 Y39.923 Z0 F600
G1 X33.411 Y39.879 Z0 F600
; --- FIX Y Backlash ---
G0 X33.411 Y39.379 F410
G1 X32.916 Y39.317 Z0 F600
G1 X32.303 Y39.235 Z0 F600
G1 X31.628 Y39.185 Z0 F600
G1 X31.282 Y39.181 Z0 F600
G1 X30.938 Y39.197 Z0 F600
G1 X30.601 Y39.238 Z0 F600
;Layer C1 Pass 2 of 2
G0 Z3.5 F600
; --- FIX X Backlash ---
G0 X31.301 Y39.238 F410
G0 X33.284 Y35.765 Z3.5
G1 Z0 F600
; --- FIX Y Backlash ---
G0 X33.284 Y36.265 F410
G1 X33.262 Y36.747 Z0 F600
; --- FIX X Backlash ---
G0 X32.562 Y36.747 F410
G1 X32.027 Y36.706 Z0 F600
; --- FIX X Backlash ---
G0 X32.727 Y36.706 F410
; --- FIX Y Backlash ---
G0 X32.727 Y36.206 F410
G1 X32.799 Y36.111 Z0 F600
G1 X32.948 Y35.988 Z0 F600
G1 X33.093 Y35.743 Z0 F600
G1 X33.262 Y35.544 Z0 F600
G1 X33.3 Y35.448 Z0 F600
G1 X33.367 Y35.36 Z0 F600
; --- FIX X Backlash ---
G0 X32.667 Y35.36 F410
; --- FIX Y Backlash ---
G0 X32.667 Y35.86 F410
G1 X32.584 Y36.265 Z0 F600
G0 Z3.5 F600
G0 X32.562 Y37.248 Z3.5
G1 Z0 F600
; --- FIX Y Backlash ---
G0 X32.562 Y36.748 F410
G1 X31.736 Y36.686 Z0 F600
G1 X31.236 Y36.68 Z0 F600
G1 X30.726 Y36.705 Z0 F600
; --- FIX Y Backlash ---
G0 X30.726 Y37.205 F410
G1 X30.188 Y37.27 Z0 F600
G1 X29.611 Y37.394 Z0 F600
G1 X29.08 Y37.575 Z0 F600
; --- FIX Y Backlash ---
G0 X29.08 Y37.075 F410
G1 Y36.785 Z0 F600
; --- FIX X Backlash ---
G0 X29.78 Y36.785 F410
G1 X30.26 Y36.705 Z0 F600
G1 X30.704 Y36.61 Z0 F600
G1 X31.333 Y36.461 Z0 F600
G1 X31.523 Y36.42 Z0 F600
G1 X31.765 Y36.264 Z0 F600
G1 X31.983 Y36.165 Z0 F600
G1 X32.126 Y36.032 Z0 F600
G1 X32.328 Y35.905 Z0 F600
G1 X32.436 Y35.762 Z0 F600
G1 X32.562 Y35.658 Z0 F600
G1 X32.684 Y35.453 Z0 F600
G1 X32.828 Y35.284 Z0 F600
G1 X32.861 Y35.2 Z0 F600
G1 X32.946 Y35.087 Z0 F600
G1 X33.017 Y34.842 Z0 F600
G1 X33.102 Y34.67 Z0 F600
G1 X33.12 Y34.543 Z0 F600
G1 X33.239 Z0 F600
G1 X34.158 Z0 F600
; --- FIX X Backlash ---
G0 X33.458 Y34.543 F410
; --- FIX Y Backlash ---
G0 X33.458 Y35.043 F410
G1 X33.227 Y35.617 Z0 F600
G1 X33.082 Y36.327 Z0 F600
G1 X33.05 Y36.995 Z0 F600
G1 X33.075 Y37.316 Z0 F600
; --- FIX Y Backlash ---
G0 X33.075 Y36.816 F410
G1 X32.562 Y36.748 Z0 F600
G0 Z3.5 F600
G0 X29.467 Y36.213 Z3.5
G1 Z0 F600
; --- FIX X Backlash ---
G0 X30.167 Y36.213 F410
G1 X30.594 Y36.123 Z0 F600
G1 X31.215 Y35.975 Z0 F600
G1 X31.328 Y35.951 Z0 F600
G1 X31.526 Y35.823 Z0 F600
G1 X31.703 Y35.743 Z0 F600
G1 X31.818 Y35.636 Z0 F600
G1 X31.984 Y35.531 Z0 F600
G1 X32.073 Y35.413 Z0 F600
G1 X32.176 Y35.328 Z0 F600
G1 X32.276 Y35.16 Z0 F600
G1 X32.393 Y35.022 Z0 F600
G1 X32.42 Y34.953 Z0 F600
G1 X32.491 Y34.859 Z0 F600
G1 X32.548 Y34.662 Z0 F600
G1 X32.619 Y34.52 Z0 F600
G1 X32.686 Y34.044 Z0 F600
G1 X33.237 Z0 F600
G1 X35.066 Y34.039 Z0 F600
G1 X35.032 Y34.072 Z0 F600
; --- FIX X Backlash ---
G0 X34.332 Y34.072 F410
; --- FIX Y Backlash ---
G0 X34.332 Y34.572 F410
G1 X33.956 Y35.141 Z0 F600
G1 X33.708 Y35.761 Z0 F600
G1 X33.579 Y36.389 Z0 F600
G1 X33.551 Y36.988 Z0 F600
G1 X33.595 Y37.562 Z0 F600
; --- FIX X Backlash ---
G0 X34.295 Y37.562 F410
G1 X34.353 Y37.894 Z0 F600
G1 X34.339 Z0 F600
; --- FIX X Backlash ---
G0 X33.639 Y37.894 F410
; --- FIX Y Backlash ---
G0 X33.639 Y37.394 F410
G1 X33.172 Y37.333 Z0 F600
G1 X32.51 Y37.245 Z0 F600
G1 X31.715 Y37.186 Z0 F600
G1 X31.245 Y37.18 Z0 F600
G1 X30.768 Y37.203 Z0 F600
; --- FIX Y Backlash ---
G0 X30.768 Y37.703 F410
G1 X30.271 Y37.764 Z0 F600
G1 X29.745 Y37.876 Z0 F600
G1 X29.18 Y38.069 Z0 F600
G1 X28.591 Y38.378 Z0 F600
G1 X28.58 Y38.387 Z0 F600
; --- FIX Y Backlash ---
G0 X28.58 Y37.887 F410
G1 Y36.334 Z0 F600
; --- FIX X Backlash ---
G0 X29.28 Y36.334 F410
G1 X29.687 Y36.293 Z0 F600
G1 X30.167 Y36.213 Z0 F600
G0 Z3.5 F600
G0 X34.888 Y35.405 Z3.5
G1 Z0 F600
; --- FIX X Backlash ---
G0 X34.188 Y35.405 F410
; --- FIX Y Backlash ---
G0 X34.188 Y35.905 F410
G1 X34.077 Y36.451 Z0 F600
G1 X34.052 Y36.98 Z0 F600
G1 X34.092 Y37.5 Z0 F600
; --- FIX X Backlash ---
G0 X34.792 Y37.5 F410
G1 X34.882 Y38.018 Z0 F600
G1 X34.954 Y38.301 Z0 F600
G1 X34.95 Y38.418 Z0 F600
G1 Y38.446 Z0 F600
; --- FIX X Backlash ---
G0 X34.25 Y38.446 F410
G1 X33.982 Y38.429 Z0 F600
G1 X33.564 Y38.387 Z0 F600
; --- FIX Y Backlash ---
G0 X33.564 Y37.887 F410
G1 X33.113 Y37.83 Z0 F600
G1 X32.458 Y37.743 Z0 F600
G1 X31.693 Y37.685 Z0 F600
G1 X31.254 Y37.68 Z0 F600
G1 X30.811 Y37.702 Z0 F600
; --- FIX Y Backlash ---
G0 X30.811 Y38.202 F410
G1 X30.353 Y38.257 Z0 F600
G1 X29.878 Y38.359 Z0 F600
G1 X29.379 Y38.53 Z0 F600
G1 X28.866 Y38.799 Z0 F600
G1 X28.372 Y39.196 Z0 F600
G1 X28.08 Y39.573 Z0 F600
; --- FIX Y Backlash ---
G0 X28.08 Y39.073 F410
G1 Y35.853 Z0 F600
; --- FIX X Backlash ---
G0 X28.78 Y35.853 F410
G1 X29.128 Y35.847 Z0 F600
G1 X29.621 Y35.798 Z0 F600
G1 X30.074 Y35.722 Z0 F600
G1 X30.484 Y35.635 Z0 F600
G1 X31.068 Y35.496 Z0 F600
G1 X31.134 Y35.481 Z0 F600
G1 X31.284 Y35.384 Z0 F600
G1 X31.422 Y35.321 Z0 F600
G1 X31.512 Y35.238 Z0 F600
G1 X31.64 Y35.157 Z0 F600
G1 X31.709 Y35.065 Z0 F600
G1 X31.791 Y34.998 Z0 F600
G1 X31.867 Y34.87 Z0 F600
G1 X31.958 Y34.762 Z0 F600
G1 X31.98 Y34.706 Z0 F600
G1 X32.037 Y34.632 Z0 F600
G1 X32.081 Y34.478 Z0 F600
G1 X32.135 Y34.369 Z0 F600
G1 X32.215 Y33.803 Z0 F600
G1 X32.209 Y33.546 Z0 F600
G1 X33.235 Y33.542 Z0 F600
G1 X36.648 Y33.535 Z0 F600
; --- FIX X Backlash ---
G0 X35.948 Y33.535 F410
; --- FIX Y Backlash ---
G0 X35.948 Y34.035 F410
G1 X35.581 Y34.194 Z0 F600
G1 X35.128 Y34.488 Z0 F600
G1 X34.72 Y34.891 Z0 F600
G1 X34.402 Y35.374 Z0 F600
G1 X34.188 Y35.905 Z0 F600
G0 Z3.5 F600
G0 X33.048 Y38.826 Z3.5
G1 Z0 F600
; --- FIX Y Backlash ---
G0 X33.048 Y38.326 F410
G1 X32.406 Y38.24 Z0 F600
G1 X31.671 Y38.185 Z0 F600
G1 X31.263 Y38.18 Z0 F600
G1 X30.853 Y38.2 Z0 F600
; --- FIX Y Backlash ---
G0 X30.853 Y38.7 F410
G1 X30.436 Y38.751 Z0 F600
G1 X30.012 Y38.842 Z0 F600
G1 X29.577 Y38.99 Z0 F600
G1 X29.142 Y39.219 Z0 F600
G1 X28.731 Y39.548 Z0 F600
G1 X28.387 Y39.992 Z0 F600
G1 X28.164 Y40.511 Z0 F600
G1 X28.07 Y41.065 Z0 F600
G1 X28.089 Y41.624 Z0 F600
; --- FIX X Backlash ---
G0 X28.789 Y41.624 F410
G1 X28.868 Y42.022 Z0 F600
G1 Y43.743 Z0 F600
; --- FIX X Backlash ---
G0 X28.168 Y43.743 F410
G1 X27.778 Y43.753 Z0 F600
G1 X27.175 Y43.749 Z0 F600
G1 X26.801 Y43.731 Z0 F600
G1 X26.479 Y43.697 Z0 F600
G1 X26.169 Y43.661 Z0 F600
; --- FIX X Backlash ---
G0 X26.869 Y43.661 F410
G1 X27.098 Y43.625 Z0 F600
; --- FIX Y Backlash ---
G0 X27.098 Y43.125 F410
G1 X27.503 Y42.959 Z0 F600
G1 X27.872 Y42.667 Z0 F600
G1 X28.071 Y42.394 Z0 F600
G1 X28.191 Y42.129 Z0 F600
G1 X28.26 Y41.862 Z0 F600
G1 X28.28 Y41.63 Z0 F600
G1 Y35.324 Z0 F600
G1 X28.619 Y35.355 Z0 F600
G1 X29.1 Y35.347 Z0 F600
G1 X29.555 Y35.302 Z0 F600
G1 X29.981 Y35.231 Z0 F600
G1 X30.375 Y35.147 Z0 F600
G1 X30.884 Y35.026 Z0 F600
G1 X30.891 Y35.022 Z0 F600
G1 X30.939 Y35.012 Z0 F600
G1 X31.045 Y34.943 Z0 F600
G1 X31.142 Y34.899 Z0 F600
G1 X31.208 Y34.838 Z0 F600
G1 X31.296 Y34.782 Z0 F600
G1 X31.346 Y34.717 Z0 F600
G1 X31.405 Y34.668 Z0 F600
G1 X31.46 Y34.575 Z0 F600
G1 X31.523 Y34.501 Z0 F600
G1 X31.54 Y34.459 Z0 F600
G1 X31.582 Y34.404 Z0 F600
G1 X31.612 Y34.296 Z0 F600
G1 X31.651 Y34.218 Z0 F600
G1 X31.714 Y33.773 Z0 F600
G1 X31.707 Y33.427 Z0 F600
; --- FIX X Backlash ---
G0 X31.007 Y33.427 F410
G1 X30.939 Y33.082 Z0 F600
G1 X30.925 Y33.048 Z0 F600
; --- FIX X Backlash ---
G0 X31.625 Y33.048 F410
G1 X33.233 Y33.042 Z0 F600
G1 X39.179 Y33.03 Z0 F600
G1 X39.346 Z0 F600
; --- FIX Y Backlash ---
G0 X39.346 Y33.53 F410
G1 X39.319 Y33.631 Z0 F600
; --- FIX X Backlash ---
G0 X38.619 Y33.631 F410
G1 X38.56 Y33.938 Z0 F600
G1 X38.502 Y34.363 Z0 F600
G1 X38.432 Y34.372 Z0 F600
; --- FIX Y Backlash ---
G0 X38.432 Y33.872 F410
G1 X37.738 Y33.664 Z0 F600
; --- FIX Y Backlash ---
G0 X37.738 Y34.164 F410
G1 X37.69 Y34.31 Z0 F600
G1 X37.01 Z0 F600
G1 X36.601 Y34.365 Z0 F600
G1 X36.206 Y34.469 Z0 F600
G1 X35.818 Y34.636 Z0 F600
G1 X35.444 Y34.88 Z0 F600
G1 X35.109 Y35.21 Z0 F600
G1 X34.846 Y35.607 Z0 F600
G1 X34.669 Y36.049 Z0 F600
G1 X34.575 Y36.513 Z0 F600
G1 X34.553 Y36.973 Z0 F600
G1 X34.589 Y37.438 Z0 F600
; --- FIX X Backlash ---
G0 X35.289 Y37.438 F410
G1 X35.372 Y37.914 Z0 F600
G1 X35.456 Y38.247 Z0 F600
G1 X35.45 Y38.455 Z0 F600
G1 X35.434 Y38.723 Z0 F600
G1 X35.412 Y38.923 Z0 F600
G1 X35.408 Y38.948 Z0 F600
; --- FIX X Backlash ---
G0 X34.708 Y38.948 F410
G1 X34.542 Y38.955 Z0 F600
G1 X34.273 Y38.949 Z0 F600
G1 X33.942 Y38.927 Z0 F600
G1 X33.514 Y38.884 Z0 F600
; --- FIX Y Backlash ---
G0 X33.514 Y38.384 F410
G1 X33.048 Y38.326 Z0 F600
G0 Z3.5 F600
; --- FIX Y Backlash ---
G0 X33.048 Y38.826 F410
G0 X31.65 Y39.185 Z3.5
G1 Z0 F600
G1 X31.273 Y39.181 Z0 F600
G1 X30.895 Y39.199 Z0 F600
G1 X30.519 Y39.245 Z0 F600
G1 X30.145 Y39.324 Z0 F600
G1 X29.775 Y39.451 Z0 F600
G1 X29.417 Y39.639 Z0 F600
G1 X29.091 Y39.901 Z0 F600
G1 X28.821 Y40.248 Z0 F600
G1 X28.647 Y40.654 Z0 F600
G1 X28.571 Y41.099 Z0 F600
G1 X28.587 Y41.566 Z0 F600
; --- FIX X Backlash ---
G0 X29.287 Y41.566 F410
G1 X29.368 Y41.976 Z0 F600
G1 Y44.225 Z0 F600
G1 X29.318 Y44.228 Z0 F600
; --- FIX X Backlash ---
G0 X28.618 Y44.228 F410
G1 X28.365 Y44.238 Z0 F600
G1 X27.771 Y44.253 Z0 F600
G1 X27.161 Y44.249 Z0 F600
G1 X26.765 Y44.23 Z0 F600
G1 X26.418 Y44.193 Z0 F600
; --- FIX Y Backlash ---
G0 X26.418 Y43.693 F410
G1 X25.842 Y43.626 Z0 F600
G1 X25.3 Y43.553 Z0 F600
G1 X25.113 Y43.506 Z0 F600
G1 X24.969 Y43.45 Z0 F600
G1 X24.878 Y43.392 Z0 F600
G1 X24.816 Y43.328 Z0 F600
G1 X24.793 Y43.289 Z0 F600
G1 X24.763 Y43.208 Z0 F600
G1 X24.741 Y43.108 Z0 F600
G1 X24.733 Y43 Z0 F600
G1 X24.741 Y42.892 Z0 F600
G1 X24.761 Y42.793 Z0 F600
G1 X24.785 Y42.73 Z0 F600
G1 X24.828 Y42.722 Z0 F600
; --- FIX X Backlash ---
G0 X25.528 Y42.722 F410
G1 X25.785 Y42.708 Z0 F600
G1 X26.129 Y42.711 Z0 F600
G1 X26.527 Y42.708 Z0 F600
G1 X26.963 Y42.64 Z0 F600
G1 X27.249 Y42.523 Z0 F600
G1 X27.507 Y42.318 Z0 F600
G1 X27.637 Y42.14 Z0 F600
G1 X27.718 Y41.961 Z0 F600
G1 X27.766 Y41.778 Z0 F600
G1 X27.78 Y41.609 Z0 F600
G1 Y34.72 Z0 F600
; --- FIX Y Backlash ---
G0 X27.78 Y35.22 F410
G1 X28.192 Y35.314 Z0 F600
G1 X28.638 Y35.355 Z0 F600
G1 X29.07 Y35.348 Z0 F600
G1 X29.488 Y35.306 Z0 F600
; --- FIX Y Backlash ---
G0 X29.488 Y34.806 F410
G1 X29.888 Y34.739 Z0 F600
G1 X30.265 Y34.659 Z0 F600
G1 X30.7 Y34.556 Z0 F600
G1 X30.711 Y34.549 Z0 F600
G1 X30.745 Y34.542 Z0 F600
G1 X30.804 Y34.503 Z0 F600
G1 X30.861 Y34.478 Z0 F600
G1 X30.9 Y34.441 Z0 F600
G1 X30.953 Y34.408 Z0 F600
G1 X30.982 Y34.369 Z0 F600
G1 X31.02 Y34.338 Z0 F600
G1 X31.051 Y34.285 Z0 F600
G1 X31.089 Y34.24 Z0 F600
G1 X31.101 Y34.211 Z0 F600
G1 X31.126 Y34.177 Z0 F600
G1 X31.145 Y34.113 Z0 F600
G1 X31.167 Y34.067 Z0 F600
G1 X31.214 Y33.743 Z0 F600
G1 X31.208 Y33.481 Z0 F600
; --- FIX X Backlash ---
G0 X30.508 Y33.481 F410
G1 X30.457 Y33.225 Z0 F600
G1 X30.361 Y32.983 Z0 F600
G1 X30.226 Y32.77 Z0 F600
G1 X30.064 Y32.59 Z0 F600
G1 X30.016 Y32.551 Z0 F600
; --- FIX X Backlash ---
G0 X30.716 Y32.551 F410
G1 X33.232 Y32.542 Z0 F600
G1 X39.179 Y32.53 Z0 F600
G1 X40.067 Z0 F600
; --- FIX X Backlash ---
G0 X39.367 Y32.53 F410
; --- FIX Y Backlash ---
G0 X39.367 Y33.03 F410
G1 X39.295 Y33.163 Z0 F600
G1 X39.183 Y33.455 Z0 F600
G1 X39.107 Y33.743 Z0 F600
G1 X39.053 Y34.019 Z0 F600
G1 X38.988 Y34.493 Z0 F600
G1 X38.92 Y34.881 Z0 F600
G1 X38.888 Y34.988 Z0 F600
G1 X38.878 Y35.01 Z0 F600
G1 X38.772 Y34.995 Z0 F600
; --- FIX Y Backlash ---
G0 X38.772 Y34.495 F410
G1 X38.601 Y34.444 Z0 F600
G1 X38.534 Y34.395 Z0 F600
G1 X38.528 Z0 F600
G1 X38.522 Y34.391 Z0 F600
G1 X38.481 Z0 F600
G1 X38.447 Y34.373 Z0 F600
G1 X38.387 Y34.38 Z0 F600
G1 X38.061 Y34.283 Z0 F600
; --- FIX Y Backlash ---
G0 X38.061 Y34.783 F410
G1 X38.039 Y34.849 Z0 F600
G1 X37.716 Y34.81 Z0 F600
G1 X37.044 Z0 F600
G1 X36.698 Y34.856 Z0 F600
G1 X36.37 Y34.942 Z0 F600
G1 X36.055 Y35.078 Z0 F600
G1 X35.758 Y35.271 Z0 F600
G1 X35.497 Y35.529 Z0 F600
G1 X35.292 Y35.84 Z0 F600
G1 X35.15 Y36.194 Z0 F600
G1 X35.072 Y36.575 Z0 F600
G1 X35.054 Y36.965 Z0 F600
G1 X35.086 Y37.375 Z0 F600
; --- FIX X Backlash ---
G0 X35.786 Y37.375 F410
G1 X35.861 Y37.809 Z0 F600
G1 X35.958 Y38.191 Z0 F600
G1 X35.949 Y38.479 Z0 F600
G1 X35.932 Y38.765 Z0 F600
G1 X35.907 Y39.001 Z0 F600
G1 X35.873 Y39.184 Z0 F600
G1 X35.838 Y39.299 Z0 F600
G1 X35.813 Y39.353 Z0 F600
G1 X35.801 Y39.368 Z0 F600
G1 X35.79 Y39.377 Z0 F600
G1 X35.75 Y39.396 Z0 F600
; --- FIX X Backlash ---
G0 X35.05 Y39.396 F410
G1 X34.95 Y39.423 Z0 F600
G1 X34.779 Y39.446 Z0 F600
G1 X34.551 Y39.455 Z0 F600
G1 X34.25 Y39.449 Z0 F600
G1 X33.889 Y39.424 Z0 F600
G1 X33.462 Y39.381 Z0 F600
; --- FIX Y Backlash ---
G0 X33.462 Y38.881 F410
G1 X32.978 Y38.821 Z0 F600
G1 X32.355 Y38.738 Z0 F600
G1 X31.65 Y38.685 Z0 F600
G0 Z3.5 F600
; --- FIX Y Backlash ---
G0 X31.65 Y39.185 F410
G0 X30.601 Y39.738 Z3.5
G1 Z0 F600
G1 X30.279 Y39.807 Z0 F600
G1 X29.973 Y39.912 Z0 F600
G1 X29.693 Y40.059 Z0 F600
G1 X29.449 Y40.254 Z0 F600
G1 X29.256 Y40.504 Z0 F600
G1 X29.13 Y40.796 Z0 F600
G1 X29.073 Y41.132 Z0 F600
G1 X29.086 Y41.509 Z0 F600
; --- FIX X Backlash ---
G0 X29.786 Y41.509 F410
G1 X29.868 Y41.926 Z0 F600
G1 Y44.698 Z0 F600
; --- FIX X Backlash ---
G0 X29.168 Y44.698 F410
G1 X28.64 Y44.727 Z0 F600
G1 X28.378 Y44.738 Z0 F600
G1 X27.78 Y44.753 Z0 F600
G1 X27.146 Y44.749 Z0 F600
G1 X26.729 Y44.729 Z0 F600
G1 X26.365 Y44.69 Z0 F600
; --- FIX Y Backlash ---
G0 X26.365 Y44.19 F410
G1 X25.775 Y44.122 Z0 F600
G1 X25.209 Y44.045 Z0 F600
G1 X24.959 Y43.983 Z0 F600
G1 X24.741 Y43.897 Z0 F600
G1 X24.56 Y43.783 Z0 F600
G1 X24.416 Y43.633 Z0 F600
G1 X24.34 Y43.503 Z0 F600
G1 X24.282 Y43.35 Z0 F600
G1 X24.245 Y43.179 Z0 F600
G1 X24.232 Y43 Z0 F600
G1 X24.245 Y42.822 Z0 F600
G1 X24.28 Y42.652 Z0 F600
; --- FIX X Backlash ---
G0 X24.98 Y42.652 F410
G1 X25.038 Y42.499 Z0 F600
G1 X25.114 Y42.37 Z0 F600
G1 X25.163 Y42.323 Z0 F600
G1 X25.236 Y42.283 Z0 F600
G1 X25.336 Y42.25 Z0 F600
G1 X25.463 Y42.225 Z0 F600
G1 X25.777 Y42.208 Z0 F600
G1 X26.129 Y42.211 Z0 F600
G1 X26.486 Y42.208 Z0 F600
G1 X26.829 Y42.155 Z0 F600
G1 X26.994 Y42.087 Z0 F600
G1 X27.143 Y41.969 Z0 F600
G1 X27.203 Y41.887 Z0 F600
G1 X27.245 Y41.794 Z0 F600
G1 X27.271 Y41.694 Z0 F600
G1 X27.28 Y41.588 Z0 F600
G1 Y33.614 Z0 F600
; --- FIX Y Backlash ---
G0 X27.28 Y34.114 F410
G1 X27.328 Y34.31 Z0 F600
G1 X27.43 Y34.506 Z0 F600
G1 X27.436 Y34.512 Z0 F600
G1 X27.44 Y34.519 Z0 F600
G1 X27.446 Y34.524 Z0 F600
G1 X27.451 Y34.531 Z0 F600
G1 X27.458 Y34.536 Z0 F600
G1 X27.462 Y34.542 Z0 F600
G1 X27.469 Y34.545 Z0 F600
G1 X27.474 Y34.553 Z0 F600
G1 X27.487 Y34.563 Z0 F600
G1 X27.495 Y34.567 Z0 F600
G1 X27.501 Y34.572 Z0 F600
G1 X27.508 Y34.575 Z0 F600
G1 X27.515 Y34.58 Z0 F600
G1 X27.891 Y34.732 Z0 F600
G1 X28.271 Y34.819 Z0 F600
G1 X28.656 Y34.854 Z0 F600
G1 X29.042 Y34.848 Z0 F600
G1 X29.422 Y34.81 Z0 F600
; --- FIX Y Backlash ---
G0 X29.422 Y34.31 F410
G1 X29.794 Y34.248 Z0 F600
G1 X30.155 Y34.171 Z0 F600
G1 X30.516 Y34.085 Z0 F600
G1 X30.532 Y34.077 Z0 F600
G1 X30.55 Y34.073 Z0 F600
G1 X30.565 Y34.063 Z0 F600
G1 X30.581 Y34.056 Z0 F600
G1 X30.594 Y34.043 Z0 F600
G1 X30.609 Y34.034 Z0 F600
G1 X30.62 Y34.02 Z0 F600
G1 X30.634 Y34.008 Z0 F600
G1 X30.643 Y33.993 Z0 F600
G1 X30.654 Y33.979 Z0 F600
G1 X30.661 Y33.963 Z0 F600
G1 X30.671 Y33.949 Z0 F600
G1 X30.676 Y33.932 Z0 F600
G1 X30.684 Y33.917 Z0 F600
G1 X30.713 Y33.713 Z0 F600
G1 X30.709 Y33.535 Z0 F600
G1 X30.676 Y33.367 Z0 F600
; --- FIX X Backlash ---
G0 X29.976 Y33.367 F410
G1 X29.914 Y33.211 Z0 F600
G1 X29.826 Y33.073 Z0 F600
G1 X29.718 Y32.954 Z0 F600
G1 X29.593 Y32.852 Z0 F600
G1 X29.457 Y32.766 Z0 F600
G1 X29.158 Y32.638 Z0 F600
G1 X28.832 Y32.559 Z0 F600
G1 X28.491 Y32.524 Z0 F600
G1 X28.144 Y32.528 Z0 F600
G1 X27.804 Y32.567 Z0 F600
; --- FIX Y Backlash ---
G0 X27.804 Y33.067 F410
G1 X27.48 Y33.141 Z0 F600
G1 X27.183 Y33.253 Z0 F600
G1 X26.924 Y33.407 Z0 F600
G1 X26.811 Y33.502 Z0 F600
G1 X26.713 Y33.613 Z0 F600
G1 X26.636 Y33.739 Z0 F600
G1 X26.586 Y33.881 Z0 F600
G1 X26.58 Y33.94 Z0 F600
; --- FIX Y Backlash ---
G0 X26.58 Y33.44 F410
G1 Y32.063 Z0 F600
; --- FIX X Backlash ---
G0 X27.28 Y32.063 F410
G1 X33.23 Y32.042 Z0 F600
G1 X39.179 Y32.03 Z0 F600
G1 X45.127 Y32.043 Z0 F600
; --- FIX Y Backlash ---
G0 X45.127 Y32.543 F410
G1 X51.075 Y32.602 Z0 F600
G1 X51.261 Y32.781 Z0 F600
G1 X51.404 Y32.974 Z0 F600
G1 X51.508 Y33.182 Z0 F600
G1 X51.579 Y33.409 Z0 F600
G1 X51.586 Y33.479 Z0 F600
G1 X51.589 Y33.602 Z0 F600
G1 Y33.771 Z0 F600
G1 X51.584 Y33.978 Z0 F600
G1 X51.569 Y34.477 Z0 F600
G1 X51.547 Y35.039 Z0 F600
; --- FIX X Backlash ---
G0 X50.847 Y35.039 F410
G1 X50.781 Y36.493 Z0 F600
G1 X50.774 Y36.699 Z0 F600
; --- FIX Y Backlash ---
G0 X50.774 Y36.199 F410
G1 X50.765 Y36.122 Z0 F600
G1 X50.758 Y35.992 Z0 F600
G1 X50.754 Y35.817 Z0 F600
G1 X50.738 Y34.538 Z0 F600
G1 X50.725 Y33.979 Z0 F600
G1 X50.701 Y33.482 Z0 F600
G1 X50.684 Y33.277 Z0 F600
G1 X50.662 Y33.111 Z0 F600
G1 X50.635 Y32.991 Z0 F600
G1 X50.603 Y32.924 Z0 F600
G1 X50.415 Y32.764 Z0 F600
G1 X50.188 Y32.639 Z0 F600
G1 X49.922 Y32.549 Z0 F600
G1 X49.628 Y32.498 Z0 F600
G1 X49.613 Z0 F600
G1 X49.608 Y32.495 Z0 F600
G1 X49.603 Z0 F600
G1 X49.599 Z0 F600
G1 X49.595 Z0 F600
G1 X49.591 Z0 F600
G1 X49.584 Z0 F600
G1 X48.444 Y32.525 Z0 F600
G1 X47.265 Y32.541 Z0 F600
G1 X46.06 Y32.546 Z0 F600
G1 X44.841 Z0 F600
G1 X42.412 Y32.535 Z0 F600
G1 X40.08 Y32.54 Z0 F600
G1 X40.064 Z0 F600
G1 X40.049 Z0 F600
G1 X40.032 Z0 F600
G1 X40.017 Y32.547 Z0 F600
G1 X40.002 Y32.55 Z0 F600
G1 X39.988 Y32.557 Z0 F600
G1 X39.973 Y32.562 Z0 F600
G1 X39.961 Y32.571 Z0 F600
G1 X39.946 Y32.577 Z0 F600
G1 X39.935 Y32.586 Z0 F600
G1 X39.921 Y32.594 Z0 F600
G1 X39.898 Y32.616 Z0 F600
G1 X39.89 Y32.629 Z0 F600
G1 X39.879 Y32.64 Z0 F600
; --- FIX Y Backlash ---
G0 X39.879 Y33.14 F410
G1 X39.75 Y33.374 Z0 F600
G1 X39.659 Y33.609 Z0 F600
G1 X39.594 Y33.854 Z0 F600
G1 X39.547 Y34.101 Z0 F600
G1 X39.481 Y34.579 Z0 F600
G1 X39.408 Y34.997 Z0 F600
G1 X39.356 Y35.166 Z0 F600
G1 X39.295 Y35.299 Z0 F600
G1 X39.224 Y35.398 Z0 F600
G1 X39.142 Y35.463 Z0 F600
G1 X39.034 Y35.503 Z0 F600
G1 X38.879 Y35.515 Z0 F600
G1 X38.666 Y35.485 Z0 F600
; --- FIX Y Backlash ---
G0 X38.666 Y34.985 F410
G1 X38.384 Y34.901 Z0 F600
G1 X38.417 Y34.913 Z0 F600
G1 X38.377 Y34.899 Z0 F600
G1 X38.371 Y34.895 Z0 F600
G1 X38.365 Z0 F600
G1 X38.36 Y34.891 Z0 F600
G1 X38.353 Z0 F600
G1 X38.348 Y34.888 Z0 F600
G1 X38.34 Z0 F600
G1 X37.685 Y34.81 Z0 F600
G1 X37.077 Z0 F600
G1 X36.796 Y34.847 Z0 F600
; --- FIX Y Backlash ---
G0 X36.796 Y35.347 F410
G1 X36.533 Y35.417 Z0 F600
G1 X36.292 Y35.521 Z0 F600
G1 X36.074 Y35.663 Z0 F600
G1 X35.886 Y35.848 Z0 F600
G1 X35.737 Y36.074 Z0 F600
G1 X35.631 Y36.338 Z0 F600
G1 X35.57 Y36.637 Z0 F600
G1 X35.555 Y36.958 Z0 F600
G1 X35.582 Y37.313 Z0 F600
; --- FIX X Backlash ---
G0 X36.282 Y37.313 F410
G1 X36.351 Y37.705 Z0 F600
G1 X36.459 Y38.137 Z0 F600
G1 X36.449 Y38.494 Z0 F600
G1 X36.43 Y38.807 Z0 F600
G1 X36.401 Y39.076 Z0 F600
G1 X36.36 Y39.299 Z0 F600
; --- FIX X Backlash ---
G0 X35.66 Y39.299 F410
G1 X35.606 Y39.479 Z0 F600
G1 X35.541 Y39.617 Z0 F600
G1 X35.459 Y39.722 Z0 F600
G1 X35.357 Y39.803 Z0 F600
G1 X35.225 Y39.867 Z0 F600
G1 X35.049 Y39.914 Z0 F600
G1 X34.825 Y39.944 Z0 F600
G1 X34.552 Y39.956 Z0 F600
G1 X34.227 Y39.948 Z0 F600
G1 X33.848 Y39.923 Z0 F600
G1 X33.411 Y39.879 Z0 F600
; --- FIX Y Backlash ---
G0 X33.411 Y39.379 F410
G1 X32.916 Y39.317 Z0 F600
G1 X32.303 Y39.235 Z0 F600
G1 X31.628 Y39.185 Z0 F600
G1 X31.282 Y39.181 Z0 F600
G1 X30.938 Y39.197 Z0 F600
G1 X30.601 Y39.238 Z0 F600
G0 Z3.5 F600
; --- FIX X Backlash ---
G0 X31.301 Y39.238 F410
; --- FIX Y Backlash ---
G0 X31.301 Y39.738 F410
G0 X34.507 Y44.859 Z3.5
G1 Z0 F600
;Layer C1 Pass 1 of 2
G1 Y45.431 Z0 F600
; --- FIX X Backlash ---
G0 X33.807 Y45.431 F410
G1 X33.349 Y45.767 Z0 F600
G1 X33.313 Y45.814 Z0 F600
; --- FIX Y Backlash ---
G0 X33.313 Y45.314 F410
G1 Y44.857 Z0 F600
G1 X33.293 Y44.445 Z0 F600
G1 X33.282 Y44.273 Z0 F600
; --- FIX X Backlash ---
G0 X33.982 Y44.273 F410
G1 X34.035 Y44.198 Z0 F600
; --- FIX Y Backlash ---
G0 X34.035 Y44.698 F410
G1 X34.507 Y44.859 Z0 F600
G0 Z3.5 F600
; --- FIX X Backlash ---
G0 X33.807 Y44.859 F410
; --- FIX Y Backlash ---
G0 X33.807 Y44.359 F410
G0 X33.355 Y44.002 Z3.5
G1 Z0 F600
G1 X33.331 Y43.813 Z0 F600
G1 X33.378 Y43.673 Z0 F600
G1 X33.367 Y43.635 Z0 F600
G1 X33.379 Y43.597 Z0 F600
G1 X33.33 Y43.434 Z0 F600
; --- FIX X Backlash ---
G0 X34.03 Y43.434 F410
G1 X34.245 Z0 F600
; --- FIX X Backlash ---
G0 X33.545 Y43.434 F410
; --- FIX Y Backlash ---
G0 X33.545 Y43.934 F410
G1 X33.355 Y44.502 Z0 F600
G0 Z3.5 F600
G0 X32.813 Y45.855 Z3.5
G1 Z0 F600
; --- FIX Y Backlash ---
G0 X32.813 Y45.355 F410
G1 Y44.87 Z0 F600
G1 X32.794 Y44.474 Z0 F600
G1 X32.773 Y44.156 Z0 F600
G1 Y44.125 Z0 F600
; --- FIX X Backlash ---
G0 X33.473 Y44.125 F410
G1 X33.542 Y44.028 Z0 F600
G1 X33.535 Y43.964 Z0 F600
G1 X33.544 Y43.948 Z0 F600
G1 X33.521 Y43.761 Z0 F600
G1 X33.555 Y43.658 Z0 F600
G1 X33.547 Y43.628 Z0 F600
G1 X33.557 Y43.597 Z0 F600
; --- FIX X Backlash ---
G0 X32.857 Y43.597 F410
G1 X32.789 Y43.372 Z0 F600
G1 Y42.93 Z0 F600
; --- FIX X Backlash ---
G0 X33.489 Y42.93 F410
G1 X34.938 Y42.939 Z0 F600
; --- FIX X Backlash ---
G0 X34.238 Y42.939 F410
; --- FIX Y Backlash ---
G0 X34.238 Y43.439 F410
G1 X33.926 Y44.371 Z0 F600
; --- FIX X Backlash ---
G0 X34.626 Y44.371 F410
G1 X35.007 Y44.501 Z0 F600
G1 Y45.708 Z0 F600
; --- FIX X Backlash ---
G0 X34.307 Y45.708 F410
G1 X34.238 Y45.734 Z0 F600
G1 X33.704 Y46.126 Z0 F600
G1 X33.284 Y46.686 Z0 F600
G1 X33.051 Y47.261 Z0 F600
G1 X32.952 Y47.785 Z0 F600
G1 X32.928 Y48.249 Z0 F600
G1 X32.96 Y48.934 Z0 F600
; --- FIX X Backlash ---
G0 X33.66 Y48.934 F410
G1 X33.715 Y49.553 Z0 F600
G1 X33.731 Y49.777 Z0 F600
G1 X33.736 Y49.936 Z0 F600
; --- FIX X Backlash ---
G0 X33.036 Y49.936 F410
G1 X32.803 Z0 F600
; --- FIX Y Backlash ---
G0 X32.803 Y49.436 F410
G1 X32.808 Y49.303 Z0 F600
G1 X32.79 Y48.508 Z0 F600
G1 X32.624 Y47.499 Z0 F600
G1 X32.558 Y47.375 Z0 F600
G1 X32.512 Y47.235 Z0 F600
G1 X32.452 Y47.158 Z0 F600
G1 X32.418 Y47.083 Z0 F600
G1 X32.347 Y47.007 Z0 F600
G1 X32.312 Y46.947 Z0 F600
; --- FIX X Backlash ---
G0 X33.012 Y46.947 F410
G1 X33.234 Y46.592 Z0 F600
G1 X33.442 Y45.937 Z0 F600
G1 X33.513 Y45.355 Z0 F600
G0 Z3.5 F600
; --- FIX X Backlash ---
G0 X32.813 Y45.355 F410
G0 X32.335 Y43.597 Z3.5
G1 Z0 F600
G1 X32.289 Y43.445 Z0 F600
G1 Y42.427 Z0 F600
; --- FIX X Backlash ---
G0 X32.989 Y42.427 F410
G1 X35.506 Y42.443 Z0 F600
; --- FIX Y Backlash ---
G0 X35.506 Y42.943 F410
G1 X35.554 Y43.019 Z0 F600
G1 X35.589 Y43.053 Z0 F600
G1 X35.583 Y43.074 Z0 F600
G1 X35.561 Y43.111 Z0 F600
G1 X35.542 Y43.21 Z0 F600
; --- FIX X Backlash ---
G0 X34.842 Y43.21 F410
G1 X34.558 Y44.059 Z0 F600
; --- FIX X Backlash ---
G0 X35.258 Y44.059 F410
G1 X35.507 Y44.144 Z0 F600
G1 Y46.051 Z0 F600
; --- FIX X Backlash ---
G0 X34.807 Y46.051 F410
G1 X34.481 Y46.177 Z0 F600
G1 X34.059 Y46.486 Z0 F600
G1 X33.723 Y46.934 Z0 F600
G1 X33.533 Y47.403 Z0 F600
G1 X33.449 Y47.845 Z0 F600
G1 X33.429 Y48.25 Z0 F600
G1 X33.459 Y48.9 Z0 F600
; --- FIX X Backlash ---
G0 X34.159 Y48.9 F410
G1 X34.212 Y49.492 Z0 F600
G1 X34.231 Y49.761 Z0 F600
G1 X34.237 Y49.972 Z0 F600
G1 X34.234 Y50.056 Z0 F600
G1 X34.227 Y50.063 Z0 F600
G1 X34.186 Y50.43 Z0 F600
G1 X34.17 Y50.436 Z0 F600
; --- FIX X Backlash ---
G0 X33.47 Y50.436 F410
G1 X32.288 Z0 F600
; --- FIX Y Backlash ---
G0 X32.288 Y49.936 F410
G1 X32.308 Y49.301 Z0 F600
G1 X32.291 Y48.555 Z0 F600
G1 X32.144 Y47.661 Z0 F600
G1 X32.098 Y47.574 Z0 F600
G1 X32.065 Y47.475 Z0 F600
G1 X32.022 Y47.419 Z0 F600
G1 X31.996 Y47.363 Z0 F600
G1 X31.944 Y47.307 Z0 F600
G1 X31.904 Y47.24 Z0 F600
G1 X31.821 Y47.169 Z0 F600
G1 X31.735 Y47.073 Z0 F600
G1 X31.674 Y47.041 Z0 F600
G1 X31.649 Y47.018 Z0 F600
G1 X31.652 Y47.015 Z0 F600
; --- FIX X Backlash ---
G0 X32.352 Y47.015 F410
G1 X32.404 Y46.976 Z0 F600
G1 X32.776 Y46.38 Z0 F600
G1 X32.952 Y45.83 Z0 F600
G1 X33.014 Y45.324 Z0 F600
G1 Y44.883 Z0 F600
G1 X32.994 Y44.504 Z0 F600
G1 X32.974 Y44.176 Z0 F600
G1 X32.968 Y43.972 Z0 F600
G1 X33.024 Y43.894 Z0 F600
G1 X33.019 Y43.846 Z0 F600
G1 X33.026 Y43.834 Z0 F600
G1 X33.011 Y43.711 Z0 F600
G1 X33.033 Y43.644 Z0 F600
G1 X33.027 Y43.622 Z0 F600
G1 X33.035 Y43.597 Z0 F600
G0 Z3.5 F600
; --- FIX X Backlash ---
G0 X32.335 Y43.597 F410
G0 X31.789 Y41.923 Z3.5
G1 Z0 F600
; --- FIX X Backlash ---
G0 X32.489 Y41.923 F410
G1 X35.786 Y41.945 Z0 F600
; --- FIX Y Backlash ---
G0 X35.786 Y42.445 F410
G1 X35.945 Y42.702 Z0 F600
G1 X36.107 Y42.857 Z0 F600
G1 X36.165 Y42.901 Z0 F600
G1 X36.13 Y43.032 Z0 F600
; --- FIX X Backlash ---
G0 X35.43 Y43.032 F410
G1 X35.361 Y43.237 Z0 F600
G1 X35.353 Y43.25 Z0 F600
G1 X35.347 Y43.272 Z0 F600
G1 X35.336 Y43.291 Z0 F600
G1 X35.328 Y43.335 Z0 F600
G1 X35.19 Y43.746 Z0 F600
; --- FIX X Backlash ---
G0 X35.89 Y43.746 F410
G1 X36.007 Y43.786 Z0 F600
G1 Y46.444 Z0 F600
; --- FIX X Backlash ---
G0 X35.307 Y46.444 F410
G1 X35.073 Y46.484 Z0 F600
G1 X34.723 Y46.619 Z0 F600
G1 X34.415 Y46.846 Z0 F600
G1 X34.162 Y47.182 Z0 F600
G1 X34.015 Y47.544 Z0 F600
G1 X33.947 Y47.904 Z0 F600
G1 X33.929 Y48.251 Z0 F600
G1 X33.958 Y48.866 Z0 F600
; --- FIX X Backlash ---
G0 X34.658 Y48.866 F410
G1 X34.711 Y49.465 Z0 F600
G1 X34.73 Y49.72 Z0 F600
G1 X34.737 Y49.977 Z0 F600
G1 X34.729 Y50.181 Z0 F600
G1 X34.714 Y50.283 Z0 F600
G1 X34.704 Y50.293 Z0 F600
; --- FIX X Backlash ---
G0 X34.004 Y50.293 F410
G1 X33.935 Y50.926 Z0 F600
G1 X33.938 Y50.985 Z0 F600
G1 X33.907 Y50.978 Z0 F600
G1 X33.893 Y50.969 Z0 F600
; --- FIX Y Backlash ---
G0 X33.893 Y50.469 F410
G1 X33.818 Y50.419 Z0 F600
G1 X33.807 Z0 F600
G1 X33.79 Y50.41 Z0 F600
G1 X33.755 Y50.418 Z0 F600
G1 X33.738 Y50.41 Z0 F600
G1 X33.707 Y50.417 Z0 F600
G1 X33.66 Y50.399 Z0 F600
G1 X33.561 Y50.436 Z0 F600
G1 X31.788 Z0 F600
G1 Y49.931 Z0 F600
G1 X31.807 Y49.299 Z0 F600
G1 X31.792 Y48.601 Z0 F600
G1 X31.664 Y47.823 Z0 F600
G1 X31.636 Y47.772 Z0 F600
G1 X31.617 Y47.714 Z0 F600
G1 X31.591 Y47.68 Z0 F600
G1 X31.574 Y47.644 Z0 F600
G1 X31.543 Y47.609 Z0 F600
G1 X31.518 Y47.568 Z0 F600
G1 X31.468 Y47.526 Z0 F600
G1 X31.421 Y47.473 Z0 F600
G1 X31.383 Y47.453 Z0 F600
G1 X31.353 Y47.425 Z0 F600
G1 X31.307 Y47.406 Z0 F600
G1 X31.275 Y47.383 Z0 F600
G1 X31.224 Y47.367 Z0 F600
G1 X31.176 Y47.343 Z0 F600
G1 X30.818 Y47.279 Z0 F600
G1 X30.496 Y47.239 Z0 F600
G1 X30.147 Y47.211 Z0 F600
G1 X29.772 Y47.193 Z0 F600
G1 X28.974 Y47.176 Z0 F600
G1 X28.13 Z0 F600
G1 X26.202 Y47.194 Z0 F600
G1 X25.893 Z0 F600
G1 X25.62 Z0 F600
G1 X25.371 Y47.186 Z0 F600
G1 X25.016 Y47.189 Z0 F600
G1 X24.842 Y47.196 Z0 F600
G1 X24.83 Y46.866 Z0 F600
; --- FIX X Backlash ---
G0 X25.53 Y46.866 F410
G1 X31.456 Z0 F600
G1 X31.529 Y46.871 Z0 F600
G1 X31.569 Y46.861 Z0 F600
G1 X31.62 Z0 F600
G1 X31.649 Y46.847 Z0 F600
G1 X31.795 Y46.8 Z0 F600
G1 X31.817 Y46.784 Z0 F600
G1 X31.846 Y46.773 Z0 F600
G1 X31.867 Y46.756 Z0 F600
G1 X31.898 Y46.742 Z0 F600
G1 X31.933 Y46.709 Z0 F600
G1 X31.976 Y46.683 Z0 F600
G1 X31.998 Y46.654 Z0 F600
G1 X32.03 Y46.63 Z0 F600
G1 X32.319 Y46.168 Z0 F600
G1 X32.461 Y45.723 Z0 F600
G1 X32.514 Y45.293 Z0 F600
G1 Y44.896 Z0 F600
G1 X32.495 Y44.533 Z0 F600
G1 X32.475 Y44.208 Z0 F600
G1 X32.467 Y43.923 Z0 F600
G1 X32.475 Y43.802 Z0 F600
G1 X32.506 Y43.758 Z0 F600
G1 X32.502 Y43.728 Z0 F600
G1 X32.508 Y43.72 Z0 F600
G1 X32.5 Y43.66 Z0 F600
G1 X32.511 Y43.629 Z0 F600
G1 X32.507 Y43.616 Z0 F600
G1 X32.513 Y43.597 Z0 F600
G1 X32.489 Y43.519 Z0 F600
G1 Y41.923 Z0 F600
G0 Z3.5 F600
; --- FIX X Backlash ---
G0 X31.789 Y41.923 F410
G0 X31.289 Y41.42 Z3.5
G1 Z0 F600
; --- FIX X Backlash ---
G0 X31.989 Y41.42 F410
G1 X36.138 Y41.447 Z0 F600
; --- FIX Y Backlash ---
G0 X36.138 Y41.947 F410
G1 X36.219 Y42.194 Z0 F600
G1 X36.337 Y42.385 Z0 F600
G1 X36.433 Y42.477 Z0 F600
G1 X36.523 Y42.545 Z0 F600
G1 X36.647 Y42.625 Z0 F600
G1 X36.688 Y42.658 Z0 F600
G1 X36.692 Y42.677 Z0 F600
G1 X36.696 Y42.734 Z0 F600
G1 X36.689 Y42.831 Z0 F600
G1 X36.662 Y42.979 Z0 F600
; --- FIX X Backlash ---
G0 X35.962 Y42.979 F410
G1 X35.908 Y43.179 Z0 F600
G1 X35.822 Y43.434 Z0 F600
G1 X35.826 Y43.422 Z0 F600
G1 X35.821 Y43.443 Z0 F600
G1 X35.818 Y43.448 Z0 F600
G1 X35.815 Y43.459 Z0 F600
G1 Y43.465 Z0 F600
G1 X35.812 Y43.47 Z0 F600
G1 Y43.48 Z0 F600
G1 Y43.486 Z0 F600
G1 X35.809 Y43.491 Z0 F600
G1 X35.806 Y43.514 Z0 F600
G1 Y43.52 Z0 F600
G1 Y46.912 Z0 F600
G1 X35.488 Y46.92 Z0 F600
G1 X35.206 Y46.968 Z0 F600
G1 X34.966 Y47.062 Z0 F600
G1 X34.77 Y47.205 Z0 F600
G1 X34.601 Y47.43 Z0 F600
G1 X34.497 Y47.686 Z0 F600
G1 X34.445 Y47.964 Z0 F600
G1 X34.43 Y48.252 Z0 F600
G1 X34.457 Y48.832 Z0 F600
; --- FIX X Backlash ---
G0 X35.157 Y48.832 F410
G1 X35.209 Y49.42 Z0 F600
G1 X35.23 Y49.706 Z0 F600
G1 X35.238 Y49.977 Z0 F600
G1 X35.228 Y50.23 Z0 F600
G1 X35.184 Y50.52 Z0 F600
G1 X35.136 Y50.941 Z0 F600
G1 X35.153 Y51.278 Z0 F600
G1 X35.18 Y51.53 Z0 F600
G1 X35.184 Y51.6 Z0 F600
; --- FIX X Backlash ---
G0 X34.484 Y51.6 F410
G1 X34.378 Y51.592 Z0 F600
G1 X34.214 Y51.565 Z0 F600
G1 X33.993 Y51.517 Z0 F600
; --- FIX Y Backlash ---
G0 X33.993 Y51.017 F410
G1 X33.717 Y50.944 Z0 F600
G1 X33.71 Y50.94 Z0 F600
G1 X33.701 Z0 F600
G1 X33.694 Y50.937 Z0 F600
G1 X33.685 Z0 F600
G1 X33.677 Y50.934 Z0 F600
G1 X33.668 Z0 F600
G1 X33.66 Z0 F600
G1 X33.652 Z0 F600
G1 X31.217 Z0 F600
G1 X31.267 Y50.794 Z0 F600
G1 X31.289 Y50.608 Z0 F600
G1 Y49.932 Z0 F600
G1 X31.307 Y49.296 Z0 F600
G1 X31.293 Y48.647 Z0 F600
G1 X31.184 Y47.985 Z0 F600
G1 X31.175 Y47.969 Z0 F600
G1 X31.17 Y47.953 Z0 F600
G1 X31.16 Y47.94 Z0 F600
G1 X31.153 Y47.924 Z0 F600
G1 X31.14 Y47.911 Z0 F600
G1 X31.132 Y47.896 Z0 F600
G1 X31.119 Y47.885 Z0 F600
G1 X31.107 Y47.872 Z0 F600
G1 X31.092 Y47.864 Z0 F600
G1 X31.079 Y47.853 Z0 F600
G1 X31.064 Y47.846 Z0 F600
G1 X31.05 Y47.836 Z0 F600
G1 X31.033 Y47.831 Z0 F600
G1 X31.017 Y47.823 Z0 F600
G1 X30.743 Y47.773 Z0 F600
G1 X30.446 Y47.737 Z0 F600
G1 X30.115 Y47.71 Z0 F600
G1 X29.755 Y47.692 Z0 F600
G1 X28.969 Y47.676 Z0 F600
G1 X28.133 Z0 F600
G1 X26.207 Y47.694 Z0 F600
G1 X25.889 Z0 F600
G1 X25.607 Z0 F600
G1 X25.367 Y47.686 Z0 F600
G1 X25.028 Y47.689 Z0 F600
G1 X24.778 Y47.698 Z0 F600
G1 X24.562 Z0 F600
G1 X24.402 Y47.684 Z0 F600
G1 X24.348 Y47.668 Z0 F600
G1 X24.318 Y47.655 Z0 F600
G1 X24.305 Y47.644 Z0 F600
G1 X24.297 Y47.627 Z0 F600
G1 X24.29 Y47.598 Z0 F600
G1 Y47.536 Z0 F600
G1 X24.299 Y47.44 Z0 F600
G1 X24.332 Y47.307 Z0 F600
G1 X24.336 Y47.297 Z0 F600
G1 X24.34 Y47.277 Z0 F600
G1 X24.343 Y47.236 Z0 F600
G1 X24.326 Y46.744 Z0 F600
G1 Y46.542 Z0 F600
G1 X24.343 Y46.396 Z0 F600
G1 X24.359 Y46.351 Z0 F600
G1 X24.371 Y46.328 Z0 F600
G1 X24.38 Y46.319 Z0 F600
G1 X24.398 Y46.311 Z0 F600
G1 X24.43 Y46.305 Z0 F600
; --- FIX X Backlash ---
G0 X25.13 Y46.305 F410
G1 X25.194 Z0 F600
G1 X25.29 Y46.317 Z0 F600
G1 X25.458 Y46.361 Z0 F600
G1 X25.493 Y46.366 Z0 F600
G1 X31.472 Z0 F600
G1 X31.485 Z0 F600
G1 X31.499 Y46.363 Z0 F600
G1 X31.513 Z0 F600
G1 X31.526 Y46.357 Z0 F600
G1 X31.541 Z0 F600
G1 X31.567 Y46.348 Z0 F600
G1 X31.579 Y46.34 Z0 F600
G1 X31.592 Y46.335 Z0 F600
G1 X31.603 Y46.326 Z0 F600
G1 X31.616 Y46.32 Z0 F600
G1 X31.626 Y46.311 Z0 F600
G1 X31.637 Y46.304 Z0 F600
G1 X31.646 Y46.293 Z0 F600
G1 X31.657 Y46.285 Z0 F600
G1 X31.862 Y45.957 Z0 F600
G1 X31.97 Y45.616 Z0 F600
G1 X32.014 Y45.262 Z0 F600
G1 Y44.908 Z0 F600
G1 X31.996 Y44.563 Z0 F600
G1 X31.975 Y44.228 Z0 F600
G1 X31.966 Y43.913 Z0 F600
G1 X31.985 Y43.627 Z0 F600
G1 X31.988 Y43.624 Z0 F600
G1 Y43.619 Z0 F600
G1 Y43.615 Z0 F600
G1 Y43.609 Z0 F600
G1 Y43.605 Z0 F600
G1 Y43.602 Z0 F600
G1 X31.991 Y43.597 Z0 F600
G1 Y43.592 Z0 F600
G1 Y41.42 Z0 F600
;Layer C1 Pass 2 of 2
G0 Z3.5 F600
; --- FIX Y Backlash ---
G0 X31.991 Y41.92 F410
G0 X34.507 Y44.859 Z3.5
G1 Z0 F600
G1 Y45.431 Z0 F600
; --- FIX X Backlash ---
G0 X33.807 Y45.431 F410
G1 X33.349 Y45.767 Z0 F600
G1 X33.313 Y45.814 Z0 F600
; --- FIX Y Backlash ---
G0 X33.313 Y45.314 F410
G1 Y44.857 Z0 F600
G1 X33.293 Y44.445 Z0 F600
G1 X33.282 Y44.273 Z0 F600
; --- FIX X Backlash ---
G0 X33.982 Y44.273 F410
G1 X34.035 Y44.198 Z0 F600
; --- FIX Y Backlash ---
G0 X34.035 Y44.698 F410
G1 X34.507 Y44.859 Z0 F600
G0 Z3.5 F600
; --- FIX X Backlash ---
G0 X33.807 Y44.859 F410
; --- FIX Y Backlash ---
G0 X33.807 Y44.359 F410
G0 X33.355 Y44.002 Z3.5
G1 Z0 F600
G1 X33.331 Y43.813 Z0 F600
G1 X33.378 Y43.673 Z0 F600
G1 X33.367 Y43.635 Z0 F600
G1 X33.379 Y43.597 Z0 F600
G1 X33.33 Y43.434 Z0 F600
; --- FIX X Backlash ---
G0 X34.03 Y43.434 F410
G1 X34.245 Z0 F600
; --- FIX X Backlash ---
G0 X33.545 Y43.434 F410
; --- FIX Y Backlash ---
G0 X33.545 Y43.934 F410
G1 X33.355 Y44.502 Z0 F600
G0 Z3.5 F600
G0 X32.813 Y45.855 Z3.5
G1 Z0 F600
; --- FIX Y Backlash ---
G0 X32.813 Y45.355 F410
G1 Y44.87 Z0 F600
G1 X32.794 Y44.474 Z0 F600
G1 X32.773 Y44.156 Z0 F600
G1 Y44.125 Z0 F600
; --- FIX X Backlash ---
G0 X33.473 Y44.125 F410
G1 X33.542 Y44.028 Z0 F600
G1 X33.535 Y43.964 Z0 F600
G1 X33.544 Y43.948 Z0 F600
G1 X33.521 Y43.761 Z0 F600
G1 X33.555 Y43.658 Z0 F600
G1 X33.547 Y43.628 Z0 F600
G1 X33.557 Y43.597 Z0 F600
; --- FIX X Backlash ---
G0 X32.857 Y43.597 F410
G1 X32.789 Y43.372 Z0 F600
G1 Y42.93 Z0 F600
; --- FIX X Backlash ---
G0 X33.489 Y42.93 F410
G1 X34.938 Y42.939 Z0 F600
; --- FIX X Backlash ---
G0 X34.238 Y42.939 F410
; --- FIX Y Backlash ---
G0 X34.238 Y43.439 F410
G1 X33.926 Y44.371 Z0 F600
; --- FIX X Backlash ---
G0 X34.626 Y44.371 F410
G1 X35.007 Y44.501 Z0 F600
G1 Y45.708 Z0 F600
; --- FIX X Backlash ---
G0 X34.307 Y45.708 F410
G1 X34.238 Y45.734 Z0 F600
G1 X33.704 Y46.126 Z0 F600
G1 X33.284 Y46.686 Z0 F600
G1 X33.051 Y47.261 Z0 F600
G1 X32.952 Y47.785 Z0 F600
G1 X32.928 Y48.249 Z0 F600
G1 X32.96 Y48.934 Z0 F600
; --- FIX X Backlash ---
G0 X33.66 Y48.934 F410
G1 X33.715 Y49.553 Z0 F600
G1 X33.731 Y49.777 Z0 F600
G1 X33.736 Y49.936 Z0 F600
; --- FIX X Backlash ---
G0 X33.036 Y49.936 F410
G1 X32.803 Z0 F600
; --- FIX Y Backlash ---
G0 X32.803 Y49.436 F410
G1 X32.808 Y49.303 Z0 F600
G1 X32.79 Y48.508 Z0 F600
G1 X32.624 Y47.499 Z0 F600
G1 X32.558 Y47.375 Z0 F600
G1 X32.512 Y47.235 Z0 F600
G1 X32.452 Y47.158 Z0 F600
G1 X32.418 Y47.083 Z0 F600
G1 X32.347 Y47.007 Z0 F600
G1 X32.312 Y46.947 Z0 F600
; --- FIX X Backlash ---
G0 X33.012 Y46.947 F410
G1 X33.234 Y46.592 Z0 F600
G1 X33.442 Y45.937 Z0 F600
G1 X33.513 Y45.355 Z0 F600
G0 Z3.5 F600
; --- FIX X Backlash ---
G0 X32.813 Y45.355 F410
G0 X32.335 Y43.597 Z3.5
G1 Z0 F600
G1 X32.289 Y43.445 Z0 F600
G1 Y42.427 Z0 F600
; --- FIX X Backlash ---
G0 X32.989 Y42.427 F410
G1 X35.506 Y42.443 Z0 F600
; --- FIX Y Backlash ---
G0 X35.506 Y42.943 F410
G1 X35.554 Y43.019 Z0 F600
G1 X35.589 Y43.053 Z0 F600
G1 X35.583 Y43.074 Z0 F600
G1 X35.561 Y43.111 Z0 F600
G1 X35.542 Y43.21 Z0 F600
; --- FIX X Backlash ---
G0 X34.842 Y43.21 F410
G1 X34.558 Y44.059 Z0 F600
; --- FIX X Backlash ---
G0 X35.258 Y44.059 F410
G1 X35.507 Y44.144 Z0 F600
G1 Y46.051 Z0 F600
; --- FIX X Backlash ---
G0 X34.807 Y46.051 F410
G1 X34.481 Y46.177 Z0 F600
G1 X34.059 Y46.486 Z0 F600
G1 X33.723 Y46.934 Z0 F600
G1 X33.533 Y47.403 Z0 F600
G1 X33.449 Y47.845 Z0 F600
G1 X33.429 Y48.25 Z0 F600
G1 X33.459 Y48.9 Z0 F600
; --- FIX X Backlash ---
G0 X34.159 Y48.9 F410
G1 X34.212 Y49.492 Z0 F600
G1 X34.231 Y49.761 Z0 F600
G1 X34.237 Y49.972 Z0 F600
G1 X34.234 Y50.056 Z0 F600
G1 X34.227 Y50.063 Z0 F600
G1 X34.186 Y50.43 Z0 F600
G1 X34.17 Y50.436 Z0 F600
; --- FIX X Backlash ---
G0 X33.47 Y50.436 F410
G1 X32.288 Z0 F600
; --- FIX Y Backlash ---
G0 X32.288 Y49.936 F410
G1 X32.308 Y49.301 Z0 F600
G1 X32.291 Y48.555 Z0 F600
G1 X32.144 Y47.661 Z0 F600
G1 X32.098 Y47.574 Z0 F600
G1 X32.065 Y47.475 Z0 F600
G1 X32.022 Y47.419 Z0 F600
G1 X31.996 Y47.363 Z0 F600
G1 X31.944 Y47.307 Z0 F600
G1 X31.904 Y47.24 Z0 F600
G1 X31.821 Y47.169 Z0 F600
G1 X31.735 Y47.073 Z0 F600
G1 X31.674 Y47.041 Z0 F600
G1 X31.649 Y47.018 Z0 F600
G1 X31.652 Y47.015 Z0 F600
; --- FIX X Backlash ---
G0 X32.352 Y47.015 F410
G1 X32.404 Y46.976 Z0 F600
G1 X32.776 Y46.38 Z0 F600
G1 X32.952 Y45.83 Z0 F600
G1 X33.014 Y45.324 Z0 F600
G1 Y44.883 Z0 F600
G1 X32.994 Y44.504 Z0 F600
G1 X32.974 Y44.176 Z0 F600
G1 X32.968 Y43.972 Z0 F600
G1 X33.024 Y43.894 Z0 F600
G1 X33.019 Y43.846 Z0 F600
G1 X33.026 Y43.834 Z0 F600
G1 X33.011 Y43.711 Z0 F600
G1 X33.033 Y43.644 Z0 F600
G1 X33.027 Y43.622 Z0 F600
G1 X33.035 Y43.597 Z0 F600
G0 Z3.5 F600
; --- FIX X Backlash ---
G0 X32.335 Y43.597 F410
G0 X31.789 Y41.923 Z3.5
G1 Z0 F600
; --- FIX X Backlash ---
G0 X32.489 Y41.923 F410
G1 X35.786 Y41.945 Z0 F600
; --- FIX Y Backlash ---
G0 X35.786 Y42.445 F410
G1 X35.945 Y42.702 Z0 F600
G1 X36.107 Y42.857 Z0 F600
G1 X36.165 Y42.901 Z0 F600
G1 X36.13 Y43.032 Z0 F600
; --- FIX X Backlash ---
G0 X35.43 Y43.032 F410
G1 X35.361 Y43.237 Z0 F600
G1 X35.353 Y43.25 Z0 F600
G1 X35.347 Y43.272 Z0 F600
G1 X35.336 Y43.291 Z0 F600
G1 X35.328 Y43.335 Z0 F600
G1 X35.19 Y43.746 Z0 F600
; --- FIX X Backlash ---
G0 X35.89 Y43.746 F410
G1 X36.007 Y43.786 Z0 F600
G1 Y46.444 Z0 F600
; --- FIX X Backlash ---
G0 X35.307 Y46.444 F410
G1 X35.073 Y46.484 Z0 F600
G1 X34.723 Y46.619 Z0 F600
G1 X34.415 Y46.846 Z0 F600
G1 X34.162 Y47.182 Z0 F600
G1 X34.015 Y47.544 Z0 F600
G1 X33.947 Y47.904 Z0 F600
G1 X33.929 Y48.251 Z0 F600
G1 X33.958 Y48.866 Z0 F600
; --- FIX X Backlash ---
G0 X34.658 Y48.866 F410
G1 X34.711 Y49.465 Z0 F600
G1 X34.73 Y49.72 Z0 F600
G1 X34.737 Y49.977 Z0 F600
G1 X34.729 Y50.181 Z0 F600
G1 X34.714 Y50.283 Z0 F600
G1 X34.704 Y50.293 Z0 F600
; --- FIX X Backlash ---
G0 X34.004 Y50.293 F410
G1 X33.935 Y50.926 Z0 F600
G1 X33.938 Y50.985 Z0 F600
G1 X33.907 Y50.978 Z0 F600
G1 X33.893 Y50.969 Z0 F600
; --- FIX Y Backlash ---
G0 X33.893 Y50.469 F410
G1 X33.818 Y50.419 Z0 F600
G1 X33.807 Z0 F600
G1 X33.79 Y50.41 Z0 F600
G1 X33.755 Y50.418 Z0 F600
G1 X33.738 Y50.41 Z0 F600
G1 X33.707 Y50.417 Z0 F600
G1 X33.66 Y50.399 Z0 F600
G1 X33.561 Y50.436 Z0 F600
G1 X31.788 Z0 F600
G1 Y49.931 Z0 F600
G1 X31.807 Y49.299 Z0 F600
G1 X31.792 Y48.601 Z0 F600
G1 X31.664 Y47.823 Z0 F600
G1 X31.636 Y47.772 Z0 F600
G1 X31.617 Y47.714 Z0 F600
G1 X31.591 Y47.68 Z0 F600
G1 X31.574 Y47.644 Z0 F600
G1 X31.543 Y47.609 Z0 F600
G1 X31.518 Y47.568 Z0 F600
G1 X31.468 Y47.526 Z0 F600
G1 X31.421 Y47.473 Z0 F600
G1 X31.383 Y47.453 Z0 F600
G1 X31.353 Y47.425 Z0 F600
G1 X31.307 Y47.406 Z0 F600
G1 X31.275 Y47.383 Z0 F600
G1 X31.224 Y47.367 Z0 F600
G1 X31.176 Y47.343 Z0 F600
G1 X30.818 Y47.279 Z0 F600
G1 X30.496 Y47.239 Z0 F600
G1 X30.147 Y47.211 Z0 F600
G1 X29.772 Y47.193 Z0 F600
G1 X28.974 Y47.176 Z0 F600
G1 X28.13 Z0 F600
G1 X26.202 Y47.194 Z0 F600
G1 X25.893 Z0 F600
G1 X25.62 Z0 F600
G1 X25.371 Y47.186 Z0 F600
G1 X25.016 Y47.189 Z0 F600
G1 X24.842 Y47.196 Z0 F600
G1 X24.83 Y46.866 Z0 F600
; --- FIX X Backlash ---
G0 X25.53 Y46.866 F410
G1 X31.456 Z0 F600
G1 X31.529 Y46.871 Z0 F600
G1 X31.569 Y46.861 Z0 F600
G1 X31.62 Z0 F600
G1 X31.649 Y46.847 Z0 F600
G1 X31.795 Y46.8 Z0 F600
G1 X31.817 Y46.784 Z0 F600
G1 X31.846 Y46.773 Z0 F600
G1 X31.867 Y46.756 Z0 F600
G1 X31.898 Y46.742 Z0 F600
G1 X31.933 Y46.709 Z0 F600
G1 X31.976 Y46.683 Z0 F600
G1 X31.998 Y46.654 Z0 F600
G1 X32.03 Y46.63 Z0 F600
G1 X32.319 Y46.168 Z0 F600
G1 X32.461 Y45.723 Z0 F600
G1 X32.514 Y45.293 Z0 F600
G1 Y44.896 Z0 F600
G1 X32.495 Y44.533 Z0 F600
G1 X32.475 Y44.208 Z0 F600
G1 X32.467 Y43.923 Z0 F600
G1 X32.475 Y43.802 Z0 F600
G1 X32.506 Y43.758 Z0 F600
G1 X32.502 Y43.728 Z0 F600
G1 X32.508 Y43.72 Z0 F600
G1 X32.5 Y43.66 Z0 F600
G1 X32.511 Y43.629 Z0 F600
G1 X32.507 Y43.616 Z0 F600
G1 X32.513 Y43.597 Z0 F600
G1 X32.489 Y43.519 Z0 F600
G1 Y41.923 Z0 F600
G0 Z3.5 F600
; --- FIX X Backlash ---
G0 X31.789 Y41.923 F410
G0 X31.289 Y41.42 Z3.5
G1 Z0 F600
; --- FIX X Backlash ---
G0 X31.989 Y41.42 F410
G1 X36.138 Y41.447 Z0 F600
; --- FIX Y Backlash ---
G0 X36.138 Y41.947 F410
G1 X36.219 Y42.194 Z0 F600
G1 X36.337 Y42.385 Z0 F600
G1 X36.433 Y42.477 Z0 F600
G1 X36.523 Y42.545 Z0 F600
G1 X36.647 Y42.625 Z0 F600
G1 X36.688 Y42.658 Z0 F600
G1 X36.692 Y42.677 Z0 F600
G1 X36.696 Y42.734 Z0 F600
G1 X36.689 Y42.831 Z0 F600
G1 X36.662 Y42.979 Z0 F600
; --- FIX X Backlash ---
G0 X35.962 Y42.979 F410
G1 X35.908 Y43.179 Z0 F600
G1 X35.822 Y43.434 Z0 F600
G1 X35.826 Y43.422 Z0 F600
G1 X35.821 Y43.443 Z0 F600
G1 X35.818 Y43.448 Z0 F600
G1 X35.815 Y43.459 Z0 F600
G1 Y43.465 Z0 F600
G1 X35.812 Y43.47 Z0 F600
G1 Y43.48 Z0 F600
G1 Y43.486 Z0 F600
G1 X35.809 Y43.491 Z0 F600
G1 X35.806 Y43.514 Z0 F600
G1 Y43.52 Z0 F600
G1 Y46.912 Z0 F600
G1 X35.488 Y46.92 Z0 F600
G1 X35.206 Y46.968 Z0 F600
G1 X34.966 Y47.062 Z0 F600
G1 X34.77 Y47.205 Z0 F600
G1 X34.601 Y47.43 Z0 F600
G1 X34.497 Y47.686 Z0 F600
G1 X34.445 Y47.964 Z0 F600
G1 X34.43 Y48.252 Z0 F600
G1 X34.457 Y48.832 Z0 F600
; --- FIX X Backlash ---
G0 X35.157 Y48.832 F410
G1 X35.209 Y49.42 Z0 F600
G1 X35.23 Y49.706 Z0 F600
G1 X35.238 Y49.977 Z0 F600
G1 X35.228 Y50.23 Z0 F600
G1 X35.184 Y50.52 Z0 F600
G1 X35.136 Y50.941 Z0 F600
G1 X35.153 Y51.278 Z0 F600
G1 X35.18 Y51.53 Z0 F600
G1 X35.184 Y51.6 Z0 F600
; --- FIX X Backlash ---
G0 X34.484 Y51.6 F410
G1 X34.378 Y51.592 Z0 F600
G1 X34.214 Y51.565 Z0 F600
G1 X33.993 Y51.517 Z0 F600
; --- FIX Y Backlash ---
G0 X33.993 Y51.017 F410
G1 X33.717 Y50.944 Z0 F600
G1 X33.71 Y50.94 Z0 F600
G1 X33.701 Z0 F600
G1 X33.694 Y50.937 Z0 F600
G1 X33.685 Z0 F600
G1 X33.677 Y50.934 Z0 F600
G1 X33.668 Z0 F600
G1 X33.66 Z0 F600
G1 X33.652 Z0 F600
G1 X31.217 Z0 F600
G1 X31.267 Y50.794 Z0 F600
G1 X31.289 Y50.608 Z0 F600
G1 Y49.932 Z0 F600
G1 X31.307 Y49.296 Z0 F600
G1 X31.293 Y48.647 Z0 F600
G1 X31.184 Y47.985 Z0 F600
G1 X31.175 Y47.969 Z0 F600
G1 X31.17 Y47.953 Z0 F600
G1 X31.16 Y47.94 Z0 F600
G1 X31.153 Y47.924 Z0 F600
G1 X31.14 Y47.911 Z0 F600
G1 X31.132 Y47.896 Z0 F600
G1 X31.119 Y47.885 Z0 F600
G1 X31.107 Y47.872 Z0 F600
G1 X31.092 Y47.864 Z0 F600
G1 X31.079 Y47.853 Z0 F600
G1 X31.064 Y47.846 Z0 F600
G1 X31.05 Y47.836 Z0 F600
G1 X31.033 Y47.831 Z0 F600
G1 X31.017 Y47.823 Z0 F600
G1 X30.743 Y47.773 Z0 F600
G1 X30.446 Y47.737 Z0 F600
G1 X30.115 Y47.71 Z0 F600
G1 X29.755 Y47.692 Z0 F600
G1 X28.969 Y47.676 Z0 F600
G1 X28.133 Z0 F600
G1 X26.207 Y47.694 Z0 F600
G1 X25.889 Z0 F600
G1 X25.607 Z0 F600
G1 X25.367 Y47.686 Z0 F600
G1 X25.028 Y47.689 Z0 F600
G1 X24.778 Y47.698 Z0 F600
G1 X24.562 Z0 F600
G1 X24.402 Y47.684 Z0 F600
G1 X24.348 Y47.668 Z0 F600
G1 X24.318 Y47.655 Z0 F600
G1 X24.305 Y47.644 Z0 F600
G1 X24.297 Y47.627 Z0 F600
G1 X24.29 Y47.598 Z0 F600
G1 Y47.536 Z0 F600
G1 X24.299 Y47.44 Z0 F600
G1 X24.332 Y47.307 Z0 F600
G1 X24.336 Y47.297 Z0 F600
G1 X24.34 Y47.277 Z0 F600
G1 X24.343 Y47.236 Z0 F600
G1 X24.326 Y46.744 Z0 F600
G1 Y46.542 Z0 F600
G1 X24.343 Y46.396 Z0 F600
G1 X24.359 Y46.351 Z0 F600
G1 X24.371 Y46.328 Z0 F600
G1 X24.38 Y46.319 Z0 F600
G1 X24.398 Y46.311 Z0 F600
G1 X24.43 Y46.305 Z0 F600
; --- FIX X Backlash ---
G0 X25.13 Y46.305 F410
G1 X25.194 Z0 F600
G1 X25.29 Y46.317 Z0 F600
G1 X25.458 Y46.361 Z0 F600
G1 X25.493 Y46.366 Z0 F600
G1 X31.472 Z0 F600
G1 X31.485 Z0 F600
G1 X31.499 Y46.363 Z0 F600
G1 X31.513 Z0 F600
G1 X31.526 Y46.357 Z0 F600
G1 X31.541 Z0 F600
G1 X31.567 Y46.348 Z0 F600
G1 X31.579 Y46.34 Z0 F600
G1 X31.592 Y46.335 Z0 F600
G1 X31.603 Y46.326 Z0 F600
G1 X31.616 Y46.32 Z0 F600
G1 X31.626 Y46.311 Z0 F600
G1 X31.637 Y46.304 Z0 F600
G1 X31.646 Y46.293 Z0 F600
G1 X31.657 Y46.285 Z0 F600
G1 X31.862 Y45.957 Z0 F600
G1 X31.97 Y45.616 Z0 F600
G1 X32.014 Y45.262 Z0 F600
G1 Y44.908 Z0 F600
G1 X31.996 Y44.563 Z0 F600
G1 X31.975 Y44.228 Z0 F600
G1 X31.966 Y43.913 Z0 F600
G1 X31.985 Y43.627 Z0 F600
G1 X31.988 Y43.624 Z0 F600
G1 Y43.619 Z0 F600
G1 Y43.615 Z0 F600
G1 Y43.609 Z0 F600
G1 Y43.605 Z0 F600
G1 Y43.602 Z0 F600
G1 X31.991 Y43.597 Z0 F600
G1 Y43.592 Z0 F600
G1 Y41.42 Z0 F600
G0 Z3.5 F600
; --- FIX Y Backlash ---
G0 X31.991 Y41.92 F410
G0 X39.81 Y43.088 Z3.5
G1 Z0 F600
;Layer C1 Pass 1 of 2
G1 Y43.114 Z0 F600
G1 Y43.117 Z0 F600
G1 Y43.152 Z0 F600
G1 X39.781 Y43.211 Z0 F600
G1 X39.784 Y43.22 Z0 F600
G1 X39.779 Y43.229 Z0 F600
G1 X39.812 Y43.351 Z0 F600
G1 X39.784 Y43.919 Z0 F600
G1 X39.767 Y44.616 Z0 F600
G1 X39.799 Y45.345 Z0 F600
G1 X39.916 Y46.072 Z0 F600
G1 X39.971 Y46.26 Z0 F600
; --- FIX X Backlash ---
G0 X39.271 Y46.26 F410
G1 X39.051 Y46.283 Z0 F600
G1 X38.856 Y46.321 Z0 F600
G1 X38.541 Y46.402 Z0 F600
G1 X38.337 Y46.454 Z0 F600
G1 X38.334 Y46.448 Z0 F600
; --- FIX Y Backlash ---
G0 X38.334 Y45.948 F410
G1 X38.29 Y45.75 Z0 F600
G1 X38.263 Y45.513 Z0 F600
G1 X38.259 Y45.255 Z0 F600
G1 X38.279 Y45.007 Z0 F600
; --- FIX X Backlash ---
G0 X38.979 Y45.007 F410
G1 X39.082 Y44.498 Z0 F600
G1 X39.099 Y44.202 Z0 F600
G1 X39.088 Y43.919 Z0 F600
G1 X39.062 Y43.648 Z0 F600
; --- FIX X Backlash ---
G0 X38.362 Y43.648 F410
G1 X38.297 Y43.136 Z0 F600
G1 X38.252 Y42.705 Z0 F600
G1 Y42.618 Z0 F600
; --- FIX X Backlash ---
G0 X38.952 Y42.618 F410
G1 X39.009 Y42.604 Z0 F600
G1 X39.041 Y42.616 Z0 F600
G1 X39.136 Y42.582 Z0 F600
G1 X39.392 Y42.579 Z0 F600
G1 X39.708 Y42.569 Z0 F600
G1 X39.825 Z0 F600
G1 X39.81 Y42.588 Z0 F600
G0 Z3.5 F600
G0 X45.357 Y39.892 Z3.5
G1 Z0 F600
G1 X45.353 Y39.372 Z0 F600
; --- FIX Y Backlash ---
G0 X45.353 Y39.872 F410
G1 X45.446 Y39.982 Z0 F600
G1 X45.642 Y40.112 Z0 F600
G1 X45.611 Y40.137 Z0 F600
G1 X45.568 Y40.159 Z0 F600
G1 X45.539 Y40.188 Z0 F600
G1 X45.495 Y40.216 Z0 F600
G1 X45.456 Y40.267 Z0 F600
G1 X45.418 Y40.302 Z0 F600
G1 X45.396 Y40.343 Z0 F600
G1 X45.36 Y40.385 Z0 F600
G1 X45.357 Y40.392 Z0 F600
G0 Z3.5 F600
; --- FIX X Backlash ---
G0 X44.657 Y40.392 F410
; --- FIX Y Backlash ---
G0 X44.657 Y39.892 F410
G0 X44.559 Y37.752 Z3.5
G1 Z0 F600
G1 X44.553 Y37.672 Z0 F600
G1 Y37.592 Z0 F600
G1 X44.568 Y37.519 Z0 F600
G1 X44.578 Y37.516 Z0 F600
; --- FIX X Backlash ---
G0 X45.278 Y37.516 F410
G1 X45.331 Y37.511 Z0 F600
G1 X45.378 Z0 F600
G1 X45.369 Y37.522 Z0 F600
; --- FIX Y Backlash ---
G0 X45.369 Y38.022 F410
G1 X45.341 Y38.087 Z0 F600
; --- FIX X Backlash ---
G0 X44.641 Y38.087 F410
G1 X44.559 Y38.252 Z0 F600
G0 Z3.5 F600
G0 X44.142 Y38.79 Z3.5
G1 Z0 F600
G1 Y38.783 Z0 F600
G1 Y38.776 Z0 F600
G1 Y38.77 Z0 F600
G1 X44.138 Y38.764 Z0 F600
G1 Y38.757 Z0 F600
G1 Y38.75 Z0 F600
G1 Y38.744 Z0 F600
G1 X44.134 Y38.739 Z0 F600
; --- FIX Y Backlash ---
G0 X44.134 Y38.239 F410
G1 X44.091 Y38.034 Z0 F600
G1 X44.064 Y37.851 Z0 F600
G1 X44.053 Y37.688 Z0 F600
G1 Y37.545 Z0 F600
G1 X44.095 Y37.319 Z0 F600
; --- FIX X Backlash ---
G0 X44.795 Y37.319 F410
G1 X44.873 Y37.172 Z0 F600
G1 X44.994 Y37.079 Z0 F600
G1 X45.184 Y37.022 Z0 F600
G1 X45.313 Y37.01 Z0 F600
G1 X45.465 Y37.013 Z0 F600
G1 X45.64 Y37.032 Z0 F600
G1 X45.836 Y37.067 Z0 F600
G1 X45.841 Y37.07 Z0 F600
G1 X45.848 Z0 F600
G1 X45.854 Z0 F600
G1 X45.861 Z0 F600
G1 X45.867 Y37.074 Z0 F600
G1 X45.873 Z0 F600
G1 X45.88 Z0 F600
G1 X45.887 Z0 F600
G1 X48.889 Z0 F600
; --- FIX Y Backlash ---
G0 X48.889 Y37.574 F410
G1 X48.895 Y37.754 Z0 F600
G1 Y37.916 Z0 F600
G1 X48.881 Y38.045 Z0 F600
G1 X48.859 Y38.131 Z0 F600
G1 X48.826 Y38.193 Z0 F600
; --- FIX X Backlash ---
G0 X48.126 Y38.193 F410
G1 X48.068 Y38.219 Z0 F600
G1 X48.015 Y38.228 Z0 F600
G1 X47.935 Z0 F600
G1 X47.827 Y38.213 Z0 F600
G1 X47.693 Y38.18 Z0 F600
G1 X47.686 Y38.174 Z0 F600
G1 X47.677 Z0 F600
G1 X47.669 Y38.17 Z0 F600
G1 X47.659 Z0 F600
G1 X47.651 Z0 F600
G1 X47.642 Z0 F600
G1 X47.633 Y38.166 Z0 F600
G1 X47.622 Z0 F600
G1 X45.314 Z0 F600
G1 X45.297 Z0 F600
G1 X45.28 Y38.17 Z0 F600
G1 X45.263 Z0 F600
G1 X45.247 Y38.178 Z0 F600
G1 X45.231 Y38.182 Z0 F600
G1 X45.216 Y38.19 Z0 F600
G1 X45.2 Y38.194 Z0 F600
G1 X45.187 Y38.204 Z0 F600
G1 X45.172 Y38.211 Z0 F600
G1 X45.159 Y38.223 Z0 F600
G1 X45.145 Y38.232 Z0 F600
G1 X45.134 Y38.245 Z0 F600
G1 X45.121 Y38.255 Z0 F600
G1 X45.113 Y38.27 Z0 F600
G1 X45.102 Y38.283 Z0 F600
G1 X45.095 Y38.299 Z0 F600
G1 X44.995 Y38.498 Z0 F600
G1 X44.92 Y38.685 Z0 F600
G1 X44.873 Y38.862 Z0 F600
G1 X44.853 Y39.032 Z0 F600
G1 X44.864 Y39.197 Z0 F600
G1 X44.908 Y39.35 Z0 F600
; --- FIX X Backlash ---
G0 X45.608 Y39.35 F410
G1 X45.681 Y39.487 Z0 F600
G1 X45.781 Y39.604 Z0 F600
G1 X46.026 Y39.768 Z0 F600
G1 X46.314 Y39.864 Z0 F600
G1 X46.635 Y39.91 Z0 F600
G1 X46.979 Y39.924 Z0 F600
G1 X47.709 Y39.902 Z0 F600
; --- FIX Y Backlash ---
G0 X47.709 Y39.402 F410
G1 X48.438 Y39.352 Z0 F600
G1 X48.777 Y39.335 Z0 F600
G1 X49.082 Y39.331 Z0 F600
G1 X49.335 Y39.342 Z0 F600
G1 X49.518 Y39.372 Z0 F600
G1 X49.525 Y39.375 Z0 F600
G1 X49.533 Z0 F600
G1 X49.542 Y39.379 Z0 F600
G1 X49.551 Z0 F600
G1 X49.559 Y39.382 Z0 F600
G1 X49.566 Z0 F600
G1 X49.575 Z0 F600
G1 X49.592 Z0 F600
G1 X49.6 Z0 F600
G1 X49.609 Z0 F600
G1 X49.625 Z0 F600
G1 X49.633 Y39.377 Z0 F600
G1 X49.642 Z0 F600
G1 X49.65 Y39.374 Z0 F600
G1 X49.668 Z0 F600
G1 X49.683 Y39.386 Z0 F600
G1 X49.713 Y39.428 Z0 F600
; --- FIX Y Backlash ---
G0 X49.713 Y39.928 F410
G1 X49.766 Y40.089 Z0 F600
G1 X49.781 Y40.297 Z0 F600
G1 X49.741 Y40.481 Z0 F600
; --- FIX X Backlash ---
G0 X49.041 Y40.481 F410
G1 X48.988 Y40.581 Z0 F600
G1 X48.962 Y40.601 Z0 F600
G1 X48.937 Y40.606 Z0 F600
G1 X48.884 Y40.595 Z0 F600
G1 X48.786 Y40.551 Z0 F600
G1 X48.78 Y40.547 Z0 F600
G1 X48.773 Z0 F600
G1 X48.767 Y40.541 Z0 F600
G1 X48.759 Z0 F600
G1 X48.752 Y40.535 Z0 F600
G1 X48.743 Z0 F600
G1 X48.737 Y40.53 Z0 F600
G1 X48.722 Y40.527 Z0 F600
G1 X48.714 Z0 F600
G1 X48.708 Y40.524 Z0 F600
G1 X48.693 Z0 F600
G1 X48.685 Z0 F600
G1 X48.677 Y40.521 Z0 F600
G1 X45.314 Z0 F600
G1 X45.296 Z0 F600
G1 X45.279 Y40.524 Z0 F600
G1 X45.261 Z0 F600
G1 X45.245 Y40.532 Z0 F600
G1 X45.228 Y40.535 Z0 F600
G1 X45.212 Y40.543 Z0 F600
G1 X45.196 Y40.548 Z0 F600
G1 X45.183 Y40.559 Z0 F600
G1 X45.167 Y40.567 Z0 F600
G1 X45.154 Y40.581 Z0 F600
G1 X45.139 Y40.59 Z0 F600
G1 X45.128 Y40.604 Z0 F600
G1 X45.115 Y40.616 Z0 F600
G1 X45.107 Y40.631 Z0 F600
G1 X45.095 Y40.645 Z0 F600
G1 X44.898 Y41.155 Z0 F600
G1 X44.796 Y41.672 Z0 F600
G1 X44.761 Y42.204 Z0 F600
G1 X44.769 Y42.741 Z0 F600
; --- FIX X Backlash ---
G0 X45.469 Y42.741 F410
G1 X45.522 Y43.799 Z0 F600
G1 X45.529 Y44.306 Z0 F600
G1 X45.5 Y44.759 Z0 F600
G1 X45.495 Y44.795 Z0 F600
G1 Y44.799 Z0 F600
G1 Y44.803 Z0 F600
G1 Y44.811 Z0 F600
G1 Y44.817 Z0 F600
G1 X45.508 Y45.398 Z0 F600
G1 X45.525 Y46.039 Z0 F600
G1 X45.512 Y46.679 Z0 F600
; --- FIX X Backlash ---
G0 X44.812 Y46.679 F410
G1 X44.732 Y47.262 Z0 F600
G1 X44.658 Y47.511 Z0 F600
G1 X44.56 Y47.722 Z0 F600
G1 X44.438 Y47.892 Z0 F600
G1 X44.288 Y48.02 Z0 F600
G1 X44.103 Y48.108 Z0 F600
G1 X43.865 Y48.153 Z0 F600
G1 X43.563 Y48.144 Z0 F600
; --- FIX Y Backlash ---
G0 X43.563 Y47.644 F410
G1 X43.187 Y47.567 Z0 F600
G1 X43.182 Y47.563 Z0 F600
G1 X43.175 Z0 F600
G1 X43.169 Z0 F600
G1 X43.162 Z0 F600
G1 X43.156 Y47.56 Z0 F600
G1 X43.15 Z0 F600
G1 X43.144 Z0 F600
G1 X43.136 Z0 F600
G1 X42.706 Y47.549 Z0 F600
G1 X42.273 Z0 F600
G1 X41.848 Y47.545 Z0 F600
G1 X41.443 Y47.512 Z0 F600
G1 X41.07 Y47.438 Z0 F600
G1 X40.737 Y47.307 Z0 F600
G1 X40.586 Y47.214 Z0 F600
G1 X40.445 Y47.099 Z0 F600
G1 X40.315 Y46.96 Z0 F600
G1 X40.193 Y46.795 Z0 F600
G1 X40.082 Y46.614 Z0 F600
G1 X39.949 Y46.47 Z0 F600
G1 X39.799 Y46.363 Z0 F600
G1 X39.634 Y46.295 Z0 F600
G1 X39.462 Y46.263 Z0 F600
G1 X39.291 Y46.26 Z0 F600
G1 X39.126 Y46.278 Z0 F600
G1 X38.967 Y46.309 Z0 F600
; --- FIX Y Backlash ---
G0 X38.967 Y46.809 F410
G1 X38.666 Y46.887 Z0 F600
G1 X38.398 Y46.954 Z0 F600
G1 X38.184 Y46.976 Z0 F600
G1 X38.041 Y46.952 Z0 F600
G1 X38.004 Y46.915 Z0 F600
; --- FIX Y Backlash ---
G0 X38.004 Y46.415 F410
G1 X37.967 Y46.363 Z0 F600
G1 X37.927 Y46.292 Z0 F600
G1 X37.854 Y46.089 Z0 F600
G1 X37.797 Y45.833 Z0 F600
G1 X37.763 Y45.542 Z0 F600
G1 X37.758 Y45.238 Z0 F600
G1 X37.783 Y44.937 Z0 F600
; --- FIX X Backlash ---
G0 X38.483 Y44.937 F410
G1 X38.585 Y44.433 Z0 F600
G1 X38.599 Y44.197 Z0 F600
G1 X38.589 Y43.953 Z0 F600
G1 X38.565 Y43.704 Z0 F600
; --- FIX X Backlash ---
G0 X37.865 Y43.704 F410
G1 X37.8 Y43.199 Z0 F600
G1 X37.752 Y42.731 Z0 F600
G1 X37.749 Y42.527 Z0 F600
G1 X37.764 Y42.354 Z0 F600
G1 X37.793 Y42.221 Z0 F600
G1 X37.83 Y42.137 Z0 F600
G1 X37.876 Y42.088 Z0 F600
; --- FIX X Backlash ---
G0 X38.576 Y42.088 F410
G1 X38.651 Y42.059 Z0 F600
G1 X38.786 Y42.048 Z0 F600
G1 X38.999 Y42.077 Z0 F600
G1 X39.004 Y42.08 Z0 F600
G1 X39.01 Z0 F600
G1 X39.016 Z0 F600
G1 X39.022 Z0 F600
G1 X39.028 Y42.084 Z0 F600
G1 X39.034 Z0 F600
G1 X39.041 Z0 F600
G1 X39.047 Z0 F600
G1 X39.382 Y42.079 Z0 F600
G1 X39.707 Y42.069 Z0 F600
G1 X39.995 Z0 F600
G1 X40.215 Y42.094 Z0 F600
G1 X40.293 Y42.119 Z0 F600
G1 X40.342 Y42.145 Z0 F600
G1 X40.373 Y42.174 Z0 F600
G1 X40.395 Y42.215 Z0 F600
; --- FIX Y Backlash ---
G0 X40.395 Y42.715 F410
G1 X40.408 Y42.78 Z0 F600
G1 Y42.887 Z0 F600
G1 X40.384 Y43.036 Z0 F600
; --- FIX X Backlash ---
G0 X39.684 Y43.036 F410
G1 X39.629 Y43.229 Z0 F600
G1 X39.624 Y43.237 Z0 F600
G1 Y43.247 Z0 F600
G1 X39.618 Y43.254 Z0 F600
G1 Y43.264 Z0 F600
G1 X39.614 Y43.272 Z0 F600
G1 X39.617 Y43.282 Z0 F600
G1 X39.613 Y43.29 Z0 F600
G1 Y43.299 Z0 F600
G1 X39.583 Y43.938 Z0 F600
G1 X39.567 Y44.611 Z0 F600
G1 X39.597 Y45.294 Z0 F600
; --- FIX X Backlash ---
G0 X40.297 Y45.294 F410
G1 X40.405 Y45.961 Z0 F600
G1 X40.5 Y46.282 Z0 F600
G1 X40.629 Y46.588 Z0 F600
G1 X40.796 Y46.875 Z0 F600
G1 X41.003 Y47.137 Z0 F600
G1 X41.252 Y47.37 Z0 F600
G1 X41.546 Y47.567 Z0 F600
G1 X41.888 Y47.724 Z0 F600
G1 X42.28 Y47.836 Z0 F600
G1 X42.285 Y47.84 Z0 F600
G1 X42.292 Z0 F600
G1 X42.298 Z0 F600
G1 X42.305 Z0 F600
G1 X42.311 Y47.844 Z0 F600
G1 X42.317 Z0 F600
G1 X42.324 Z0 F600
G1 X42.331 Z0 F600
G1 X42.789 Y47.856 Z0 F600
G1 X43.304 Y47.878 Z0 F600
G1 X43.836 Y47.872 Z0 F600
; --- FIX Y Backlash ---
G0 X43.836 Y47.372 F410
G1 X44.346 Y47.301 Z0 F600
G1 X44.585 Y47.228 Z0 F600
G1 X44.807 Y47.116 Z0 F600
G1 X44.997 Y46.959 Z0 F600
G1 X45.143 Y46.752 Z0 F600
G1 X45.228 Y46.507 Z0 F600
G1 X45.25 Y46.228 Z0 F600
G1 X45.211 Y45.915 Z0 F600
; --- FIX X Backlash ---
G0 X44.511 Y45.915 F410
G1 X44.416 Y45.564 Z0 F600
G1 X44.281 Y44.674 Z0 F600
G1 X44.2 Y43.78 Z0 F600
G1 X44.159 Y42.878 Z0 F600
G1 X44.147 Y41.968 Z0 F600
G1 X44.159 Y40.134 Z0 F600
G1 X44.142 Y38.29 Z0 F600
G0 Z3.5 F600
; --- FIX X Backlash ---
G0 X44.842 Y38.29 F410
; --- FIX Y Backlash ---
G0 X44.842 Y38.79 F410
G0 X45.5 Y44.76 Z3.5
G1 Z0 F600
G1 Y44.786 Z0 F600
G1 X45.496 Z0 F600
G1 X45.5 Y44.76 Z0 F600
;Layer C1 Pass 2 of 2
G0 Z3.5 F600
; --- FIX X Backlash ---
G0 X44.8 Y44.76 F410
; --- FIX Y Backlash ---
G0 X44.8 Y44.26 F410
G0 X39.11 Y42.588 Z3.5
G1 Z0 F600
G1 Y42.614 Z0 F600
G1 Y42.617 Z0 F600
G1 Y42.652 Z0 F600
; --- FIX Y Backlash ---
G0 X39.11 Y43.152 F410
G1 X39.081 Y43.211 Z0 F600
G1 X39.084 Y43.22 Z0 F600
G1 X39.079 Y43.229 Z0 F600
G1 X39.112 Y43.351 Z0 F600
G1 X39.084 Y43.919 Z0 F600
G1 X39.067 Y44.616 Z0 F600
G1 X39.099 Y45.345 Z0 F600
; --- FIX X Backlash ---
G0 X39.799 Y45.345 F410
G1 X39.916 Y46.072 Z0 F600
G1 X39.971 Y46.26 Z0 F600
; --- FIX X Backlash ---
G0 X39.271 Y46.26 F410
G1 X39.051 Y46.283 Z0 F600
G1 X38.856 Y46.321 Z0 F600
G1 X38.541 Y46.402 Z0 F600
G1 X38.337 Y46.454 Z0 F600
G1 X38.334 Y46.448 Z0 F600
; --- FIX Y Backlash ---
G0 X38.334 Y45.948 F410
G1 X38.29 Y45.75 Z0 F600
G1 X38.263 Y45.513 Z0 F600
G1 X38.259 Y45.255 Z0 F600
G1 X38.279 Y45.007 Z0 F600
; --- FIX X Backlash ---
G0 X38.979 Y45.007 F410
G1 X39.082 Y44.498 Z0 F600
G1 X39.099 Y44.202 Z0 F600
G1 X39.088 Y43.919 Z0 F600
G1 X39.062 Y43.648 Z0 F600
; --- FIX X Backlash ---
G0 X38.362 Y43.648 F410
G1 X38.297 Y43.136 Z0 F600
G1 X38.252 Y42.705 Z0 F600
G1 Y42.618 Z0 F600
; --- FIX X Backlash ---
G0 X38.952 Y42.618 F410
G1 X39.009 Y42.604 Z0 F600
G1 X39.041 Y42.616 Z0 F600
G1 X39.136 Y42.582 Z0 F600
G1 X39.392 Y42.579 Z0 F600
G1 X39.708 Y42.569 Z0 F600
G1 X39.825 Z0 F600
G1 X39.81 Y42.588 Z0 F600
G0 Z3.5 F600
G0 X45.357 Y39.892 Z3.5
G1 Z0 F600
G1 X45.353 Y39.372 Z0 F600
; --- FIX Y Backlash ---
G0 X45.353 Y39.872 F410
G1 X45.446 Y39.982 Z0 F600
G1 X45.642 Y40.112 Z0 F600
G1 X45.611 Y40.137 Z0 F600
G1 X45.568 Y40.159 Z0 F600
G1 X45.539 Y40.188 Z0 F600
G1 X45.495 Y40.216 Z0 F600
G1 X45.456 Y40.267 Z0 F600
G1 X45.418 Y40.302 Z0 F600
G1 X45.396 Y40.343 Z0 F600
G1 X45.36 Y40.385 Z0 F600
G1 X45.357 Y40.392 Z0 F600
G0 Z3.5 F600
; --- FIX X Backlash ---
G0 X44.657 Y40.392 F410
; --- FIX Y Backlash ---
G0 X44.657 Y39.892 F410
G0 X44.559 Y37.752 Z3.5
G1 Z0 F600
G1 X44.553 Y37.672 Z0 F600
G1 Y37.592 Z0 F600
G1 X44.568 Y37.519 Z0 F600
G1 X44.578 Y37.516 Z0 F600
; --- FIX X Backlash ---
G0 X45.278 Y37.516 F410
G1 X45.331 Y37.511 Z0 F600
G1 X45.378 Z0 F600
G1 X45.369 Y37.522 Z0 F600
; --- FIX Y Backlash ---
G0 X45.369 Y38.022 F410
G1 X45.341 Y38.087 Z0 F600
; --- FIX X Backlash ---
G0 X44.641 Y38.087 F410
G1 X44.559 Y38.252 Z0 F600
G0 Z3.5 F600
G0 X44.142 Y38.79 Z3.5
G1 Z0 F600
G1 Y38.783 Z0 F600
G1 Y38.776 Z0 F600
G1 Y38.77 Z0 F600
G1 X44.138 Y38.764 Z0 F600
G1 Y38.757 Z0 F600
G1 Y38.75 Z0 F600
G1 Y38.744 Z0 F600
G1 X44.134 Y38.739 Z0 F600
; --- FIX Y Backlash ---
G0 X44.134 Y38.239 F410
G1 X44.091 Y38.034 Z0 F600
G1 X44.064 Y37.851 Z0 F600
G1 X44.053 Y37.688 Z0 F600
G1 Y37.545 Z0 F600
G1 X44.095 Y37.319 Z0 F600
; --- FIX X Backlash ---
G0 X44.795 Y37.319 F410
G1 X44.873 Y37.172 Z0 F600
G1 X44.994 Y37.079 Z0 F600
G1 X45.184 Y37.022 Z0 F600
G1 X45.313 Y37.01 Z0 F600
G1 X45.465 Y37.013 Z0 F600
G1 X45.64 Y37.032 Z0 F600
G1 X45.836 Y37.067 Z0 F600
G1 X45.841 Y37.07 Z0 F600
G1 X45.848 Z0 F600
G1 X45.854 Z0 F600
G1 X45.861 Z0 F600
G1 X45.867 Y37.074 Z0 F600
G1 X45.873 Z0 F600
G1 X45.88 Z0 F600
G1 X45.887 Z0 F600
G1 X48.889 Z0 F600
; --- FIX Y Backlash ---
G0 X48.889 Y37.574 F410
G1 X48.895 Y37.754 Z0 F600
G1 Y37.916 Z0 F600
G1 X48.881 Y38.045 Z0 F600
G1 X48.859 Y38.131 Z0 F600
G1 X48.826 Y38.193 Z0 F600
; --- FIX X Backlash ---
G0 X48.126 Y38.193 F410
G1 X48.068 Y38.219 Z0 F600
G1 X48.015 Y38.228 Z0 F600
G1 X47.935 Z0 F600
G1 X47.827 Y38.213 Z0 F600
G1 X47.693 Y38.18 Z0 F600
G1 X47.686 Y38.174 Z0 F600
G1 X47.677 Z0 F600
G1 X47.669 Y38.17 Z0 F600
G1 X47.659 Z0 F600
G1 X47.651 Z0 F600
G1 X47.642 Z0 F600
G1 X47.633 Y38.166 Z0 F600
G1 X47.622 Z0 F600
G1 X45.314 Z0 F600
G1 X45.297 Z0 F600
G1 X45.28 Y38.17 Z0 F600
G1 X45.263 Z0 F600
G1 X45.247 Y38.178 Z0 F600
G1 X45.231 Y38.182 Z0 F600
G1 X45.216 Y38.19 Z0 F600
G1 X45.2 Y38.194 Z0 F600
G1 X45.187 Y38.204 Z0 F600
G1 X45.172 Y38.211 Z0 F600
G1 X45.159 Y38.223 Z0 F600
G1 X45.145 Y38.232 Z0 F600
G1 X45.134 Y38.245 Z0 F600
G1 X45.121 Y38.255 Z0 F600
G1 X45.113 Y38.27 Z0 F600
G1 X45.102 Y38.283 Z0 F600
G1 X45.095 Y38.299 Z0 F600
G1 X44.995 Y38.498 Z0 F600
G1 X44.92 Y38.685 Z0 F600
G1 X44.873 Y38.862 Z0 F600
G1 X44.853 Y39.032 Z0 F600
G1 X44.864 Y39.197 Z0 F600
G1 X44.908 Y39.35 Z0 F600
; --- FIX X Backlash ---
G0 X45.608 Y39.35 F410
G1 X45.681 Y39.487 Z0 F600
G1 X45.781 Y39.604 Z0 F600
G1 X46.026 Y39.768 Z0 F600
G1 X46.314 Y39.864 Z0 F600
G1 X46.635 Y39.91 Z0 F600
G1 X46.979 Y39.924 Z0 F600
G1 X47.709 Y39.902 Z0 F600
; --- FIX Y Backlash ---
G0 X47.709 Y39.402 F410
G1 X48.438 Y39.352 Z0 F600
G1 X48.777 Y39.335 Z0 F600
G1 X49.082 Y39.331 Z0 F600
G1 X49.335 Y39.342 Z0 F600
G1 X49.518 Y39.372 Z0 F600
G1 X49.525 Y39.375 Z0 F600
G1 X49.533 Z0 F600
G1 X49.542 Y39.379 Z0 F600
G1 X49.551 Z0 F600
G1 X49.559 Y39.382 Z0 F600
G1 X49.566 Z0 F600
G1 X49.575 Z0 F600
G1 X49.592 Z0 F600
G1 X49.6 Z0 F600
G1 X49.609 Z0 F600
G1 X49.625 Z0 F600
G1 X49.633 Y39.377 Z0 F600
G1 X49.642 Z0 F600
G1 X49.65 Y39.374 Z0 F600
G1 X49.668 Z0 F600
G1 X49.683 Y39.386 Z0 F600
G1 X49.713 Y39.428 Z0 F600
; --- FIX Y Backlash ---
G0 X49.713 Y39.928 F410
G1 X49.766 Y40.089 Z0 F600
G1 X49.781 Y40.297 Z0 F600
G1 X49.741 Y40.481 Z0 F600
; --- FIX X Backlash ---
G0 X49.041 Y40.481 F410
G1 X48.988 Y40.581 Z0 F600
G1 X48.962 Y40.601 Z0 F600
G1 X48.937 Y40.606 Z0 F600
G1 X48.884 Y40.595 Z0 F600
G1 X48.786 Y40.551 Z0 F600
G1 X48.78 Y40.547 Z0 F600
G1 X48.773 Z0 F600
G1 X48.767 Y40.541 Z0 F600
G1 X48.759 Z0 F600
G1 X48.752 Y40.535 Z0 F600
G1 X48.743 Z0 F600
G1 X48.737 Y40.53 Z0 F600
G1 X48.722 Y40.527 Z0 F600
G1 X48.714 Z0 F600
G1 X48.708 Y40.524 Z0 F600
G1 X48.693 Z0 F600
G1 X48.685 Z0 F600
G1 X48.677 Y40.521 Z0 F600
G1 X45.314 Z0 F600
G1 X45.296 Z0 F600
G1 X45.279 Y40.524 Z0 F600
G1 X45.261 Z0 F600
G1 X45.245 Y40.532 Z0 F600
G1 X45.228 Y40.535 Z0 F600
G1 X45.212 Y40.543 Z0 F600
G1 X45.196 Y40.548 Z0 F600
G1 X45.183 Y40.559 Z0 F600
G1 X45.167 Y40.567 Z0 F600
G1 X45.154 Y40.581 Z0 F600
G1 X45.139 Y40.59 Z0 F600
G1 X45.128 Y40.604 Z0 F600
G1 X45.115 Y40.616 Z0 F600
G1 X45.107 Y40.631 Z0 F600
G1 X45.095 Y40.645 Z0 F600
G1 X44.898 Y41.155 Z0 F600
G1 X44.796 Y41.672 Z0 F600
G1 X44.761 Y42.204 Z0 F600
G1 X44.769 Y42.741 Z0 F600
; --- FIX X Backlash ---
G0 X45.469 Y42.741 F410
G1 X45.522 Y43.799 Z0 F600
G1 X45.529 Y44.306 Z0 F600
G1 X45.5 Y44.759 Z0 F600
G1 X45.495 Y44.795 Z0 F600
G1 Y44.799 Z0 F600
G1 Y44.803 Z0 F600
G1 Y44.811 Z0 F600
G1 Y44.817 Z0 F600
G1 X45.508 Y45.398 Z0 F600
G1 X45.525 Y46.039 Z0 F600
G1 X45.512 Y46.679 Z0 F600
; --- FIX X Backlash ---
G0 X44.812 Y46.679 F410
G1 X44.732 Y47.262 Z0 F600
G1 X44.658 Y47.511 Z0 F600
G1 X44.56 Y47.722 Z0 F600
G1 X44.438 Y47.892 Z0 F600
G1 X44.288 Y48.02 Z0 F600
G1 X44.103 Y48.108 Z0 F600
G1 X43.865 Y48.153 Z0 F600
G1 X43.563 Y48.144 Z0 F600
; --- FIX Y Backlash ---
G0 X43.563 Y47.644 F410
G1 X43.187 Y47.567 Z0 F600
G1 X43.182 Y47.563 Z0 F600
G1 X43.175 Z0 F600
G1 X43.169 Z0 F600
G1 X43.162 Z0 F600
G1 X43.156 Y47.56 Z0 F600
G1 X43.15 Z0 F600
G1 X43.144 Z0 F600
G1 X43.136 Z0 F600
G1 X42.706 Y47.549 Z0 F600
G1 X42.273 Z0 F600
G1 X41.848 Y47.545 Z0 F600
G1 X41.443 Y47.512 Z0 F600
G1 X41.07 Y47.438 Z0 F600
G1 X40.737 Y47.307 Z0 F600
G1 X40.586 Y47.214 Z0 F600
G1 X40.445 Y47.099 Z0 F600
G1 X40.315 Y46.96 Z0 F600
G1 X40.193 Y46.795 Z0 F600
G1 X40.082 Y46.614 Z0 F600
G1 X39.949 Y46.47 Z0 F600
G1 X39.799 Y46.363 Z0 F600
G1 X39.634 Y46.295 Z0 F600
G1 X39.462 Y46.263 Z0 F600
G1 X39.291 Y46.26 Z0 F600
G1 X39.126 Y46.278 Z0 F600
G1 X38.967 Y46.309 Z0 F600
; --- FIX Y Backlash ---
G0 X38.967 Y46.809 F410
G1 X38.666 Y46.887 Z0 F600
G1 X38.398 Y46.954 Z0 F600
G1 X38.184 Y46.976 Z0 F600
G1 X38.041 Y46.952 Z0 F600
G1 X38.004 Y46.915 Z0 F600
; --- FIX Y Backlash ---
G0 X38.004 Y46.415 F410
G1 X37.967 Y46.363 Z0 F600
G1 X37.927 Y46.292 Z0 F600
G1 X37.854 Y46.089 Z0 F600
G1 X37.797 Y45.833 Z0 F600
G1 X37.763 Y45.542 Z0 F600
G1 X37.758 Y45.238 Z0 F600
G1 X37.783 Y44.937 Z0 F600
; --- FIX X Backlash ---
G0 X38.483 Y44.937 F410
G1 X38.585 Y44.433 Z0 F600
G1 X38.599 Y44.197 Z0 F600
G1 X38.589 Y43.953 Z0 F600
G1 X38.565 Y43.704 Z0 F600
; --- FIX X Backlash ---
G0 X37.865 Y43.704 F410
G1 X37.8 Y43.199 Z0 F600
G1 X37.752 Y42.731 Z0 F600
G1 X37.749 Y42.527 Z0 F600
G1 X37.764 Y42.354 Z0 F600
G1 X37.793 Y42.221 Z0 F600
G1 X37.83 Y42.137 Z0 F600
G1 X37.876 Y42.088 Z0 F600
; --- FIX X Backlash ---
G0 X38.576 Y42.088 F410
G1 X38.651 Y42.059 Z0 F600
G1 X38.786 Y42.048 Z0 F600
G1 X38.999 Y42.077 Z0 F600
G1 X39.004 Y42.08 Z0 F600
G1 X39.01 Z0 F600
G1 X39.016 Z0 F600
G1 X39.022 Z0 F600
G1 X39.028 Y42.084 Z0 F600
G1 X39.034 Z0 F600
G1 X39.041 Z0 F600
G1 X39.047 Z0 F600
G1 X39.382 Y42.079 Z0 F600
G1 X39.707 Y42.069 Z0 F600
G1 X39.995 Z0 F600
G1 X40.215 Y42.094 Z0 F600
G1 X40.293 Y42.119 Z0 F600
G1 X40.342 Y42.145 Z0 F600
G1 X40.373 Y42.174 Z0 F600
G1 X40.395 Y42.215 Z0 F600
; --- FIX Y Backlash ---
G0 X40.395 Y42.715 F410
G1 X40.408 Y42.78 Z0 F600
G1 Y42.887 Z0 F600
G1 X40.384 Y43.036 Z0 F600
; --- FIX X Backlash ---
G0 X39.684 Y43.036 F410
G1 X39.629 Y43.229 Z0 F600
G1 X39.624 Y43.237 Z0 F600
G1 Y43.247 Z0 F600
G1 X39.618 Y43.254 Z0 F600
G1 Y43.264 Z0 F600
G1 X39.614 Y43.272 Z0 F600
G1 X39.617 Y43.282 Z0 F600
G1 X39.613 Y43.29 Z0 F600
G1 Y43.299 Z0 F600
G1 X39.583 Y43.938 Z0 F600
G1 X39.567 Y44.611 Z0 F600
G1 X39.597 Y45.294 Z0 F600
; --- FIX X Backlash ---
G0 X40.297 Y45.294 F410
G1 X40.405 Y45.961 Z0 F600
G1 X40.5 Y46.282 Z0 F600
G1 X40.629 Y46.588 Z0 F600
G1 X40.796 Y46.875 Z0 F600
G1 X41.003 Y47.137 Z0 F600
G1 X41.252 Y47.37 Z0 F600
G1 X41.546 Y47.567 Z0 F600
G1 X41.888 Y47.724 Z0 F600
G1 X42.28 Y47.836 Z0 F600
G1 X42.285 Y47.84 Z0 F600
G1 X42.292 Z0 F600
G1 X42.298 Z0 F600
G1 X42.305 Z0 F600
G1 X42.311 Y47.844 Z0 F600
G1 X42.317 Z0 F600
G1 X42.324 Z0 F600
G1 X42.331 Z0 F600
G1 X42.789 Y47.856 Z0 F600
G1 X43.304 Y47.878 Z0 F600
G1 X43.836 Y47.872 Z0 F600
; --- FIX Y Backlash ---
G0 X43.836 Y47.372 F410
G1 X44.346 Y47.301 Z0 F600
G1 X44.585 Y47.228 Z0 F600
G1 X44.807 Y47.116 Z0 F600
G1 X44.997 Y46.959 Z0 F600
G1 X45.143 Y46.752 Z0 F600
G1 X45.228 Y46.507 Z0 F600
G1 X45.25 Y46.228 Z0 F600
G1 X45.211 Y45.915 Z0 F600
; --- FIX X Backlash ---
G0 X44.511 Y45.915 F410
G1 X44.416 Y45.564 Z0 F600
G1 X44.281 Y44.674 Z0 F600
G1 X44.2 Y43.78 Z0 F600
G1 X44.159 Y42.878 Z0 F600
G1 X44.147 Y41.968 Z0 F600
G1 X44.159 Y40.134 Z0 F600
G1 X44.142 Y38.29 Z0 F600
G0 Z3.5 F600
; --- FIX X Backlash ---
G0 X44.842 Y38.29 F410
; --- FIX Y Backlash ---
G0 X44.842 Y38.79 F410
G0 X45.5 Y44.76 Z3.5
G1 Z0 F600
G1 Y44.786 Z0 F600
G1 X45.496 Z0 F600
G1 X45.5 Y44.76 Z0 F600
G0 Z3.5 F600
; --- FIX Y Backlash ---
G0 X45.5 Y44.26 F410
G0 X47.796 Y41.841 Z3.5
G1 Z0 F600
;Layer C1 Pass 1 of 2
G1 X47.936 Y41.864 Z0 F600
; --- FIX Y Backlash ---
G0 X47.936 Y42.364 F410
G1 X47.966 Y42.696 Z0 F600
G1 X47.958 Y43.033 Z0 F600
G1 X47.923 Y43.373 Z0 F600
G1 X47.874 Y43.717 Z0 F600
; --- FIX X Backlash ---
G0 X47.174 Y43.717 F410
G1 X47.078 Y44.415 Z0 F600
G1 X47.064 Y45.124 Z0 F600
G1 X47.08 Y45.397 Z0 F600
G1 X47.088 Y45.72 Z0 F600
G1 Y46.067 Z0 F600
G1 X47.077 Y46.414 Z0 F600
G1 X47.057 Y46.736 Z0 F600
G1 X47.025 Y47.009 Z0 F600
G1 X46.981 Y47.208 Z0 F600
G1 X46.924 Y47.308 Z0 F600
G1 X46.877 Y47.312 Z0 F600
; --- FIX Y Backlash ---
G0 X46.877 Y46.812 F410
G1 X46.839 Y46.76 Z0 F600
G1 X46.809 Y46.658 Z0 F600
G1 X46.786 Y46.512 Z0 F600
G1 X46.77 Y46.329 Z0 F600
G1 X46.759 Y46.114 Z0 F600
G1 X46.754 Y45.875 Z0 F600
G1 Y45.616 Z0 F600
G1 X46.757 Y45.069 Z0 F600
G1 X46.775 Y44.267 Z0 F600
G1 X46.782 Y43.816 Z0 F600
G1 Y43.635 Z0 F600
G1 X46.752 Y43.234 Z0 F600
G1 X46.66 Y42.601 Z0 F600
G1 X46.64 Y42.413 Z0 F600
G1 X46.636 Y42.249 Z0 F600
G1 X46.654 Y42.116 Z0 F600
G1 X46.687 Y42.015 Z0 F600
G1 X46.725 Y41.941 Z0 F600
G1 X46.772 Y41.889 Z0 F600
; --- FIX X Backlash ---
G0 X47.472 Y41.889 F410
G1 X47.53 Y41.852 Z0 F600
G1 X47.589 Y41.837 Z0 F600
G1 X47.679 Y41.833 Z0 F600
G1 X47.796 Y41.841 Z0 F600
;Layer C1 Pass 2 of 2
G1 X47.936 Y41.864 Z0 F600
; --- FIX Y Backlash ---
G0 X47.936 Y42.364 F410
G1 X47.966 Y42.696 Z0 F600
G1 X47.958 Y43.033 Z0 F600
G1 X47.923 Y43.373 Z0 F600
G1 X47.874 Y43.717 Z0 F600
; --- FIX X Backlash ---
G0 X47.174 Y43.717 F410
G1 X47.078 Y44.415 Z0 F600
G1 X47.064 Y45.124 Z0 F600
G1 X47.08 Y45.397 Z0 F600
G1 X47.088 Y45.72 Z0 F600
G1 Y46.067 Z0 F600
G1 X47.077 Y46.414 Z0 F600
G1 X47.057 Y46.736 Z0 F600
G1 X47.025 Y47.009 Z0 F600
G1 X46.981 Y47.208 Z0 F600
G1 X46.924 Y47.308 Z0 F600
G1 X46.877 Y47.312 Z0 F600
; --- FIX Y Backlash ---
G0 X46.877 Y46.812 F410
G1 X46.839 Y46.76 Z0 F600
G1 X46.809 Y46.658 Z0 F600
G1 X46.786 Y46.512 Z0 F600
G1 X46.77 Y46.329 Z0 F600
G1 X46.759 Y46.114 Z0 F600
G1 X46.754 Y45.875 Z0 F600
G1 Y45.616 Z0 F600
G1 X46.757 Y45.069 Z0 F600
G1 X46.775 Y44.267 Z0 F600
G1 X46.782 Y43.816 Z0 F600
G1 Y43.635 Z0 F600
G1 X46.752 Y43.234 Z0 F600
G1 X46.66 Y42.601 Z0 F600
G1 X46.64 Y42.413 Z0 F600
G1 X46.636 Y42.249 Z0 F600
G1 X46.654 Y42.116 Z0 F600
G1 X46.687 Y42.015 Z0 F600
G1 X46.725 Y41.941 Z0 F600
G1 X46.772 Y41.889 Z0 F600
; --- FIX X Backlash ---
G0 X47.472 Y41.889 F410
G1 X47.53 Y41.852 Z0 F600
G1 X47.589 Y41.837 Z0 F600
G1 X47.679 Y41.833 Z0 F600
G1 X47.796 Y41.841 Z0 F600
G0 Z3.5 F600
; --- FIX X Backlash ---
G0 X47.096 Y41.841 F410
G0 X41.758 Y40.058 Z3.5
G1 Z0 F600
;Layer C1 Pass 1 of 2
G1 X41.597 Y39.879 Z0 F600
G1 X41.4 Y39.741 Z0 F600
G1 X41.443 Y39.729 Z0 F600
; --- FIX X Backlash ---
G0 X42.143 Y39.729 F410
G1 X42.462 Y39.554 Z0 F600
; --- FIX Y Backlash ---
G0 X42.462 Y40.054 F410
G1 X42.458 Y40.558 Z0 F600
G0 Z3.5 F600
; --- FIX Y Backlash ---
G0 X42.458 Y40.058 F410
G0 X42.478 Y37.576 Z3.5
G1 Z0 F600
; --- FIX X Backlash ---
G0 X41.778 Y37.576 F410
G1 X41.59 Y37.406 Z0 F600
G1 X41.519 Y37.361 Z0 F600
; --- FIX X Backlash ---
G0 X42.219 Y37.361 F410
G1 X42.369 Y37.259 Z0 F600
G1 X42.474 Y37.151 Z0 F600
G1 X42.48 Y37.189 Z0 F600
; --- FIX Y Backlash ---
G0 X42.48 Y37.689 F410
G1 Y38.076 Z0 F600
G0 Z3.5 F600
; --- FIX Y Backlash ---
G0 X42.48 Y37.576 F410
G0 X42.843 Y34.998 Z3.5
G1 Z0 F600
G1 Y34.895 Z0 F600
G1 X42.908 Y34.916 Z0 F600
; --- FIX X Backlash ---
G0 X42.208 Y34.916 F410
; --- FIX Y Backlash ---
G0 X42.208 Y35.416 F410
G1 X42.143 Y35.498 Z0 F600
G0 Z3.5 F600
G0 X41.676 Y36.207 Z3.5
G1 Z0 F600
; --- FIX Y Backlash ---
G0 X41.676 Y35.707 F410
G1 X41.658 Y35.393 Z0 F600
G1 X41.643 Y35.092 Z0 F600
G1 Y34.819 Z0 F600
G1 X41.661 Y34.596 Z0 F600
G1 X41.7 Y34.45 Z0 F600
G1 X41.727 Y34.404 Z0 F600
G1 X41.751 Y34.377 Z0 F600
G1 X41.783 Y34.36 Z0 F600
; --- FIX X Backlash ---
G0 X42.483 Y34.36 F410
G1 X42.537 Y34.346 Z0 F600
G1 X42.619 Y34.341 Z0 F600
G1 X42.735 Y34.352 Z0 F600
G1 X42.885 Y34.384 Z0 F600
; --- FIX Y Backlash ---
G0 X42.885 Y34.884 F410
G1 X43.068 Y34.942 Z0 F600
G1 X43.055 Y34.937 Z0 F600
G1 X43.086 Y34.948 Z0 F600
G1 X43.127 Y34.956 Z0 F600
G1 X43.139 Z0 F600
G1 X43.144 Z0 F600
G1 X43.932 Y34.962 Z0 F600
G1 X44.805 Y34.948 Z0 F600
G1 X45.739 Y34.919 Z0 F600
G1 X46.704 Y34.883 Z0 F600
G1 X47.67 Y34.845 Z0 F600
G1 X48.608 Y34.811 Z0 F600
G1 X49.489 Y34.786 Z0 F600
G1 X50.282 Y34.776 Z0 F600
G1 X50.306 Y35.027 Z0 F600
G1 X50.284 Y35.208 Z0 F600
G1 X50.244 Y35.298 Z0 F600
; --- FIX X Backlash ---
G0 X49.544 Y35.298 F410
G1 X49.488 Y35.373 Z0 F600
G1 X49.414 Y35.438 Z0 F600
G1 X49.318 Y35.495 Z0 F600
G1 X49.057 Y35.583 Z0 F600
G1 X48.714 Y35.634 Z0 F600
G1 X48.308 Y35.648 Z0 F600
G1 X47.857 Y35.629 Z0 F600
; --- FIX Y Backlash ---
G0 X47.857 Y35.129 F410
G1 X46.887 Y35.023 Z0 F600
G1 X45.924 Y34.895 Z0 F600
G1 X45.519 Y34.852 Z0 F600
G1 X45.148 Y34.83 Z0 F600
G1 X44.812 Y34.842 Z0 F600
; --- FIX Y Backlash ---
G0 X44.812 Y35.342 F410
G1 X44.511 Y35.399 Z0 F600
; --- FIX Y Backlash ---
G0 X44.511 Y34.899 F410
G1 X44.208 Y34.834 Z0 F600
G1 X43.921 Y34.8 Z0 F600
G1 X43.649 Y34.797 Z0 F600
G1 X43.396 Y34.824 Z0 F600
; --- FIX Y Backlash ---
G0 X43.396 Y35.324 F410
G1 X43.161 Y35.381 Z0 F600
G1 X42.948 Y35.47 Z0 F600
G1 X42.758 Y35.588 Z0 F600
G1 X42.592 Y35.737 Z0 F600
G1 X42.453 Y35.911 Z0 F600
G1 X42.345 Y36.107 Z0 F600
G1 X42.266 Y36.323 Z0 F600
G1 X42.215 Y36.557 Z0 F600
G1 X42.192 Y36.807 Z0 F600
G1 X42.195 Y37.072 Z0 F600
G1 X42.225 Y37.351 Z0 F600
; --- FIX X Backlash ---
G0 X42.925 Y37.351 F410
G1 X42.981 Y37.643 Z0 F600
G1 X42.953 Y41.353 Z0 F600
G1 X42.918 Y45.061 Z0 F600
; --- FIX X Backlash ---
G0 X42.218 Y45.061 F410
G1 X42.016 Y45.079 Z0 F600
G1 X41.869 Y45.084 Z0 F600
; --- FIX Y Backlash ---
G0 X41.869 Y44.584 F410
G1 X41.775 Y44.513 Z0 F600
G1 X41.707 Y44.411 Z0 F600
G1 X41.702 Y44.189 Z0 F600
G1 X41.707 Y43.875 Z0 F600
G1 Y43.867 Z0 F600
G1 Y43.858 Z0 F600
G1 Y43.848 Z0 F600
G1 X41.703 Y43.838 Z0 F600
G1 Y43.829 Z0 F600
G1 Y43.821 Z0 F600
G1 Y43.811 Z0 F600
G1 X41.695 Y43.803 Z0 F600
G1 X41.639 Y43.415 Z0 F600
G1 X41.645 Y42.951 Z0 F600
; --- FIX X Backlash ---
G0 X42.345 Y42.951 F410
G1 X42.422 Y41.915 Z0 F600
G1 X42.432 Y41.654 Z0 F600
G1 X42.428 Y41.396 Z0 F600
G1 X42.403 Y41.145 Z0 F600
; --- FIX X Backlash ---
G0 X41.703 Y41.145 F410
G1 X41.652 Y40.901 Z0 F600
G1 X41.566 Y40.666 Z0 F600
G1 X41.438 Y40.448 Z0 F600
G1 X41.264 Y40.257 Z0 F600
G1 X41.036 Y40.097 Z0 F600
G1 X41.031 Z0 F600
G1 X41.025 Y40.092 Z0 F600
G1 X41.013 Y40.087 Z0 F600
G1 X41.008 Z0 F600
G1 X41.003 Y40.083 Z0 F600
G1 X40.98 Y40.077 Z0 F600
G1 X40.974 Z0 F600
G1 X40.967 Z0 F600
G1 X40.961 Z0 F600
G1 X40.955 Y40.073 Z0 F600
G1 X40.425 Y40.043 Z0 F600
G1 X39.947 Y40.055 Z0 F600
; --- FIX Y Backlash ---
G0 X39.947 Y40.555 F410
G1 X39.123 Y40.612 Z0 F600
G1 X38.808 Z0 F600
G1 X38.519 Y40.574 Z0 F600
; --- FIX Y Backlash ---
G0 X38.519 Y40.074 F410
G1 X38.247 Y39.99 Z0 F600
G1 X37.98 Y39.85 Z0 F600
G1 X38.007 Y39.677 Z0 F600
G1 X38.046 Y39.544 Z0 F600
G1 X38.093 Y39.45 Z0 F600
; --- FIX X Backlash ---
G0 X38.793 Y39.45 F410
G1 X38.846 Y39.391 Z0 F600
G1 X38.933 Y39.346 Z0 F600
G1 X39.052 Y39.316 Z0 F600
G1 X39.203 Y39.304 Z0 F600
G1 X39.383 Y39.309 Z0 F600
; --- FIX Y Backlash ---
G0 X39.383 Y39.809 F410
G1 X39.81 Y39.862 Z0 F600
G1 X40.301 Y39.926 Z0 F600
G1 X40.563 Y39.944 Z0 F600
G1 X40.832 Z0 F600
G1 X41.104 Y39.917 Z0 F600
; --- FIX Y Backlash ---
G0 X41.104 Y39.417 F410
G1 X41.377 Y39.358 Z0 F600
G1 X41.691 Y39.333 Z0 F600
G1 X41.956 Y39.262 Z0 F600
G1 X42.168 Y39.145 Z0 F600
G1 X42.325 Y38.979 Z0 F600
G1 X42.415 Y38.769 Z0 F600
G1 X42.43 Y38.547 Z0 F600
G1 X42.382 Y38.33 Z0 F600
; --- FIX X Backlash ---
G0 X41.682 Y38.33 F410
G1 X41.583 Y38.127 Z0 F600
G1 X41.451 Y37.956 Z0 F600
G1 X41.285 Y37.805 Z0 F600
G1 X41.091 Y37.681 Z0 F600
G1 X40.871 Y37.589 Z0 F600
G1 X40.633 Y37.536 Z0 F600
G1 X40.38 Y37.526 Z0 F600
G1 X40.118 Y37.566 Z0 F600
; --- FIX Y Backlash ---
G0 X40.118 Y38.066 F410
G1 X39.851 Y38.163 Z0 F600
; --- FIX Y Backlash ---
G0 X39.851 Y37.663 F410
G1 X39.441 Y37.611 Z0 F600
G1 X39.055 Y37.628 Z0 F600
G1 X38.709 Y37.677 Z0 F600
G1 X38.415 Y37.721 Z0 F600
G1 X38.289 Y37.729 Z0 F600
G1 X38.186 Y37.726 Z0 F600
G1 X38.107 Y37.712 Z0 F600
G1 X38.052 Y37.69 Z0 F600
G1 X38.01 Y37.654 Z0 F600
G1 X37.969 Y37.591 Z0 F600
G1 X37.931 Y37.494 Z0 F600
G1 X37.9 Y37.352 Z0 F600
G1 X37.927 Y37.178 Z0 F600
G1 X37.967 Y37.063 Z0 F600
G1 X38.013 Y36.992 Z0 F600
; --- FIX X Backlash ---
G0 X38.713 Y36.992 F410
G1 X38.768 Y36.95 Z0 F600
G1 X38.844 Y36.923 Z0 F600
G1 X38.953 Y36.909 Z0 F600
G1 X39.093 Z0 F600
G1 X39.258 Y36.924 Z0 F600
; --- FIX Y Backlash ---
G0 X39.258 Y37.424 F410
G1 X39.63 Y37.486 Z0 F600
G1 X40.054 Y37.55 Z0 F600
G1 X40.51 Y37.567 Z0 F600
; --- FIX Y Backlash ---
G0 X40.51 Y37.067 F410
G1 X40.981 Y36.991 Z0 F600
G1 X41.195 Y37.038 Z0 F600
G1 X41.392 Y37.063 Z0 F600
G1 X41.574 Z0 F600
G1 X41.743 Y37.034 Z0 F600
G1 X41.906 Y36.97 Z0 F600
G1 X42.045 Y36.875 Z0 F600
G1 X42.159 Y36.757 Z0 F600
G1 X42.245 Y36.622 Z0 F600
G1 X42.343 Y36.331 Z0 F600
G1 X42.379 Y36.023 Z0 F600
G1 X42.376 Y35.707 Z0 F600
;Layer C1 Pass 2 of 2
G0 Z3.5 F600
; --- FIX Y Backlash ---
G0 X42.376 Y36.207 F410
G0 X42.458 Y40.558 Z3.5
G1 Z0 F600
; --- FIX X Backlash ---
G0 X41.758 Y40.558 F410
; --- FIX Y Backlash ---
G0 X41.758 Y40.058 F410
G1 X41.597 Y39.879 Z0 F600
G1 X41.4 Y39.741 Z0 F600
G1 X41.443 Y39.729 Z0 F600
; --- FIX X Backlash ---
G0 X42.143 Y39.729 F410
G1 X42.462 Y39.554 Z0 F600
; --- FIX Y Backlash ---
G0 X42.462 Y40.054 F410
G1 X42.458 Y40.558 Z0 F600
G0 Z3.5 F600
; --- FIX Y Backlash ---
G0 X42.458 Y40.058 F410
G0 X42.478 Y37.576 Z3.5
G1 Z0 F600
; --- FIX X Backlash ---
G0 X41.778 Y37.576 F410
G1 X41.59 Y37.406 Z0 F600
G1 X41.519 Y37.361 Z0 F600
; --- FIX X Backlash ---
G0 X42.219 Y37.361 F410
G1 X42.369 Y37.259 Z0 F600
G1 X42.474 Y37.151 Z0 F600
G1 X42.48 Y37.189 Z0 F600
; --- FIX Y Backlash ---
G0 X42.48 Y37.689 F410
G1 Y38.076 Z0 F600
G0 Z3.5 F600
; --- FIX Y Backlash ---
G0 X42.48 Y37.576 F410
G0 X42.843 Y34.998 Z3.5
G1 Z0 F600
G1 Y34.895 Z0 F600
G1 X42.908 Y34.916 Z0 F600
; --- FIX X Backlash ---
G0 X42.208 Y34.916 F410
; --- FIX Y Backlash ---
G0 X42.208 Y35.416 F410
G1 X42.143 Y35.498 Z0 F600
G0 Z3.5 F600
G0 X41.676 Y36.207 Z3.5
G1 Z0 F600
; --- FIX Y Backlash ---
G0 X41.676 Y35.707 F410
G1 X41.658 Y35.393 Z0 F600
G1 X41.643 Y35.092 Z0 F600
G1 Y34.819 Z0 F600
G1 X41.661 Y34.596 Z0 F600
G1 X41.7 Y34.45 Z0 F600
G1 X41.727 Y34.404 Z0 F600
G1 X41.751 Y34.377 Z0 F600
G1 X41.783 Y34.36 Z0 F600
; --- FIX X Backlash ---
G0 X42.483 Y34.36 F410
G1 X42.537 Y34.346 Z0 F600
G1 X42.619 Y34.341 Z0 F600
G1 X42.735 Y34.352 Z0 F600
G1 X42.885 Y34.384 Z0 F600
; --- FIX Y Backlash ---
G0 X42.885 Y34.884 F410
G1 X43.068 Y34.942 Z0 F600
G1 X43.055 Y34.937 Z0 F600
G1 X43.086 Y34.948 Z0 F600
G1 X43.127 Y34.956 Z0 F600
G1 X43.139 Z0 F600
G1 X43.144 Z0 F600
G1 X43.932 Y34.962 Z0 F600
G1 X44.805 Y34.948 Z0 F600
G1 X45.739 Y34.919 Z0 F600
G1 X46.704 Y34.883 Z0 F600
G1 X47.67 Y34.845 Z0 F600
G1 X48.608 Y34.811 Z0 F600
G1 X49.489 Y34.786 Z0 F600
G1 X50.282 Y34.776 Z0 F600
G1 X50.306 Y35.027 Z0 F600
G1 X50.284 Y35.208 Z0 F600
G1 X50.244 Y35.298 Z0 F600
; --- FIX X Backlash ---
G0 X49.544 Y35.298 F410
G1 X49.488 Y35.373 Z0 F600
G1 X49.414 Y35.438 Z0 F600
G1 X49.318 Y35.495 Z0 F600
G1 X49.057 Y35.583 Z0 F600
G1 X48.714 Y35.634 Z0 F600
G1 X48.308 Y35.648 Z0 F600
G1 X47.857 Y35.629 Z0 F600
; --- FIX Y Backlash ---
G0 X47.857 Y35.129 F410
G1 X46.887 Y35.023 Z0 F600
G1 X45.924 Y34.895 Z0 F600
G1 X45.519 Y34.852 Z0 F600
G1 X45.148 Y34.83 Z0 F600
G1 X44.812 Y34.842 Z0 F600
; --- FIX Y Backlash ---
G0 X44.812 Y35.342 F410
G1 X44.511 Y35.399 Z0 F600
; --- FIX Y Backlash ---
G0 X44.511 Y34.899 F410
G1 X44.208 Y34.834 Z0 F600
G1 X43.921 Y34.8 Z0 F600
G1 X43.649 Y34.797 Z0 F600
G1 X43.396 Y34.824 Z0 F600
; --- FIX Y Backlash ---
G0 X43.396 Y35.324 F410
G1 X43.161 Y35.381 Z0 F600
G1 X42.948 Y35.47 Z0 F600
G1 X42.758 Y35.588 Z0 F600
G1 X42.592 Y35.737 Z0 F600
G1 X42.453 Y35.911 Z0 F600
G1 X42.345 Y36.107 Z0 F600
G1 X42.266 Y36.323 Z0 F600
G1 X42.215 Y36.557 Z0 F600
G1 X42.192 Y36.807 Z0 F600
G1 X42.195 Y37.072 Z0 F600
G1 X42.225 Y37.351 Z0 F600
; --- FIX X Backlash ---
G0 X42.925 Y37.351 F410
G1 X42.981 Y37.643 Z0 F600
G1 X42.953 Y41.353 Z0 F600
G1 X42.918 Y45.061 Z0 F600
; --- FIX X Backlash ---
G0 X42.218 Y45.061 F410
G1 X42.016 Y45.079 Z0 F600
G1 X41.869 Y45.084 Z0 F600
; --- FIX Y Backlash ---
G0 X41.869 Y44.584 F410
G1 X41.775 Y44.513 Z0 F600
G1 X41.707 Y44.411 Z0 F600
G1 X41.702 Y44.189 Z0 F600
G1 X41.707 Y43.875 Z0 F600
G1 Y43.867 Z0 F600
G1 Y43.858 Z0 F600
G1 Y43.848 Z0 F600
G1 X41.703 Y43.838 Z0 F600
G1 Y43.829 Z0 F600
G1 Y43.821 Z0 F600
G1 Y43.811 Z0 F600
G1 X41.695 Y43.803 Z0 F600
G1 X41.639 Y43.415 Z0 F600
G1 X41.645 Y42.951 Z0 F600
; --- FIX X Backlash ---
G0 X42.345 Y42.951 F410
G1 X42.422 Y41.915 Z0 F600
G1 X42.432 Y41.654 Z0 F600
G1 X42.428 Y41.396 Z0 F600
G1 X42.403 Y41.145 Z0 F600
; --- FIX X Backlash ---
G0 X41.703 Y41.145 F410
G1 X41.652 Y40.901 Z0 F600
G1 X41.566 Y40.666 Z0 F600
G1 X41.438 Y40.448 Z0 F600
G1 X41.264 Y40.257 Z0 F600
G1 X41.036 Y40.097 Z0 F600
G1 X41.031 Z0 F600
G1 X41.025 Y40.092 Z0 F600
G1 X41.013 Y40.087 Z0 F600
G1 X41.008 Z0 F600
G1 X41.003 Y40.083 Z0 F600
G1 X40.98 Y40.077 Z0 F600
G1 X40.974 Z0 F600
G1 X40.967 Z0 F600
G1 X40.961 Z0 F600
G1 X40.955 Y40.073 Z0 F600
G1 X40.425 Y40.043 Z0 F600
G1 X39.947 Y40.055 Z0 F600
; --- FIX Y Backlash ---
G0 X39.947 Y40.555 F410
G1 X39.123 Y40.612 Z0 F600
G1 X38.808 Z0 F600
G1 X38.519 Y40.574 Z0 F600
; --- FIX Y Backlash ---
G0 X38.519 Y40.074 F410
G1 X38.247 Y39.99 Z0 F600
G1 X37.98 Y39.85 Z0 F600
G1 X38.007 Y39.677 Z0 F600
G1 X38.046 Y39.544 Z0 F600
G1 X38.093 Y39.45 Z0 F600
; --- FIX X Backlash ---
G0 X38.793 Y39.45 F410
G1 X38.846 Y39.391 Z0 F600
G1 X38.933 Y39.346 Z0 F600
G1 X39.052 Y39.316 Z0 F600
G1 X39.203 Y39.304 Z0 F600
G1 X39.383 Y39.309 Z0 F600
; --- FIX Y Backlash ---
G0 X39.383 Y39.809 F410
G1 X39.81 Y39.862 Z0 F600
G1 X40.301 Y39.926 Z0 F600
G1 X40.563 Y39.944 Z0 F600
G1 X40.832 Z0 F600
G1 X41.104 Y39.917 Z0 F600
; --- FIX Y Backlash ---
G0 X41.104 Y39.417 F410
G1 X41.377 Y39.358 Z0 F600
G1 X41.691 Y39.333 Z0 F600
G1 X41.956 Y39.262 Z0 F600
G1 X42.168 Y39.145 Z0 F600
G1 X42.325 Y38.979 Z0 F600
G1 X42.415 Y38.769 Z0 F600
G1 X42.43 Y38.547 Z0 F600
G1 X42.382 Y38.33 Z0 F600
; --- FIX X Backlash ---
G0 X41.682 Y38.33 F410
G1 X41.583 Y38.127 Z0 F600
G1 X41.451 Y37.956 Z0 F600
G1 X41.285 Y37.805 Z0 F600
G1 X41.091 Y37.681 Z0 F600
G1 X40.871 Y37.589 Z0 F600
G1 X40.633 Y37.536 Z0 F600
G1 X40.38 Y37.526 Z0 F600
G1 X40.118 Y37.566 Z0 F600
; --- FIX Y Backlash ---
G0 X40.118 Y38.066 F410
G1 X39.851 Y38.163 Z0 F600
; --- FIX Y Backlash ---
G0 X39.851 Y37.663 F410
G1 X39.441 Y37.611 Z0 F600
G1 X39.055 Y37.628 Z0 F600
G1 X38.709 Y37.677 Z0 F600
G1 X38.415 Y37.721 Z0 F600
G1 X38.289 Y37.729 Z0 F600
G1 X38.186 Y37.726 Z0 F600
G1 X38.107 Y37.712 Z0 F600
G1 X38.052 Y37.69 Z0 F600
G1 X38.01 Y37.654 Z0 F600
G1 X37.969 Y37.591 Z0 F600
G1 X37.931 Y37.494 Z0 F600
G1 X37.9 Y37.352 Z0 F600
G1 X37.927 Y37.178 Z0 F600
G1 X37.967 Y37.063 Z0 F600
G1 X38.013 Y36.992 Z0 F600
; --- FIX X Backlash ---
G0 X38.713 Y36.992 F410
G1 X38.768 Y36.95 Z0 F600
G1 X38.844 Y36.923 Z0 F600
G1 X38.953 Y36.909 Z0 F600
G1 X39.093 Z0 F600
G1 X39.258 Y36.924 Z0 F600
; --- FIX Y Backlash ---
G0 X39.258 Y37.424 F410
G1 X39.63 Y37.486 Z0 F600
G1 X40.054 Y37.55 Z0 F600
G1 X40.51 Y37.567 Z0 F600
; --- FIX Y Backlash ---
G0 X40.51 Y37.067 F410
G1 X40.981 Y36.991 Z0 F600
G1 X41.195 Y37.038 Z0 F600
G1 X41.392 Y37.063 Z0 F600
G1 X41.574 Z0 F600
G1 X41.743 Y37.034 Z0 F600
G1 X41.906 Y36.97 Z0 F600
G1 X42.045 Y36.875 Z0 F600
G1 X42.159 Y36.757 Z0 F600
G1 X42.245 Y36.622 Z0 F600
G1 X42.343 Y36.331 Z0 F600
G1 X42.379 Y36.023 Z0 F600
G1 X42.376 Y35.707 Z0 F600
G0 Z3.5 F600
G0 X57.352 Y33.861 Z3.5
G1 Z0 F600
;Layer C1 Pass 1 of 2
; --- FIX X Backlash ---
G0 X56.652 Y33.861 F410
G1 X53.518 Y33.781 Z0 F600
G1 X53.334 Y33.73 Z0 F600
; --- FIX X Backlash ---
G0 X54.034 Y33.73 F410
G1 X54.087 Y33.49 Z0 F600
G1 X54.214 Y33.004 Z0 F600
G1 X57.352 Z0 F600
; --- FIX Y Backlash ---
G0 X57.352 Y33.504 F410
G1 Y34.361 Z0 F600
G0 Z3.5 F600
G0 X57.852 Y34.874 Z3.5
G1 Z0 F600
; --- FIX X Backlash ---
G0 X57.152 Y34.874 F410
; --- FIX Y Backlash ---
G0 X57.152 Y34.374 F410
G1 X53.443 Y34.279 Z0 F600
G1 X53.308 Y34.242 Z0 F600
G1 X53.29 Y34.251 Z0 F600
G1 X53.286 Z0 F600
G1 X53.276 Y34.254 Z0 F600
G1 X53.255 Y34.25 Z0 F600
G1 X53.213 Y34.271 Z0 F600
G1 X53.136 Y34.264 Z0 F600
; --- FIX Y Backlash ---
G0 X53.136 Y34.764 F410
G1 X53.049 Y34.84 Z0 F600
G1 X52.808 Y34.91 Z0 F600
; --- FIX Y Backlash ---
G0 X52.808 Y34.41 F410
G1 Y33.791 Z0 F600
; --- FIX X Backlash ---
G0 X53.508 Y33.791 F410
G1 X53.603 Y33.364 Z0 F600
G1 X53.743 Y32.829 Z0 F600
G1 X53.823 Y32.599 Z0 F600
G1 X53.867 Y32.504 Z0 F600
G1 X57.852 Z0 F600
; --- FIX Y Backlash ---
G0 X57.852 Y33.004 F410
G1 Y34.874 Z0 F600
G0 Z3.5 F600
G0 X58.352 Y35.387 Z3.5
G1 Z0 F600
; --- FIX X Backlash ---
G0 X57.652 Y35.387 F410
; --- FIX Y Backlash ---
G0 X57.652 Y34.887 F410
G1 X53.369 Y34.778 Z0 F600
G1 X53.36 Y34.775 Z0 F600
G1 X53.351 Y34.78 Z0 F600
G1 X53.341 Y34.777 Z0 F600
G1 X53.332 Y34.782 Z0 F600
G1 X53.321 Y34.779 Z0 F600
G1 X53.312 Y34.784 Z0 F600
G1 X53.302 Z0 F600
