;LightBurn 1.6.04
;Custom GCode device profile, absolute coords
;Bounds: X23.22 Y34 to X113.47 Y121
G00 G17 G40 G21 G54
G90
M3
G1 Z10 F1000
;Image @ 1500 mm/min, 80% power

M8
G0 Z3.5 F1000
G0 X34.219 Y33.999 Z3.5 
G1 Z0 F1000
;Layer C01
G91
G0 X0.625 Z2 S0 F1500
G0 X1 Z2 S800 
G0 X3 Z2 S0 
G0 X17 Z2 S800 
G0 X7 Z2 S0 
G0 X1 Z2 S800 
G0 X0.625 Z2 S0 
G0 X31 Y1 Z2 
G0 X-0.625 Z2 
G0 X-1 Z2 S800 
G0 X-1 Z2 S0 
G0 X-1 Z2 S800 
G0 X-9 Z2 S0 
G0 X-1 Z2 S800 
G0 X-4 Z2 S0 
G0 X-4 Z2 S800 
G0 X-1 Z2 S0 
G0 X-2 Z2 S800 
G0 X-1 Z2 S0 
G0 X-1 Z2 S800 
G0 X-1 Z2 S0 
G0 X-3 Z2 S800 
G0 X-1 Z2 S0 
G0 X-2 Z2 S800 
G0 X-9 Z2 S0 
G0 X-1 Z2 S800 
G0 X-1 Z2 S0 
G0 X-4 Z2 S800 
G0 X-1 Z2 S0 
G0 X-8 Z2 S800 
G0 X-3 Z2 S0 
G0 X-2 Z2 S800 
G0 X-0.625 Z2 S0 
G0 X-1 Y1 Z2 
G0 X0.625 Z2 
G0 X3 Z2 S800 
G0 X3 Z2 S0 
G0 X8 Z2 S800 
G0 X1 Z2 S0 
G0 X3 Z2 S800 
G0 X1 Z2 S0 
G0 X1 Z2 S800 
G0 X3 Z2 S0 
G0 X1 Z2 S800 
G0 X9 Z2 S0 
G0 X1 Z2 S800 
G0 X1 Z2 S0 
G0 X1 Z2 S800 
G0 X5 Z2 S0 
G0 X1 Z2 S800 
G0 X3 Z2 S0 
G0 X2 Z2 S800 
G0 X3 Z2 S0 
G0 X1 Z2 S800 
G0 X3 Z2 S0 
G0 X1 Z2 S800 
G0 X5 Z2 S0 
G0 X2 Z2 S800 
G0 X0.625 Z2 S0 
G0 X19 Y1 Z2 
G0 X-0.625 Z2 
G0 X-1 Z2 S800 
G0 X-19 Z2 S0 
G0 X-1 Z2 S800 
G0 X-4 Z2 S0 
G0 X-1 Z2 S800 
G0 X-6 Z2 S0 
G0 X-2 Z2 S800 
G0 X-5 Z2 S0 
G0 X-1 Z2 S800 
G0 X-4 Z2 S0 
G0 X-2 Z2 S800 
G0 X-2 Z2 S0 
G0 X-1 Z2 S800 
G0 X-9 Z2 S0 
G0 X-2 Z2 S800 
G0 X-1 Z2 S0 
G0 X-1 Z2 S800 
G0 X-2 Z2 S0 
G0 X-1 Z2 S800 
G0 X-1 Z2 S0 
G0 X-8 Z2 S800 
G0 X-2 Z2 S0 
G0 X-2 Z2 S800 
G0 X-1 Z2 S0 
G0 X-1 Z2 S800 
G0 X-0.625 Z2 S0 
G0 X-1 Y1 Z2 
G0 X0.625 Z2 
G0 X1 Z2 S800 
G0 X1 Z2 S0 
G0 X5 Z2 S800 
G0 X1 Z2 S0 
G0 X7 Z2 S800 
G0 X2 Z2 S0 
G0 X1 Z2 S800 
G0 X2 Z2 S0 
G0 X1 Z2 S800 
G0 X6 Z2 S0 
G0 X3 Z2 S800 
G0 X15 Z2 S0 
G0 X1 Z2 S800 
G0 X3 Z2 S0 
G0 X1 Z2 S800 
G0 X4 Z2 S0 
G0 X2 Z2 S800 
G0 X13 Z2 S0 
G0 X10 Z2 S800 
G0 X0.625 Z2 S0 
G0 X1 Y1 Z2 
G0 X-0.625 Z2 
G0 X-1 Z2 S800 
G0 X-3 Z2 S0 
G0 X-7 Z2 S800 
G0 X-3 Z2 S0 
G0 X-1 Z2 S800 
G0 X-4 Z2 S0 
G0 X-1 Z2 S800 
G0 X-1 Z2 S0 
G0 X-1 Z2 S800 
G0 X-2 Z2 S0 
G0 X-1 Z2 S800 
G0 X-2 Z2 S0 
G0 X-1 Z2 S800 
G0 X-1 Z2 S0 
G0 X-1 Z2 S800 
G0 X-2 Z2 S0 
G0 X-1 Z2 S800 
G0 X-8 Z2 S0 
G0 X-1 Z2 S800 
G0 X-3 Z2 S0 
G0 X-1 Z2 S800 
G0 X-7 Z2 S0 
G0 X-2 Z2 S800 
G0 X-5 Z2 S0 
G0 X-1 Z2 S800 
G0 X-1 Z2 S0 
G0 X-1 Z2 S800 
G0 X-1 Z2 S0 
G0 X-6 Z2 S800 
G0 X-2 Z2 S0 
G0 X-7 Z2 S800 
G0 X-1 Z2 S0 
G0 X-1 Z2 S800 
G0 X-1 Z2 S0 
G0 X-1 Z2 S800 
G0 X-0.625 Z2 S0 
G0 Y1 Z2 
G0 X0.625 Z2 
G0 X1 Z2 S800 
G0 X1 Z2 S0 
G0 X10 Z2 S800 
G0 X2 Z2 S0 
G0 X4 Z2 S800 
G0 X1 Z2 S0 
G0 X1 Z2 S800 
G0 X2 Z2 S0 
G0 X1 Z2 S800 
G0 X4 Z2 S0 
G0 X1 Z2 S800 
G0 X2 Z2 S0 
G0 X1 Z2 S800 
G0 X10 Z2 S0 
G0 X1 Z2 S800 
G0 X2 Z2 S0 
G0 X1 Z2 S800 
G0 X6 Z2 S0 
G0 X1 Z2 S800 
G0 X1 Z2 S0 
G0 X1 Z2 S800 
G0 X1 Z2 S0 
G0 X1 Z2 S800 
G0 X2 Z2 S0 
G0 X1 Z2 S800 
G0 X2 Z2 S0 
G0 X1 Z2 S800 
G0 X1 Z2 S0 
G0 X1 Z2 S800 
G0 X2 Z2 S0 
G0 X1 Z2 S800 
G0 X4 Z2 S0 
G0 X8 Z2 S800 
G0 X3 Z2 S0 
G0 X1 Z2 S800 
G0 X0.625 Z2 S0 
G0 Y1 Z2 
G0 X-0.625 Z2 
G0 X-1 Z2 S800 
G0 X-5 Z2 S0 
G0 X-6 Z2 S800 
G0 X-1 Z2 S0 
G0 X-2 Z2 S800 
G0 X-3 Z2 S0 
G0 X-2 Z2 S800 
G0 X-1 Z2 S0 
G0 X-1 Z2 S800 
G0 X-1 Z2 S0 
G0 X-1 Z2 S800 
G0 X-4 Z2 S0 
G0 X-1 Z2 S800 
G0 X-1 Z2 S0 
G0 X-1 Z2 S800 
G0 X-7 Z2 S0 
G0 X-1 Z2 S800 
G0 X-2 Z2 S0 
G0 X-1 Z2 S800 
G0 X-4 Z2 S0 
G0 X-1 Z2 S800 
G0 X-5 Z2 S0 
G0 X-2 Z2 S800 
G0 X-7 Z2 S0 
G0 X-1 Z2 S800 
G0 X-2 Z2 S0 
G0 X-4 Z2 S800 
G0 X-2 Z2 S0 
G0 X-10 Z2 S800 
G0 X-1 Z2 S0 
G0 X-1 Z2 S800 
G0 X-1 Z2 S0 
G0 X-1 Z2 S800 
G0 X-0.625 Z2 S0 
G0 Y1 Z2 
G0 X0.625 Z2 
G0 X1 Z2 S800 
G0 X1 Z2 S0 
G0 X13 Z2 S800 
G0 X2 Z2 S0 
G0 X1 Z2 S800 
G0 X1 Z2 S0 
G0 X2 Z2 S800 
G0 X1 Z2 S0 
G0 X1 Z2 S800 
G0 X2 Z2 S0 
G0 X1 Z2 S800 
G0 X3 Z2 S0 
G0 X1 Z2 S800 
G0 X3 Z2 S0 
G0 X1 Z2 S800 
G0 X3 Z2 S0 
G0 X1 Z2 S800 
G0 X14 Z2 S0 
G0 X1 Z2 S800 
G0 X1 Z2 S0 
G0 X1 Z2 S800 
G0 X2 Z2 S0 
G0 X1 Z2 S800 
G0 X1 Z2 S0 
G0 X2 Z2 S800 
G0 X3 Z2 S0 
G0 X1 Z2 S800 
G0 X1 Z2 S0 
G0 X1 Z2 S800 
G0 X2 Z2 S0 
G0 X8 Z2 S800 
G0 X6 Z2 S0 
G0 X1 Z2 S800 
G0 X0.625 Z2 S0 
G0 Y1 Z2 
G0 X-0.625 Z2 
G0 X-1 Z2 S800 
G0 X-9 Z2 S0 
G0 X-3 Z2 S800 
G0 X-1 Z2 S0 
G0 X-1 Z2 S800 
G0 X-2 Z2 S0 
G0 X-1 Z2 S800 
G0 X-2 Z2 S0 
G0 X-1 Z2 S800 
G0 X-1 Z2 S0 
G0 X-2 Z2 S800 
G0 X-2 Z2 S0 
G0 X-2 Z2 S800 
G0 X-1 Z2 S0 
G0 X-1 Z2 S800 
G0 X-7 Z2 S0 
G0 X-1 Z2 S800 
G0 X-10 Z2 S0 
G0 X-1 Z2 S800 
G0 X-1 Z2 S0 
G0 X-1 Z2 S800 
G0 X-4 Z2 S0 
G0 X-2 Z2 S800 
G0 X-1 Z2 S0 
G0 X-2 Z2 S800 
G0 X-1 Z2 S0 
G0 X-2 Z2 S800 
G0 X-2 Z2 S0 
G0 X-1 Z2 S800 
G0 X-1 Z2 S0 
G0 X-10 Z2 S800 
G0 X-1 Z2 S0 
G0 X-1 Z2 S800 
G0 X-1 Z2 S0 
G0 X-1 Z2 S800 
G0 X-1 Z2 S0 
G0 X-1 Z2 S800 
G0 X-0.625 Z2 S0 
G0 Y1 Z2 
G0 X0.625 Z2 
G0 X2 Z2 S800 
G0 X1 Z2 S0 
G0 X1 Z2 S800 
G0 X2 Z2 S0 
G0 X1 Z2 S800 
G0 X1 Z2 S0 
G0 X8 Z2 S800 
G0 X1 Z2 S0 
G0 X1 Z2 S800 
G0 X2 Z2 S0 
G0 X1 Z2 S800 
G0 X2 Z2 S0 
G0 X1 Z2 S800 
G0 X1 Z2 S0 
G0 X1 Z2 S800 
G0 X1 Z2 S0 
G0 X1 Z2 S800 
G0 X3 Z2 S0 
G0 X1 Z2 S800 
G0 X13 Z2 S0 
G0 X1 Z2 S800 
G0 X7 Z2 S0 
G0 X1 Z2 S800 
G0 X1 Z2 S0 
G0 X1 Z2 S800 
G0 X1 Z2 S0 
G0 X1 Z2 S800 
G0 X1 Z2 S0 
G0 X2 Z2 S800 
G0 X1 Z2 S0 
G0 X1 Z2 S800 
G0 X5 Z2 S0 
G0 X1 Z2 S800 
G0 X1 Z2 S0 
G0 X1 Z2 S800 
G0 X11 Z2 S0 
G0 X1 Z2 S800 
G0 X0.625 Z2 S0 
G0 Y1 Z2 
G0 X-0.625 Z2 
G0 X-1 Z2 S800 
G0 X-19 Z2 S0 
G0 X-1 Z2 S800 
G0 X-1 Z2 S0 
G0 X-2 Z2 S800 
G0 X-1 Z2 S0 
G0 X-2 Z2 S800 
G0 X-16 Z2 S0 
G0 X-1 Z2 S800 
G0 X-5 Z2 S0 
G0 X-1 Z2 S800 
G0 X-1 Z2 S0 
G0 X-1 Z2 S800 
G0 X-5 Z2 S0 
G0 X-1 Z2 S800 
G0 X-1 Z2 S0 
G0 X-2 Z2 S800 
G0 X-1 Z2 S0 
G0 X-1 Z2 S800 
G0 X-2 Z2 S0 
G0 X-1 Z2 S800 
G0 X-2 Z2 S0 
G0 X-5 Z2 S800 
G0 X-1 Z2 S0 
G0 X-1 Z2 S800 
G0 X-4 Z2 S0 
G0 X-1 Z2 S800 
G0 X-1 Z2 S0 
G0 X-1 Z2 S800 
G0 X-1 Z2 S0 
G0 X-1 Z2 S800 
G0 X-0.625 Z2 S0 
G0 Y1 Z2 
G0 X0.625 Z2 
G0 X2 Z2 S800 
G0 X1 Z2 S0 
G0 X1 Z2 S800 
G0 X6 Z2 S0 
G0 X8 Z2 S800 
G0 X2 Z2 S0 
G0 X1 Z2 S800 
G0 X2 Z2 S0 
G0 X1 Z2 S800 
G0 X1 Z2 S0 
G0 X1 Z2 S800 
G0 X2 Z2 S0 
G0 X1 Z2 S800 
G0 X5 Z2 S0 
G0 X1 Z2 S800 
G0 X2 Z2 S0 
G0 X1 Z2 S800 
G0 X2 Z2 S0 
G0 X1 Z2 S800 
G0 X7 Z2 S0 
G0 X1 Z2 S800 
G0 X1 Z2 S0 
G0 X1 Z2 S800 
G0 X3 Z2 S0 
G0 X2 Z2 S800 
G0 X1 Z2 S0 
G0 X1 Z2 S800 
G0 X3 Z2 S0 
G0 X1 Z2 S800 
G0 X1 Z2 S0 
G0 X1 Z2 S800 
G0 X0.625 Z2 S0 
G0 X21 Y1 Z2 
G0 X-0.625 Z2 
G0 X-1 Z2 S800 
G0 X-20 Z2 S0 
G0 X-1 Z2 S800 
G0 X-1 Z2 S0 
G0 X-1 Z2 S800 
G0 X-1 Z2 S0 
G0 X-1 Z2 S800 
G0 X-3 Z2 S0 
G0 X-1 Z2 S800 
G0 X-4 Z2 S0 
G0 X-1 Z2 S800 
G0 X-10 Z2 S0 
G0 X-1 Z2 S800 
G0 X-4 Z2 S0 
G0 X-1 Z2 S800 
G0 X-8 Z2 S0 
G0 X-1 Z2 S800 
G0 X-1 Z2 S0 
G0 X-2 Z2 S800 
G0 X-1 Z2 S0 
G0 X-1 Z2 S800 
G0 X-2 Z2 S0 
G0 X-1 Z2 S800 
G0 X-1 Z2 S0 
G0 X-1 Z2 S800 
G0 X-2 Z2 S0 
G0 X-1 Z2 S800 
G0 X-8 Z2 S0 
G0 X-1 Z2 S800 
G0 X-1 Z2 S0 
G0 X-1 Z2 S800 
G0 X-1 Z2 S0 
G0 X-1 Z2 S800 
G0 X-0.625 Z2 S0 
G0 Y1 Z2 
G0 X0.625 Z2 
G0 X2 Z2 S800 
G0 X1 Z2 S0 
G0 X1 Z2 S800 
G0 X14 Z2 S0 
G0 X1 Z2 S800 
G0 X2 Z2 S0 
G0 X1 Z2 S800 
G0 X1 Z2 S0 
G0 X1 Z2 S800 
G0 X1 Z2 S0 
G0 X1 Z2 S800 
G0 X1 Z2 S0 
G0 X2 Z2 S800 
G0 X2 Z2 S0 
G0 X1 Z2 S800 
G0 X5 Z2 S0 
G0 X1 Z2 S800 
G0 X1 Z2 S0 
G0 X1 Z2 S800 
G0 X2 Z2 S0 
G0 X1 Z2 S800 
G0 X8 Z2 S0 
G0 X2 Z2 S800 
G0 X3 Z2 S0 
G0 X1 Z2 S800 
G0 X1 Z2 S0 
G0 X1 Z2 S800 
G0 X1 Z2 S0 
G0 X1 Z2 S800 
G0 X1 Z2 S0 
G0 X1 Z2 S800 
G0 X1 Z2 S0 
G0 X1 Z2 S800 
G0 X4 Z2 S0 
G0 X1 Z2 S800 
G0 X15 Z2 S0 
G0 X1 Z2 S800 
G0 X0.625 Z2 S0 
G0 Y1 Z2 
G0 X-0.625 Z2 
G0 X-1 Z2 S800 
G0 X-15 Z2 S0 
G0 X-1 Z2 S800 
G0 X-4 Z2 S0 
G0 X-1 Z2 S800 
G0 X-1 Z2 S0 
G0 X-2 Z2 S800 
G0 X-1 Z2 S0 
G0 X-1 Z2 S800 
G0 X-2 Z2 S0 
G0 X-1 Z2 S800 
G0 X-3 Z2 S0 
G0 X-2 Z2 S800 
G0 X-6 Z2 S0 
G0 X-1 Z2 S800 
G0 X-2 Z2 S0 
G0 X-1 Z2 S800 
G0 X-1 Z2 S0 
G0 X-2 Z2 S800 
G0 X-1 Z2 S0 
G0 X-1 Z2 S800 
G0 X-4 Z2 S0 
G0 X-1 Z2 S800 
G0 X-3 Z2 S0 
G0 X-1 Z2 S800 
G0 X-1 Z2 S0 
G0 X-1 Z2 S800 
G0 X-3 Z2 S0 
G0 X-1 Z2 S800 
G0 X-2 Z2 S0 
G0 X-1 Z2 S800 
G0 X-13 Z2 S0 
G0 X-2 Z2 S800 
G0 X-3 Z2 S0 
G0 X-2 Z2 S800 
G0 X-0.625 Z2 S0 
G0 Y1 Z2 
G0 X0.625 Z2 
G0 X2 Z2 S800 
G0 X1 Z2 S0 
G0 X7 Z2 S800 
G0 X9 Z2 S0 
G0 X1 Z2 S800 
G0 X3 Z2 S0 
G0 X1 Z2 S800 
G0 X3 Z2 S0 
G0 X1 Z2 S800 
G0 X1 Z2 S0 
G0 X1 Z2 S800 
G0 X3 Z2 S0 
G0 X1 Z2 S800 
G0 X4 Z2 S0 
G0 X1 Z2 S800 
G0 X1 Z2 S0 
G0 X1 Z2 S800 
G0 X12 Z2 S0 
G0 X1 Z2 S800 
G0 X1 Z2 S0 
G0 X1 Z2 S800 
G0 X1 Z2 S0 
G0 X1 Z2 S800 
G0 X3 Z2 S0 
G0 X1 Z2 S800 
G0 X1 Z2 S0 
G0 X1 Z2 S800 
G0 X1 Z2 S0 
G0 X1 Z2 S800 
G0 X2 Z2 S0 
G0 X2 Z2 S800 
G0 X1 Z2 S0 
G0 X1 Z2 S800 
G0 X8 Z2 S0 
G0 X8 Z2 S800 
G0 X0.625 Z2 S0 
G0 Y1 Z2 
G0 X-0.625 Z2 
G0 X-12 Z2 S800 
G0 X-10 Z2 S0 
G0 X-1 Z2 S800 
G0 X-2 Z2 S0 
G0 X-1 Z2 S800 
G0 X-2 Z2 S0 
G0 X-1 Z2 S800 
G0 X-1 Z2 S0 
G0 X-1 Z2 S800 
G0 X-1 Z2 S0 
G0 X-1 Z2 S800 
G0 X-1 Z2 S0 
G0 X-1 Z2 S800 
G0 X-12 Z2 S0 
G0 X-1 Z2 S800 
G0 X-1 Z2 S0 
G0 X-1 Z2 S800 
G0 X-4 Z2 S0 
G0 X-1 Z2 S800 
G0 X-3 Z2 S0 
G0 X-1 Z2 S800 
G0 X-8 Z2 S0 
G0 X-1 Z2 S800 
G0 X-7 Z2 S0 
G0 X-1 Z2 S800 
G0 X-1 Z2 S0 
G0 X-10 Z2 S800 
G0 X-0.625 Z2 S0 
G0 X-1 Y1 Z2 
G0 X0.625 Z2 
G0 X1 Z2 S800 
G0 X1 Z2 S0 
G0 X11 Z2 S800 
G0 X2 Z2 S0 
G0 X1 Z2 S800 
G0 X3 Z2 S0 
G0 X1 Z2 S800 
G0 X1 Z2 S0 
G0 X1 Z2 S800 
G0 X4 Z2 S0 
G0 X1 Z2 S800 
G0 X1 Z2 S0 
G0 X1 Z2 S800 
G0 X3 Z2 S0 
G0 X1 Z2 S800 
G0 X5 Z2 S0 
G0 X1 Z2 S800 
G0 X1 Z2 S0 
G0 X1 Z2 S800 
G0 X12 Z2 S0 
G0 X1 Z2 S800 
G0 X1 Z2 S0 
G0 X1 Z2 S800 
G0 X1 Z2 S0 
G0 X1 Z2 S800 
G0 X1 Z2 S0 
G0 X1 Z2 S800 
G0 X2 Z2 S0 
G0 X1 Z2 S800 
G0 X1 Z2 S0 
G0 X2 Z2 S800 
G0 X5 Z2 S0 
G0 X1 Z2 S800 
G0 X1 Z2 S0 
G0 X15 Z2 S800 
G0 X0.625 Z2 S0 
G0 Y1 Z2 
G0 X-0.625 Z2 
G0 X-14 Z2 S800 
G0 X-6 Z2 S0 
G0 X-1 Z2 S800 
G0 X-1 Z2 S0 
G0 X-2 Z2 S800 
G0 X-1 Z2 S0 
G0 X-1 Z2 S800 
G0 X-2 Z2 S0 
G0 X-1 Z2 S800 
G0 X-1 Z2 S0 
G0 X-1 Z2 S800 
G0 X-1 Z2 S0 
G0 X-1 Z2 S800 
G0 X-5 Z2 S0 
G0 X-1 Z2 S800 
G0 X-8 Z2 S0 
G0 X-1 Z2 S800 
G0 X-1 Z2 S0 
G0 X-1 Z2 S800 
G0 X-2 Z2 S0 
G0 X-1 Z2 S800 
G0 X-6 Z2 S0 
G0 X-1 Z2 S800 
G0 X-1 Z2 S0 
G0 X-1 Z2 S800 
G0 X-2 Z2 S0 
G0 X-1 Z2 S800 
G0 X-4 Z2 S0 
G0 X-1 Z2 S800 
G0 X-2 Z2 S0 
G0 X-14 Z2 S800 
G0 X-1 Z2 S0 
G0 X-2 Z2 S800 
G0 X-0.625 Z2 S0 
G0 Y1 Z2 
G0 X0.625 Z2 
G0 X1 Z2 S800 
G0 X1 Z2 S0 
G0 X18 Z2 S800 
G0 X2 Z2 S0 
G0 X1 Z2 S800 
G0 X2 Z2 S0 
G0 X2 Z2 S800 
G0 X4 Z2 S0 
G0 X1 Z2 S800 
G0 X1 Z2 S0 
G0 X1 Z2 S800 
G0 X2 Z2 S0 
G0 X1 Z2 S800 
G0 X2 Z2 S0 
G0 X1 Z2 S800 
G0 X10 Z2 S0 
G0 X1 Z2 S800 
G0 X2 Z2 S0 
G0 X1 Z2 S800 
G0 X1 Z2 S0 
G0 X1 Z2 S800 
G0 X2 Z2 S0 
G0 X1 Z2 S800 
G0 X1 Z2 S0 
G0 X1 Z2 S800 
G0 X2 Z2 S0 
G0 X1 Z2 S800 
G0 X1 Z2 S0 
G0 X2 Z2 S800 
G0 X1 Z2 S0 
G0 X1 Z2 S800 
G0 X4 Z2 S0 
G0 X16 Z2 S800 
G0 X0.625 Z2 S0 
G0 Y1 Z2 
G0 X-0.625 Z2 
G0 X-13 Z2 S800 
G0 X-1 Z2 S0 
G0 X-2 Z2 S800 
G0 X-3 Z2 S0 
G0 X-2 Z2 S800 
G0 X-1 Z2 S0 
G0 X-1 Z2 S800 
G0 X-5 Z2 S0 
G0 X-1 Z2 S800 
G0 X-1 Z2 S0 
G0 X-1 Z2 S800 
G0 X-2 Z2 S0 
G0 X-1 Z2 S800 
G0 X-1 Z2 S0 
G0 X-1 Z2 S800 
G0 X-2 Z2 S0 
G0 X-2 Z2 S800 
G0 X-12 Z2 S0 
G0 X-1 Z2 S800 
G0 X-2 Z2 S0 
G0 X-1 Z2 S800 
G0 X-1 Z2 S0 
G0 X-1 Z2 S800 
G0 X-2 Z2 S0 
G0 X-1 Z2 S800 
G0 X-7 Z2 S0 
G0 X-19 Z2 S800 
G0 X-1 Z2 S0 
G0 X-1 Z2 S800 
G0 X-0.625 Z2 S0 
G0 Y1 Z2 
G0 X0.625 Z2 
G0 X1 Z2 S800 
G0 X1 Z2 S0 
G0 X1 Z2 S800 
G0 X3 Z2 S0 
G0 X15 Z2 S800 
G0 X1 Z2 S0 
G0 X1 Z2 S800 
G0 X6 Z2 S0 
G0 X2 Z2 S800 
G0 X1 Z2 S0 
G0 X1 Z2 S800 
G0 X1 Z2 S0 
G0 X1 Z2 S800 
G0 X1 Z2 S0 
G0 X1 Z2 S800 
G0 X11 Z2 S0 
G0 X3 Z2 S800 
G0 X4 Z2 S0 
G0 X1 Z2 S800 
G0 X4 Z2 S0 
G0 X1 Z2 S800 
G0 X1 Z2 S0 
G0 X1 Z2 S800 
G0 X3 Z2 S0 
G0 X4 Z2 S800 
G0 X1 Z2 S0 
G0 X1 Z2 S800 
G0 X1 Z2 S0 
G0 X2 Z2 S800 
G0 X1 Z2 S0 
G0 X13 Z2 S800 
G0 X0.625 Z2 S0 
G0 Y1 Z2 
G0 X-0.625 Z2 
G0 X-13 Z2 S800 
G0 X-1 Z2 S0 
G0 X-1 Z2 S800 
G0 X-1 Z2 S0 
G0 X-1 Z2 S800 
G0 X-2 Z2 S0 
G0 X-4 Z2 S800 
G0 X-10 Z2 S0 
G0 X-1 Z2 S800 
G0 X-4 Z2 S0 
G0 X-1 Z2 S800 
G0 X-2 Z2 S0 
G0 X-2 Z2 S800 
G0 X-13 Z2 S0 
G0 X-2 Z2 S800 
G0 X-6 Z2 S0 
G0 X-1 Z2 S800 
G0 X-1 Z2 S0 
G0 X-1 Z2 S800 
G0 X-1 Z2 S0 
G0 X-11 Z2 S800 
G0 X-4 Z2 S0 
G0 X-2 Z2 S800 
G0 X-1 Z2 S0 
G0 X-3 Z2 S800 
G0 X-0.625 Z2 S0 
G0 Y1 Z2 
G0 X0.625 Z2 
G0 X1 Z2 S800 
G0 X1 Z2 S0 
G0 X1 Z2 S800 
G0 X5 Z2 S0 
G0 X3 Z2 S800 
G0 X2 Z2 S0 
G0 X8 Z2 S800 
G0 X2 Z2 S0 
G0 X1 Z2 S800 
G0 X2 Z2 S0 
G0 X2 Z2 S800 
G0 X5 Z2 S0 
G0 X2 Z2 S800 
G0 X7 Z2 S0 
G0 X4 Z2 S800 
G0 X8 Z2 S0 
G0 X1 Z2 S800 
G0 X2 Z2 S0 
G0 X1 Z2 S800 
G0 X1 Z2 S0 
G0 X1 Z2 S800 
G0 X6 Z2 S0 
G0 X1 Z2 S800 
G0 X1 Z2 S0 
G0 X1 Z2 S800 
G0 X5 Z2 S0 
G0 X1 Z2 S800 
G0 X12 Z2 S0 
G0 X2 Z2 S800 
G0 X0.625 Z2 S0 
G0 Y1 Z2 
G0 X-0.625 Z2 
G0 X-2 Z2 S800 
G0 X-16 Z2 S0 
G0 X-3 Z2 S800 
G0 X-1 Z2 S0 
G0 X-1 Z2 S800 
G0 X-11 Z2 S0 
G0 X-1 Z2 S800 
G0 X-4 Z2 S0 
G0 X-1 Z2 S800 
G0 X-7 Z2 S0 
G0 X-8 Z2 S800 
G0 X-4 Z2 S0 
G0 X-1 Z2 S800 
G0 X-2 Z2 S0 
G0 X-1 Z2 S800 
G0 X-1 Z2 S0 
G0 X-2 Z2 S800 
G0 X-1 Z2 S0 
G0 X-4 Z2 S800 
G0 X-2 Z2 S0 
G0 X-3 Z2 S800 
G0 X-0.625 Z2 S0 
G0 X7 Y1 Z2 
G0 X0.625 Z2 
G0 X2 Z2 S800 
G0 X1 Z2 S0 
G0 X3 Z2 S800 
G0 X1 Z2 S0 
G0 X1 Z2 S800 
G0 X1 Z2 S0 
G0 X1 Z2 S800 
G0 X1 Z2 S0 
G0 X3 Z2 S800 
G0 X8 Z2 S0 
G0 X1 Z2 S800 
G0 X3 Z2 S0 
G0 X1 Z2 S800 
G0 X1 Z2 S0 
G0 X1 Z2 S800 
G0 X5 Z2 S0 
G0 X1 Z2 S800 
G0 X1 Z2 S0 
G0 X1 Z2 S800 
G0 X9 Z2 S0 
G0 X1 Z2 S800 
G0 X1 Z2 S0 
G0 X4 Z2 S800 
G0 X15 Z2 S0 
G0 X2 Z2 S800 
G0 X0.625 Z2 S0 
G0 Y1 Z2 
G0 X-0.625 Z2 
G0 X-2 Z2 S800 
G0 X-11 Z2 S0 
G0 X-1 Z2 S800 
G0 X-3 Z2 S0 
G0 X-3 Z2 S800 
G0 X-2 Z2 S0 
G0 X-1 Z2 S800 
G0 X-9 Z2 S0 
G0 X-1 Z2 S800 
G0 X-4 Z2 S0 
G0 X-1 Z2 S800 
G0 X-2 Z2 S0 
G0 X-1 Z2 S800 
G0 X-2 Z2 S0 
G0 X-1 Z2 S800 
G0 X-2 Z2 S0 
G0 X-1 Z2 S800 
G0 X-1 Z2 S0 
G0 X-1 Z2 S800 
G0 X-3 Z2 S0 
G0 X-1 Z2 S800 
G0 X-1 Z2 S0 
G0 X-1 Z2 S800 
G0 X-1 Z2 S0 
G0 X-2 Z2 S800 
G0 X-1 Z2 S0 
G0 X-1 Z2 S800 
G0 X-2 Z2 S0 
G0 X-2 Z2 S800 
G0 X-1 Z2 S0 
G0 X-1 Z2 S800 
G0 X-2 Z2 S0 
G0 X-1 Z2 S800 
G0 X-18 Z2 S0 
G0 X-1 Z2 S800 
G0 X-0.625 Z2 S0 
G0 Y1 Z2 
G0 X0.625 Z2 
G0 X1 Z2 S800 
G0 X18 Z2 S0 
G0 X1 Z2 S800 
G0 X1 Z2 S0 
G0 X2 Z2 S800 
G0 X2 Z2 S0 
G0 X1 Z2 S800 
G0 X2 Z2 S0 
G0 X1 Z2 S800 
G0 X1 Z2 S0 
G0 X2 Z2 S800 
G0 X1 Z2 S0 
G0 X1 Z2 S800 
G0 X1 Z2 S0 
G0 X1 Z2 S800 
G0 X2 Z2 S0 
G0 X1 Z2 S800 
G0 X2 Z2 S0 
G0 X1 Z2 S800 
G0 X4 Z2 S0 
G0 X1 Z2 S800 
G0 X2 Z2 S0 
G0 X1 Z2 S800 
G0 X5 Z2 S0 
G0 X1 Z2 S800 
G0 X9 Z2 S0 
G0 X1 Z2 S800 
G0 X2 Z2 S0 
G0 X1 Z2 S800 
G0 X1 Z2 S0 
G0 X1 Z2 S800 
G0 X4 Z2 S0 
G0 X1 Z2 S800 
G0 X10 Z2 S0 
G0 X2 Z2 S800 
G0 X0.625 Z2 S0 
G0 Y1 Z2 
G0 X-0.625 Z2 
G0 X-2 Z2 S800 
G0 X-10 Z2 S0 
G0 X-1 Z2 S800 
G0 X-5 Z2 S0 
G0 X-1 Z2 S800 
G0 X-3 Z2 S0 
G0 X-1 Z2 S800 
G0 X-7 Z2 S0 
G0 X-1 Z2 S800 
G0 X-2 Z2 S0 
G0 X-1 Z2 S800 
G0 X-5 Z2 S0 
G0 X-1 Z2 S800 
G0 X-1 Z2 S0 
G0 X-1 Z2 S800 
G0 X-10 Z2 S0 
G0 X-1 Z2 S800 
G0 X-1 Z2 S0 
G0 X-1 Z2 S800 
G0 X-2 Z2 S0 
G0 X-1 Z2 S800 
G0 X-1 Z2 S0 
G0 X-1 Z2 S800 
G0 X-1 Z2 S0 
G0 X-1 Z2 S800 
G0 X-4 Z2 S0 
G0 X-1 Z2 S800 
G0 X-1 Z2 S0 
G0 X-1 Z2 S800 
G0 X-19 Z2 S0 
G0 X-1 Z2 S800 
G0 X-0.625 Z2 S0 
G0 X20 Y1 Z2 
G0 X0.625 Z2 
G0 X1 Z2 S800 
G0 X1 Z2 S0 
G0 X1 Z2 S800 
G0 X5 Z2 S0 
G0 X1 Z2 S800 
G0 X1 Z2 S0 
G0 X2 Z2 S800 
G0 X2 Z2 S0 
G0 X1 Z2 S800 
G0 X1 Z2 S0 
G0 X1 Z2 S800 
G0 X3 Z2 S0 
G0 X1 Z2 S800 
G0 X5 Z2 S0 
G0 X1 Z2 S800 
G0 X2 Z2 S0 
G0 X1 Z2 S800 
G0 X4 Z2 S0 
G0 X1 Z2 S800 
G0 X2 Z2 S0 
G0 X1 Z2 S800 
G0 X5 Z2 S0 
G0 X1 Z2 S800 
G0 X2 Z2 S0 
G0 X1 Z2 S800 
G0 X3 Z2 S0 
G0 X1 Z2 S800 
G0 X3 Z2 S0 
G0 X3 Z2 S800 
G0 X4 Z2 S0 
G0 X2 Z2 S800 
G0 X4 Z2 S0 
G0 X2 Z2 S800 
G0 X0.625 Z2 S0 
G0 Y1 Z2 
G0 X-0.625 Z2 
G0 X-2 Z2 S800 
G0 X-1 Z2 S0 
G0 X-8 Z2 S800 
G0 X-1 Z2 S0 
G0 X-3 Z2 S800 
G0 X-3 Z2 S0 
G0 X-1 Z2 S800 
G0 X-7 Z2 S0 
G0 X-1 Z2 S800 
G0 X-4 Z2 S0 
G0 X-2 Z2 S800 
G0 X-2 Z2 S0 
G0 X-1 Z2 S800 
G0 X-4 Z2 S0 
G0 X-1 Z2 S800 
G0 X-7 Z2 S0 
G0 X-1 Z2 S800 
G0 X-3 Z2 S0 
G0 X-1 Z2 S800 
G0 X-4 Z2 S0 
G0 X-1 Z2 S800 
G0 X-1 Z2 S0 
G0 X-2 Z2 S800 
G0 X-5 Z2 S0 
G0 X-1 Z2 S800 
G0 X-1 Z2 S0 
G0 X-1 Z2 S800 
G0 X-1 Z2 S0 
G0 X-15 Z2 S800 
G0 X-1 Z2 S0 
G0 X-2 Z2 S800 
G0 X-0.625 Z2 S0 
G0 Y1 Z2 
G0 X0.625 Z2 
G0 X18 Z2 S800 
G0 X1 Z2 S0 
G0 X1 Z2 S800 
G0 X1 Z2 S0 
G0 X1 Z2 S800 
G0 X6 Z2 S0 
G0 X2 Z2 S800 
G0 X16 Z2 S0 
G0 X1 Z2 S800 
G0 X8 Z2 S0 
G0 X1 Z2 S800 
G0 X5 Z2 S0 
G0 X1 Z2 S800 
G0 X1 Z2 S0 
G0 X1 Z2 S800 
G0 X1 Z2 S0 
G0 X2 Z2 S800 
G0 X2 Z2 S0 
G0 X2 Z2 S800 
G0 X1 Z2 S0 
G0 X3 Z2 S800 
G0 X1 Z2 S0 
G0 X12 Z2 S800 
G0 X0.625 Z2 S0 
G0 Y1 Z2 
G0 X-0.625 Z2 
G0 X-12 Z2 S800 
G0 X-1 Z2 S0 
G0 X-3 Z2 S800 
G0 X-1 Z2 S0 
G0 X-2 Z2 S800 
G0 X-2 Z2 S0 
G0 X-2 Z2 S800 
G0 X-3 Z2 S0 
G0 X-2 Z2 S800 
G0 X-5 Z2 S0 
G0 X-1 Z2 S800 
G0 X-8 Z2 S0 
G0 X-1 Z2 S800 
G0 X-23 Z2 S0 
G0 X-22 Z2 S800 
G0 X-0.625 Z2 S0 
G0 Y1 Z2 
G0 X0.625 Z2 
G0 X23 Z2 S800 
G0 X5 Z2 S0 
G0 X6 Z2 S800 
G0 X10 Z2 S0 
G0 X2 Z2 S800 
G0 X7 Z2 S0 
G0 X1 Z2 S800 
G0 X3 Z2 S0 
G0 X1 Z2 S800 
G0 X2 Z2 S0 
G0 X1 Z2 S800 
G0 X1 Z2 S0 
G0 X1 Z2 S800 
G0 X3 Z2 S0 
G0 X1 Z2 S800 
G0 X1 Z2 S0 
G0 X1 Z2 S800 
G0 X1 Z2 S0 
G0 X1 Z2 S800 
G0 X1 Z2 S0 
G0 X2 Z2 S800 
G0 X1 Z2 S0 
G0 X13 Z2 S800 
G0 X0.625 Z2 S0 
G0 Y1 Z2 
G0 X-0.625 Z2 
G0 X-16 Z2 S800 
G0 X-1 Z2 S0 
G0 X-1 Z2 S800 
G0 X-1 Z2 S0 
G0 X-1 Z2 S800 
G0 X-5 Z2 S0 
G0 X-1 Z2 S800 
G0 X-5 Z2 S0 
G0 X-1 Z2 S800 
G0 X-3 Z2 S0 
G0 X-1 Z2 S800 
G0 X-7 Z2 S0 
G0 X-1 Z2 S800 
G0 X-2 Z2 S0 
G0 X-4 Z2 S800 
G0 X-6 Z2 S0 
G0 X-1 Z2 S800 
G0 X-2 Z2 S0 
G0 X-1 Z2 S800 
G0 X-5 Z2 S0 
G0 X-1 Z2 S800 
G0 X-1 Z2 S0 
G0 X-3 Z2 S800 
G0 X-2 Z2 S0 
G0 X-16 Z2 S800 
G0 X-0.625 Z2 S0 
G0 Y1 Z2 
G0 X0.625 Z2 
G0 X13 Z2 S800 
G0 X5 Z2 S0 
G0 X1 Z2 S800 
G0 X1 Z2 S0 
G0 X1 Z2 S800 
G0 X2 Z2 S0 
G0 X1 Z2 S800 
G0 X4 Z2 S0 
G0 X3 Z2 S800 
G0 X3 Z2 S0 
G0 X2 Z2 S800 
G0 X1 Z2 S0 
G0 X5 Z2 S800 
G0 X1 Z2 S0 
G0 X1 Z2 S800 
G0 X11 Z2 S0 
G0 X1 Z2 S800 
G0 X3 Z2 S0 
G0 X1 Z2 S800 
G0 X1 Z2 S0 
G0 X1 Z2 S800 
G0 X6 Z2 S0 
G0 X1 Z2 S800 
G0 X2 Z2 S0 
G0 X1 Z2 S800 
G0 X1 Z2 S0 
G0 X15 Z2 S800 
G0 X0.625 Z2 S0 
G0 Y1 Z2 
G0 X-0.625 Z2 
G0 X-3 Z2 S800 
G0 X-1 Z2 S0 
G0 X-7 Z2 S800 
G0 X-5 Z2 S0 
G0 X-1 Z2 S800 
G0 X-2 Z2 S0 
G0 X-1 Z2 S800 
G0 X-6 Z2 S0 
G0 X-1 Z2 S800 
G0 X-6 Z2 S0 
G0 X-1 Z2 S800 
G0 X-10 Z2 S0 
G0 X-1 Z2 S800 
G0 X-2 Z2 S0 
G0 X-6 Z2 S800 
G0 X-6 Z2 S0 
G0 X-1 Z2 S800 
G0 X-3 Z2 S0 
G0 X-1 Z2 S800 
G0 X-3 Z2 S0 
G0 X-1 Z2 S800 
G0 X-1 Z2 S0 
G0 X-1 Z2 S800 
G0 X-8 Z2 S0 
G0 X-10 Z2 S800 
G0 X-0.625 Z2 S0 
G0 Y1 Z2 
G0 X0.625 Z2 
G0 X6 Z2 S800 
G0 X11 Z2 S0 
G0 X1 Z2 S800 
G0 X2 Z2 S0 
G0 X1 Z2 S800 
G0 X4 Z2 S0 
G0 X1 Z2 S800 
G0 X2 Z2 S0 
G0 X1 Z2 S800 
G0 X13 Z2 S0 
G0 X1 Z2 S800 
G0 X11 Z2 S0 
G0 X1 Z2 S800 
G0 X6 Z2 S0 
G0 X1 Z2 S800 
G0 X6 Z2 S0 
G0 X1 Z2 S800 
G0 X2 Z2 S0 
G0 X2 Z2 S800 
G0 X7 Z2 S0 
G0 X8 Z2 S800 
G0 X0.625 Z2 S0 
G0 Y1 Z2 
G0 X-0.625 Z2 
G0 X-5 Z2 S800 
G0 X-11 Z2 S0 
G0 X-1 Z2 S800 
G0 X-2 Z2 S0 
G0 X-1 Z2 S800 
G0 X-6 Z2 S0 
G0 X-1 Z2 S800 
G0 X-18 Z2 S0 
G0 X-3 Z2 S800 
G0 X-13 Z2 S0 
G0 X-1 Z2 S800 
G0 X-2 Z2 S0 
G0 X-2 Z2 S800 
G0 X-4 Z2 S0 
G0 X-1 Z2 S800 
G0 X-14 Z2 S0 
G0 X-3 Z2 S800 
G0 X-0.625 Z2 S0 
G0 Y1 Z2 
G0 X0.625 Z2 
G0 X1 Z2 S800 
G0 X16 Z2 S0 
G0 X1 Z2 S800 
G0 X2 Z2 S0 
G0 X1 Z2 S800 
G0 X2 Z2 S0 
G0 X2 Z2 S800 
G0 X2 Z2 S0 
G0 X1 Z2 S800 
G0 X1 Z2 S0 
G0 X1 Z2 S800 
G0 X8 Z2 S0 
G0 X3 Z2 S800 
G0 X20 Z2 S0 
G0 X1 Z2 S800 
G0 X5 Z2 S0 
G0 X1 Z2 S800 
G0 X1 Z2 S0 
G0 X1 Z2 S800 
G0 X1 Z2 S0 
G0 X1 Z2 S800 
G0 X15 Z2 S0 
G0 X1 Z2 S800 
G0 X0.625 Z2 S0 
G0 Y1 Z2 
G0 X-0.625 Z2 
G0 X-2 Z2 S800 
G0 X-16 Z2 S0 
G0 X-2 Z2 S800 
G0 X-1 Z2 S0 
G0 X-1 Z2 S800 
G0 X-4 Z2 S0 
G0 X-1 Z2 S800 
G0 X-21 Z2 S0 
G0 X-1 Z2 S800 
G0 X-9 Z2 S0 
G0 X-1 Z2 S800 
G0 X-2 Z2 S0 
G0 X-2 Z2 S800 
G0 X-7 Z2 S0 
G0 X-1 Z2 S800 
G0 X-16 Z2 S0 
G0 X-1 Z2 S800 
G0 X-0.625 Z2 S0 
G0 Y1 Z2 
G0 X0.625 Z2 
G0 X1 Z2 S800 
G0 X13 Z2 S0 
G0 X4 Z2 S800 
G0 X3 Z2 S0 
G0 X1 Z2 S800 
G0 X7 Z2 S0 
G0 X1 Z2 S800 
G0 X23 Z2 S0 
G0 X1 Z2 S800 
G0 X8 Z2 S0 
G0 X1 Z2 S800 
G0 X3 Z2 S0 
G0 X1 Z2 S800 
G0 X1 Z2 S0 
G0 X1 Z2 S800 
G0 X1 Z2 S0 
G0 X2 Z2 S800 
G0 X1 Z2 S0 
G0 X1 Z2 S800 
G0 X12 Z2 S0 
G0 X2 Z2 S800 
G0 X0.625 Z2 S0 
G0 Y1 Z2 
G0 X-0.625 Z2 
G0 X-2 Z2 S800 
G0 X-12 Z2 S0 
G0 X-4 Z2 S800 
G0 X-1 Z2 S0 
G0 X-2 Z2 S800 
G0 X-4 Z2 S0 
G0 X-1 Z2 S800 
G0 X-1 Z2 S0 
G0 X-1 Z2 S800 
G0 X-6 Z2 S0 
G0 X-2 Z2 S800 
G0 X-22 Z2 S0 
G0 X-1 Z2 S800 
G0 X-3 Z2 S0 
G0 X-3 Z2 S800 
G0 X-1 Z2 S0 
G0 X-1 Z2 S800 
G0 X-1 Z2 S0 
G0 X-1 Z2 S800 
G0 X-1 Z2 S0 
G0 X-1 Z2 S800 
G0 X-1 Z2 S0 
G0 X-4 Z2 S800 
G0 X-11 Z2 S0 
G0 X-1 Z2 S800 
G0 X-0.625 Z2 S0 
G0 Y1 Z2 
G0 X0.625 Z2 
G0 X1 Z2 S800 
G0 X9 Z2 S0 
G0 X6 Z2 S800 
G0 X3 Z2 S0 
G0 X1 Z2 S800 
G0 X1 Z2 S0 
G0 X2 Z2 S800 
G0 X3 Z2 S0 
G0 X1 Z2 S800 
G0 X2 Z2 S0 
G0 X1 Z2 S800 
G0 X13 Z2 S0 
G0 X5 Z2 S800 
G0 X3 Z2 S0 
G0 X2 Z2 S800 
G0 X7 Z2 S0 
G0 X2 Z2 S800 
G0 X5 Z2 S0 
G0 X1 Z2 S800 
G0 X2 Z2 S0 
G0 X6 Z2 S800 
G0 X10 Z2 S0 
G0 X2 Z2 S800 
G0 X0.625 Z2 S0 
G0 Y1 Z2 
G0 X-0.625 Z2 
G0 X-2 Z2 S800 
G0 X-6 Z2 S0 
G0 X-1 Z2 S800 
G0 X-1 Z2 S0 
G0 X-9 Z2 S800 
G0 X-3 Z2 S0 
G0 X-1 Z2 S800 
G0 X-3 Z2 S0 
G0 X-1 Z2 S800 
G0 X-11 Z2 S0 
G0 X-1 Z2 S800 
G0 X-19 Z2 S0 
G0 X-1 Z2 S800 
G0 X-3 Z2 S0 
G0 X-1 Z2 S800 
G0 X-2 Z2 S0 
G0 X-1 Z2 S800 
G0 X-2 Z2 S0 
G0 X-1 Z2 S800 
G0 X-3 Z2 S0 
G0 X-8 Z2 S800 
G0 X-0.625 Z2 S0 
G0 X-9 Y1 Z2 
G0 X0.625 Z2 
G0 X1 Z2 S800 
G0 X6 Z2 S0 
G0 X9 Z2 S800 
G0 X4 Z2 S0 
G0 X2 Z2 S800 
G0 X1 Z2 S0 
G0 X1 Z2 S800 
G0 X1 Z2 S0 
G0 X2 Z2 S800 
G0 X2 Z2 S0 
G0 X2 Z2 S800 
G0 X14 Z2 S0 
G0 X1 Z2 S800 
G0 X9 Z2 S0 
G0 X1 Z2 S800 
G0 X5 Z2 S0 
G0 X1 Z2 S800 
G0 X4 Z2 S0 
G0 X1 Z2 S800 
G0 X2 Z2 S0 
G0 X1 Z2 S800 
G0 X1 Z2 S0 
G0 X10 Z2 S800 
G0 X1 Z2 S0 
G0 X1 Z2 S800 
G0 X4 Z2 S0 
G0 X2 Z2 S800 
G0 X0.625 Z2 S0 
G0 X-1 Y1 Z2 
G0 X-0.625 Z2 
G0 X-1 Z2 S800 
G0 X-2 Z2 S0 
G0 X-1 Z2 S800 
G0 X-1 Z2 S0 
G0 X-13 Z2 S800 
G0 X-1 Z2 S0 
G0 X-1 Z2 S800 
G0 X-7 Z2 S0 
G0 X-1 Z2 S800 
G0 X-11 Z2 S0 
G0 X-5 Z2 S800 
G0 X-3 Z2 S0 
G0 X-1 Z2 S800 
G0 X-9 Z2 S0 
G0 X-1 Z2 S800 
G0 X-1 Z2 S0 
G0 X-5 Z2 S800 
G0 X-2 Z2 S0 
G0 X-1 Z2 S800 
G0 X-1 Z2 S0 
G0 X-1 Z2 S800 
G0 X-3 Z2 S0 
G0 X-11 Z2 S800 
G0 X-4 Z2 S0 
G0 X-1 Z2 S800 
G0 X-0.625 Z2 S0 
G0 Y1 Z2 
G0 X0.625 Z2 
G0 X1 Z2 S800 
G0 X2 Z2 S0 
G0 X10 Z2 S800 
G0 X1 Z2 S0 
G0 X2 Z2 S800 
G0 X3 Z2 S0 
G0 X1 Z2 S800 
G0 X2 Z2 S0 
G0 X1 Z2 S800 
G0 X3 Z2 S0 
G0 X2 Z2 S800 
G0 X13 Z2 S0 
G0 X1 Z2 S800 
G0 X2 Z2 S0 
G0 X1 Z2 S800 
G0 X4 Z2 S0 
G0 X1 Z2 S800 
G0 X2 Z2 S0 
G0 X3 Z2 S800 
G0 X5 Z2 S0 
G0 X2 Z2 S800 
G0 X8 Z2 S0 
G0 X15 Z2 S800 
G0 X2 Z2 S0 
G0 X1 Z2 S800 
G0 X0.625 Z2 S0 
G0 Y1 Z2 
G0 X-0.625 Z2 
G0 X-16 Z2 S800 
G0 X-11 Z2 S0 
G0 X-1 Z2 S800 
G0 X-8 Z2 S0 
G0 X-2 Z2 S800 
G0 X-2 Z2 S0 
G0 X-1 Z2 S800 
G0 X-1 Z2 S0 
G0 X-2 Z2 S800 
G0 X-1 Z2 S0 
G0 X-3 Z2 S800 
G0 X-9 Z2 S0 
G0 X-1 Z2 S800 
G0 X-5 Z2 S0 
G0 X-2 Z2 S800 
G0 X-3 Z2 S0 
G0 X-1 Z2 S800 
G0 X-3 Z2 S0 
G0 X-16 Z2 S800 
G0 X-0.625 Z2 S0 
G0 Y1 Z2 
G0 X0.625 Z2 
G0 X1 Z2 S800 
G0 X1 Z2 S0 
G0 X8 Z2 S800 
G0 X1 Z2 S0 
G0 X5 Z2 S800 
G0 X4 Z2 S0 
G0 X1 Z2 S800 
G0 X3 Z2 S0 
G0 X7 Z2 S800 
G0 X10 Z2 S0 
G0 X1 Z2 S800 
G0 X1 Z2 S0 
G0 X5 Z2 S800 
G0 X1 Z2 S0 
G0 X2 Z2 S800 
G0 X9 Z2 S0 
G0 X1 Z2 S800 
G0 X12 Z2 S0 
G0 X15 Z2 S800 
G0 X0.625 Z2 S0 
G0 Y1 Z2 
G0 X-0.625 Z2 
G0 X-14 Z2 S800 
G0 X-5 Z2 S0 
G0 X-1 Z2 S800 
G0 X-8 Z2 S0 
G0 X-1 Z2 S800 
G0 X-4 Z2 S0 
G0 X-2 Z2 S800 
G0 X-4 Z2 S0 
G0 X-2 Z2 S800 
G0 X-4 Z2 S0 
G0 X-1 Z2 S800 
G0 X-11 Z2 S0 
G0 X-1 Z2 S800 
G0 X-1 Z2 S0 
G0 X-4 Z2 S800 
G0 X-3 Z2 S0 
G0 X-1 Z2 S800 
G0 X-1 Z2 S0 
G0 X-1 Z2 S800 
G0 X-1 Z2 S0 
G0 X-1 Z2 S800 
G0 X-2 Z2 S0 
G0 X-13 Z2 S800 
G0 X-0.625 Z2 S0 
G0 Y1 Z2 
G0 X0.625 Z2 
G0 X12 Z2 S800 
G0 X3 Z2 S0 
G0 X1 Z2 S800 
G0 X1 Z2 S0 
G0 X1 Z2 S800 
G0 X2 Z2 S0 
G0 X2 Z2 S800 
G0 X4 Z2 S0 
G0 X1 Z2 S800 
G0 X1 Z2 S0 
G0 X1 Z2 S800 
G0 X4 Z2 S0 
G0 X1 Z2 S800 
G0 X7 Z2 S0 
G0 X3 Z2 S800 
G0 X6 Z2 S0 
G0 X2 Z2 S800 
G0 X5 Z2 S0 
G0 X1 Z2 S800 
G0 X1 Z2 S0 
G0 X1 Z2 S800 
G0 X6 Z2 S0 
G0 X1 Z2 S800 
G0 X7 Z2 S0 
G0 X13 Z2 S800 
G0 X0.625 Z2 S0 
G0 X-1 Y1 Z2 
G0 X-0.625 Z2 
G0 X-11 Z2 S800 
G0 X-16 Z2 S0 
G0 X-2 Z2 S800 
G0 X-6 Z2 S0 
G0 X-2 Z2 S800 
G0 X-15 Z2 S0 
G0 X-2 Z2 S800 
G0 X-3 Z2 S0 
G0 X-1 Z2 S800 
G0 X-1 Z2 S0 
G0 X-1 Z2 S800 
G0 X-2 Z2 S0 
G0 X-2 Z2 S800 
G0 X-2 Z2 S0 
G0 X-1 Z2 S800 
G0 X-1 Z2 S0 
G0 X-2 Z2 S800 
G0 X-5 Z2 S0 
G0 X-11 Z2 S800 
G0 X-0.625 Z2 S0 
G0 Y1 Z2 
G0 X0.625 Z2 
G0 X6 Z2 S800 
G0 X1 Z2 S0 
G0 X2 Z2 S800 
G0 X7 Z2 S0 
G0 X2 Z2 S800 
G0 X2 Z2 S0 
G0 X1 Z2 S800 
G0 X5 Z2 S0 
G0 X1 Z2 S800 
G0 X1 Z2 S0 
G0 X1 Z2 S800 
G0 X3 Z2 S0 
G0 X1 Z2 S800 
G0 X4 Z2 S0 
G0 X2 Z2 S800 
G0 X8 Z2 S0 
G0 X3 Z2 S800 
G0 X7 Z2 S0 
G0 X1 Z2 S800 
G0 X7 Z2 S0 
G0 X1 Z2 S800 
G0 X10 Z2 S0 
G0 X1 Z2 S800 
G0 X1 Z2 S0 
G0 X6 Z2 S800 
G0 X1 Z2 S0 
G0 X2 Z2 S800 
G0 X0.625 Z2 S0 
G0 Y1 Z2 
G0 X-0.625 Z2 
G0 X-1 Z2 S800 
G0 X-2 Z2 S0 
G0 X-2 Z2 S800 
G0 X-1 Z2 S0 
G0 X-4 Z2 S800 
G0 X-11 Z2 S0 
G0 X-1 Z2 S800 
G0 X-7 Z2 S0 
G0 X-1 Z2 S800 
G0 X-8 Z2 S0 
G0 X-5 Z2 S800 
G0 X-3 Z2 S0 
G0 X-3 Z2 S800 
G0 X-6 Z2 S0 
G0 X-1 Z2 S800 
G0 X-2 Z2 S0 
G0 X-1 Z2 S800 
G0 X-1 Z2 S0 
G0 X-1 Z2 S800 
G0 X-4 Z2 S0 
G0 X-3 Z2 S800 
G0 X-1 Z2 S0 
G0 X-1 Z2 S800 
G0 X-8 Z2 S0 
G0 X-8 Z2 S800 
G0 X-1 Z2 S0 
G0 X-1 Z2 S800 
G0 X-0.625 Z2 S0 
G0 Y1 Z2 
G0 X0.625 Z2 
G0 X1 Z2 S800 
G0 X1 Z2 S0 
G0 X7 Z2 S800 
G0 X8 Z2 S0 
G0 X1 Z2 S800 
G0 X1 Z2 S0 
G0 X2 Z2 S800 
G0 X2 Z2 S0 
G0 X1 Z2 S800 
G0 X3 Z2 S0 
G0 X1 Z2 S800 
G0 X1 Z2 S0 
G0 X1 Z2 S800 
G0 X2 Z2 S0 
G0 X1 Z2 S800 
G0 X7 Z2 S0 
G0 X6 Z2 S800 
G0 X19 Z2 S0 
G0 X1 Z2 S800 
G0 X1 Z2 S0 
G0 X1 Z2 S800 
G0 X12 Z2 S0 
G0 X7 Z2 S800 
G0 X0.625 Z2 S0 
G0 Y1 Z2 
G0 X-0.625 Z2 
G0 X-2 Z2 S800 
G0 X-1 Z2 S0 
G0 X-3 Z2 S800 
G0 X-12 Z2 S0 
G0 X-2 Z2 S800 
G0 X-1 Z2 S0 
G0 X-1 Z2 S800 
G0 X-28 Z2 S0 
G0 X-2 Z2 S800 
G0 X-3 Z2 S0 
G0 X-1 Z2 S800 
G0 X-3 Z2 S0 
G0 X-1 Z2 S800 
G0 X-5 Z2 S0 
G0 X-1 Z2 S800 
G0 X-1 Z2 S0 
G0 X-1 Z2 S800 
G0 X-1 Z2 S0 
G0 X-1 Z2 S800 
G0 X-11 Z2 S0 
G0 X-3 Z2 S800 
G0 X-1 Z2 S0 
G0 X-1 Z2 S800 
G0 X-0.625 Z2 S0 
G0 Y1 Z2 
G0 X0.625 Z2 
G0 X2 Z2 S800 
G0 X1 Z2 S0 
G0 X2 Z2 S800 
G0 X11 Z2 S0 
G0 X2 Z2 S800 
G0 X3 Z2 S0 
G0 X1 Z2 S800 
G0 X14 Z2 S0 
G0 X3 Z2 S800 
G0 X13 Z2 S0 
G0 X1 Z2 S800 
G0 X10 Z2 S0 
G0 X1 Z2 S800 
G0 X1 Z2 S0 
G0 X4 Z2 S800 
G0 X12 Z2 S0 
G0 X2 Z2 S800 
G0 X1 Z2 S0 
G0 X1 Z2 S800 
G0 X0.625 Z2 S0 
G0 Y1 Z2 
G0 X-0.625 Z2 
G0 X-2 Z2 S800 
G0 X-1 Z2 S0 
G0 X-1 Z2 S800 
G0 X-11 Z2 S0 
G0 X-5 Z2 S800 
G0 X-1 Z2 S0 
G0 X-1 Z2 S800 
G0 X-11 Z2 S0 
G0 X-1 Z2 S800 
G0 X-27 Z2 S0 
G0 X-2 Z2 S800 
G0 X-2 Z2 S0 
G0 X-1 Z2 S800 
G0 X-3 Z2 S0 
G0 X-1 Z2 S800 
G0 X-10 Z2 S0 
G0 X-1 Z2 S800 
G0 X-2 Z2 S0 
G0 X-1 Z2 S800 
G0 X-0.625 Z2 S0 
G0 Y1 Z2 
G0 X0.625 Z2 
G0 X2 Z2 S800 
G0 X1 Z2 S0 
G0 X1 Z2 S800 
G0 X9 Z2 S0 
G0 X1 Z2 S800 
G0 X1 Z2 S0 
G0 X4 Z2 S800 
G0 X1 Z2 S0 
G0 X1 Z2 S800 
G0 X4 Z2 S0 
G0 X3 Z2 S800 
G0 X4 Z2 S0 
G0 X2 Z2 S800 
G0 X15 Z2 S0 
G0 X1 Z2 S800 
G0 X1 Z2 S0 
G0 X1 Z2 S800 
G0 X10 Z2 S0 
G0 X1 Z2 S800 
G0 X1 Z2 S0 
G0 X5 Z2 S800 
G0 X11 Z2 S0 
G0 X1 Z2 S800 
G0 X1 Z2 S0 
G0 X2 Z2 S800 
G0 X0.625 Z2 S0 
G0 Y1 Z2 
G0 X-0.625 Z2 
G0 X-1 Z2 S800 
G0 X-1 Z2 S0 
G0 X-3 Z2 S800 
G0 X-9 Z2 S0 
G0 X-7 Z2 S800 
G0 X-1 Z2 S0 
G0 X-1 Z2 S800 
G0 X-10 Z2 S0 
G0 X-1 Z2 S800 
G0 X-1 Z2 S0 
G0 X-1 Z2 S800 
G0 X-6 Z2 S0 
G0 X-7 Z2 S800 
G0 X-6 Z2 S0 
G0 X-1 Z2 S800 
G0 X-5 Z2 S0 
G0 X-2 Z2 S800 
G0 X-3 Z2 S0 
G0 X-4 Z2 S800 
G0 X-1 Z2 S0 
G0 X-1 Z2 S800 
G0 X-7 Z2 S0 
G0 X-1 Z2 S800 
G0 X-2 Z2 S0 
G0 X-2 Z2 S800 
G0 X-0.625 Z2 S0 
G0 Y1 Z2 
G0 X0.625 Z2 
G0 X2 Z2 S800 
G0 X2 Z2 S0 
G0 X1 Z2 S800 
G0 X6 Z2 S0 
G0 X1 Z2 S800 
G0 X1 Z2 S0 
G0 X4 Z2 S800 
G0 X2 Z2 S0 
G0 X1 Z2 S800 
G0 X3 Z2 S0 
G0 X2 Z2 S800 
G0 X5 Z2 S0 
G0 X1 Z2 S800 
G0 X15 Z2 S0 
G0 X4 Z2 S800 
G0 X10 Z2 S0 
G0 X1 Z2 S800 
G0 X2 Z2 S0 
G0 X8 Z2 S800 
G0 X8 Z2 S0 
G0 X1 Z2 S800 
G0 X1 Z2 S0 
G0 X1 Z2 S800 
G0 X0.625 Z2 S0 
G0 X1 Y1 Z2 
G0 X-0.625 Z2 
G0 X-2 Z2 S800 
G0 X-2 Z2 S0 
G0 X-1 Z2 S800 
G0 X-7 Z2 S0 
G0 X-10 Z2 S800 
G0 X-1 Z2 S0 
G0 X-1 Z2 S800 
G0 X-11 Z2 S0 
G0 X-3 Z2 S800 
G0 X-2 Z2 S0 
G0 X-2 Z2 S800 
G0 X-7 Z2 S0 
G0 X-2 Z2 S800 
G0 X-4 Z2 S0 
G0 X-3 Z2 S800 
G0 X-4 Z2 S0 
G0 X-1 Z2 S800 
G0 X-1 Z2 S0 
G0 X-1 Z2 S800 
G0 X-1 Z2 S0 
G0 X-7 Z2 S800 
G0 X-5 Z2 S0 
G0 X-1 Z2 S800 
G0 X-1 Z2 S0 
G0 X-3 Z2 S800 
G0 X-0.625 Z2 S0 
G0 X1 Y1 Z2 
G0 X0.625 Z2 
G0 X2 Z2 S800 
G0 X2 Z2 S0 
G0 X1 Z2 S800 
G0 X3 Z2 S0 
G0 X8 Z2 S800 
G0 X1 Z2 S0 
G0 X1 Z2 S800 
G0 X9 Z2 S0 
G0 X2 Z2 S800 
G0 X5 Z2 S0 
G0 X6 Z2 S800 
G0 X3 Z2 S0 
G0 X1 Z2 S800 
G0 X13 Z2 S0 
G0 X1 Z2 S800 
G0 X2 Z2 S0 
G0 X11 Z2 S800 
G0 X5 Z2 S0 
G0 X2 Z2 S800 
G0 X1 Z2 S0 
G0 X2 Z2 S800 
G0 X0.625 Z2 S0 
G0 Y1 Z2 
G0 X-0.625 Z2 
G0 X-2 Z2 S800 
G0 X-2 Z2 S0 
G0 X-1 Z2 S800 
G0 X-4 Z2 S0 
G0 X-11 Z2 S800 
G0 X-18 Z2 S0 
G0 X-2 Z2 S800 
G0 X-10 Z2 S0 
G0 X-2 Z2 S800 
G0 X-8 Z2 S0 
G0 X-1 Z2 S800 
G0 X-3 Z2 S0 
G0 X-10 Z2 S800 
G0 X-1 Z2 S0 
G0 X-1 Z2 S800 
G0 X-2 Z2 S0 
G0 X-2 Z2 S800 
G0 X-0.625 Z2 S0 
G0 X2 Y1 Z2 
G0 X0.625 Z2 
G0 X1 Z2 S800 
G0 X1 Z2 S0 
G0 X12 Z2 S800 
G0 X1 Z2 S0 
G0 X1 Z2 S800 
G0 X2 Z2 S0 
G0 X1 Z2 S800 
G0 X9 Z2 S0 
G0 X3 Z2 S800 
G0 X4 Z2 S0 
G0 X3 Z2 S800 
G0 X20 Z2 S0 
G0 X12 Z2 S800 
G0 X3 Z2 S0 
G0 X1 Z2 S800 
G0 X1 Z2 S0 
G0 X2 Z2 S800 
G0 X0.625 Z2 S0 
G0 Y1 Z2 
G0 X-0.625 Z2 
G0 X-1 Z2 S800 
G0 X-1 Z2 S0 
G0 X-1 Z2 S800 
G0 X-1 Z2 S0 
G0 X-1 Z2 S800 
G0 X-1 Z2 S0 
G0 X-12 Z2 S800 
G0 X-5 Z2 S0 
G0 X-1 Z2 S800 
G0 X-4 Z2 S0 
G0 X-1 Z2 S800 
G0 X-14 Z2 S0 
G0 X-3 Z2 S800 
G0 X-12 Z2 S0 
G0 X-1 Z2 S800 
G0 X-1 Z2 S0 
G0 X-14 Z2 S800 
G0 X-2 Z2 S0 
G0 X-2 Z2 S800 
G0 X-0.625 Z2 S0 
G0 X1 Y1 Z2 
G0 X0.625 Z2 
G0 X2 Z2 S800 
G0 X1 Z2 S0 
G0 X12 Z2 S800 
G0 X3 Z2 S0 
G0 X1 Z2 S800 
G0 X1 Z2 S0 
G0 X1 Z2 S800 
G0 X26 Z2 S0 
G0 X5 Z2 S800 
G0 X8 Z2 S0 
G0 X12 Z2 S800 
G0 X2 Z2 S0 
G0 X2 Z2 S800 
G0 X0.625 Z2 S0 
G0 X-1 Y1 Z2 
G0 X-0.625 Z2 
G0 X-2 Z2 S800 
G0 X-1 Z2 S0 
G0 X-6 Z2 S800 
G0 X-1 Z2 S0 
G0 X-5 Z2 S800 
G0 X-14 Z2 S0 
G0 X-1 Z2 S800 
G0 X-26 Z2 S0 
G0 X-2 Z2 S800 
G0 X-3 Z2 S0 
G0 X-5 Z2 S800 
G0 X-1 Z2 S0 
G0 X-7 Z2 S800 
G0 X-0.625 Z2 S0 
G0 Y1 Z2 
G0 X0.625 Z2 
G0 X2 Z2 S800 
G0 X1 Z2 S0 
G0 X10 Z2 S800 
G0 X5 Z2 S0 
G0 X2 Z2 S800 
G0 X26 Z2 S0 
G0 X4 Z2 S800 
G0 X10 Z2 S0 
G0 X10 Z2 S800 
G0 X1 Z2 S0 
G0 X2 Z2 S800 
G0 X0.625 Z2 S0 
G0 Y1 Z2 
G0 X-0.625 Z2 
G0 X-2 Z2 S800 
G0 X-2 Z2 S0 
G0 X-9 Z2 S800 
G0 X-10 Z2 S0 
G0 X-5 Z2 S800 
G0 X-1 Z2 S0 
G0 X-1 Z2 S800 
G0 X-18 Z2 S0 
G0 X-1 Z2 S800 
G0 X-2 Z2 S0 
G0 X-2 Z2 S800 
G0 X-8 Z2 S0 
G0 X-10 Z2 S800 
G0 X-0.625 Z2 S0 
G0 X-1 Y1 Z2 
G0 X0.625 Z2 
G0 X9 Z2 S800 
G0 X1 Z2 S0 
G0 X1 Z2 S800 
G0 X9 Z2 S0 
G0 X2 Z2 S800 
G0 X1 Z2 S0 
G0 X1 Z2 S800 
G0 X2 Z2 S0 
G0 X2 Z2 S800 
G0 X3 Z2 S0 
G0 X2 Z2 S800 
G0 X3 Z2 S0 
G0 X1 Z2 S800 
G0 X6 Z2 S0 
G0 X7 Z2 S800 
G0 X10 Z2 S0 
G0 X6 Z2 S800 
G0 X3 Z2 S0 
G0 X1 Z2 S800 
G0 X1 Z2 S0 
G0 X1 Z2 S800 
G0 X0.625 Z2 S0 
G0 X-1 Y1 Z2 
G0 X-0.625 Z2 
G0 X-1 Z2 S800 
G0 X-1 Z2 S0 
G0 X-1 Z2 S800 
G0 X-1 Z2 S0 
G0 X-7 Z2 S800 
G0 X-10 Z2 S0 
G0 X-9 Z2 S800 
G0 X-6 Z2 S0 
G0 X-1 Z2 S800 
G0 X-1 Z2 S0 
G0 X-1 Z2 S800 
G0 X-3 Z2 S0 
G0 X-1 Z2 S800 
G0 X-1 Z2 S0 
G0 X-1 Z2 S800 
G0 X-1 Z2 S0 
G0 X-4 Z2 S800 
G0 X-11 Z2 S0 
G0 X-3 Z2 S800 
G0 X-1 Z2 S0 
G0 X-2 Z2 S800 
G0 X-1 Z2 S0 
G0 X-2 Z2 S800 
G0 X-0.625 Z2 S0 
G0 X1 Y1 Z2 
G0 X0.625 Z2 
G0 X1 Z2 S800 
G0 X2 Z2 S0 
G0 X4 Z2 S800 
G0 X11 Z2 S0 
G0 X9 Z2 S800 
G0 X1 Z2 S0 
G0 X1 Z2 S800 
G0 X9 Z2 S0 
G0 X10 Z2 S800 
G0 X11 Z2 S0 
G0 X5 Z2 S800 
G0 X1 Z2 S0 
G0 X1 Z2 S800 
G0 X1 Z2 S0 
G0 X1 Z2 S800 
G0 X0.625 Z2 S0 
G0 X-1 Y1 Z2 
G0 X-0.625 Z2 
G0 X-1 Z2 S800 
G0 X-1 Z2 S0 
G0 X-1 Z2 S800 
G0 X-1 Z2 S0 
G0 X-4 Z2 S800 
G0 X-11 Z2 S0 
G0 X-10 Z2 S800 
G0 X-9 Z2 S0 
G0 X-11 Z2 S800 
G0 X-11 Z2 S0 
G0 X-3 Z2 S800 
G0 X-2 Z2 S0 
G0 X-2 Z2 S800 
G0 X-0.625 Z2 S0 
G0 X2 Y1 Z2 
G0 X0.625 Z2 
G0 X1 Z2 S800 
G0 X2 Z2 S0 
G0 X1 Z2 S800 
G0 X12 Z2 S0 
G0 X10 Z2 S800 
G0 X10 Z2 S0 
G0 X11 Z2 S800 
G0 X11 Z2 S0 
G0 X2 Z2 S800 
G0 X1 Z2 S0 
G0 X3 Z2 S800 
G0 X0.625 Z2 S0 
G0 X-1 Y1 Z2 
G0 X-0.625 Z2 
G0 X-1 Z2 S800 
G0 X-1 Z2 S0 
G0 X-1 Z2 S800 
G0 X-1 Z2 S0 
G0 X-2 Z2 S800 
G0 X-10 Z2 S0 
G0 X-11 Z2 S800 
G0 X-9 Z2 S0 
G0 X-12 Z2 S800 
G0 X-10 Z2 S0 
G0 X-1 Z2 S800 
G0 X-1 Z2 S0 
G0 X-1 Z2 S800 
G0 X-1 Z2 S0 
G0 X-1 Z2 S800 
G0 X-0.625 Z2 S0 
G0 X1 Y1 Z2 
G0 X0.625 Z2 
G0 X1 Z2 S800 
G0 X1 Z2 S0 
G0 X1 Z2 S800 
G0 X1 Z2 S0 
G0 X1 Z2 S800 
G0 X9 Z2 S0 
G0 X11 Z2 S800 
G0 X10 Z2 S0 
G0 X11 Z2 S800 
G0 X9 Z2 S0 
G0 X2 Z2 S800 
G0 X1 Z2 S0 
G0 X1 Z2 S800 
G0 X0.625 Z2 S0 
G0 Y1 Z2 
G0 X-0.625 Z2 
G0 X-2 Z2 S800 
G0 X-1 Z2 S0 
G0 X-2 Z2 S800 
G0 X-8 Z2 S0 
G0 X-11 Z2 S800 
G0 X-10 Z2 S0 
G0 X-11 Z2 S800 
G0 X-7 Z2 S0 
G0 X-2 Z2 S800 
G0 X-1 Z2 S0 
G0 X-1 Z2 S800 
G0 X-0.625 Z2 S0 
G0 Y1 Z2 
G0 X0.625 Z2 
G0 X2 Z2 S800 
G0 X1 Z2 S0 
G0 X2 Z2 S800 
G0 X6 Z2 S0 
G0 X11 Z2 S800 
G0 X10 Z2 S0 
G0 X12 Z2 S800 
G0 X5 Z2 S0 
G0 X2 Z2 S800 
G0 X2 Z2 S0 
G0 X1 Z2 S800 
G0 X0.625 Z2 S0 
G0 X-1 Y1 Z2 
G0 X-0.625 Z2 
G0 X-1 Z2 S800 
G0 X-3 Z2 S0 
G0 X-1 Z2 S800 
G0 X-4 Z2 S0 
G0 X-12 Z2 S800 
G0 X-10 Z2 S0 
G0 X-12 Z2 S800 
G0 X-3 Z2 S0 
G0 X-2 Z2 S800 
G0 X-1 Z2 S0 
G0 X-2 Z2 S800 
G0 X-1 Z2 S0 
G0 X-1 Z2 S800 
G0 X-0.625 Z2 S0 
G0 X1 Y1 Z2 
G0 X0.625 Z2 
G0 X2 Z2 S800 
G0 X1 Z2 S0 
G0 X1 Z2 S800 
G0 X2 Z2 S0 
G0 X1 Z2 S800 
G0 X2 Z2 S0 
G0 X12 Z2 S800 
G0 X10 Z2 S0 
G0 X12 Z2 S800 
G0 X2 Z2 S0 
G0 X2 Z2 S800 
G0 X3 Z2 S0 
G0 X1 Z2 S800 
G0 X1 Z2 S0 
G0 X1 Z2 S800 
G0 X0.625 Z2 S0 
G0 X-1 Y1 Z2 
G0 X-0.625 Z2 
G0 X-4 Z2 S800 
G0 X-3 Z2 S0 
G0 X-6 Z2 S800 
G0 X-1 Z2 S0 
G0 X-7 Z2 S800 
G0 X-10 Z2 S0 
G0 X-5 Z2 S800 
G0 X-1 Z2 S0 
G0 X-8 Z2 S800 
G0 X-1 Z2 S0 
G0 X-2 Z2 S800 
G0 X-1 Z2 S0 
G0 X-1 Z2 S800 
G0 X-0.625 Z2 S0 
G0 X4 Y1 Z2 
G0 X0.625 Z2 
G0 X1 Z2 S800 
G0 X2 Z2 S0 
G0 X11 Z2 S800 
G0 X12 Z2 S0 
G0 X11 Z2 S800 
G0 X4 Z2 S0 
G0 X2 Z2 S800 
G0 X0.625 Z2 S0 
G0 X-1 Y1 Z2 
G0 X-0.625 Z2 
G0 X-3 Z2 S800 
G0 X-5 Z2 S0 
G0 X-8 Z2 S800 
G0 X-12 Z2 S0 
G0 X-9 Z2 S800 
G0 X-2 Z2 S0 
G0 X-4 Z2 S800 
G0 X-0.625 Z2 S0 
G0 X2 Y1 Z2 
G0 X0.625 Z2 
G0 X1 Z2 S800 
G0 X1 Z2 S0 
G0 X2 Z2 S800 
G0 X4 Z2 S0 
G0 X5 Z2 S800 
G0 X12 Z2 S0 
G0 X6 Z2 S800 
G0 X4 Z2 S0 
G0 X3 Z2 S800 
G0 X0.625 Z2 S0 
G0 X-1 Y1 Z2 
G0 X-0.625 Z2 
G0 X-1 Z2 S800 
G0 X-1 Z2 S0 
G0 X-3 Z2 S800 
G0 X-4 Z2 S0 
G0 X-15 Z2 S800 
G0 X-8 Z2 S0 
G0 X-1 Z2 S800 
G0 X-0.625 Z2 S0 
G90
M9
M5
G1 Z10 F1000
G90
G1 Z10 F800
