;LightBurn 1.6.04
;Custom GCode device profile, absolute coords
;Bounds: X4.43 Y12.08 to X125.57 Y73.92
G00 G17 G40 G21 G54
G90
M3
G1 Z10 F500
;Cut @ 15 mm/sec, 90% power

M8
G0 Z2.8F500
G0 X20.196Y20.489Z2.8F1000
G1 Z0F500
;Layer C00
G1 X20.255Y20.504Z0S900F800
G1 X20.303Y20.548Z0F800
G1 X20.342Y20.616Z0F800
G1 X20.371Y20.706Z0F800
G1 X20.407Y20.936Z0F800
G1 X20.419Y21.211Z0F800
G1 X20.416Y21.503Z0F800
G1 X20.403Y21.784Z0F800
G1 X20.39Y22.027Z0F800
G1 X20.384Y22.205Z0F800
G1 X20.366Y22.637Z0F800
G1 X20.313Y23.05Z0F800
G1 X20.227Y23.447Z0F800
G1 X20.111Y23.83Z0F800
G1 X19.802Y24.559Z0F800
G1 X19.406Y25.252Z0F800
G1 X18.437Y26.588Z0F800
G1 X17.374Y27.956Z0F800
G0 Z2.8F500
G0 X19.604Y20.93Z2.8F1000
G1 Z0F500
G1 Y23.543Z0F800
G1 X19.582Y23.795Z0F800
G1 X19.526Y24.074Z0F800
G1 X19.377Y24.68Z0F800
G1 X19.316Y24.986Z0F800
G1 X19.285Y25.282Z0F800
G1 X19.301Y25.557Z0F800
G1 X19.378Y25.803Z0F800
G1 X19.482Y25.935Z0F800
G1 X19.649Y26.056Z0F800
G1 X19.872Y26.167Z0F800
G1 X20.142Y26.266Z0F800
G1 X20.786Y26.431Z0F800
G1 X21.513Y26.547Z0F800
G1 X22.252Y26.612Z0F800
G1 X22.935Y26.625Z0F800
G1 X23.233Y26.611Z0F800
G1 X23.491Y26.582Z0F800
G1 X23.7Y26.539Z0F800
G1 X23.851Y26.482Z0F800
G1 X23.951Y26.413Z0F800
G1 X24.073Y26.309Z0F800
G1 X24.208Y26.181Z0F800
G1 X24.346Y26.04Z0F800
G1 X24.479Y25.898Z0F800
G1 X24.597Y25.766Z0F800
G1 X24.692Y25.655Z0F800
G1 X24.755Y25.577Z0F800
G1 X24.98Y25.221Z0F800
G1 X25.124Y24.874Z0F800
G1 X25.208Y24.533Z0F800
G1 X25.253Y24.198Z0F800
G1 X25.302Y23.533Z0F800
G1 X25.434Y22.862Z0F800
G1 X25.527Y22.683Z0F800
G1 X25.655Y22.521Z0F800
G1 X25.785Y22.36Z0F800
G1 X25.887Y22.184Z0F800
G1 X25.975Y21.91Z0F800
G1 X26.038Y21.613Z0F800
G1 X26.079Y21.297Z0F800
G1 X26.103Y20.971Z0F800
G1 X26.116Y20.313Z0F800
G1 X26.113Y19.695Z0F800
G1 Y17.962Z0F800
G1 X26.128Y17.86Z0F800
G1 X26.153Y17.744Z0F800
G1 X26.158Y17.655Z0F800
G1 X26.113Y17.631Z0F800
G1 X25.588Y17.815Z0F800
G1 X25.056Y18.066Z0F800
G1 X24.543Y18.355Z0F800
G1 X24.074Y18.652Z0F800
G0 Z2.8F500
G0 X33.589Y25.708Z2.8F1000
G1 Z0F500
G1 X33.859Y26.007Z0F800
G1 X34.121Y26.318Z0F800
G1 X34.4Y26.606Z0F800
G1 X34.72Y26.839Z0F800
G1 X34.918Y26.916Z0F800
G1 X35.2Y26.98Z0F800
G1 X35.555Y27.032Z0F800
G1 X35.969Y27.071Z0F800
G1 X36.928Y27.117Z0F800
G1 X37.977Y27.122Z0F800
G1 X38.504Y27.112Z0F800
G1 X39.017Y27.092Z0F800
G1 X39.503Y27.066Z0F800
G1 X39.949Y27.032Z0F800
G1 X40.343Y26.992Z0F800
G1 X40.673Y26.946Z0F800
G1 X40.927Y26.895Z0F800
G1 X41.091Y26.839Z0F800
G1 X41.43Y26.637Z0F800
G1 X41.807Y26.357Z0F800
G1 X42.159Y26.04Z0F800
G1 X42.425Y25.73Z0F800
G1 X42.435Y25.701Z0F800
G1 X42.445Y25.644Z0F800
G1 X42.455Y25.561Z0F800
G1 X42.466Y25.454Z0F800
G1 X42.489Y25.173Z0F800
G1 X42.511Y24.817Z0F800
G1 X42.534Y24.401Z0F800
G1 X42.557Y23.939Z0F800
G1 X42.578Y23.446Z0F800
G1 X42.616Y22.43Z0F800
G1 X42.645Y21.47Z0F800
G1 X42.655Y21.049Z0F800
G1 X42.661Y20.687Z0F800
G1 Y20.399Z0F800
G1 Y20.2Z0F800
G1 X42.656Y20.138Z0F800
G1 X42.651Y20.105Z0F800
G1 X42.595Y19.947Z0F800
G1 X42.504Y19.746Z0F800
G1 X42.385Y19.52Z0F800
G1 X42.244Y19.284Z0F800
G1 X42.085Y19.054Z0F800
G1 X41.915Y18.847Z0F800
G1 X41.74Y18.679Z0F800
G1 X41.565Y18.566Z0F800
G1 X41.367Y18.506Z0F800
G1 X41.085Y18.467Z0F800
G1 X40.731Y18.445Z0F800
G1 X40.317Y18.44Z0F800
G1 X39.359Y18.471Z0F800
G1 X38.312Y18.546Z0F800
G1 X37.786Y18.596Z0F800
G1 X37.276Y18.652Z0F800
G1 X36.793Y18.712Z0F800
G1 X36.35Y18.775Z0F800
G1 X35.96Y18.838Z0F800
G1 X35.636Y18.901Z0F800
G1 X35.389Y18.962Z0F800
G1 X35.233Y19.018Z0F800
G1 X35.101Y19.113Z0F800
G1 X34.992Y19.25Z0F800
G1 X34.905Y19.423Z0F800
G1 X34.837Y19.627Z0F800
G1 X34.751Y20.107Z0F800
G1 X34.718Y20.644Z0F800
G1 Y21.196Z0F800
G1 X34.743Y21.718Z0F800
G1 X34.768Y22.166Z0F800
G1 X34.777Y22.348Z0F800
G1 X34.78Y22.496Z0F800
G1 X34.83Y23.328Z0F800
G1 X34.952Y24.135Z0F800
G1 X35.1Y24.942Z0F800
G1 X35.233Y25.773Z0F800
G0 Z2.8F500
G0 X46.909Y30.781Z2.8F1000
G1 Z0F500
G1 X48.059Z0F800
G1 X48.248Y30.773Z0F800
G1 X48.479Y30.752Z0F800
G1 X48.738Y30.726Z0F800
G1 X49.011Y30.703Z0F800
G1 X49.282Y30.689Z0F800
G1 X49.536Y30.693Z0F800
G1 X49.76Y30.721Z0F800
G1 X49.938Y30.781Z0F800
G1 X50.224Y30.971Z0F800
G1 X50.464Y31.199Z0F800
G1 X50.678Y31.445Z0F800
G1 X50.883Y31.691Z0F800
G1 X51.097Y31.916Z0F800
G1 X51.339Y32.101Z0F800
G1 X51.476Y32.172Z0F800
G1 X51.627Y32.226Z0F800
G1 X51.794Y32.26Z0F800
G1 X51.98Y32.272Z0F800
G0 Z2.8F500
G0 X50.04Y36.702Z2.8F1000
G1 Z0F500
G1 X50.099Y36.394Z0F800
G1 X50.147Y36.047Z0F800
G1 X50.185Y35.661Z0F800
G1 X50.215Y35.241Z0F800
G1 X50.236Y34.79Z0F800
G1 X50.251Y34.31Z0F800
G1 X50.261Y33.804Z0F800
G1 X50.265Y33.276Z0F800
G1 Y32.165Z0F800
G1 X50.261Y30.998Z0F800
G1 Y29.801Z0F800
G1 X50.27Y28.597Z0F800
G1 X50.301Y27.41Z0F800
G1 X50.362Y26.264Z0F800
G1 X50.46Y25.183Z0F800
G1 X50.604Y24.19Z0F800
G1 X50.696Y23.735Z0F800
G1 X50.804Y23.31Z0F800
G1 X50.927Y22.919Z0F800
G1 X51.066Y22.566Z0F800
G1 X51.224Y22.252Z0F800
G1 X51.401Y21.982Z0F800
G1 X51.599Y21.757Z0F800
G1 X51.817Y21.582Z0F800
G1 X51.988Y21.504Z0F800
G1 X52.201Y21.455Z0F800
G1 X52.443Y21.428Z0F800
G1 X52.7Y21.415Z0F800
G1 X53.21Y21.402Z0F800
G1 X53.627Y21.356Z0F800
G1 X54.168Y21.21Z0F800
G1 X54.361Y21.177Z0F800
G1 X54.497Y21.197Z0F800
G1 X54.542Y21.233Z0F800
G1 X54.572Y21.289Z0F800
G1 X54.586Y21.369Z0F800
G1 X54.583Y21.474Z0F800
G1 X54.563Y21.607Z0F800
G1 X54.525Y21.771Z0F800
G1 X54.47Y21.967Z0F800
G1 X54.396Y22.199Z0F800
G0 Z2.8F500
G0 X64.114Y36.88Z2.8F1000
G1 Z0F500
G1 X64.337Y34.555Z0F800
G1 X64.568Y32.235Z0F800
G1 X64.701Y31.077Z0F800
G1 X64.854Y29.92Z0F800
G1 X65.033Y28.767Z0F800
G1 X65.245Y27.615Z0F800
G1 X65.385Y27.042Z0F800
G1 X65.558Y26.478Z0F800
G1 X65.744Y25.916Z0F800
G1 X65.924Y25.353Z0F800
G1 X66.279Y23.773Z0F800
G1 X66.602Y22.187Z0F800
G1 X66.614Y22.077Z0F800
G1 X66.625Y21.895Z0F800
G1 X66.635Y21.651Z0F800
G1 X66.645Y21.355Z0F800
G1 X66.686Y19.869Z0F800
G1 X66.711Y19.095Z0F800
G1 X66.742Y18.414Z0F800
G1 X66.76Y18.134Z0F800
G1 X66.781Y17.91Z0F800
G1 X66.803Y17.752Z0F800
G1 X66.829Y17.671Z0F800
G1 X66.889Y17.634Z0F800
G1 X66.97Y17.638Z0F800
G1 X67.061Y17.658Z0F800
G1 X67.147Y17.671Z0F800
G1 X67.301Y17.698Z0F800
G1 X67.423Y17.775Z0F800
G1 X67.515Y17.896Z0F800
G1 X67.582Y18.055Z0F800
G1 X67.652Y18.459Z0F800
G1 X67.659Y18.939Z0F800
G1 X67.63Y19.444Z0F800
G1 X67.593Y19.925Z0F800
G1 X67.579Y20.14Z0F800
G1 X67.574Y20.33Z0F800
G1 X67.579Y20.49Z0F800
G1 X67.6Y20.611Z0F800
G1 X67.966Y21.716Z0F800
G1 X68.407Y22.772Z0F800
G1 X68.905Y23.791Z0F800
G1 X69.444Y24.785Z0F800
G1 X70.577Y26.747Z0F800
G1 X71.671Y28.755Z0F800
G1 X71.938Y29.356Z0F800
G1 X72.166Y29.985Z0F800
G1 X72.576Y31.243Z0F800
G1 X72.619Y31.56Z0F800
G1 X72.614Y31.944Z0F800
G1 X72.603Y32.104Z0F800
G1 X72.59Y32.213Z0F800
G1 X72.58Y32.247Z0F800
G1 X72.576Y32.185Z0F800
G1 X72.598Y31.229Z0F800
G1 X72.654Y30.253Z0F800
G1 X72.727Y29.279Z0F800
G1 X72.802Y28.329Z0F800
G1 X72.978Y26.916Z0F800
G1 X73.238Y25.506Z0F800
G1 X73.506Y24.094Z0F800
G1 X73.707Y22.674Z0F800
G1 Y22.477Z0F800
G1 X73.69Y22.207Z0F800
G1 X73.63Y21.547Z0F800
G1 X73.609Y21.206Z0F800
G1 Y20.889Z0F800
G1 X73.638Y20.62Z0F800
G1 X73.707Y20.425Z0F800
G1 X73.764Y20.372Z0F800
G1 X73.822Y20.381Z0F800
G1 X73.879Y20.435Z0F800
G1 X73.931Y20.521Z0F800
G1 X74.014Y20.721Z0F800
G1 X74.046Y20.858Z0F800
G1 X74.031Y22.099Z0F800
G1 X74.005Y23.347Z0F800
G1 X74Y24.595Z0F800
G1 X74.046Y25.834Z0F800
G1 X74.112Y26.604Z0F800
G1 X74.201Y27.33Z0F800
G1 X74.313Y28.018Z0F800
G1 X74.445Y28.672Z0F800
G1 X74.764Y29.906Z0F800
G1 X75.143Y31.075Z0F800
G1 X75.569Y32.225Z0F800
G1 X76.265Y34.014Z0F800
G1 X76.505Y34.649Z0F800
G1 X76.746Y35.314Z0F800
G1 X76.987Y36.013Z0F800
G1 X77.201Y36.761Z0F800
G1 X77.379Y37.49Z0F800
G1 X77.586Y38.213Z0F800
G1 X77.886Y38.942Z0F800
G0 Z2.8F500
G0 X76.388Y48.171Z2.8F1000
G1 Z0F500
G1 X76.351Y50.844Z0F800
G1 X76.236Y53.497Z0F800
G1 X76.036Y56.132Z0F800
G1 X75.746Y58.753Z0F800
G1 X75.565Y60.059Z0F800
G1 X75.359Y61.362Z0F800
G1 X75.127Y62.663Z0F800
G1 X74.869Y63.963Z0F800
G1 X74.583Y65.261Z0F800
G1 X74.27Y66.559Z0F800
G1 X73.927Y67.856Z0F800
G1 X73.556Y69.152Z0F800
G0 Z2.8F500
G0 X69.076Y70.15Z2.8F1000
G1 Z0F500
G1 X70.947Y70.919Z0F800
G1 X73.885Y72.136Z0F800
G1 X74.957Y72.56Z0F800
G1 X76.023Y72.949Z0F800
G1 X77.076Y73.291Z0F800
G1 X78.111Y73.572Z0F800
G1 X79.12Y73.779Z0F800
G1 X79.613Y73.85Z0F800
G1 X80.098Y73.898Z0F800
G1 X80.572Y73.92Z0F800
G1 X81.037Y73.915Z0F800
G1 X81.49Y73.881Z0F800
G1 X81.931Y73.817Z0F800
G1 X82.359Y73.72Z0F800
G1 X82.773Y73.589Z0F800
G1 X83.173Y73.423Z0F800
G1 X83.558Y73.22Z0F800
G1 X83.927Y72.977Z0F800
G1 X84.278Y72.694Z0F800
G1 X84.612Y72.368Z0F800
G1 X84.927Y71.998Z0F800
G1 X85.223Y71.583Z0F800
G1 X85.498Y71.119Z0F800
G1 X85.753Y70.607Z0F800
G1 X85.986Y70.044Z0F800
G1 X86.196Y69.428Z0F800
G1 X86.382Y68.757Z0F800
G1 X86.467Y68.388Z0F800
G1 X86.559Y67.927Z0F800
G1 X86.645Y67.405Z0F800
G1 X86.715Y66.851Z0F800
G1 X86.758Y66.295Z0F800
G1 X86.762Y65.767Z0F800
G1 X86.745Y65.523Z0F800
G1 X86.716Y65.296Z0F800
G1 X86.67Y65.092Z0F800
G1 X86.608Y64.913Z0F800
G1 X86.465Y64.635Z0F800
G1 X86.281Y64.365Z0F800
G1 X86.061Y64.104Z0F800
G1 X85.808Y63.854Z0F800
G1 X85.223Y63.388Z0F800
G1 X84.561Y62.973Z0F800
G1 X83.859Y62.617Z0F800
G1 X83.151Y62.327Z0F800
G1 X82.806Y62.209Z0F800
G1 X82.472Y62.11Z0F800
G1 X82.155Y62.031Z0F800
G1 X81.858Y61.972Z0F800
G1 X81.188Y61.924Z0F800
G1 X80.504Y61.954Z0F800
G1 X79.818Y61.993Z0F800
G1 X79.144Y61.972Z0F800
G1 X76.736Y61.677Z0F800
G1 X75.542Y61.565Z0F800
G1 X74.315Y61.52Z0F800
G0 Z2.8F500
G0 X56.714Y51.624Z2.8F1000
G1 Z0F500
G1 X56.705Y51.197Z0F800
G1 X56.676Y50.83Z0F800
G1 X56.627Y50.504Z0F800
G1 X56.556Y50.199Z0F800
G1 X56.462Y49.896Z0F800
G1 X56.345Y49.575Z0F800
G1 X56.203Y49.216Z0F800
G1 X56.036Y48.799Z0F800
G1 X55.761Y48.091Z0F800
G1 X55.586Y47.66Z0F800
G1 X55.39Y47.214Z0F800
G1 X55.176Y46.783Z0F800
G1 X54.946Y46.395Z0F800
G1 X54.704Y46.077Z0F800
G1 X54.452Y45.859Z0F800
G1 X54.126Y45.692Z0F800
G1 X53.721Y45.548Z0F800
G1 X53.267Y45.444Z0F800
G1 X52.793Y45.396Z0F800
G1 X52.329Y45.42Z0F800
G1 X51.903Y45.532Z0F800
G1 X51.714Y45.626Z0F800
G1 X51.546Y45.748Z0F800
G1 X51.402Y45.9Z0F800
G1 X51.286Y46.085Z0F800
G1 X50.9Y46.952Z0F800
G1 X50.561Y47.865Z0F800
G1 X50.245Y48.793Z0F800
G1 X49.929Y49.704Z0F800
G1 X49.573Y50.676Z0F800
G1 X49.219Y51.686Z0F800
G1 X48.901Y52.721Z0F800
G1 X48.652Y53.769Z0F800
G1 X48.564Y54.294Z0F800
G1 X48.506Y54.817Z0F800
G1 X48.482Y55.338Z0F800
G1 X48.497Y55.855Z0F800
G1 X48.554Y56.365Z0F800
G1 X48.658Y56.869Z0F800
G1 X48.813Y57.363Z0F800
G1 X49.023Y57.847Z0F800
G1 X49.039Y58.017Z0F800
G1 X48.98Y58.185Z0F800
G1 X48.953Y58.27Z0F800
G1 X48.943Y58.354Z0F800
G1 X48.963Y58.439Z0F800
G1 X49.023Y58.524Z0F800
G1 X49.194Y58.641Z0F800
G1 X49.449Y58.743Z0F800
G1 X49.778Y58.83Z0F800
G1 X50.168Y58.903Z0F800
G1 X50.609Y58.963Z0F800
G1 X51.09Y59.01Z0F800
G1 X51.599Y59.046Z0F800
G1 X52.124Y59.072Z0F800
G1 X53.181Y59.093Z0F800
G1 X54.169Y59.08Z0F800
G1 X54.61Y59.063Z0F800
G1 X55Y59.039Z0F800
G1 X55.328Y59.01Z0F800
G1 X55.582Y58.977Z0F800
G1 X55.922Y58.9Z0F800
G1 X56.241Y58.789Z0F800
G1 X56.54Y58.648Z0F800
G1 X56.824Y58.48Z0F800
G1 X57.351Y58.08Z0F800
G1 X57.843Y57.62Z0F800
G1 X57.994Y57.431Z0F800
G1 X58.17Y57.148Z0F800
G1 X58.348Y56.798Z0F800
G1 X58.507Y56.41Z0F800
G1 X58.626Y56.011Z0F800
G1 X58.682Y55.629Z0F800
G1 Y55.453Z0F800
G1 X58.655Y55.292Z0F800
G1 X58.603Y55.15Z0F800
G1 X58.522Y55.029Z0F800
G1 X58.388Y54.905Z0F800
G1 X58.233Y54.808Z0F800
G1 X58.057Y54.736Z0F800
G1 X57.863Y54.687Z0F800
G1 X57.424Y54.651Z0F800
G1 X56.93Y54.684Z0F800
G1 X56.393Y54.77Z0F800
G1 X55.824Y54.894Z0F800
G1 X55.238Y55.041Z0F800
G1 X54.645Y55.196Z0F800
G1 X54.059Y55.341Z0F800
G1 X53.492Y55.463Z0F800
G1 X52.957Y55.546Z0F800
G1 X52.466Y55.574Z0F800
G1 X52.241Y55.562Z0F800
G1 X52.031Y55.531Z0F800
G1 X51.839Y55.479Z0F800
G1 X51.666Y55.403Z0F800
G1 X51.513Y55.302Z0F800
G1 X51.382Y55.174Z0F800
G1 X51.274Y55.016Z0F800
G1 X51.192Y54.828Z0F800
G0 Z2.8F500
G0 X38.424Y53.258Z2.8F1000
G1 Z0F500
G1 X39.747Y52.53Z0F800
G1 X41.064Y51.774Z0F800
G1 X41.703Y51.377Z0F800
G1 X42.321Y50.962Z0F800
G1 X42.911Y50.525Z0F800
G1 X43.467Y50.064Z0F800
G1 X43.982Y49.574Z0F800
G1 X44.45Y49.052Z0F800
G1 X44.864Y48.494Z0F800
G1 X45.217Y47.896Z0F800
G1 X45.503Y47.255Z0F800
G1 X45.715Y46.568Z0F800
G1 X45.792Y46.206Z0F800
G1 X45.847Y45.83Z0F800
G1 X45.881Y45.441Z0F800
G1 X45.893Y45.038Z0F800
G0 Z2.8F500
G0 X36.369Y48.252Z2.8F1000
G1 Z0F500
G1 X36.374Y48.084Z0F800
G1 X36.39Y47.824Z0F800
G1 X36.416Y47.489Z0F800
G1 X36.453Y47.095Z0F800
G1 X36.561Y46.194Z0F800
G1 X36.714Y45.249Z0F800
G1 X36.808Y44.8Z0F800
G1 X36.913Y44.389Z0F800
G1 X37.031Y44.032Z0F800
G1 X37.16Y43.744Z0F800
G1 X37.23Y43.631Z0F800
G1 X37.302Y43.542Z0F800
G1 X37.377Y43.479Z0F800
G1 X37.456Y43.442Z0F800
G1 X37.538Y43.436Z0F800
G1 X37.623Y43.461Z0F800
G1 X37.711Y43.519Z0F800
G1 X37.802Y43.613Z0F800
G1 X37.849Y43.726Z0F800
G1 X37.88Y43.922Z0F800
G1 X37.897Y44.189Z0F800
G1 X37.903Y44.518Z0F800
G1 X37.897Y44.895Z0F800
G1 X37.882Y45.309Z0F800
G1 X37.86Y45.748Z0F800
G1 X37.832Y46.201Z0F800
G1 X37.763Y47.102Z0F800
G1 X37.689Y47.917Z0F800
G1 X37.654Y48.264Z0F800
G1 X37.623Y48.555Z0F800
G1 X37.596Y48.777Z0F800
G1 X37.576Y48.92Z0F800
G1 X37.185Y51.164Z0F800
G1 X36.764Y53.398Z0F800
G1 X36.312Y55.623Z0F800
G1 X35.829Y57.841Z0F800
G1 X35.318Y60.052Z0F800
G1 X34.777Y62.258Z0F800
G1 X34.208Y64.458Z0F800
G1 X33.611Y66.655Z0F800
G0 Z2.8F500
G0 X39.321Y60.619Z2.8F1000
G1 Z0F500
G1 X39.317Y59.34Z0F800
G1 X39.28Y58.122Z0F800
G1 X39.238Y57.534Z0F800
G1 X39.174Y56.96Z0F800
G1 X39.084Y56.399Z0F800
G1 X38.963Y55.851Z0F800
G1 X38.806Y55.316Z0F800
G1 X38.609Y54.793Z0F800
G1 X38.367Y54.282Z0F800
G1 X38.076Y53.783Z0F800
G1 X37.731Y53.294Z0F800
G1 X37.327Y52.816Z0F800
G1 X36.86Y52.348Z0F800
G1 X36.326Y51.89Z0F800
G0 Z2.8F500
G0 X30.156Y47.427Z2.8F1000
G1 Z0F500
G1 X29.941Y47.552Z0F800
G1 X29.647Y47.647Z0F800
G1 X29.377Y47.717Z0F800
G1 X29.283Y47.745Z0F800
G1 X29.234Y47.77Z0F800
G1 X28.963Y48.069Z0F800
G1 X28.677Y48.359Z0F800
G1 X28.672Y48.415Z0F800
G1 X28.668Y48.568Z0F800
G1 X28.664Y49.114Z0F800
G1 Y49.898Z0F800
G1 X28.677Y53.967Z0F800
G1 X28.687Y54.251Z0F800
G1 X28.704Y54.535Z0F800
G1 X28.707Y54.818Z0F800
G1 X28.677Y55.098Z0F800
G1 X28.525Y55.478Z0F800
G1 X28.305Y55.85Z0F800
G1 X28.208Y56.034Z0F800
G1 X28.142Y56.216Z0F800
G1 X28.122Y56.397Z0F800
G1 X28.164Y56.577Z0F800
G1 X28.197Y56.631Z0F800
G1 X28.233Y56.656Z0F800
G1 X28.274Z0F800
G1 X28.318Y56.632Z0F800
G1 X28.413Y56.526Z0F800
G1 X28.514Y56.364Z0F800
G1 X28.72Y55.964Z0F800
G1 X28.903Y55.617Z0F800
G1 X28.965Y55.457Z0F800
G1 X28.994Y55.246Z0F800
G1 X28.998Y55.001Z0F800
G1 X28.984Y54.737Z0F800
G1 X28.96Y54.47Z0F800
G1 X28.933Y54.216Z0F800
G1 X28.912Y53.99Z0F800
G1 X28.903Y53.809Z0F800
G1 Y53.548Z0F800
G1 X28.898Y53.322Z0F800
G1 X28.892Y53.127Z0F800
G1 X28.883Y52.957Z0F800
G1 X28.855Y52.673Z0F800
G1 X28.812Y52.431Z0F800
G1 X28.752Y52.192Z0F800
G1 X28.573Y51.563Z0F800
G1 X28.515Y51.345Z0F800
G1 X28.451Y51.094Z0F800
G1 X28.408Y50.622Z0F800
G1 X28.441Y50.173Z0F800
G1 X28.445Y49.954Z0F800
G1 X28.421Y49.736Z0F800
G1 X28.353Y49.519Z0F800
G1 X28.224Y49.301Z0F800
G1 X28.026Y49.107Z0F800
G1 X27.754Y48.942Z0F800
G1 X27.418Y48.806Z0F800
G1 X27.029Y48.698Z0F800
G1 X26.598Y48.617Z0F800
G1 X26.133Y48.56Z0F800
G1 X25.646Y48.527Z0F800
G1 X25.146Y48.516Z0F800
G1 X24.645Y48.527Z0F800
G1 X24.152Y48.557Z0F800
G1 X23.678Y48.605Z0F800
G1 X23.233Y48.67Z0F800
G1 X22.827Y48.751Z0F800
G1 X22.471Y48.846Z0F800
G1 X22.174Y48.955Z0F800
G1 X21.947Y49.075Z0F800
G1 X21.789Y49.207Z0F800
G1 X21.698Y49.354Z0F800
G1 X21.675Y49.532Z0F800
G1 X21.721Y49.753Z0F800
G1 X21.829Y50.212Z0F800
G1 X21.874Y50.688Z0F800
G1 X21.877Y51.179Z0F800
G1 X21.857Y51.677Z0F800
G1 X21.834Y52.179Z0F800
G1 X21.826Y52.679Z0F800
G1 X21.855Y53.171Z0F800
G1 X21.939Y53.652Z0F800
G1 X22.08Y54.265Z0F800
G1 X22.255Y54.954Z0F800
G1 X22.366Y55.293Z0F800
G1 X22.498Y55.61Z0F800
G1 X22.656Y55.892Z0F800
G1 X22.844Y56.125Z0F800
G1 X23Y56.25Z0F800
G1 X23.193Y56.353Z0F800
G1 X23.418Y56.436Z0F800
G1 X23.669Y56.502Z0F800
G1 X24.23Y56.587Z0F800
G1 X24.834Y56.623Z0F800
G1 X25.441Y56.626Z0F800
G1 X26.009Y56.609Z0F800
G1 X26.699Y56.58Z0F800
G1 X26.865Y56.577Z0F800
G1 X28.164Z0F800
G0 Z2.8F500
G0 X15.986Y50.703Z2.8F1000
G1 Z0F500
G1 X15.968Y51.599Z0F800
G1 X15.916Y52.487Z0F800
G1 X15.833Y53.37Z0F800
G1 X15.723Y54.249Z0F800
G1 X15.436Y56.001Z0F800
G1 X15.081Y57.761Z0F800
G1 X14.78Y58.941Z0F800
G1 X14.439Y60.113Z0F800
G1 X14.279Y60.702Z0F800
G1 X14.137Y61.297Z0F800
G1 X14.024Y61.899Z0F800
G1 X13.95Y62.511Z0F800
G1 X13.822Y64.433Z0F800
G1 X13.724Y66.357Z0F800
G1 X13.703Y66.915Z0F800
G1 X13.691Y67.444Z0F800
G1 X13.677Y67.918Z0F800
G1 X13.649Y68.312Z0F800
G1 X13.626Y68.471Z0F800
G1 X13.595Y68.601Z0F800
G1 X13.554Y68.698Z0F800
G1 X13.503Y68.76Z0F800
G1 X13.439Y68.782Z0F800
G1 X13.361Y68.763Z0F800
G1 X13.267Y68.698Z0F800
G1 X13.157Y68.585Z0F800
G1 X12.893Y68.201Z0F800
G1 X12.672Y67.732Z0F800
G1 X12.487Y67.204Z0F800
G1 X12.329Y66.644Z0F800
G1 X12.193Y66.078Z0F800
G1 X12.071Y65.532Z0F800
G1 X11.956Y65.033Z0F800
G1 X11.842Y64.606Z0F800
G1 X11.303Y63.014Z0F800
G1 X10.118Y59.862Z0F800
G1 X9.579Y58.272Z0F800
G1 X9.57Y58.229Z0F800
G1 X9.512Y57.881Z0F800
G1 X9.444Y57.521Z0F800
G1 X9.351Y57.107Z0F800
G1 X9.23Y56.684Z0F800
G1 X9.078Y56.294Z0F800
G1 X8.99Y56.125Z0F800
G1 X8.894Y55.979Z0F800
G1 X8.789Y55.864Z0F800
G1 X8.675Y55.784Z0F800
G1 X8.522Y55.722Z0F800
G1 X8.384Y55.698Z0F800
G1 X8.26Y55.709Z0F800
G1 X8.148Y55.75Z0F800
G1 X7.957Y55.906Z0F800
G1 X7.802Y56.136Z0F800
G1 X7.563Y56.685Z0F800
G1 X7.355Y57.141Z0F800
G1 X7.09Y57.561Z0F800
G1 X6.825Y58.023Z0F800
G1 X6.562Y58.522Z0F800
G1 X6.304Y59.054Z0F800
G1 X5.811Y60.19Z0F800
G1 X5.365Y61.389Z0F800
G1 X4.986Y62.608Z0F800
G1 X4.691Y63.803Z0F800
G1 X4.582Y64.378Z0F800
G1 X4.501Y64.932Z0F800
G1 X4.45Y65.458Z0F800
G1 X4.433Y65.951Z0F800
G1 Y58.808Z0F800
G1 X4.468Y57.786Z0F800
G1 X4.624Y55.761Z0F800
G1 X4.659Y54.737Z0F800
G1 Y47.479Z0F800
G0 Z2.8F500
G0 X87.887Y26.413Z2.8F1000
G1 Z0F500
G1 X87.406Y26.357Z0F800
G1 X86.861Y26.339Z0F800
G1 X86.263Y26.35Z0F800
G1 X85.621Y26.382Z0F800
G1 X84.252Y26.479Z0F800
G1 X82.834Y26.565Z0F800
G1 X82.134Y26.584Z0F800
G1 X81.452Y26.575Z0F800
G1 X80.801Y26.532Z0F800
G1 X80.189Y26.445Z0F800
G1 X79.628Y26.308Z0F800
G1 X79.127Y26.111Z0F800
G1 X78.903Y25.988Z0F800
G1 X78.698Y25.847Z0F800
G1 X78.513Y25.688Z0F800
G1 X78.35Y25.508Z0F800
G1 X78.299Y25.418Z0F800
G1 X78.261Y25.296Z0F800
G1 X78.236Y25.147Z0F800
G1 X78.221Y24.974Z0F800
G1 Y24.578Z0F800
G1 X78.255Y24.146Z0F800
G1 X78.315Y23.714Z0F800
G1 X78.393Y23.32Z0F800
G1 X78.437Y23.149Z0F800
G1 X78.483Y23.001Z0F800
G1 X78.53Y22.881Z0F800
G1 X78.576Y22.794Z0F800
G1 X78.849Y22.446Z0F800
G1 X79.153Y22.122Z0F800
G1 X79.451Y21.794Z0F800
G1 X79.707Y21.436Z0F800
G1 X79.971Y20.938Z0F800
G1 X80.198Y20.419Z0F800
G1 X80.393Y19.884Z0F800
G1 X80.562Y19.338Z0F800
G1 X80.838Y18.231Z0F800
G1 X81.065Y17.138Z0F800
G1 X81.141Y16.824Z0F800
G1 X81.229Y16.592Z0F800
G1 X81.335Y16.431Z0F800
G1 X81.464Y16.327Z0F800
G1 X81.621Y16.268Z0F800
G1 X81.811Y16.241Z0F800
G1 X82.04Y16.235Z0F800
G1 X82.313Z0F800
G1 X82.433Y16.22Z0F800
G1 X82.556Y16.195Z0F800
G1 X82.671Y16.19Z0F800
G1 X82.766Y16.235Z0F800
G1 X82.857Y16.382Z0F800
G1 X82.902Y16.558Z0F800
G1 X82.935Y16.742Z0F800
G1 X82.992Y16.914Z0F800
G1 X83.128Y17.187Z0F800
G1 X83.239Y17.415Z0F800
G1 X83.328Y17.605Z0F800
G1 X83.398Y17.762Z0F800
G1 X83.491Y18.005Z0F800
G1 X83.537Y18.192Z0F800
G1 X83.558Y18.373Z0F800
G1 X83.573Y18.598Z0F800
G1 X83.585Y18.742Z0F800
G1 X83.604Y18.916Z0F800
G1 X83.631Y19.125Z0F800
G1 X83.671Y19.377Z0F800
G1 X83.784Y19.881Z0F800
G1 X83.946Y20.377Z0F800
G1 X84.143Y20.866Z0F800
G1 X84.363Y21.351Z0F800
G1 X84.819Y22.311Z0F800
G1 X85.212Y23.271Z0F800
G1 X85.294Y23.616Z0F800
G1 X85.332Y24.006Z0F800
G1 X85.337Y24.428Z0F800
G1 X85.319Y24.865Z0F800
G1 X85.287Y25.305Z0F800
G1 X85.252Y25.733Z0F800
G1 X85.223Y26.134Z0F800
G1 X85.212Y26.515Z0F800
G1 Y24.584Z0F800
G1 X85.208Y24.405Z0F800
G1 X85.198Y24.185Z0F800
G1 X85.184Y23.932Z0F800
G1 X85.126Y23.027Z0F800
G1 X85.09Y22.364Z0F800
G1 X85.069Y21.71Z0F800
G1 X85.075Y21.114Z0F800
G1 X85.091Y20.852Z0F800
G1 X85.119Y20.623Z0F800
G1 X85.158Y20.432Z0F800
G1 X85.212Y20.287Z0F800
G1 X85.306Y20.16Z0F800
G1 X85.429Y20.055Z0F800
G1 X85.557Y19.953Z0F800
G1 X85.664Y19.834Z0F800
G1 X85.688Y19.694Z0F800
G1 X85.658Y19.509Z0F800
G1 X85.632Y19.327Z0F800
G1 X85.664Y19.194Z0F800
G1 X85.758Y19.173Z0F800
G1 X85.929Z0F800
G1 X86.215Y19.194Z0F800
G0 Z2.8F500
G0 X94.507Y27.294Z2.8F1000
G1 Z0F500
G1 X94.914Y25.219Z0F800
G1 X95.355Y23.151Z0F800
G1 X95.444Y22.804Z0F800
G1 X95.578Y22.311Z0F800
G1 X95.747Y21.712Z0F800
G1 X95.938Y21.052Z0F800
G1 X96.142Y20.37Z0F800
G1 X96.346Y19.711Z0F800
G1 X96.445Y19.403Z0F800
G1 X96.54Y19.116Z0F800
G1 X96.63Y18.856Z0F800
G1 X96.713Y18.627Z0F800
G1 X96.948Y18.064Z0F800
G1 X97.202Y17.508Z0F800
G1 X97.438Y16.945Z0F800
G1 X97.617Y16.365Z0F800
G1 X97.662Y15.975Z0F800
G1 X97.645Y15.578Z0F800
G1 X97.614Y15.179Z0F800
G1 X97.617Y14.782Z0F800
G1 X97.709Y13.987Z0F800
G1 X97.844Y13.198Z0F800
G1 X97.922Y12.857Z0F800
G1 X98.014Y12.483Z0F800
G1 X98.052Y12.319Z0F800
G1 X98.077Y12.188Z0F800
G1 X98.085Y12.104Z0F800
G1 X98.07Y12.08Z0F800
G1 X97.974Y12.148Z0F800
G1 X97.895Y12.267Z0F800
G1 X97.832Y12.428Z0F800
G1 X97.784Y12.625Z0F800
G1 X97.723Y13.099Z0F800
G1 X97.7Y13.632Z0F800
G1 Y14.167Z0F800
G1 X97.716Y14.65Z0F800
G1 X97.729Y15.023Z0F800
G1 X97.732Y15.151Z0F800
G1 Y15.23Z0F800
G1 X97.425Y17.52Z0F800
G1 X97.108Y19.845Z0F800
G1 X97.011Y21.013Z0F800
G1 X96.992Y22.181Z0F800
G1 X97.019Y22.764Z0F800
G1 X97.076Y23.346Z0F800
G1 X97.165Y23.926Z0F800
G1 X97.29Y24.505Z0F800
G1 X97.352Y24.714Z0F800
G1 X97.444Y24.971Z0F800
G1 X97.558Y25.259Z0F800
G1 X97.687Y25.561Z0F800
G1 X97.822Y25.857Z0F800
G1 X97.957Y26.131Z0F800
G1 X98.084Y26.365Z0F800
G1 X98.195Y26.541Z0F800
G1 X98.445Y26.851Z0F800
G1 X98.757Y27.17Z0F800
G1 X99.115Y27.486Z0F800
G1 X99.507Y27.786Z0F800
G1 X99.919Y28.057Z0F800
G1 X100.336Y28.288Z0F800
G1 X100.747Y28.465Z0F800
G1 X101.136Y28.577Z0F800
G1 X101.222Y28.592Z0F800
G1 X101.343Y28.61Z0F800
G1 X101.492Y28.63Z0F800
G1 X101.664Y28.649Z0F800
G1 X102.056Y28.679Z0F800
G1 X102.475Y28.687Z0F800
G1 X102.877Y28.661Z0F800
G1 X103.219Y28.587Z0F800
G1 X103.353Y28.529Z0F800
G1 X103.456Y28.453Z0F800
G1 X103.521Y28.359Z0F800
G1 X103.544Y28.245Z0F800
G0 Z2.8F500
G0 X107.199Y48.545Z2.8F1000
G1 Z0F500
G1 Y48.348Z0F800
G1 Y53.253Z0F800
G1 X107.227Y56.189Z0F800
G1 X107.274Y59.137Z0F800
G1 X107.283Y62.083Z0F800
G1 X107.199Y65.015Z0F800
G1 X107.137Y65.815Z0F800
G1 X107.047Y66.613Z0F800
G1 X106.945Y67.41Z0F800
G1 X106.849Y68.207Z0F800
G0 Z2.8F500
G0 X105.529Y66.519Z2.8F1000
G1 Z0F500
G1 X106.185Y66.815Z0F800
G1 X106.815Y67.203Z0F800
G1 X107.428Y67.653Z0F800
G1 X108.032Y68.136Z0F800
G1 X108.632Y68.621Z0F800
G1 X109.238Y69.079Z0F800
G1 X109.857Y69.48Z0F800
G1 X110.496Y69.793Z0F800
G1 X110.748Y69.892Z0F800
G1 X110.945Y69.962Z0F800
G1 X111.095Y70.009Z0F800
G1 X111.206Y70.034Z0F800
G1 X111.346Y70.039Z0F800
G1 X111.43Y70.003Z0F800
G1 X111.525Y69.955Z0F800
G1 X111.696Y69.923Z0F800
G1 X111.831Z0F800
G1 X112.01Y69.935Z0F800
G1 X112.24Y69.967Z0F800
G1 X112.531Y70.02Z0F800
G1 X112.674Y70.053Z0F800
G1 X112.859Y70.103Z0F800
G1 X113.334Y70.236Z0F800
G1 X113.908Y70.387Z0F800
G1 X114.532Y70.522Z0F800
G1 X115.159Y70.608Z0F800
G1 X115.739Y70.612Z0F800
G1 X115.997Y70.574Z0F800
G1 X116.225Y70.503Z0F800
G1 X116.418Y70.395Z0F800
G1 X116.569Y70.246Z0F800
G1 X116.702Y70.063Z0F800
G1 X116.799Y69.919Z0F800
G1 X116.864Y69.81Z0F800
G1 X116.901Y69.73Z0F800
G1 X116.909Y69.636Z0F800
G1 X116.859Y69.594Z0F800
G1 X116.788Y69.564Z0F800
G1 X116.729Y69.502Z0F800
G1 X116.716Y69.446Z0F800
G1 X116.72Y69.366Z0F800
G1 X116.745Y69.258Z0F800
G1 X116.795Y69.115Z0F800
G1 X116.896Y68.939Z0F800
G1 X117.027Y68.778Z0F800
G1 X117.155Y68.616Z0F800
G1 X117.247Y68.437Z0F800
G1 X117.286Y68.289Z0F800
G1 X117.317Y68.105Z0F800
G1 X117.342Y67.89Z0F800
G1 X117.36Y67.648Z0F800
G1 X117.378Y67.108Z0F800
G1 Y66.525Z0F800
G1 X117.359Y65.941Z0F800
G1 X117.329Y65.397Z0F800
G1 X117.311Y65.152Z0F800
G1 X117.291Y64.933Z0F800
G1 X117.269Y64.744Z0F800
G1 X117.247Y64.591Z0F800
G1 X117.106Y64.093Z0F800
G1 X116.884Y63.643Z0F800
G1 X116.617Y63.214Z0F800
G1 X116.342Y62.781Z0F800
G1 X116.186Y62.532Z0F800
G1 X116.04Y62.32Z0F800
G1 X115.902Y62.142Z0F800
G1 X115.769Y61.994Z0F800
G1 X115.508Y61.775Z0F800
G1 X115.239Y61.633Z0F800
G1 X114.943Y61.538Z0F800
G1 X114.6Y61.46Z0F800
G1 X114.19Y61.369Z0F800
G1 X113.696Y61.237Z0F800
G1 X112.279Y60.815Z0F800
G1 X110.875Y60.41Z0F800
G1 X109.468Y60.023Z0F800
G1 X108.041Y59.653Z0F800
G1 X107.532Y59.543Z0F800
G1 X107.046Y59.474Z0F800
G1 X106.548Y59.437Z0F800
G1 X106.005Y59.427Z0F800
G1 X105.78Z0F800
G1 X105.519Y59.44Z0F800
G1 X105.41Y59.455Z0F800
G1 X105.334Y59.48Z0F800
G1 X105.304Y59.515Z0F800
G1 X105.335Y59.562Z0F800
G1 X105.708Y59.803Z0F800
G1 X106.148Y59.977Z0F800
G1 X106.635Y60.095Z0F800
G1 X107.151Y60.168Z0F800
G1 X107.677Y60.206Z0F800
G1 X108.195Y60.22Z0F800
G1 X108.687Z0F800
G1 X110.081Y60.216Z0F800
G1 X110.516Y60.211Z0F800
G1 X110.927Y60.202Z0F800
G1 X111.675Y60.169Z0F800
G1 X112.333Y60.111Z0F800
G1 X112.906Y60.019Z0F800
G1 X113.399Y59.887Z0F800
G1 X113.819Y59.706Z0F800
G1 X114.17Y59.469Z0F800
G1 X114.459Y59.169Z0F800
G1 X114.691Y58.799Z0F800
G1 X114.872Y58.35Z0F800
G1 X115.007Y57.816Z0F800
G1 X115.059Y57.515Z0F800
G1 X115.102Y57.189Z0F800
G1 X115.137Y56.838Z0F800
G1 X115.164Y56.461Z0F800
G1 X115.183Y56.058Z0F800
G1 X115.196Y55.626Z0F800
G1 X115.203Y55.165Z0F800
G1 X115.206Y54.675Z0F800
G1 Y54.312Z0F800
G1 X115.2Y53.99Z0F800
G1 X115.184Y53.698Z0F800
G1 X115.153Y53.424Z0F800
G1 X115.1Y53.157Z0F800
G1 X115.021Y52.886Z0F800
G1 X114.91Y52.599Z0F800
G1 X114.762Y52.284Z0F800
G1 X114.752Y52.16Z0F800
G1 X114.773Y51.977Z0F800
G1 X114.789Y51.8Z0F800
G1 X114.762Y51.69Z0F800
G1 X114.666Y51.621Z0F800
G1 X114.531Y51.542Z0F800
G1 X114.37Y51.458Z0F800
G1 X114.023Y51.287Z0F800
G1 X113.863Y51.205Z0F800
G1 X113.73Y51.132Z0F800
G1 X113.636Y51.068Z0F800
G1 X113.547Y51.032Z0F800
G1 X113.408Y51.014Z0F800
G1 X113.234Z0F800
G1 X113.041Y51.02Z0F800
G1 X112.845Y51.035Z0F800
G1 X112.508Y51.063Z0F800
G1 X112.397Y51.068Z0F800
G1 X112.202Z0F800
G1 X110.071Y51.01Z0F800
G1 X108.947Y50.986Z0F800
G1 X108.383Y50.977Z0F800
G1 X107.838Y50.972Z0F800
G1 X107.326Z0F800
G1 X106.86Y50.975Z0F800
G1 X106.455Y50.987Z0F800
G1 X106.125Y51.005Z0F800
G1 X105.993Y51.017Z0F800
G1 X105.885Y51.032Z0F800
G1 X105.803Y51.049Z0F800
G1 X105.748Y51.068Z0F800
G1 X105.598Y51.185Z0F800
G1 X105.47Y51.359Z0F800
G1 X105.364Y51.582Z0F800
G1 X105.277Y51.846Z0F800
G1 X105.154Y52.458Z0F800
G1 X105.086Y53.124Z0F800
G1 X105.059Y53.774Z0F800
G1 Y54.336Z0F800
G1 X105.07Y54.914Z0F800
G0 Z2.8F500
G0 X100.202Y51.806Z2.8F1000
G1 Z0F500
G1 X100.031Y51.484Z0F800
G1 X99.855Y51.197Z0F800
G1 X99.677Y50.942Z0F800
G1 X99.495Y50.72Z0F800
G1 X99.31Y50.529Z0F800
G1 X99.122Y50.368Z0F800
G1 X98.931Y50.235Z0F800
G1 X98.738Y50.129Z0F800
G1 X98.345Y49.995Z0F800
G1 X97.944Y49.957Z0F800
G1 X97.538Y50.004Z0F800
G1 X97.127Y50.127Z0F800
G1 X96.713Y50.316Z0F800
G1 X96.297Y50.563Z0F800
G1 X95.882Y50.857Z0F800
G1 X95.468Y51.19Z0F800
G1 X94.653Y51.931Z0F800
G1 X93.862Y52.711Z0F800
G1 X92.507Y54.019Z0F800
G1 X91.155Y55.348Z0F800
G1 X90.515Y56.042Z0F800
G1 X89.915Y56.768Z0F800
G1 X89.371Y57.534Z0F800
G1 X88.894Y58.349Z0F800
G1 X88.835Y58.529Z0F800
G1 X88.816Y58.755Z0F800
G1 X88.833Y59.019Z0F800
G1 X88.882Y59.314Z0F800
G1 X89.054Y59.973Z0F800
G1 X89.297Y60.679Z0F800
G1 X89.575Y61.376Z0F800
G1 X89.85Y62.013Z0F800
G1 X90.088Y62.534Z0F800
G1 X90.251Y62.887Z0F800
G1 X90.634Y63.702Z0F800
G1 X91.045Y64.506Z0F800
G1 X91.498Y65.283Z0F800
G1 X92.003Y66.022Z0F800
G1 X92.278Y66.372Z0F800
G1 X92.571Y66.708Z0F800
G1 X92.883Y67.027Z0F800
G1 X93.215Y67.327Z0F800
G1 X93.569Y67.609Z0F800
G1 X93.946Y67.868Z0F800
G1 X94.348Y68.104Z0F800
G1 X94.776Y68.316Z0F800
G1 X95.171Y68.489Z0F800
G1 X95.54Y68.639Z0F800
G1 X95.884Y68.768Z0F800
G1 X96.208Y68.877Z0F800
G1 X96.811Y69.043Z0F800
G1 X97.378Y69.149Z0F800
G1 X97.941Y69.207Z0F800
G1 X98.53Y69.23Z0F800
G1 X99.174Z0F800
G1 X99.904Y69.221Z0F800
G0 Z2.8F500
G0 X118.623Y56.633Z2.8F1000
G1 Z0F500
G1 Y56.207Z0F800
G1 X118.615Y55.503Z0F800
G1 X118.604Y54.976Z0F800
G1 X118.59Y54.601Z0F800
G1 X118.571Y54.272Z0F800
G1 X118.564Y54.172Z0F800
G1 Y54.139Z0F800
G1 X118.574Y54.148Z0F800
G1 X118.596Y54.175Z0F800
G1 X118.634Y54.195Z0F800
G1 X118.689Y54.183Z0F800
G1 X118.764Y54.116Z0F800
G1 X118.81Y54.054Z0F800
G1 X118.862Y53.968Z0F800
G1 X118.921Y53.857Z0F800
G1 X118.986Y53.716Z0F800
G1 X119.058Y53.542Z0F800
G1 X119.138Y53.334Z0F800
G1 X119.225Y53.087Z0F800
G1 X119.32Y52.798Z0F800
G1 X119.345Y52.606Z0F800
G1 X119.327Y52.408Z0F800
G1 X119.306Y52.209Z0F800
G1 X119.32Y52.015Z0F800
G1 X119.367Y51.991Z0F800
G1 X119.486Y51.972Z0F800
G1 X119.668Y51.96Z0F800
G1 X119.903Y51.952Z0F800
G1 X120.488Z0F800
G1 X121.163Y51.959Z0F800
G1 X121.845Y51.976Z0F800
G1 X123.131Y52.015Z0F800
G1 X123.338Y52.004Z0F800
G1 X123.966Y51.941Z0F800
G1 X124.328Y51.909Z0F800
G1 X124.682Y51.891Z0F800
G1 X124.999Y51.896Z0F800
G1 X125.134Y51.91Z0F800
G1 X125.249Y51.934Z0F800
G1 X125.34Y51.969Z0F800
G1 X125.402Y52.015Z0F800
G1 X125.517Y52.21Z0F800
G1 X125.567Y52.454Z0F800
G1 X125.557Y52.738Z0F800
G1 X125.496Y53.057Z0F800
G1 X125.391Y53.403Z0F800
G1 X125.247Y53.769Z0F800
G1 X125.074Y54.148Z0F800
G1 X124.877Y54.534Z0F800
G1 X124.443Y55.296Z0F800
G1 X124.002Y56.001Z0F800
G1 X123.796Y56.314Z0F800
G1 X123.326Y57.012Z0F800
G1 X123.179Y57.185Z0F800
G1 X123.012Y57.31Z0F800
G1 X122.83Y57.399Z0F800
G1 X122.641Y57.464Z0F800
G1 X122.263Y57.566Z0F800
G1 X121.931Y57.709Z0F800
G1 X121.844Y57.783Z0F800
G1 X121.721Y57.909Z0F800
G1 X121.567Y58.079Z0F800
G1 X121.39Y58.286Z0F800
G1 X120.986Y58.779Z0F800
G1 X120.555Y59.326Z0F800
G1 X120.143Y59.865Z0F800
G1 X119.797Y60.335Z0F800
G1 X119.664Y60.524Z0F800
G1 X119.564Y60.672Z0F800
G1 X119.504Y60.772Z0F800
G1 X119.49Y60.816Z0F800
G1 X119.606Y60.913Z0F800
G1 X119.746Y60.959Z0F800
G1 X119.906Y60.965Z0F800
G1 X120.078Y60.943Z0F800
G1 X120.441Y60.863Z0F800
G1 X120.789Y60.816Z0F800
G1 X125.447Z0F800
M5
G1 Z10 F500
M9
G90
G1 Z1F500
G1 Z2 F500;         ; Raise brush slightly
G0 X22 Y0 F1000;     ; Move across cleaning area
G1 Z5 F500;         ; Raise brush completely
G0 X20 Y110 Z10 F1000;; Move to parking position with Z at safe height
M2;                 ; End program
