
G0 Z10 F500;      ; Move to clearance level - Z motion limited to 500
; G0 X-10 Y-10 F1200; Homing
; G0 X-5 Y-5 F1200; go in
; G10 P0 L20 X0 Y0; set to zero
G1 F1000;           ; Set feed rate to 1000
;LightBurn 1.6.04
;Custom GCode device profile, absolute coords
;Bounds: X15.23 Y10.13 to X118.77 Y87.93
G00 G17 G40 G21 G54
G90
M3
G1 Z10 F500
;Cut @ 15 mm/sec, 90% power

M8

; Color 1 picking sequence
G1 Z10 F500;         ; Raise brush to safe height
G0 X2 Y0 F1000;     ; Rapid move to brush cleaning position
G1 Z0 F500;         ; Lower brush for cleaning - controlled movement
G1 Z2 F500;         ; Raise brush slightly - controlled movement
G1 X22 Y0 Z8 F500;     ; Move across cleaning area - controlled movement
G1 Z8 F500;         ; Maintain brush height - controlled movement
G0 X41 Y0 F1200;    ; Rapid move to color 1 position
G1 Z0 F500;         ; Lower into color - controlled movement
G1 X35 Y1 F500;     ; Small movement in paint - controlled movement
G1 Z7 F500;         ; Raise from color - controlled movement
G1 X38 Y1 F500;     ; Movement in paint - controlled movement
G1 Z1 F500;         ; Lower slightly - controlled movement
G1 X27 Y10 Z8 F500;     ; Move in paint - controlled movement
G1 Z8 F500;         ; Raise brush - controlled movement
G1 F1000;           ; Set feed rate to 1000
G0 Z2.8F500
G0 X21.473Y40.79Z2.8F1000
G1 Z0F500
;Layer C00
G1 X21.33Y41.329Z0S900F800
G1 X21.18Y41.868Z0F800
G1 X21.043Y42.408Z0F800
G1 X20.939Y42.953Z0F800
G1 X20.841Y43.792Z0F800
G1 X20.78Y44.633Z0F800
G1 X20.724Y45.475Z0F800
G1 X20.642Y46.316Z0F800
G1 X20.404Y47.694Z0F800
G1 X20.109Y49.072Z0F800
G1 X19.972Y49.762Z0F800
G1 X19.858Y50.453Z0F800
G1 X19.78Y51.145Z0F800
G1 X19.751Y51.839Z0F800
G1 Y51.963Z0F800
G1 Y49.974Z0F800
G1 X19.776Y49.28Z0F800
G1 X19.841Y48.589Z0F800
G1 X19.938Y47.899Z0F800
G1 X20.054Y47.211Z0F800
G1 X20.3Y45.834Z0F800
G1 X20.493Y44.45Z0F800
G1 X20.638Y43.126Z0F800
G1 X20.79Y41.808Z0F800
G1 X20.802Y41.388Z0F800
G1 X20.79Y40.967Z0F800
G1 Y40.72Z0F800
G1 X20.761Y41.333Z0F800
G1 X20.676Y41.928Z0F800
G1 X20.54Y42.512Z0F800
G1 X20.359Y43.086Z0F800
G1 X20.136Y43.652Z0F800
G1 X19.879Y44.209Z0F800
G1 X19.59Y44.759Z0F800
G1 X19.276Y45.303Z0F800
G1 X17.86Y47.425Z0F800
G1 X16.43Y49.503Z0F800
G1 X15.97Y50.278Z0F800
G1 X15.539Y51.065Z0F800
G1 X15.382Y51.362Z0F800
G1 X15.243Y51.665Z0F800
G1 X15.225Y51.751Z0F800
G1 X15.243Y51.785Z0F800
G1 X15.435Y51.588Z0F800
G1 X15.581Y51.435Z0F800
G1 X15.687Y51.318Z0F800
G1 X15.759Y51.232Z0F800
G1 X15.828Y51.128Z0F800
G1 X15.836Y51.072Z0F800
G1 Y51.015Z0F800
G1 X15.876Y50.908Z0F800
G1 X15.927Y50.82Z0F800
G1 X16.008Y50.701Z0F800
G1 X16.124Y50.544Z0F800
G1 X16.281Y50.344Z0F800
G1 X16.651Y49.885Z0F800
G1 X16.984Y49.475Z0F800
G1 X17.296Y49.104Z0F800
G1 X17.603Y48.762Z0F800
G1 X17.921Y48.437Z0F800
G1 X18.266Y48.119Z0F800
G1 X18.654Y47.798Z0F800
G1 X19.101Y47.462Z0F800
G1 X19.38Y47.284Z0F800
G1 X19.605Y47.185Z0F800
G1 X19.782Y47.157Z0F800
G1 X19.916Y47.19Z0F800
G1 X20.012Y47.275Z0F800
G1 X20.075Y47.402Z0F800
G1 X20.111Y47.563Z0F800
G1 X20.124Y47.749Z0F800
G1 X20.107Y48.156Z0F800
G1 X20.05Y48.717Z0F800
G1 X20.043Y48.854Z0F800
G1 X20.051Y48.951Z0F800
G1 X20.08Y48.998Z0F800
G1 X20.24Y49.041Z0F800
G1 X20.447Y49.053Z0F800
G1 X20.684Y49.05Z0F800
G1 X20.935Y49.042Z0F800
G1 X21.183Z0F800
G1 X21.411Y49.068Z0F800
G1 X21.602Y49.127Z0F800
G1 X21.74Y49.234Z0F800
G1 X21.971Y49.572Z0F800
G1 X22.197Y49.991Z0F800
G1 X22.397Y50.465Z0F800
G1 X22.546Y50.967Z0F800
G1 X22.623Y51.47Z0F800
G1 X22.604Y51.947Z0F800
G1 X22.551Y52.168Z0F800
G1 X22.466Y52.372Z0F800
G1 X22.345Y52.555Z0F800
G1 X22.186Y52.716Z0F800
G1 X22.127Y52.739Z0F800
G1 X22.056Y52.736Z0F800
G1 X21.979Y52.724Z0F800
G1 X21.905Y52.716Z0F800
G1 X21.69Z0F800
G1 X21.371Y52.723Z0F800
G1 X21.258Z0F800
G1 X21.097Y52.703Z0F800
G1 X20.989Y52.643Z0F800
G1 X20.895Y52.525Z0F800
G1 X20.686Y52.198Z0F800
G1 X20.578Y52.04Z0F800
G1 X20.442Y51.853Z0F800
G1 X20.273Y51.635Z0F800
G1 X19.907Y51.152Z0F800
G1 X19.531Y50.675Z0F800
G1 X19.381Y50.555Z0F800
G1 X19.234Y50.434Z0F800
G1 X19.219Y50.361Z0F800
G1 X19.236Y50.269Z0F800
G1 X19.251Y50.2Z0F800
G1 X19.234Z0F800
G1 X19.102Y50.382Z0F800
G1 X18.949Y50.651Z0F800
G1 X18.772Y50.968Z0F800
G1 X18.574Y51.296Z0F800
G1 X18.353Y51.596Z0F800
G1 X18.109Y51.831Z0F800
G1 X17.979Y51.911Z0F800
G1 X17.843Y51.961Z0F800
G1 X17.701Y51.976Z0F800
G1 X17.554Y51.951Z0F800
G1 X17.493Y51.881Z0F800
G1 X17.514Y51.769Z0F800
G1 X17.555Y51.64Z0F800
G1 Y51.524Z0F800
G1 X17.321Y51.025Z0F800
G1 X17.141Y50.609Z0F800
G1 X17.083Y50.399Z0F800
G1 X17.055Y50.17Z0F800
G1 X17.062Y49.909Z0F800
G1 X17.108Y49.603Z0F800
G1 X17.166Y49.418Z0F800
G1 X17.257Y49.243Z0F800
G1 X17.297Y49.21Z0F800
G1 X17.353Y49.183Z0F800
G1 X17.398Y49.156Z0F800
G1 X17.405Y49.123Z0F800
G1 X17.322Y49.043Z0F800
G1 X17.191Y48.995Z0F800
G1 X17.029Y48.968Z0F800
G1 X16.669Y48.935Z0F800
G1 X16.502Y48.906Z0F800
G1 X16.364Y48.855Z0F800
G1 X16.271Y48.771Z0F800
G1 X16.234Y48.642Z0F800
G1 X16.251Y48.504Z0F800
G1 X16.277Y48.362Z0F800
G1 X16.271Y48.224Z0F800
G1 X16.129Y47.683Z0F800
G1 X16.038Y47.218Z0F800
G1 X15.989Y46.746Z0F800
G1 X15.974Y46.183Z0F800
G1 X15.968Y46.211Z0F800
G1 X15.974Y46.292Z0F800
G1 X16.093Y46.516Z0F800
G1 X16.243Y46.728Z0F800
G1 X16.487Y47.008Z0F800
G1 X16.738Y47.285Z0F800
G1 X17.001Y47.553Z0F800
G1 X17.282Y47.809Z0F800
G1 X17.459Y47.954Z0F800
G1 X17.664Y48.116Z0F800
G1 X17.895Y48.292Z0F800
G1 X18.145Y48.48Z0F800
G1 X19.267Y49.317Z0F800
G1 X19.842Y49.756Z0F800
G1 X20.381Y50.19Z0F800
G1 X20.627Y50.399Z0F800
G1 X20.851Y50.601Z0F800
G1 X21.05Y50.793Z0F800
G1 X21.219Y50.973Z0F800
G1 X21.414Y51.21Z0F800
G1 X21.636Y51.52Z0F800
G1 X21.835Y51.856Z0F800
G1 X21.961Y52.174Z0F800
G1 X21.957Y52.284Z0F800
G1 X21.925Y52.4Z0F800
G1 X21.911Y52.508Z0F800
G1 X21.961Y52.592Z0F800
G1 X22.018Y52.611Z0F800
G1 X22.052Y52.582Z0F800
G1 X22.069Y52.515Z0F800
G1 X22.074Y52.421Z0F800
G1 X22.066Y52.201Z0F800
G1 Y52.01Z0F800
G1 X22.127Y51.596Z0F800
G1 X22.181Y51.266Z0F800
G1 X22.227Y51.007Z0F800
G1 X22.267Y50.809Z0F800
G1 X22.346Y50.464Z0F800
G1 X22.358Y50.394Z0F800
G1 X22.364Y50.253Z0F800
G1 X22.342Y50.036Z0F800
G1 X22.258Y49.368Z0F800
G1 X22.216Y49.008Z0F800

; Color 1 picking sequence
G1 Z10 F500;         ; Raise brush to safe height
G0 X2 Y0 F1000;     ; Rapid move to brush cleaning position
G1 Z0 F500;         ; Lower brush for cleaning - controlled movement
G1 Z2 F500;         ; Raise brush slightly - controlled movement
G1 X22 Y0 Z8 F500;     ; Move across cleaning area - controlled movement
G1 Z8 F500;         ; Maintain brush height - controlled movement
G0 X41 Y0 F1200;    ; Rapid move to color 1 position
G1 Z0 F500;         ; Lower into color - controlled movement
G1 X35 Y1 F500;     ; Small movement in paint - controlled movement
G1 Z7 F500;         ; Raise from color - controlled movement
G1 X38 Y1 F500;     ; Movement in paint - controlled movement
G1 Z1 F500;         ; Lower slightly - controlled movement
G1 X27 Y10 Z8 F500;     ; Move in paint - controlled movement
G1 Z8 F500;         ; Raise brush - controlled movement
G1 F1000;           ; Set feed rate to 1000
G0 Z2.8F500
G0 X27.076Y49.533Z2.8F1000
G1 Z0F500
G1 X27.235Y49.39Z0F800
G1 X27.448Y49.297Z0F800
G1 X27.698Y49.241Z0F800
G1 X27.968Y49.207Z0F800
G1 X28.24Y49.182Z0F800
G1 X28.498Y49.151Z0F800
G1 X28.724Y49.099Z0F800
G1 X28.902Y49.014Z0F800
G1 X29.448Y48.473Z0F800
G1 X29.562Y48.437Z0F800
G1 X29.716Y48.422Z0F800
G1 X29.864Y48.405Z0F800
G1 X29.96Y48.361Z0F800
G1 X29.995Y48.215Z0F800
G1 X29.923Y47.842Z0F800
G1 X29.96Y47.698Z0F800
G1 X30.033Y47.684Z0F800
G1 X30.123Y47.698Z0F800
G1 X30.311Y47.742Z0F800
G1 X30.458Y47.86Z0F800
G1 X30.561Y48.032Z0F800
G1 X30.621Y48.239Z0F800
G1 X30.637Y48.46Z0F800
G1 X30.608Y48.676Z0F800
G1 X30.534Y48.867Z0F800
G1 X30.414Y49.012Z0F800
G1 X30.18Y49.191Z0F800
G1 X29.966Y49.333Z0F800
G1 X29.763Y49.447Z0F800
G1 X29.563Y49.539Z0F800
G1 X29.141Y49.692Z0F800
G1 X28.633Y49.853Z0F800
G0 Z2.8F500
G0 X44.604Y55.109Z2.8F1000
G1 Z0F500
G1 X44.268Y56.748Z0F800
G1 X43.954Y57.826Z0F800
G1 X43.675Y58.91Z0F800
G1 X43.564Y59.597Z0F800
G1 X43.494Y60.365Z0F800
G1 X43.464Y61.2Z0F800
G1 X43.471Y62.093Z0F800
G1 X43.512Y63.03Z0F800
G1 X43.586Y64Z0F800
G1 X43.69Y64.992Z0F800
G1 X43.822Y65.993Z0F800
G1 X43.979Y66.993Z0F800
G1 X44.16Y67.979Z0F800
G1 X44.361Y68.94Z0F800
G1 X44.582Y69.865Z0F800
G1 X44.818Y70.741Z0F800
G1 X45.069Y71.556Z0F800
G1 X45.332Y72.3Z0F800
G1 X45.604Y72.96Z0F800
G1 X46.066Y73.905Z0F800
G1 X46.581Y74.814Z0F800
G1 X47.14Y75.694Z0F800
G1 X47.737Y76.553Z0F800
G1 X49.013Y78.237Z0F800
G1 X50.353Y79.925Z0F800
G1 X50.989Y80.893Z0F800
G1 X51.552Y81.916Z0F800
G1 X51.851Y82.421Z0F800
G1 X52.184Y82.905Z0F800
G1 X52.569Y83.358Z0F800
G1 X53.025Y83.768Z0F800
G1 X53.634Y84.225Z0F800
G1 X54.236Y84.647Z0F800
G1 X54.834Y85.043Z0F800
G1 X55.433Y85.42Z0F800
G1 X56.651Y86.147Z0F800
G1 X57.923Y86.89Z0F800
G1 X58.281Y87.129Z0F800
G1 X58.642Y87.394Z0F800
G1 X59.014Y87.647Z0F800
G1 X59.407Y87.851Z0F800
G1 X59.615Y87.91Z0F800
G1 X59.84Y87.93Z0F800
G1 X60.066Y87.91Z0F800
G1 X60.274Y87.851Z0F800
G1 X60.332Y87.808Z0F800
G1 X60.367Y87.746Z0F800
G1 X60.392Y87.676Z0F800
G1 X60.422Y87.611Z0F800
G1 X60.569Y87.365Z0F800
G1 X60.689Y87.149Z0F800
G1 X60.785Y86.956Z0F800
G1 X60.858Y86.785Z0F800
G1 X60.951Y86.487Z0F800
G1 X60.989Y86.223Z0F800
G1 X60.993Y85.96Z0F800
G1 X60.985Y85.664Z0F800
G1 X60.982Y85.495Z0F800
G1 X60.985Y85.305Z0F800
G1 X60.995Y85.091Z0F800
G1 X61.016Y84.849Z0F800
G1 X61.08Y84.18Z0F800
G1 X61.126Y83.54Z0F800
G1 X61.15Y82.919Z0F800
G1 X61.145Y82.309Z0F800
G1 X61.105Y81.702Z0F800
G1 X61.024Y81.087Z0F800
G1 X60.898Y80.458Z0F800
G1 X60.65Y79.551Z0F800
G1 X60.543Y79.223Z0F800
G1 X60.469Y79.062Z0F800
G1 X60.378Y78.918Z0F800
G1 X60.267Y78.804Z0F800
G1 X60.134Y78.731Z0F800
G1 X60.079Y78.75Z0F800
G1 X60.085Y78.841Z0F800
G1 X60.116Y78.962Z0F800
G1 X60.134Y79.068Z0F800
G1 X60.13Y79.318Z0F800
G1 X60.135Y79.553Z0F800
G1 X60.177Y79.782Z0F800
G1 X60.282Y80.014Z0F800
G1 X60.531Y80.384Z0F800
G1 X60.796Y80.712Z0F800
G1 X61.08Y81.005Z0F800
G1 X61.389Y81.27Z0F800
G1 X61.727Y81.513Z0F800
G1 X62.097Y81.74Z0F800
G1 X62.505Y81.959Z0F800
G1 X62.954Y82.176Z0F800
G1 X63.642Y82.44Z0F800
G1 X64.348Y82.638Z0F800
G1 X65.062Y82.815Z0F800
G1 X65.773Y83.017Z0F800
G1 X66.067Y83.145Z0F800
G1 X66.367Y83.257Z0F800
G1 X66.564Y83.291Z0F800
G1 X66.806Y83.323Z0F800
G1 X67.087Y83.354Z0F800
G1 X67.401Y83.382Z0F800
G1 X68.1Y83.426Z0F800
G1 X68.848Y83.451Z0F800
G1 X69.592Z0F800
G1 X70.279Y83.424Z0F800
G1 X70.583Y83.397Z0F800
G1 X70.854Y83.36Z0F800
G1 X71.083Y83.314Z0F800
G1 X71.264Y83.257Z0F800
G1 X71.588Y83.096Z0F800
G1 X71.873Y82.896Z0F800
G1 X72.12Y82.661Z0F800
G1 X72.329Y82.395Z0F800
G1 X72.501Y82.106Z0F800
G1 X72.637Y81.796Z0F800
G1 X72.738Y81.471Z0F800
G1 X72.803Y81.136Z0F800
G1 X72.835Y80.796Z0F800
G1 Y80.456Z0F800
G1 X72.798Y80.121Z0F800
G1 X72.731Y79.796Z0F800
G1 X72.632Y79.486Z0F800
G1 X72.503Y79.195Z0F800
G1 X72.343Y78.929Z0F800
G1 X72.155Y78.693Z0F800
G1 X71.551Y78.141Z0F800
G1 X70.866Y77.637Z0F800
G1 X70.157Y77.151Z0F800
G1 X69.483Y76.652Z0F800
G1 X69.302Y76.49Z0F800
G1 X68.827Y76.028Z0F800
G1 X68.551Y75.771Z0F800
G1 X68.262Y75.527Z0F800
G1 X67.969Y75.318Z0F800
G1 X67.68Y75.165Z0F800
G1 X67.405Y75.091Z0F800
G1 X67.381Y75.131Z0F800
G1 X67.371Y75.244Z0F800
G1 X67.386Y75.414Z0F800
G1 X67.434Y75.623Z0F800
G1 X67.525Y75.853Z0F800
G1 X67.668Y76.085Z0F800
G1 X67.872Y76.303Z0F800
G1 X68.147Y76.489Z0F800
G1 X68.236Y76.531Z0F800
G1 X68.357Y76.578Z0F800
G1 X68.506Y76.631Z0F800
G1 X68.682Y76.688Z0F800
G1 X69.106Y76.813Z0F800
G1 X69.614Y76.948Z0F800
G1 X70.189Y77.089Z0F800
G1 X70.815Y77.229Z0F800
G1 X71.475Y77.364Z0F800
G1 X72.154Y77.488Z0F800
G1 X72.835Y77.595Z0F800
G1 X73.501Y77.682Z0F800
G1 X74.138Y77.741Z0F800
G1 X74.727Y77.769Z0F800
G1 X75.254Y77.759Z0F800
G1 X75.701Y77.707Z0F800
G1 X75.89Y77.663Z0F800
G1 X76.053Y77.607Z0F800
G1 X76.189Y77.537Z0F800
G1 X76.294Y77.454Z0F800
G1 X76.481Y77.232Z0F800
G1 X76.61Y77.008Z0F800
G1 X76.692Y76.781Z0F800
G1 X76.736Y76.55Z0F800
G1 X76.752Y76.063Z0F800
G1 X76.739Y75.532Z0F800
G1 X76.748Y74.873Z0F800
G1 Y74.207Z0F800
G1 X76.71Y73.544Z0F800
G1 X76.591Y72.891Z0F800
G1 X76.439Y72.427Z0F800
G1 X76.229Y71.945Z0F800
G1 X75.968Y71.457Z0F800
G1 X75.667Y70.973Z0F800
G1 X75.332Y70.504Z0F800
G1 X74.973Y70.059Z0F800
G1 X74.598Y69.65Z0F800
G1 X74.216Y69.288Z0F800
G1 X73.693Y68.887Z0F800
G1 X73.091Y68.507Z0F800
G1 X72.457Y68.158Z0F800
G1 X71.841Y67.847Z0F800
G1 X71.483Y67.72Z0F800
G1 X71.156Y67.668Z0F800
G1 X71.023Y67.66Z0F800
G1 X70.92Z0F800
G1 X70.854Y67.663Z0F800
G1 X70.832Z0F800
G1 X71.17Y67.813Z0F800
G1 X71.583Y67.952Z0F800
G1 X72.06Y68.084Z0F800
G1 X72.59Y68.208Z0F800
G1 X73.769Y68.43Z0F800
G1 X75.04Y68.616Z0F800
G1 X76.318Y68.765Z0F800
G1 X77.523Y68.873Z0F800
G1 X78.072Y68.912Z0F800
G1 X78.571Y68.94Z0F800
G1 X79.011Y68.957Z0F800
G1 X79.519Y68.965Z0F800
G1 X79.958Y68.981Z0F800
G1 X80.901Y69.018Z0F800
G1 X81.623Y69.041Z0F800
G1 X82.343Y69.055Z0F800
G1 X82.994Y69.051Z0F800
G1 X83.274Y69.041Z0F800
G1 X83.511Y69.023Z0F800
G1 X83.699Y68.997Z0F800
G1 X83.828Y68.963Z0F800
G1 X84.08Y68.832Z0F800
G1 X84.347Y68.644Z0F800
G1 X84.617Y68.414Z0F800
G1 X84.878Y68.158Z0F800
G1 X85.119Y67.89Z0F800
G1 X85.328Y67.625Z0F800
G1 X85.493Y67.379Z0F800
G1 X85.603Y67.166Z0F800
G1 X85.792Y66.616Z0F800
G1 X85.912Y66.051Z0F800
G1 X85.963Y65.477Z0F800
G1 X85.944Y64.902Z0F800
G1 X85.855Y64.331Z0F800
G1 X85.695Y63.773Z0F800
G1 X85.463Y63.235Z0F800
G1 X85.158Y62.723Z0F800
G1 X84.717Y62.129Z0F800
G1 X84.262Y61.614Z0F800
G1 X83.78Y61.167Z0F800
G1 X83.26Y60.779Z0F800
G1 X82.689Y60.439Z0F800
G1 X82.057Y60.136Z0F800
G1 X81.35Y59.86Z0F800
G1 X80.557Y59.6Z0F800
G1 X80.285Y59.568Z0F800
G1 X79.988Y59.59Z0F800
G1 X79.689Y59.617Z0F800
G1 X79.409Y59.6Z0F800
G1 X78.35Y59.438Z0F800
G1 X77.287Y59.371Z0F800
G1 X76.213Y59.36Z0F800
G1 X75.121Y59.365Z0F800
G1 X74.448Y59.361Z0F800
G1 X73.718Y59.342Z0F800
G1 X72.957Y59.293Z0F800
G1 X72.192Y59.203Z0F800
G1 X71.45Y59.058Z0F800
G1 X70.758Y58.845Z0F800
G1 X70.439Y58.709Z0F800
G1 X70.142Y58.551Z0F800
G1 X69.871Y58.37Z0F800
G1 X69.63Y58.164Z0F800
G1 X69.289Y57.804Z0F800
G1 X68.958Y57.402Z0F800
G1 X68.666Y56.99Z0F800
G1 X68.442Y56.603Z0F800
G1 X68.378Y56.43Z0F800
G1 X68.326Y56.202Z0F800
G1 X68.285Y55.925Z0F800
G1 X68.254Y55.609Z0F800
G1 X68.221Y54.885Z0F800
G1 Y54.092Z0F800
G1 X68.25Y53.29Z0F800
G1 X68.3Y52.54Z0F800
G1 X68.331Y52.203Z0F800
G1 X68.366Y51.902Z0F800
G1 X68.403Y51.645Z0F800
G1 X68.442Y51.439Z0F800
G1 X68.477Y51.144Z0F800
G1 X68.51Y50.756Z0F800
G1 X68.54Y50.56Z0F800
G1 X68.584Y50.379Z0F800
G1 X68.649Y50.228Z0F800
G1 X68.739Y50.118Z0F800
G1 X68.995Y49.963Z0F800
G1 X69.279Y49.879Z0F800
G1 X69.588Y49.861Z0F800
G1 X69.916Y49.899Z0F800
G1 X70.259Y49.988Z0F800
G1 X70.612Y50.119Z0F800
G1 X70.971Y50.285Z0F800
G1 X71.329Y50.479Z0F800
G1 X72.028Y50.922Z0F800
G1 X72.672Y51.389Z0F800
G1 X72.96Y51.613Z0F800
G1 X73.22Y51.821Z0F800
G1 X73.636Y52.16Z0F800

; Color 1 picking sequence
G1 Z10 F500;         ; Raise brush to safe height
G0 X2 Y0 F1000;     ; Rapid move to brush cleaning position
G1 Z0 F500;         ; Lower brush for cleaning - controlled movement
G1 Z2 F500;         ; Raise brush slightly - controlled movement
G1 X22 Y0 Z8 F500;     ; Move across cleaning area - controlled movement
G1 Z8 F500;         ; Maintain brush height - controlled movement
G0 X41 Y0 F1200;    ; Rapid move to color 1 position
G1 Z0 F500;         ; Lower into color - controlled movement
G1 X35 Y1 F500;     ; Small movement in paint - controlled movement
G1 Z7 F500;         ; Raise from color - controlled movement
G1 X38 Y1 F500;     ; Movement in paint - controlled movement
G1 Z1 F500;         ; Lower slightly - controlled movement
G1 X27 Y10 Z8 F500;     ; Move in paint - controlled movement
G1 Z8 F500;         ; Raise brush - controlled movement
G1 F1000;           ; Set feed rate to 1000
G0 Z2.8F500
G0 X69.057Y45.827Z2.8F1000
G1 Z0F500
G1 X70.367Y46.039Z0F800
G1 X72.594Y46.396Z0F800
G1 X73.995Y46.614Z0F800
G1 X74.606Y46.708Z0F800
G1 X74.655Y46.718Z0F800
G1 X74.687Y46.74Z0F800
G1 X74.718Y46.753Z0F800
G1 X74.769Y46.77Z0F800
G1 X74.849Y46.794Z0F800
G1 X74.962Y46.825Z0F800
G1 X75.313Y46.913Z0F800
G1 X75.874Y47.043Z0F800
G1 X76.692Y47.225Z0F800
G1 X77.817Y47.466Z0F800
G1 X77.947Y47.491Z0F800
G1 X79.222Y47.709Z0F800
G1 X79.902Y47.837Z0F800
G1 X80.599Y47.986Z0F800
G1 X81.262Y48.154Z0F800
G1 X81.563Y48.246Z0F800
G1 X81.836Y48.342Z0F800
G1 X82.074Y48.442Z0F800
G1 X82.27Y48.547Z0F800
G1 X82.667Y48.812Z0F800
G1 X83.028Y49.09Z0F800
G1 X83.357Y49.381Z0F800
G1 X83.657Y49.683Z0F800
G1 X84.194Y50.313Z0F800
G1 X84.673Y50.968Z0F800
G1 X85.13Y51.636Z0F800
G1 X85.6Y52.304Z0F800
G1 X86.119Y52.959Z0F800
G1 X86.722Y53.591Z0F800
G1 X87.548Y54.301Z0F800
G1 X88.42Y54.978Z0F800
G1 X89.297Y55.651Z0F800
G1 X90.136Y56.353Z0F800
G1 X90.684Y56.85Z0F800
G1 X91.118Y57.251Z0F800
G1 X91.296Y57.42Z0F800
G1 X91.452Y57.57Z0F800
G1 X91.586Y57.703Z0F800
G1 X91.701Y57.821Z0F800
G1 X91.88Y58.017Z0F800
G1 X92.003Y58.173Z0F800
G1 X92.084Y58.302Z0F800
G1 X92.139Y58.418Z0F800
G1 X92.181Y58.535Z0F800
G1 X92.226Y58.667Z0F800
G1 X92.288Y58.827Z0F800
G1 X92.381Y59.03Z0F800
G1 X92.52Y59.289Z0F800
G1 X92.719Y59.619Z0F800
G1 X92.846Y59.814Z0F800
G1 X92.993Y60.032Z0F800
G1 X93.163Y60.275Z0F800
G1 X93.358Y60.544Z0F800
G1 X93.812Y61.083Z0F800
G1 X94.331Y61.568Z0F800
G1 X94.903Y62.009Z0F800
G1 X95.514Y62.416Z0F800
G1 X96.806Y63.168Z0F800
G1 X98.107Y63.906Z0F800
G1 X98.305Y64.027Z0F800
G1 X98.474Y64.134Z0F800
G1 X98.618Y64.23Z0F800
G1 X98.743Y64.317Z0F800
G1 X98.95Y64.471Z0F800
G1 X99.133Y64.611Z0F800
G1 X99.326Y64.753Z0F800
G1 X99.566Y64.913Z0F800
G1 X99.715Y65.004Z0F800
G1 X99.89Y65.106Z0F800
G1 X100.094Y65.219Z0F800
G1 X100.333Y65.347Z0F800
G1 X100.725Y65.552Z0F800
G1 X101.125Y65.748Z0F800
G1 X101.537Y65.924Z0F800
G1 X101.966Y66.068Z0F800
G1 X102.363Y66.163Z0F800
G1 X102.77Y66.226Z0F800
G1 X103.182Y66.259Z0F800
G1 X103.597Y66.262Z0F800
G1 X104.011Y66.235Z0F800
G1 X104.42Y66.179Z0F800
G1 X104.82Y66.095Z0F800
G1 X105.209Y65.982Z0F800
G1 X105.582Y65.843Z0F800
G1 X105.936Y65.676Z0F800
G1 X106.267Y65.483Z0F800
G1 X106.572Y65.265Z0F800
G1 X106.847Y65.022Z0F800
G1 X107.088Y64.754Z0F800
G1 X107.293Y64.462Z0F800
G1 X107.457Y64.146Z0F800
G1 X107.541Y63.884Z0F800
G1 X107.582Y63.614Z0F800
G1 X107.597Y63.339Z0F800
G1 X107.605Y63.066Z0F800
G1 X107.649Y62.403Z0F800
G1 X107.695Y61.739Z0F800
G1 Y61.078Z0F800
G1 X107.605Y60.424Z0F800
G1 X107.526Y60.143Z0F800
G1 X107.418Y59.86Z0F800
G1 X107.284Y59.573Z0F800
G1 X107.128Y59.286Z0F800
G1 X106.755Y58.713Z0F800
G1 X106.319Y58.152Z0F800
G1 X105.84Y57.611Z0F800
G1 X105.338Y57.102Z0F800
G1 X104.831Y56.635Z0F800
G1 X104.34Y56.221Z0F800
G1 X104.269Y56.166Z0F800
G1 X103.963Y55.944Z0F800
G1 X103.224Y55.416Z0F800
G1 X102.643Y55.006Z0F800
G1 X102.069Y54.604Z0F800
G1 X101.572Y54.26Z0F800
G1 X101.373Y54.125Z0F800
G1 X101.218Y54.023Z0F800
G1 X101.116Y53.958Z0F800
G1 X101.075Y53.939Z0F800
G1 X101.055Y53.99Z0F800
G1 X101.102Y54.065Z0F800
G1 X101.209Y54.159Z0F800
G1 X101.366Y54.266Z0F800
G1 X101.794Y54.499Z0F800
G1 X102.317Y54.721Z0F800
G1 X103.504Y55.097Z0F800
G1 X104.681Y55.385Z0F800
G1 X105.864Y55.641Z0F800
G1 X107.067Y55.922Z0F800
G1 X107.587Y56.071Z0F800
G1 X108.1Y56.237Z0F800
G1 X108.617Y56.395Z0F800
G1 X109.145Y56.522Z0F800
G1 X109.733Y56.619Z0F800
G1 X110.335Y56.686Z0F800
G1 X110.946Y56.73Z0F800
G1 X111.563Y56.755Z0F800
G1 X112.802Y56.767Z0F800
G1 X114.02Y56.762Z0F800
G1 X114.23Y56.735Z0F800
G1 X114.434Y56.658Z0F800
G1 X114.629Y56.537Z0F800
G1 X114.816Y56.379Z0F800
G1 X115.162Y55.98Z0F800
G1 X115.466Y55.513Z0F800
G1 X115.721Y55.029Z0F800
G1 X115.922Y54.583Z0F800
G1 X116.001Y54.391Z0F800
G1 X116.064Y54.227Z0F800
G1 X116.14Y54.013Z0F800
G1 X116.199Y53.782Z0F800
G1 X116.241Y53.51Z0F800
G1 X116.268Y53.211Z0F800
G1 X116.283Y52.896Z0F800
G1 X116.291Y52.27Z0F800
G1 X116.288Y51.732Z0F800
G1 X116.321Y51.366Z0F800
G1 X116.376Y50.997Z0F800
G1 X116.391Y50.814Z0F800
G1 X116.387Y50.635Z0F800
G1 X116.355Y50.46Z0F800
G1 X116.288Y50.291Z0F800
G1 X116.025Y49.888Z0F800
G1 X115.693Y49.527Z0F800
G1 X115.302Y49.206Z0F800
G1 X114.865Y48.923Z0F800
G1 X114.392Y48.676Z0F800
G1 X113.895Y48.462Z0F800
G1 X113.386Y48.281Z0F800
G1 X112.874Y48.129Z0F800
G1 X112.809Y48.117Z0F800
G1 X112.702Y48.104Z0F800
G1 X112.56Y48.091Z0F800
G1 X112.39Y48.078Z0F800
G1 X111.986Y48.051Z0F800
G1 X111.541Y48.028Z0F800
G1 X111.106Y48.009Z0F800
G1 X110.729Y47.998Z0F800
G1 X110.578Z0F800
G1 X110.461Z0F800
G1 X110.383Y48.002Z0F800
G1 X110.351Y48.009Z0F800
G1 X110.326Y48.074Z0F800
G1 X110.342Y48.136Z0F800
G1 X110.398Y48.195Z0F800
G1 X110.489Y48.251Z0F800
G1 X110.614Y48.305Z0F800
G1 X110.768Y48.355Z0F800
G1 X110.949Y48.403Z0F800
G1 X111.153Y48.448Z0F800
G1 X111.619Y48.528Z0F800
G1 X112.141Y48.597Z0F800
G1 X112.695Y48.653Z0F800
G1 X114.377Y48.786Z0F800
G1 X115.454Y48.865Z0F800
G1 X115.963Y48.885Z0F800
G1 X116.445Z0F800
G1 X116.897Y48.852Z0F800
G1 X117.312Y48.786Z0F800
G1 X117.685Y48.678Z0F800
G1 X118.012Y48.522Z0F800
G1 X118.288Y48.311Z0F800
G1 X118.507Y48.039Z0F800
G1 X118.594Y47.877Z0F800
G1 X118.665Y47.698Z0F800
G1 X118.719Y47.5Z0F800
G1 X118.756Y47.283Z0F800
G1 X118.774Y47.045Z0F800
G1 Y46.786Z0F800
G1 X118.756Y46.506Z0F800
G1 X118.717Y46.202Z0F800
G1 X118.697Y46.093Z0F800
G1 X118.662Y45.945Z0F800
G1 X118.611Y45.771Z0F800
G1 X118.545Y45.585Z0F800
G1 X118.464Y45.401Z0F800
G1 X118.368Y45.234Z0F800
G1 X118.256Y45.098Z0F800
G1 X118.129Y45.005Z0F800
G1 X117.661Y44.776Z0F800
G1 X117.19Y44.551Z0F800
G1 X116.708Y44.344Z0F800
G1 X116.209Y44.168Z0F800
G1 X115.871Y44.092Z0F800
G1 X115.435Y44.034Z0F800
G1 X114.915Y43.992Z0F800
G1 X114.323Y43.966Z0F800
G1 X113.674Y43.952Z0F800
G1 X112.98Z0F800
G1 X112.256Y43.958Z0F800
G1 X111.514Y43.973Z0F800
G1 X110.031Y44.021Z0F800
G1 X108.64Y44.078Z0F800
G1 X106.96Y44.153Z0F800
G1 X106.562Y44.168Z0F800
G1 X104.494Y44.216Z0F800
G1 X102.404Y44.229Z0F800
G1 X100.316Y44.212Z0F800
G1 X98.25Y44.168Z0F800
G1 X96.47Y44.097Z0F800
G1 X94.688Y43.979Z0F800
G1 X92.909Y43.816Z0F800
G1 X91.135Y43.61Z0F800
G1 X89.369Y43.36Z0F800
G1 X87.615Y43.069Z0F800
G1 X85.874Y42.738Z0F800
G1 X84.151Y42.367Z0F800
G1 X82.637Y42.026Z0F800
G1 X82.02Y41.884Z0F800
G1 X81.392Y41.734Z0F800
G1 X80.778Y41.582Z0F800
G1 X80.205Y41.431Z0F800
G1 X79.699Y41.286Z0F800
G1 X79.413Y41.198Z0F800
G1 X79.183Y41.122Z0F800
G1 X78.999Y41.058Z0F800
G1 X78.853Y41.003Z0F800
G1 X78.46Y40.846Z0F800
G1 X78.365Y40.812Z0F800
G1 X78.253Y40.778Z0F800
G1 X78.116Y40.74Z0F800
G1 X77.944Y40.698Z0F800
G1 X77.729Y40.649Z0F800
G1 X77.46Y40.592Z0F800
G1 X77.131Y40.525Z0F800
G1 X76.73Y40.446Z0F800
G1 X76.473Y40.403Z0F800
G1 X76.127Y40.356Z0F800
G1 X75.709Y40.306Z0F800
G1 X75.23Y40.252Z0F800
G1 X74.146Y40.134Z0F800
G1 X72.985Y40.003Z0F800
G1 X72.41Y39.933Z0F800
G1 X71.857Y39.86Z0F800
G1 X71.339Y39.784Z0F800
G1 X70.87Y39.706Z0F800
G1 X70.463Y39.624Z0F800
G1 X70.133Y39.54Z0F800
G1 X70Y39.497Z0F800
G1 X69.892Y39.454Z0F800
G1 X69.81Y39.41Z0F800
G1 X69.755Y39.365Z0F800
G1 X69.569Y39.112Z0F800
G1 X69.425Y38.84Z0F800
G1 X69.297Y38.56Z0F800
G1 X69.161Y38.284Z0F800

; Color 1 picking sequence
G1 Z10 F500;         ; Raise brush to safe height
G0 X2 Y0 F1000;     ; Rapid move to brush cleaning position
G1 Z0 F500;         ; Lower brush for cleaning - controlled movement
G1 Z2 F500;         ; Raise brush slightly - controlled movement
G1 X22 Y0 Z8 F500;     ; Move across cleaning area - controlled movement
G1 Z8 F500;         ; Maintain brush height - controlled movement
G0 X41 Y0 F1200;    ; Rapid move to color 1 position
G1 Z0 F500;         ; Lower into color - controlled movement
G1 X35 Y1 F500;     ; Small movement in paint - controlled movement
G1 Z7 F500;         ; Raise from color - controlled movement
G1 X38 Y1 F500;     ; Movement in paint - controlled movement
G1 Z1 F500;         ; Lower slightly - controlled movement
G1 X27 Y10 Z8 F500;     ; Move in paint - controlled movement
G1 Z8 F500;         ; Raise brush - controlled movement
G1 F1000;           ; Set feed rate to 1000
G0 Z2.8F500
G0 X66.567Y46.608Z2.8F1000
G1 Z0F500
G1 X66.811Y45.999Z0F800
G1 X67.031Y45.444Z0F800
G1 X67.228Y44.939Z0F800
G1 X67.562Y44.065Z0F800
G1 X67.948Y43.045Z0F800
G1 X68.153Y42.517Z0F800
G1 X68.337Y42.08Z0F800
G1 X68.517Y41.706Z0F800
G1 X68.711Y41.368Z0F800
G1 X68.936Y41.038Z0F800
G1 X69.21Y40.689Z0F800
G1 X69.37Y40.499Z0F800
G1 X69.548Y40.294Z0F800
G1 X69.748Y40.07Z0F800
G1 X70.218Y39.553Z0F800
G1 X70.797Y38.921Z0F800
G1 X71.503Y38.147Z0F800
G1 X71.909Y37.697Z0F800
G1 X72.352Y37.202Z0F800
G1 X72.836Y36.658Z0F800
G1 X73.449Y35.964Z0F800
G1 X73.83Y35.545Z0F800
G1 X74.244Y35.108Z0F800
G1 X74.678Y34.675Z0F800
G1 X75.12Y34.27Z0F800
G1 X75.556Y33.915Z0F800
G1 X75.975Y33.632Z0F800
G1 X76.193Y33.514Z0F800
G1 X76.453Y33.39Z0F800
G1 X76.75Y33.262Z0F800
G1 X77.078Y33.131Z0F800
G1 X77.807Y32.868Z0F800
G1 X78.596Y32.614Z0F800
G1 X79.4Y32.382Z0F800
G1 X80.175Y32.186Z0F800
G1 X80.539Y32.105Z0F800
G1 X80.879Y32.038Z0F800
G1 X81.19Y31.986Z0F800
G1 X81.466Y31.951Z0F800
G1 X82.509Y31.886Z0F800
G1 X83.618Y31.877Z0F800
G1 X84.728Y31.906Z0F800
G1 X85.77Y31.951Z0F800
G1 X87.39Y32.068Z0F800
G1 X88.97Y32.234Z0F800
G1 X90.523Y32.402Z0F800
G1 X92.058Y32.529Z0F800
G1 X92.823Y32.562Z0F800
G1 X93.587Y32.568Z0F800
G1 X94.352Y32.541Z0F800
G1 X95.119Y32.475Z0F800
G1 X95.89Y32.365Z0F800
G1 X96.666Y32.204Z0F800
G1 X97.448Y31.988Z0F800
G1 X98.237Y31.711Z0F800
G1 X98.617Y31.55Z0F800
G1 X98.981Y31.36Z0F800
G1 X99.307Y31.135Z0F800
G1 X99.573Y30.87Z0F800
G1 X99.673Y30.719Z0F800
G1 X99.733Y30.574Z0F800
G1 X99.755Y30.435Z0F800
G1 X99.744Y30.302Z0F800
G1 X99.637Y30.054Z0F800
G1 X99.442Y29.831Z0F800
G1 X99.189Y29.632Z0F800
G1 X98.909Y29.459Z0F800
G1 X98.631Y29.311Z0F800
G1 X98.386Y29.189Z0F800
G1 X97.721Y28.894Z0F800
G1 X97.076Y28.678Z0F800
G1 X96.438Y28.53Z0F800
G1 X95.793Y28.441Z0F800
G1 X95.129Y28.401Z0F800
G1 X94.43Y28.398Z0F800
G1 X93.685Y28.425Z0F800
G1 X92.879Y28.469Z0F800
G1 X92.153Y28.511Z0F800
G1 X91.426Y28.569Z0F800
G1 X90.71Y28.668Z0F800
G1 X90.017Y28.835Z0F800
G1 X89.722Y28.99Z0F800
G1 X89.452Y29.233Z0F800
G1 X89.361Y29.361Z0F800
G1 X89.317Y29.479Z0F800
G1 X89.333Y29.577Z0F800
G1 X89.424Y29.645Z0F800
G1 X89.723Y29.716Z0F800
G1 X90.075Y29.739Z0F800
G1 X90.46Y29.723Z0F800
G1 X90.861Y29.678Z0F800
G1 X91.259Y29.613Z0F800
G1 X91.634Y29.54Z0F800
G1 X91.968Y29.467Z0F800
G1 X92.243Y29.405Z0F800
G1 X93.226Y29.166Z0F800
G1 X94.166Y28.899Z0F800
G1 X95.064Y28.594Z0F800
G1 X95.926Y28.247Z0F800
G1 X96.754Y27.849Z0F800
G1 X97.552Y27.393Z0F800
G1 X98.323Y26.874Z0F800
G1 X99.429Y25.997Z0F800
G1 X99.795Y25.715Z0F800
G1 X100.132Y25.416Z0F800
G1 X100.406Y25.082Z0F800
G1 X100.594Y24.751Z0F800
G1 X100.739Y24.415Z0F800
G1 X100.839Y24.077Z0F800
G1 X100.896Y23.74Z0F800
G1 X100.91Y23.406Z0F800
G1 X100.879Y23.079Z0F800
G1 X100.805Y22.762Z0F800
G1 X100.688Y22.459Z0F800
G1 X100.527Y22.171Z0F800
G1 X100.322Y21.903Z0F800
G1 X100.074Y21.658Z0F800
G1 X99.782Y21.438Z0F800
G1 X99.447Y21.248Z0F800
G1 X99.068Y21.088Z0F800
G1 X98.646Y20.965Z0F800
G1 X98.18Y20.879Z0F800
G1 X97.227Y20.815Z0F800
G1 X96.25Y20.846Z0F800
G1 X94.321Y20.999Z0F800
G1 X93.726Y21.024Z0F800
G1 X93.13Y21.036Z0F800
G1 X92.536Y21.061Z0F800
G1 X91.947Y21.119Z0F800
G1 X89.84Y21.485Z0F800
G1 X86.715Y22.142Z0F800
G1 X85.67Y22.348Z0F800
G1 X84.617Y22.528Z0F800
G1 X83.553Y22.673Z0F800
G1 X83.588Z0F800
G1 X83.693Z0F800
G1 X83.904Z0F800
G1 X84.094Y22.681Z0F800
G1 X84.125Y22.678Z0F800
G1 X84.191Y22.645Z0F800
G1 X84.278Y22.608Z0F800
G1 X84.435Y22.553Z0F800
G1 X85.611Y22.168Z0F800
G1 X86.768Y21.77Z0F800
G1 X87.909Y21.343Z0F800
G1 X89.036Y20.872Z0F800
G1 X89.692Y20.563Z0F800
G1 X90.401Y20.197Z0F800
G1 X91.148Y19.779Z0F800
G1 X91.92Y19.314Z0F800
G1 X92.703Y18.808Z0F800
G1 X93.483Y18.264Z0F800
G1 X94.247Y17.69Z0F800
G1 X94.98Y17.09Z0F800
G1 X95.669Y16.469Z0F800
G1 X96.3Y15.833Z0F800
G1 X96.859Y15.187Z0F800
G1 X97.332Y14.535Z0F800
G1 X97.532Y14.21Z0F800
G1 X97.705Y13.884Z0F800
G1 X97.85Y13.561Z0F800
G1 X97.965Y13.239Z0F800
G1 X98.048Y12.92Z0F800
G1 X98.098Y12.604Z0F800
G1 X98.112Y12.292Z0F800
G1 X98.089Y11.985Z0F800
G1 X98.07Y11.933Z0F800
G1 X98.025Y11.858Z0F800
G1 X97.957Y11.764Z0F800
G1 X97.871Y11.654Z0F800
G1 X97.66Y11.403Z0F800
G1 X97.418Y11.132Z0F800
G1 X97.178Y10.87Z0F800
G1 X96.882Y10.556Z0F800
G1 X96.754Y10.424Z0F800
G1 X96.507Y10.29Z0F800
G1 X96.185Y10.202Z0F800
G1 X95.811Y10.154Z0F800
G1 X95.413Y10.135Z0F800
G1 X95.015Z0F800
G1 X94.643Y10.152Z0F800
G1 X93.122Y10.24Z0F800
G1 X92.166Y10.326Z0F800
G1 X91.214Y10.439Z0F800
G1 X90.265Y10.575Z0F800
G1 X88.381Y10.899Z0F800
G1 X86.513Y11.265Z0F800
G1 X84.694Y11.639Z0F800
G1 X82.904Y12.026Z0F800
G1 X81.139Y12.434Z0F800
G1 X79.395Y12.873Z0F800
G1 X77.666Y13.352Z0F800
G1 X75.949Y13.879Z0F800
G1 X74.24Y14.464Z0F800
G1 X72.534Y15.117Z0F800
G1 X72.247Y15.238Z0F800
G1 X71.871Y15.406Z0F800
G1 X71.439Y15.604Z0F800
G1 X70.983Y15.82Z0F800
G1 X70.536Y16.037Z0F800
G1 X70.129Y16.243Z0F800
G1 X69.951Y16.336Z0F800
G1 X69.795Y16.421Z0F800
G1 X69.665Y16.496Z0F800
G1 X69.566Y16.558Z0F800
G1 X69.154Y16.839Z0F800
G1 X68.79Y17.094Z0F800
G1 X68.469Y17.325Z0F800
G1 X68.183Y17.537Z0F800
G1 X67.697Y17.916Z0F800
G1 X67.285Y18.258Z0F800
G1 X66.488Y18.939Z0F800
G1 X66.26Y19.129Z0F800
G1 X66.008Y19.333Z0F800
G1 X65.727Y19.556Z0F800
G1 X65.41Y19.8Z0F800
G1 X64.617Y20.375Z0F800
G1 X63.819Y20.905Z0F800
G1 X63.001Y21.424Z0F800
G1 X62.145Y21.962Z0F800
G1 X61.554Y22.43Z0F800
G1 X60.984Y22.916Z0F800
G1 X60.429Y23.414Z0F800
G1 X59.881Y23.916Z0F800
G1 X58.758Y24.991Z0F800
G1 X57.655Y26.078Z0F800
G1 X57.144Y26.624Z0F800
G1 X56.616Y27.159Z0F800
G1 X56.363Y27.393Z0F800
G1 X56.157Y27.58Z0F800
G1 X55.993Y27.726Z0F800
G1 X55.868Y27.832Z0F800
G1 X55.779Y27.902Z0F800
G1 X55.722Y27.941Z0F800
G1 X55.693Y27.952Z0F800
G1 X55.69Y27.939Z0F800
G1 X55.744Y27.853Z0F800
G1 X55.856Y27.714Z0F800
G1 X55.997Y27.55Z0F800
G1 X56.14Y27.391Z0F800
G1 X56.255Y27.266Z0F800
G1 X56.316Y27.205Z0F800
G1 X56.293Y27.236Z0F800
G1 X56.159Y27.388Z0F800
G1 X55.885Y27.692Z0F800
G1 X55.444Y28.175Z0F800
G1 X54.806Y28.869Z0F800
G1 X53.944Y29.801Z0F800
G1 X53.686Y30.042Z0F800
G1 X53.414Y30.274Z0F800
G1 X53.147Y30.51Z0F800
G1 X52.905Y30.761Z0F800
G1 X52.665Y31.083Z0F800
G1 X52.453Y31.418Z0F800
G1 X52.244Y31.755Z0F800
G1 X52.015Y32.082Z0F800
G1 X51.797Y32.326Z0F800
G1 X51.558Y32.557Z0F800
G1 X51.325Y32.792Z0F800
G1 X51.124Y33.043Z0F800
G1 X51.037Y33.198Z0F800
G1 X50.989Y33.336Z0F800
G1 X50.97Y33.463Z0F800
G1 Y33.585Z0F800
G1 X50.993Y33.833Z0F800
G1 X50.976Y34.124Z0F800
G1 X50.877Y34.517Z0F800
G1 X50.737Y34.999Z0F800
G1 X50.605Y35.494Z0F800
G1 X50.531Y35.925Z0F800
G1 X50.484Y36.976Z0F800
G1 X50.508Y38.022Z0F800
G1 X50.605Y39.061Z0F800
G1 X50.779Y40.091Z0F800
G1 X51.033Y41.109Z0F800
G1 X51.368Y42.112Z0F800
G1 X51.789Y43.1Z0F800
G1 X52.297Y44.068Z0F800

; Color 1 picking sequence
G1 Z10 F500;         ; Raise brush to safe height
G0 X2 Y0 F1000;     ; Rapid move to brush cleaning position
G1 Z0 F500;         ; Lower brush for cleaning - controlled movement
G1 Z2 F500;         ; Raise brush slightly - controlled movement
G1 X22 Y0 Z8 F500;     ; Move across cleaning area - controlled movement
G1 Z8 F500;         ; Maintain brush height - controlled movement
G0 X41 Y0 F1200;    ; Rapid move to color 1 position
G1 Z0 F500;         ; Lower into color - controlled movement
G1 X35 Y1 F500;     ; Small movement in paint - controlled movement
G1 Z7 F500;         ; Raise from color - controlled movement
G1 X38 Y1 F500;     ; Movement in paint - controlled movement
G1 Z1 F500;         ; Lower slightly - controlled movement
G1 X27 Y10 Z8 F500;     ; Move in paint - controlled movement
G1 Z8 F500;         ; Raise brush - controlled movement
G1 F1000;           ; Set feed rate to 1000
G0 Z2.8F500
G0 X51.648Y48.393Z2.8F1000
G1 Z0F500
G1 X51.004Y48.362Z0F800
G1 X50.427Y48.269Z0F800
G1 X49.868Y48.118Z0F800
G1 X49.274Y47.913Z0F800
G1 X48.929Y47.779Z0F800
G1 X48.617Y47.641Z0F800
G1 X48.332Y47.501Z0F800
G1 X48.073Y47.357Z0F800
G1 X47.613Y47.057Z0F800
G1 X47.209Y46.742Z0F800
G1 X46.831Y46.407Z0F800
G1 X46.45Y46.052Z0F800
G1 X46.037Y45.674Z0F800
G1 X45.564Y45.271Z0F800
G1 X44.869Y44.76Z0F800
G1 X44.091Y44.276Z0F800
G1 X43.271Y43.839Z0F800
G1 X42.447Y43.47Z0F800
G1 X41.996Y43.357Z0F800
G1 X41.499Y43.326Z0F800
G1 X39.797Y43.367Z0F800
G1 X39.09Y43.425Z0F800
G1 X38.392Y43.535Z0F800
G1 X37.698Y43.71Z0F800
G1 X36.929Y43.988Z0F800
G1 X36.165Y44.305Z0F800
G1 X35.389Y44.595Z0F800
G1 X34.581Y44.791Z0F800
G1 X34.14Y44.839Z0F800
G1 X33.694Y44.852Z0F800
G1 X33.247Y44.835Z0F800
G1 X32.804Y44.791Z0F800
G1 X32.634Y44.738Z0F800
G1 X32.449Y44.636Z0F800
G1 X32.249Y44.508Z0F800
G1 X32.035Y44.373Z0F800
G1 X31.807Y44.255Z0F800
G1 X31.567Y44.175Z0F800
G1 X31.314Y44.155Z0F800
G1 X31.049Y44.216Z0F800
G1 X30.93Y44.271Z0F800
G1 X30.785Y44.348Z0F800
G1 X30.617Y44.443Z0F800
G1 X30.014Y44.792Z0F800
G1 X29.566Y45.033Z0F800
G1 X29.117Y45.239Z0F800
G1 X28.694Y45.375Z0F800
G1 X28.503Y45.406Z0F800
G1 X28.329Z0F800
G1 X28.177Y45.371Z0F800
G1 X28.05Y45.296Z0F800
G1 X27.968Y45.2Z0F800
G1 X27.91Y45.091Z0F800
G1 X27.856Y44.978Z0F800
G1 X27.789Y44.873Z0F800
G1 X27.429Y44.474Z0F800
G1 X27.086Y44.163Z0F800
G1 X26.748Y43.916Z0F800
G1 X26.408Y43.712Z0F800
G1 X26.055Y43.526Z0F800
G1 X25.682Y43.336Z0F800
G1 X25.278Y43.118Z0F800
G1 X24.835Y42.849Z0F800
G1 X24.463Y42.57Z0F800
G1 X24.111Y42.268Z0F800
G1 X23.75Y41.987Z0F800
G1 X23.351Y41.769Z0F800
G1 X23.257Y41.738Z0F800
G1 X23.107Y41.699Z0F800
G1 X22.918Y41.657Z0F800
G1 X22.711Y41.62Z0F800
G1 X22.504Y41.595Z0F800
G1 X22.316Y41.586Z0F800
G1 X22.167Y41.602Z0F800
G1 X22.074Y41.649Z0F800
G1 X22.039Y41.751Z0F800
G1 X22.023Y41.94Z0F800
G1 Y42.186Z0F800
G1 X22.029Y42.457Z0F800
G1 X22.042Y42.725Z0F800
G1 X22.074Y43.202Z0F800
G1 X22.046Y43.625Z0F800
G1 X21.999Y44.051Z0F800
G1 X21.99Y44.473Z0F800
G1 X22.074Y44.883Z0F800
G1 X22.149Y44.963Z0F800
G1 X22.272Y45.013Z0F800
G1 X22.408Y45.058Z0F800
G1 X22.519Y45.123Z0F800
G1 X22.536Y45.182Z0F800
G1 X22.495Y45.321Z0F800
G1 X22.519Y45.374Z0F800
G1 X22.816Z0F800
G1 X22.864Y45.471Z0F800
G1 X22.894Y45.631Z0F800
G1 X22.922Y45.797Z0F800
G1 X22.965Y45.91Z0F800
G1 X23.133Y46.071Z0F800
G1 X23.329Y46.213Z0F800
G1 X23.529Y46.354Z0F800
G1 X23.706Y46.51Z0F800
G1 X23.881Y46.77Z0F800
G1 X24.024Y47.091Z0F800
G1 X24.157Y47.422Z0F800
G1 X24.3Y47.71Z0F800
G1 X24.641Y48.239Z0F800
G1 X25.01Y48.752Z0F800
G1 X25.412Y49.24Z0F800
G1 X25.854Y49.698Z0F800
G1 X26.342Y50.116Z0F800
G1 X26.883Y50.489Z0F800
G1 X27.484Y50.81Z0F800
G1 X28.15Y51.069Z0F800
G1 X28.33Y51.109Z0F800
G1 X28.572Y51.136Z0F800
G1 X28.868Y51.151Z0F800
G1 X29.209Y51.154Z0F800
G1 X29.992Y51.135Z0F800
G1 X30.851Y51.088Z0F800
G1 X31.715Y51.024Z0F800
G1 X32.515Y50.953Z0F800
G1 X32.869Y50.918Z0F800
G1 X33.18Y50.884Z0F800
G1 X33.441Y50.854Z0F800
G1 X33.641Y50.829Z0F800
G1 X34.438Y50.771Z0F800
G1 X35.269Y50.777Z0F800
G1 X36.102Y50.81Z0F800
G1 X36.906Y50.829Z0F800
G1 X37.709Y50.807Z0F800
G1 X38.61Y50.77Z0F800
G1 X39.067Y50.76Z0F800
G1 X39.513Y50.763Z0F800
G1 X39.934Y50.784Z0F800
G1 X40.32Y50.829Z0F800
G1 X40.523Y50.873Z0F800
G1 X40.799Y50.95Z0F800
G1 X41.136Y51.056Z0F800
G1 X41.524Y51.186Z0F800
G1 X42.41Y51.502Z0F800
G1 X43.371Y51.865Z0F800
G1 X44.321Y52.241Z0F800
G1 X45.176Y52.596Z0F800
G1 X45.541Y52.756Z0F800
G1 X45.849Y52.897Z0F800
G1 X46.091Y53.017Z0F800
G1 X46.255Y53.111Z0F800
G1 X47.292Y53.861Z0F800
G1 X48.288Y54.652Z0F800
G1 X48.796Y55.037Z0F800
G1 X49.326Y55.401Z0F800
G1 X49.887Y55.734Z0F800
G1 X50.489Y56.024Z0F800

; Color 1 picking sequence
G1 Z10 F500;         ; Raise brush to safe height
G0 X2 Y0 F1000;     ; Rapid move to brush cleaning position
G1 Z0 F500;         ; Lower brush for cleaning - controlled movement
G1 Z2 F500;         ; Raise brush slightly - controlled movement
G1 X22 Y0 Z8 F500;     ; Move across cleaning area - controlled movement
G1 Z8 F500;         ; Maintain brush height - controlled movement
G0 X41 Y0 F1200;    ; Rapid move to color 1 position
G1 Z0 F500;         ; Lower into color - controlled movement
G1 X35 Y1 F500;     ; Small movement in paint - controlled movement
G1 Z7 F500;         ; Raise from color - controlled movement
G1 X38 Y1 F500;     ; Movement in paint - controlled movement
G1 Z1 F500;         ; Lower slightly - controlled movement
G1 X27 Y10 Z8 F500;     ; Move in paint - controlled movement
G1 Z8 F500;         ; Raise brush - controlled movement
G1 F1000;           ; Set feed rate to 1000
G0 Z2.8F500
G0 X110.044Y20.516Z2.8F1000
G1 Z0F500
G1 X110.638Y18.96Z0F800
G0 Z2.8F500
G0 X109.626Y15.899Z2.8F1000
G1 Z0F500
G1 X109.653Y15.762Z0F800
G1 X109.66Y15.581Z0F800
G1 X109.652Y15.364Z0F800
G1 X109.633Y15.118Z0F800
G1 X109.58Y14.568Z0F800
G1 X109.538Y13.989Z0F800
G1 X109.533Y13.706Z0F800
G1 X109.544Y13.437Z0F800
G1 X109.576Y13.19Z0F800
G1 X109.634Y12.972Z0F800
G1 X109.721Y12.789Z0F800
G1 X109.844Y12.65Z0F800
G1 X110.005Y12.561Z0F800
G1 X110.21Y12.53Z0F800
G0 Z2.8F500
G0 X113.677Y12.234Z2.8F1000
G1 Z0F500
G1 X113.218Y12.219Z0F800
G1 X112.703Y12.205Z0F800
G1 X112.444Y12.212Z0F800
G1 X112.195Y12.235Z0F800
G1 X111.963Y12.281Z0F800
G1 X111.756Y12.354Z0F800
G1 X111.624Y12.431Z0F800
G1 X111.508Y12.532Z0F800
G1 X111.407Y12.654Z0F800
G1 X111.32Y12.793Z0F800
G1 X111.186Y13.113Z0F800
G1 X111.103Y13.468Z0F800
G1 X111.064Y13.833Z0F800
G1 Y14.186Z0F800
G1 X111.099Y14.501Z0F800
G1 X111.162Y14.755Z0F800
G1 X111.273Y14.985Z0F800
G1 X111.43Y15.189Z0F800
G1 X111.627Y15.37Z0F800
G1 X111.86Y15.528Z0F800
G1 X112.123Y15.666Z0F800
G1 X112.41Y15.786Z0F800
G1 X112.717Y15.888Z0F800
G1 X113.037Y15.975Z0F800
G1 X113.697Y16.109Z0F800
G1 X114.347Y16.202Z0F800
G1 X114.944Y16.266Z0F800
G1 X115.445Y16.317Z0F800
G0 Z2.8F500
G0 X105.057Y16.48Z2.8F1000
G1 Z0F500
G1 X104.721Y16.444Z0F800
G1 X104.402Y16.365Z0F800
G1 X104.276Y16.323Z0F800
G1 X104.185Y16.286Z0F800
G1 X104.141Y16.261Z0F800
G1 X104.154Y16.252Z0F800
G1 X104.314Y16.273Z0F800
G1 X104.459Y16.322Z0F800
G1 X104.591Y16.394Z0F800
G1 X104.714Y16.481Z0F800
G1 X104.944Y16.674Z0F800
G1 X105.176Y16.848Z0F800
G1 X105.882Y17.227Z0F800
G1 X106.136Y17.366Z0F800
G1 X106.367Y17.498Z0F800
G1 X106.551Y17.61Z0F800
G1 X106.66Y17.688Z0F800
G1 X106.934Y18.007Z0F800
G1 X107.137Y18.389Z0F800
G1 X107.26Y18.81Z0F800
G1 X107.294Y19.248Z0F800
G1 X107.275Y19.466Z0F800
G1 X107.23Y19.679Z0F800
G1 X107.159Y19.884Z0F800
G1 X107.06Y20.078Z0F800
G1 X106.932Y20.259Z0F800
G1 X106.774Y20.424Z0F800
G1 X106.585Y20.568Z0F800
G1 X106.364Y20.69Z0F800
G1 X106.252Y20.723Z0F800
G1 X106.077Y20.751Z0F800
G1 X105.86Y20.771Z0F800
G1 X105.623Y20.783Z0F800
G1 X105.385Z0F800
G1 X105.168Y20.768Z0F800
G1 X104.993Y20.739Z0F800
G1 X104.88Y20.69Z0F800
G1 X104.771Y20.578Z0F800
G1 X104.666Y20.417Z0F800
G1 X104.565Y20.215Z0F800
G1 X104.469Y19.981Z0F800
G1 X104.294Y19.442Z0F800
G1 X104.142Y18.863Z0F800
G1 X104.018Y18.302Z0F800
G1 X103.925Y17.82Z0F800
G1 X103.865Y17.478Z0F800
G1 X103.843Y17.336Z0F800
G1 X103.697Y16.268Z0F800
G1 X103.645Y15.849Z0F800
G1 X103.608Y15.492Z0F800
G1 X103.587Y15.185Z0F800
G1 X103.583Y14.919Z0F800
G1 X103.597Y14.682Z0F800
G1 X103.63Y14.463Z0F800
G1 X103.683Y14.25Z0F800
G1 X103.758Y14.034Z0F800
G1 X103.854Y13.803Z0F800
G1 X103.974Y13.546Z0F800
G1 X104.288Y12.909Z0F800
G1 X104.483Y12.508Z0F800
G1 X104.706Y12.037Z0F800
M5
G1 Z10 F500
M9
G90
G1 Z1F500
G1 Z2 F500;         ; Raise brush slightly
G0 X22 Y0 F1000;     ; Move across cleaning area
G1 Z5 F500;         ; Raise brush completely
G0 X20 Y110 Z10 F1000;; Move to parking position with Z at safe height
M2;                 ; End program

; Return to 2,0 wash and park
G1 Z5 F500;         ; Raise brush to safe height
G0 X2 Y0 F1000;     ; Return to cleaning position
G1 Z0 F500;         ; Lower brush for cleaning
G1 Z2 F500;         ; Raise brush slightly
G1 X22 Y0 F500;     ; Move across cleaning area
G1 Z5 F500;         ; Raise brush to safe height
G0 X2 Y0 F1000;     ; Return to wash position
G1 Z0 F500;         ; Lower brush for cleaning
G1 Z2 F500;         ; Raise brush slightly
G1 X22 Y0 F500;     ; Move across cleaning area
G1 Z5 F500;         ; Raise brush completely
G0 X20 Y110 Z10 F500;; Move to parking position with Z at safe height
M2;                 ; End program
