;LightBurn 1.6.04
;Custom GCode device profile, absolute coords
;Bounds: X16.11 Y15.46 to X55.89 Y46.54
G00 G17 G40 G21 G54
G90
M3
G1 Z10 F500
;Cut @ 333 mm/min, 80% power

M8
G0 Z3.5 F500
G0 X18.307 Y15.505 Z3.5 
G1 Z0 F500
;Layer C3 Pass 1 of 2
G1 X20.962 Y15.459 Z0 S800 F800
G1 X22.427 Y16.237 Z0 F800
G1 X22.552 Y16.334 Z0 F800
G1 X22.674 Y16.44 Z0 F800
G1 X22.805 Y16.569 Z0 F800
G1 X22.923 Y16.711 Z0 F800
G1 X23.007 Y16.855 Z0 F800
G1 X23.032 Y16.991 Z0 F800
G1 X22.977 Y17.107 Z0 F800
G1 X22.856 Y17.235 Z0 F800
G1 X22.711 Y17.402 Z0 F800
G1 X22.552 Y17.59 Z0 F800
G1 X22.393 Y17.782 Z0 F800
G1 X22.015 Y18.251 Z0 F800
G1 X19.772 Y18.297 Z0 F800
G1 X20.184 Y19.579 Z0 F800
G1 X19.498 Y20.037 Z0 F800
G1 X20.322 Y21.318 Z0 F800
G1 X19.452 Y22.188 Z0 F800
G1 X20.367 Y23.195 Z0 F800
G1 X21.191 Y21.547 Z0 F800
G1 X20.734 Y20.586 Z0 F800
G1 X20.915 Y20.497 Z0 F800
G1 X21.096 Y20.4 Z0 F800
G1 X21.294 Y20.283 Z0 F800
G1 X21.48 Y20.155 Z0 F800
G1 X21.622 Y20.026 Z0 F800
G1 X21.667 Y19.965 Z0 F800
G1 X21.689 Y19.907 Z0 F800
G1 X21.684 Y19.854 Z0 F800
G1 X21.649 Y19.808 Z0 F800
G1 X21.433 Y19.611 Z0 F800
G1 X21.226 Y19.402 Z0 F800
G1 X21.07 Y19.235 Z0 F800
G1 X21.008 Y19.167 Z0 F800
G1 X22.748 Y18.618 Z0 F800
G1 X23.892 Y17.519 Z0 F800
G1 X23.801 Y16.42 Z0 F800
G1 X22.748 Y15.642 Z0 F800
G1 X24.35 Y15.871 Z0 F800
G1 X24.945 Y16.924 Z0 F800
G1 X24.999 Y17.134 Z0 F800
G1 X25.049 Y17.354 Z0 F800
G1 X25.1 Y17.611 Z0 F800
G1 X25.139 Y17.876 Z0 F800
G1 X25.157 Y18.121 Z0 F800
G1 X25.142 Y18.317 Z0 F800
G1 X25.082 Y18.435 Z0 F800
G1 X24.965 Y18.522 Z0 F800
G1 X24.8 Y18.641 Z0 F800
G1 X24.401 Y18.915 Z0 F800
G1 X23.892 Y19.258 Z0 F800
G1 X21.649 Y20.311 Z0 F800
G1 X22.244 Y21.135 Z0 F800
G1 X23.572 Y21.09 Z0 F800
G1 X23.902 Y21.109 Z0 F800
G1 X24.104 Y21.124 Z0 F800
G1 X24.316 Y21.143 Z0 F800
G1 X24.518 Y21.167 Z0 F800
G1 X24.689 Y21.195 Z0 F800
G1 X24.808 Y21.227 Z0 F800
G1 X24.905 Y21.224 Z0 F800
G1 X25.019 Y21.158 Z0 F800
G1 X25.14 Y21.05 Z0 F800
G1 X25.26 Y20.918 Z0 F800
G1 X25.369 Y20.782 Z0 F800
G1 X25.458 Y20.66 Z0 F800
G1 X25.54 Y20.54 Z0 F800
G1 X25.398 Y20.471 Z0 F800
G1 X25.243 Y20.403 Z0 F800
G1 X25.054 Y20.329 Z0 F800
G1 X24.845 Y20.261 Z0 F800
G1 X24.632 Y20.212 Z0 F800
G1 X24.432 Y20.194 Z0 F800
G1 X24.258 Y20.22 Z0 F800
G1 X23.881 Y20.283 Z0 F800
G1 X23.469 Z0 F800
G1 X23.298 Y20.265 Z0 F800
G1 X23.177 Y20.239 Z0 F800
G1 X23.124 Y20.208 Z0 F800
G1 X23.16 Y20.174 Z0 F800
G1 X23.221 Y20.146 Z0 F800
G1 X23.314 Y20.099 Z0 F800
G1 X23.435 Y20.034 Z0 F800
G1 X23.912 Y19.772 Z0 F800
G1 X24.276 Y19.567 Z0 F800
G1 X25.22 Y19.03 Z0 F800
G1 X26.41 Y19.579 Z0 F800
G1 X26.53 Y19.489 Z0 F800
G1 X26.651 Y19.391 Z0 F800
G1 X26.788 Y19.27 Z0 F800
G1 X26.92 Y19.136 Z0 F800
G1 X27.028 Y19 Z0 F800
G1 X27.093 Y18.869 Z0 F800
G1 X27.097 Y18.755 Z0 F800
G1 X27.031 Y18.631 Z0 F800
G1 X26.915 Y18.475 Z0 F800
G1 X26.767 Y18.301 Z0 F800
G1 X26.604 Y18.125 Z0 F800
G1 X26.447 Y17.963 Z0 F800
G1 X26.311 Y17.828 Z0 F800
G1 X26.181 Y17.702 Z0 F800
G1 X25.769 Y16.558 Z0 F800
G1 X25.54 Y15.779 Z0 F800
G1 X26.273 Y15.734 Z0 F800
G1 X26.492 Y15.977 Z0 F800
G1 X26.622 Y16.128 Z0 F800
G1 X26.753 Y16.29 Z0 F800
G1 X26.871 Y16.448 Z0 F800
G1 X26.96 Y16.588 Z0 F800
G1 X27.005 Y16.695 Z0 F800
G1 X27.044 Y16.806 Z0 F800
G1 X27.117 Y16.956 Z0 F800
G1 X27.213 Y17.129 Z0 F800
G1 X27.32 Y17.307 Z0 F800
G1 X27.424 Y17.475 Z0 F800
G1 X27.6 Y17.748 Z0 F800
G1 X30.255 Y16.42 Z0 F800
G1 X29.294 Y15.779 Z0 F800
G1 X27.783 Y16.329 Z0 F800
G1 X27.829 Y16.878 Z0 F800
G1 X28.039 Y16.827 Z0 F800
G1 X28.516 Y16.706 Z0 F800
G1 X28.781 Y16.637 Z0 F800
G1 X29.026 Y16.569 Z0 F800
G1 X29.222 Y16.51 Z0 F800
G1 X29.34 Y16.466 Z0 F800
G1 X29.477 Y16.402 Z0 F800
G1 X29.724 Y16.292 Z0 F800
G1 X31.308 Y15.596 Z0 F800
G1 X33.643 Y15.505 Z0 F800
G1 X37.9 Y15.642 Z0 F800
G1 X41.608 Y15.459 Z0 F800
G1 X42.478 Y16.191 Z0 F800
G1 X42.249 Y20.174 Z0 F800
G1 X43.576 Y20.952 Z0 F800
G1 X43.485 Y26.216 Z0 F800
G1 Y32.671 Z0 F800
G1 X44.766 Y33.175 Z0 F800
G1 X45.224 Y29.741 Z0 F800
G1 X43.988 Y26.857 Z0 F800
G1 X44.146 Y26.409 Z0 F800
G1 X44.498 Y25.398 Z0 F800
G1 X44.688 Y24.839 Z0 F800
G1 X44.857 Y24.327 Z0 F800
G1 X44.927 Y24.109 Z0 F800
G1 X44.983 Y23.926 Z0 F800
G1 X45.022 Y23.787 Z0 F800
G1 X45.041 Y23.699 Z0 F800
G1 Y23.62 Z0 F800
G1 X45.019 Y23.506 Z0 F800
G1 X44.982 Y23.364 Z0 F800
G1 X44.932 Y23.199 Z0 F800
G1 X44.801 Y22.819 Z0 F800
G1 X44.646 Y22.411 Z0 F800
G1 X44.49 Y22.018 Z0 F800
G1 X44.352 Y21.684 Z0 F800
G1 X44.217 Y21.364 Z0 F800
G1 X45.041 Y20.906 Z0 F800
G1 X46.323 Y22.051 Z0 F800
G1 X46.369 Y24.431 Z0 F800
G1 X45.362 Y26.674 Z0 F800
G1 X45.651 Y27.121 Z0 F800
G1 X45.819 Y27.389 Z0 F800
G1 X45.987 Y27.669 Z0 F800
G1 X46.134 Y27.929 Z0 F800
G1 X46.193 Y28.044 Z0 F800
G1 X46.238 Y28.142 Z0 F800
G1 X46.267 Y28.221 Z0 F800
G1 X46.277 Y28.276 Z0 F800
G1 X46.27 Y28.759 Z0 F800
G1 X46.231 Y30.748 Z0 F800
G1 X46.46 Y32.488 Z0 F800
G1 X46.663 Y32.491 Z0 F800
G1 X46.866 Y32.488 Z0 F800
G1 X47.09 Y32.476 Z0 F800
G1 X47.301 Y32.452 Z0 F800
G1 X47.464 Y32.411 Z0 F800
G1 X47.518 Y32.382 Z0 F800
G1 X47.547 Y32.348 Z0 F800
G1 Y32.307 Z0 F800
G1 X47.513 Y32.259 Z0 F800
G1 X47.459 Y32.172 Z0 F800
G1 X47.399 Y32.019 Z0 F800
G1 X47.335 Y31.811 Z0 F800
G1 X47.268 Y31.557 Z0 F800
G1 X47.132 Y30.951 Z0 F800
G1 X46.998 Y30.279 Z0 F800
G1 X46.877 Y29.621 Z0 F800
G1 X46.779 Y29.053 Z0 F800
G1 X46.689 Y28.505 Z0 F800
G1 X46.46 Y25.255 Z0 F800
G1 X46.689 Y24.168 Z0 F800
G1 X46.773 Y23.749 Z0 F800
G1 X46.846 Y23.363 Z0 F800
G1 X46.876 Y23.196 Z0 F800
G1 X46.898 Y23.056 Z0 F800
G1 X46.913 Y22.947 Z0 F800
G1 X46.918 Y22.875 Z0 F800
G1 X46.915 Y22.807 Z0 F800
G1 X46.897 Y22.587 Z0 F800
G1 X46.846 Y22.117 Z0 F800
G1 X46.804 Y21.765 Z0 F800
G1 X46.689 Y20.861 Z0 F800
G1 X47.513 Y21.227 Z0 F800
G1 Y32.03 Z0 F800
G1 X48.749 Y33.083 Z0 F800
G1 X55.112 Y33.129 Z0 F800
G1 X54.746 Y29.695 Z0 F800
G1 X55.295 Y28.139 Z0 F800
G1 X54.196 Y27.818 Z0 F800
G1 X55.295 Y27.956 Z0 F800
G1 X55.753 Y29.421 Z0 F800
G1 Y31.114 Z0 F800
G1 X55.89 Y32.259 Z0 F800
G1 X55.753 Y33.54 Z0 F800
G1 X55.02 Y34.41 Z0 F800
G1 X54.013 Y33.678 Z0 F800
G1 X54.654 Y32.533 Z0 F800
G1 X54.517 Y30.565 Z0 F800
G1 X54.379 Y28.734 Z0 F800
G1 X54.013 Y29.833 Z0 F800
G1 X54.196 Y32.03 Z0 F800
G1 X53.601 Y33.083 Z0 F800
G1 X47.284 Y33.129 Z0 F800
G1 X46.002 Y33.22 Z0 F800
G1 X44.217 Y33.632 Z0 F800
G1 X43.21 Y32.991 Z0 F800
G1 X43.576 Y31.755 Z0 F800
G1 X46.368 Y32.533 Z0 F800
G1 X47.376 Y31.709 Z0 F800
G1 X47.433 Y31.609 Z0 F800
G1 X47.482 Y31.507 Z0 F800
G1 X47.524 Y31.389 Z0 F800
G1 X47.545 Y31.271 Z0 F800
G1 X47.53 Y31.169 Z0 F800
G1 X47.463 Y31.096 Z0 F800
G1 X47.33 Y31.069 Z0 F800
G1 X46.722 Y31.076 Z0 F800
G1 X44.675 Y31.114 Z0 F800
G1 X43.53 Y30.977 Z0 F800
G1 X43.57 Y30.798 Z0 F800
G1 X43.615 Y30.615 Z0 F800
G1 X43.673 Y30.405 Z0 F800
G1 X43.743 Y30.195 Z0 F800
G1 X43.82 Y30.011 Z0 F800
G1 X43.903 Y29.882 Z0 F800
G1 X43.988 Y29.833 Z0 F800
G1 X44.049 Y29.84 Z0 F800
G1 X44.142 Y29.86 Z0 F800
G1 X44.263 Y29.892 Z0 F800
G1 X44.406 Y29.933 Z0 F800
G1 X44.74 Y30.035 Z0 F800
G1 X45.104 Y30.153 Z0 F800
G1 X45.457 Y30.271 Z0 F800
G1 X46.048 Y30.474 Z0 F800
G1 X47.742 Y29.787 Z0 F800
G1 X47.737 Y29.65 Z0 F800
G1 X47.725 Y29.509 Z0 F800
G1 X47.702 Y29.346 Z0 F800
G1 X47.663 Y29.181 Z0 F800
G1 X47.607 Y29.034 Z0 F800
G1 X47.527 Y28.924 Z0 F800
G1 X47.421 Y28.871 Z0 F800
G1 X47.344 Y28.866 Z0 F800
G1 X47.235 Z0 F800
G1 X47.099 Y28.871 Z0 F800
G1 X46.943 Y28.881 Z0 F800
G1 X46.585 Y28.909 Z0 F800
G1 X46.202 Y28.946 Z0 F800
G1 X45.835 Y28.984 Z0 F800
G1 X45.224 Y29.054 Z0 F800
G1 X45.027 Y29.084 Z0 F800
G1 X44.818 Y29.108 Z0 F800
G1 X44.572 Y29.123 Z0 F800
G1 X44.312 Z0 F800
G1 X44.065 Y29.093 Z0 F800
G1 X43.857 Y29.028 Z0 F800
G1 X43.713 Y28.917 Z0 F800
G1 X43.453 Y28.694 Z0 F800
G1 X43.175 Y28.539 Z0 F800
G1 X43.073 Y28.472 Z0 F800
G1 X43.018 Y28.402 Z0 F800
G1 X43.027 Y28.324 Z0 F800
G1 X43.118 Y28.23 Z0 F800
G1 X43.31 Y28.132 Z0 F800
G1 X43.587 Y28.043 Z0 F800
G1 X43.916 Y27.965 Z0 F800
G1 X44.263 Y27.899 Z0 F800
G1 X44.592 Y27.845 Z0 F800
G1 X44.869 Y27.806 Z0 F800
G1 X45.132 Y27.773 Z0 F800
G1 X46.735 Y28.23 Z0 F800
G1 X47.833 Y27.498 Z0 F800
G1 X47.808 Y27.472 Z0 F800
G1 X47.737 Y27.404 Z0 F800
G1 X47.623 Y27.307 Z0 F800
G1 X47.473 Y27.195 Z0 F800
G1 X47.29 Y27.08 Z0 F800
G1 X47.08 Y26.977 Z0 F800
G1 X46.848 Y26.898 Z0 F800
G1 X46.597 Y26.857 Z0 F800
G1 X46.297 Y26.862 Z0 F800
G1 X45.932 Y26.902 Z0 F800
G1 X45.53 Y26.967 Z0 F800
G1 X45.121 Y27.046 Z0 F800
G1 X44.396 Y27.198 Z0 F800
G1 X44.138 Y27.25 Z0 F800
G1 X44.047 Y27.264 Z0 F800
G1 X43.988 Y27.269 Z0 F800
G1 X43.836 Y27.273 Z0 F800
G1 X43.577 Y27.283 Z0 F800
G1 X42.895 Y27.315 Z0 F800
G1 X41.974 Y27.361 Z0 F800
G1 X41.287 Y27.956 Z0 F800
G1 X40.967 Y27.544 Z0 F800
G1 X41.196 Y26.628 Z0 F800
G1 X41.241 Y25.942 Z0 F800
G1 X42.249 Y25.347 Z0 F800
G1 X42.569 Y26.354 Z0 F800
G1 X44.675 Y25.942 Z0 F800
G1 X45.911 Y25.713 Z0 F800
G1 X47.742 Y26.216 Z0 F800
G1 X48.199 Y24.66 Z0 F800
G1 X48.044 Y24.621 Z0 F800
G1 X47.876 Y24.585 Z0 F800
G1 X47.673 Y24.551 Z0 F800
G1 X47.453 Y24.528 Z0 F800
G1 X47.234 Y24.525 Z0 F800
G1 X47.034 Y24.55 Z0 F800
G1 X46.872 Y24.614 Z0 F800
G1 X46.231 Y25.02 Z0 F800
G1 X45.865 Y25.255 Z0 F800
G1 X44.217 Y24.614 Z0 F800
G1 X44.088 Y24.673 Z0 F800
G1 X43.956 Y24.725 Z0 F800
G1 X43.805 Y24.774 Z0 F800
G1 X43.654 Y24.806 Z0 F800
G1 X43.522 Z0 F800
G1 X43.428 Y24.763 Z0 F800
G1 X43.393 Y24.66 Z0 F800
G1 X43.37 Y24.168 Z0 F800
G1 X43.393 Y23.99 Z0 F800
G1 X43.485 Y23.882 Z0 F800
G1 X43.543 Y23.861 Z0 F800
G1 X43.645 Y23.834 Z0 F800
G1 X43.785 Y23.801 Z0 F800
G1 X43.955 Y23.764 Z0 F800
G1 X44.362 Y23.682 Z0 F800
G1 X44.812 Y23.596 Z0 F800
G1 X45.635 Y23.444 Z0 F800
G1 X46.002 Y23.378 Z0 F800
G1 X46.019 Y23.428 Z0 F800
G1 X46.071 Y23.533 Z0 F800
G1 X46.157 Y23.629 Z0 F800
G1 X46.277 Y23.653 Z0 F800
G1 X46.385 Y23.622 Z0 F800
G1 X46.554 Y23.569 Z0 F800
G1 X46.986 Y23.43 Z0 F800
G1 X47.559 Y23.241 Z0 F800
G1 X47.925 Y21.73 Z0 F800
G1 X47.009 Y21.776 Z0 F800
G1 X45.636 Y22.6 Z0 F800
G1 X44.034 Y22.554 Z0 F800
G1 X43.393 Y21.913 Z0 F800
G1 X43.276 Y21.769 Z0 F800
G1 X43.161 Y21.619 Z0 F800
G1 X43.038 Y21.444 Z0 F800
G1 X42.928 Y21.265 Z0 F800
G1 X42.852 Y21.102 Z0 F800
G1 X42.832 Y20.976 Z0 F800
G1 X42.889 Y20.906 Z0 F800
G1 X43.035 Y20.884 Z0 F800
G1 X43.248 Z0 F800
G1 X43.503 Y20.895 Z0 F800
G1 X43.771 Y20.918 Z0 F800
G1 X44.026 Y20.945 Z0 F800
G1 X44.241 Y20.971 Z0 F800
G1 X44.446 Y20.998 Z0 F800
G1 X46.048 Y21.089 Z0 F800
G1 X47.513 Y20.769 Z0 F800
G1 X44.858 Y21.685 Z0 F800
G1 X42.661 Y19.899 Z0 F800
G1 X42.477 Y16.283 Z0 F800
G1 X41.699 Y15.734 Z0 F800
G1 X37.35 Y15.642 Z0 F800
G1 X33.322 Y16.1 Z0 F800
G1 X31.216 Y15.55 Z0 F800
G1 X30.575 Y18.022 Z0 F800
G1 X28.332 Y17.885 Z0 F800
G1 X27.371 Y18.938 Z0 F800
G1 X26.456 Y20.266 Z0 F800
G1 X26.501 Y21.776 Z0 F800
G1 X24.762 Y22.097 Z0 F800
G1 X22.977 Z0 F800
G1 X22.336 Y21.73 Z0 F800
G1 X20.917 Y22.463 Z0 F800
G1 X20.276 Y24.202 Z0 F800
G1 X20.093 Y25.392 Z0 F800
G1 X20.367 Y26.445 Z0 F800
G1 X20.413 Y27.086 Z0 F800
G1 X19.223 Y27.269 Z0 F800
G1 X17.346 Y27.04 Z0 F800
G1 X16.476 Y26.491 Z0 F800
G1 X16.522 Y25.896 Z0 F800
G1 X17.895 Y25.804 Z0 F800
G1 X18.17 Y26.216 Z0 F800
G1 X20.093 Y26.491 Z0 F800
G1 X19.04 Y25.713 Z0 F800
G1 X18.859 Y25.693 Z0 F800
G1 X18.68 Y25.665 Z0 F800
G1 X18.485 Y25.621 Z0 F800
G1 X18.304 Y25.561 Z0 F800
G1 X18.171 Y25.481 Z0 F800
G1 X18.131 Y25.433 Z0 F800
G1 X18.115 Y25.38 Z0 F800
G1 X18.127 Y25.321 Z0 F800
G1 X18.17 Y25.255 Z0 F800
G1 X18.317 Y25.124 Z0 F800
G1 X18.505 Y25.008 Z0 F800
G1 X18.716 Y24.906 Z0 F800
G1 X18.931 Y24.82 Z0 F800
G1 X19.131 Y24.752 Z0 F800
G1 X19.297 Y24.702 Z0 F800
G1 X19.452 Y24.66 Z0 F800
G1 X18.399 Y27.727 Z0 F800
G1 X16.934 Y26.308 Z0 F800
G1 X20.001 Y23.79 Z0 F800
G1 X18.399 Y23.973 Z0 F800
G1 X18.811 Y22.417 Z0 F800
G1 X18.399 Y21.593 Z0 F800
G1 X19.223 Y20.449 Z0 F800
G1 X18.719 Y19.396 Z0 F800
G1 X19.452 Y18.618 Z0 F800
G1 X18.811 Y18.297 Z0 F800
G1 X18.17 Y17.702 Z0 F800
G1 X17.758 Y16.695 Z0 F800
G1 X18.307 Y15.505 Z0 F800
;Layer C3 Pass 2 of 2
G1 X20.962 Y15.459 Z0 F800
G1 X22.427 Y16.237 Z0 F800
G1 X22.552 Y16.334 Z0 F800
G1 X22.674 Y16.44 Z0 F800
G1 X22.805 Y16.569 Z0 F800
G1 X22.923 Y16.711 Z0 F800
G1 X23.007 Y16.855 Z0 F800
G1 X23.032 Y16.991 Z0 F800
G1 X22.977 Y17.107 Z0 F800
G1 X22.856 Y17.235 Z0 F800
G1 X22.711 Y17.402 Z0 F800
G1 X22.552 Y17.59 Z0 F800
G1 X22.393 Y17.782 Z0 F800
G1 X22.015 Y18.251 Z0 F800
G1 X19.772 Y18.297 Z0 F800
G1 X20.184 Y19.579 Z0 F800
G1 X19.498 Y20.037 Z0 F800
G1 X20.322 Y21.318 Z0 F800
G1 X19.452 Y22.188 Z0 F800
G1 X20.367 Y23.195 Z0 F800
G1 X21.191 Y21.547 Z0 F800
G1 X20.734 Y20.586 Z0 F800
G1 X20.915 Y20.497 Z0 F800
G1 X21.096 Y20.4 Z0 F800
G1 X21.294 Y20.283 Z0 F800
G1 X21.48 Y20.155 Z0 F800
G1 X21.622 Y20.026 Z0 F800
G1 X21.667 Y19.965 Z0 F800
G1 X21.689 Y19.907 Z0 F800
G1 X21.684 Y19.854 Z0 F800
G1 X21.649 Y19.808 Z0 F800
G1 X21.433 Y19.611 Z0 F800
G1 X21.226 Y19.402 Z0 F800
G1 X21.07 Y19.235 Z0 F800
G1 X21.008 Y19.167 Z0 F800
G1 X22.748 Y18.618 Z0 F800
G1 X23.892 Y17.519 Z0 F800
G1 X23.801 Y16.42 Z0 F800
G1 X22.748 Y15.642 Z0 F800
G1 X24.35 Y15.871 Z0 F800
G1 X24.945 Y16.924 Z0 F800
G1 X24.999 Y17.134 Z0 F800
G1 X25.049 Y17.354 Z0 F800
G1 X25.1 Y17.611 Z0 F800
G1 X25.139 Y17.876 Z0 F800
G1 X25.157 Y18.121 Z0 F800
G1 X25.142 Y18.317 Z0 F800
G1 X25.082 Y18.435 Z0 F800
G1 X24.965 Y18.522 Z0 F800
G1 X24.8 Y18.641 Z0 F800
G1 X24.401 Y18.915 Z0 F800
G1 X23.892 Y19.258 Z0 F800
G1 X21.649 Y20.311 Z0 F800
G1 X22.244 Y21.135 Z0 F800
G1 X23.572 Y21.09 Z0 F800
G1 X23.902 Y21.109 Z0 F800
G1 X24.104 Y21.124 Z0 F800
G1 X24.316 Y21.143 Z0 F800
G1 X24.518 Y21.167 Z0 F800
G1 X24.689 Y21.195 Z0 F800
G1 X24.808 Y21.227 Z0 F800
G1 X24.905 Y21.224 Z0 F800
G1 X25.019 Y21.158 Z0 F800
G1 X25.14 Y21.05 Z0 F800
G1 X25.26 Y20.918 Z0 F800
G1 X25.369 Y20.782 Z0 F800
G1 X25.458 Y20.66 Z0 F800
G1 X25.54 Y20.54 Z0 F800
G1 X25.398 Y20.471 Z0 F800
G1 X25.243 Y20.403 Z0 F800
G1 X25.054 Y20.329 Z0 F800
G1 X24.845 Y20.261 Z0 F800
G1 X24.632 Y20.212 Z0 F800
G1 X24.432 Y20.194 Z0 F800
G1 X24.258 Y20.22 Z0 F800
G1 X23.881 Y20.283 Z0 F800
G1 X23.469 Z0 F800
G1 X23.298 Y20.265 Z0 F800
G1 X23.177 Y20.239 Z0 F800
G1 X23.124 Y20.208 Z0 F800
G1 X23.16 Y20.174 Z0 F800
G1 X23.221 Y20.146 Z0 F800
G1 X23.314 Y20.099 Z0 F800
G1 X23.435 Y20.034 Z0 F800
G1 X23.912 Y19.772 Z0 F800
G1 X24.276 Y19.567 Z0 F800
G1 X25.22 Y19.03 Z0 F800
G1 X26.41 Y19.579 Z0 F800
G1 X26.53 Y19.489 Z0 F800
G1 X26.651 Y19.391 Z0 F800
G1 X26.788 Y19.27 Z0 F800
G1 X26.92 Y19.136 Z0 F800
G1 X27.028 Y19 Z0 F800
G1 X27.093 Y18.869 Z0 F800
G1 X27.097 Y18.755 Z0 F800
G1 X27.031 Y18.631 Z0 F800
G1 X26.915 Y18.475 Z0 F800
G1 X26.767 Y18.301 Z0 F800
G1 X26.604 Y18.125 Z0 F800
G1 X26.447 Y17.963 Z0 F800
G1 X26.311 Y17.828 Z0 F800
G1 X26.181 Y17.702 Z0 F800
G1 X25.769 Y16.558 Z0 F800
G1 X25.54 Y15.779 Z0 F800
G1 X26.273 Y15.734 Z0 F800
G1 X26.492 Y15.977 Z0 F800
G1 X26.622 Y16.128 Z0 F800
G1 X26.753 Y16.29 Z0 F800
G1 X26.871 Y16.448 Z0 F800
G1 X26.96 Y16.588 Z0 F800
G1 X27.005 Y16.695 Z0 F800
G1 X27.044 Y16.806 Z0 F800
G1 X27.117 Y16.956 Z0 F800
G1 X27.213 Y17.129 Z0 F800
G1 X27.32 Y17.307 Z0 F800
G1 X27.424 Y17.475 Z0 F800
G1 X27.6 Y17.748 Z0 F800
G1 X30.255 Y16.42 Z0 F800
G1 X29.294 Y15.779 Z0 F800
G1 X27.783 Y16.329 Z0 F800
G1 X27.829 Y16.878 Z0 F800
G1 X28.039 Y16.827 Z0 F800
G1 X28.516 Y16.706 Z0 F800
G1 X28.781 Y16.637 Z0 F800
G1 X29.026 Y16.569 Z0 F800
G1 X29.222 Y16.51 Z0 F800
G1 X29.34 Y16.466 Z0 F800
G1 X29.477 Y16.402 Z0 F800
G1 X29.724 Y16.292 Z0 F800
G1 X31.308 Y15.596 Z0 F800
G1 X33.643 Y15.505 Z0 F800
G1 X37.9 Y15.642 Z0 F800
G1 X41.608 Y15.459 Z0 F800
G1 X42.478 Y16.191 Z0 F800
G1 X42.249 Y20.174 Z0 F800
G1 X43.576 Y20.952 Z0 F800
G1 X43.485 Y26.216 Z0 F800
G1 Y32.671 Z0 F800
G1 X44.766 Y33.175 Z0 F800
G1 X45.224 Y29.741 Z0 F800
G1 X43.988 Y26.857 Z0 F800
G1 X44.146 Y26.409 Z0 F800
G1 X44.498 Y25.398 Z0 F800
G1 X44.688 Y24.839 Z0 F800
G1 X44.857 Y24.327 Z0 F800
G1 X44.927 Y24.109 Z0 F800
G1 X44.983 Y23.926 Z0 F800
G1 X45.022 Y23.787 Z0 F800
G1 X45.041 Y23.699 Z0 F800
G1 Y23.62 Z0 F800
G1 X45.019 Y23.506 Z0 F800
G1 X44.982 Y23.364 Z0 F800
G1 X44.932 Y23.199 Z0 F800
G1 X44.801 Y22.819 Z0 F800
G1 X44.646 Y22.411 Z0 F800
G1 X44.49 Y22.018 Z0 F800
G1 X44.352 Y21.684 Z0 F800
G1 X44.217 Y21.364 Z0 F800
G1 X45.041 Y20.906 Z0 F800
G1 X46.323 Y22.051 Z0 F800
G1 X46.369 Y24.431 Z0 F800
G1 X45.362 Y26.674 Z0 F800
G1 X45.651 Y27.121 Z0 F800
G1 X45.819 Y27.389 Z0 F800
G1 X45.987 Y27.669 Z0 F800
G1 X46.134 Y27.929 Z0 F800
G1 X46.193 Y28.044 Z0 F800
G1 X46.238 Y28.142 Z0 F800
G1 X46.267 Y28.221 Z0 F800
G1 X46.277 Y28.276 Z0 F800
G1 X46.27 Y28.759 Z0 F800
G1 X46.231 Y30.748 Z0 F800
G1 X46.46 Y32.488 Z0 F800
G1 X46.663 Y32.491 Z0 F800
G1 X46.866 Y32.488 Z0 F800
G1 X47.09 Y32.476 Z0 F800
G1 X47.301 Y32.452 Z0 F800
G1 X47.464 Y32.411 Z0 F800
G1 X47.518 Y32.382 Z0 F800
G1 X47.547 Y32.348 Z0 F800
G1 Y32.307 Z0 F800
G1 X47.513 Y32.259 Z0 F800
G1 X47.459 Y32.172 Z0 F800
G1 X47.399 Y32.019 Z0 F800
G1 X47.335 Y31.811 Z0 F800
G1 X47.268 Y31.557 Z0 F800
G1 X47.132 Y30.951 Z0 F800
G1 X46.998 Y30.279 Z0 F800
G1 X46.877 Y29.621 Z0 F800
G1 X46.779 Y29.053 Z0 F800
G1 X46.689 Y28.505 Z0 F800
G1 X46.46 Y25.255 Z0 F800
G1 X46.689 Y24.168 Z0 F800
G1 X46.773 Y23.749 Z0 F800
G1 X46.846 Y23.363 Z0 F800
G1 X46.876 Y23.196 Z0 F800
G1 X46.898 Y23.056 Z0 F800
G1 X46.913 Y22.947 Z0 F800
G1 X46.918 Y22.875 Z0 F800
G1 X46.915 Y22.807 Z0 F800
G1 X46.897 Y22.587 Z0 F800
G1 X46.846 Y22.117 Z0 F800
G1 X46.804 Y21.765 Z0 F800
G1 X46.689 Y20.861 Z0 F800
G1 X47.513 Y21.227 Z0 F800
G1 Y32.03 Z0 F800
G1 X48.749 Y33.083 Z0 F800
G1 X55.112 Y33.129 Z0 F800
G1 X54.746 Y29.695 Z0 F800
G1 X55.295 Y28.139 Z0 F800
G1 X54.196 Y27.818 Z0 F800
G1 X55.295 Y27.956 Z0 F800
G1 X55.753 Y29.421 Z0 F800
G1 Y31.114 Z0 F800
G1 X55.89 Y32.259 Z0 F800
G1 X55.753 Y33.54 Z0 F800
G1 X55.02 Y34.41 Z0 F800
G1 X54.013 Y33.678 Z0 F800
G1 X54.654 Y32.533 Z0 F800
G1 X54.517 Y30.565 Z0 F800
G1 X54.379 Y28.734 Z0 F800
G1 X54.013 Y29.833 Z0 F800
G1 X54.196 Y32.03 Z0 F800
G1 X53.601 Y33.083 Z0 F800
G1 X47.284 Y33.129 Z0 F800
G1 X46.002 Y33.22 Z0 F800
G1 X44.217 Y33.632 Z0 F800
G1 X43.21 Y32.991 Z0 F800
G1 X43.576 Y31.755 Z0 F800
G1 X46.368 Y32.533 Z0 F800
G1 X47.376 Y31.709 Z0 F800
G1 X47.433 Y31.609 Z0 F800
G1 X47.482 Y31.507 Z0 F800
G1 X47.524 Y31.389 Z0 F800
G1 X47.545 Y31.271 Z0 F800
G1 X47.53 Y31.169 Z0 F800
G1 X47.463 Y31.096 Z0 F800
G1 X47.33 Y31.069 Z0 F800
G1 X46.722 Y31.076 Z0 F800
G1 X44.675 Y31.114 Z0 F800
G1 X43.53 Y30.977 Z0 F800
G1 X43.57 Y30.798 Z0 F800
G1 X43.615 Y30.615 Z0 F800
G1 X43.673 Y30.405 Z0 F800
G1 X43.743 Y30.195 Z0 F800
G1 X43.82 Y30.011 Z0 F800
G1 X43.903 Y29.882 Z0 F800
G1 X43.988 Y29.833 Z0 F800
G1 X44.049 Y29.84 Z0 F800
G1 X44.142 Y29.86 Z0 F800
G1 X44.263 Y29.892 Z0 F800
G1 X44.406 Y29.933 Z0 F800
G1 X44.74 Y30.035 Z0 F800
G1 X45.104 Y30.153 Z0 F800
G1 X45.457 Y30.271 Z0 F800
G1 X46.048 Y30.474 Z0 F800
G1 X47.742 Y29.787 Z0 F800
G1 X47.737 Y29.65 Z0 F800
G1 X47.725 Y29.509 Z0 F800
G1 X47.702 Y29.346 Z0 F800
G1 X47.663 Y29.181 Z0 F800
G1 X47.607 Y29.034 Z0 F800
G1 X47.527 Y28.924 Z0 F800
G1 X47.421 Y28.871 Z0 F800
G1 X47.344 Y28.866 Z0 F800
G1 X47.235 Z0 F800
G1 X47.099 Y28.871 Z0 F800
G1 X46.943 Y28.881 Z0 F800
G1 X46.585 Y28.909 Z0 F800
G1 X46.202 Y28.946 Z0 F800
G1 X45.835 Y28.984 Z0 F800
G1 X45.224 Y29.054 Z0 F800
G1 X45.027 Y29.084 Z0 F800
G1 X44.818 Y29.108 Z0 F800
G1 X44.572 Y29.123 Z0 F800
G1 X44.312 Z0 F800
G1 X44.065 Y29.093 Z0 F800
G1 X43.857 Y29.028 Z0 F800
G1 X43.713 Y28.917 Z0 F800
G1 X43.453 Y28.694 Z0 F800
G1 X43.175 Y28.539 Z0 F800
G1 X43.073 Y28.472 Z0 F800
G1 X43.018 Y28.402 Z0 F800
G1 X43.027 Y28.324 Z0 F800
G1 X43.118 Y28.23 Z0 F800
G1 X43.31 Y28.132 Z0 F800
G1 X43.587 Y28.043 Z0 F800
G1 X43.916 Y27.965 Z0 F800
G1 X44.263 Y27.899 Z0 F800
G1 X44.592 Y27.845 Z0 F800
G1 X44.869 Y27.806 Z0 F800
G1 X45.132 Y27.773 Z0 F800
G1 X46.735 Y28.23 Z0 F800
G1 X47.833 Y27.498 Z0 F800
G1 X47.808 Y27.472 Z0 F800
G1 X47.737 Y27.404 Z0 F800
G1 X47.623 Y27.307 Z0 F800
G1 X47.473 Y27.195 Z0 F800
G1 X47.29 Y27.08 Z0 F800
G1 X47.08 Y26.977 Z0 F800
G1 X46.848 Y26.898 Z0 F800
G1 X46.597 Y26.857 Z0 F800
G1 X46.297 Y26.862 Z0 F800
G1 X45.932 Y26.902 Z0 F800
G1 X45.53 Y26.967 Z0 F800
G1 X45.121 Y27.046 Z0 F800
G1 X44.396 Y27.198 Z0 F800
G1 X44.138 Y27.25 Z0 F800
G1 X44.047 Y27.264 Z0 F800
G1 X43.988 Y27.269 Z0 F800
G1 X43.836 Y27.273 Z0 F800
G1 X43.577 Y27.283 Z0 F800
G1 X42.895 Y27.315 Z0 F800
G1 X41.974 Y27.361 Z0 F800
G1 X41.287 Y27.956 Z0 F800
G1 X40.967 Y27.544 Z0 F800
G1 X41.196 Y26.628 Z0 F800
G1 X41.241 Y25.942 Z0 F800
G1 X42.249 Y25.347 Z0 F800
G1 X42.569 Y26.354 Z0 F800
G1 X44.675 Y25.942 Z0 F800
G1 X45.911 Y25.713 Z0 F800
G1 X47.742 Y26.216 Z0 F800
G1 X48.199 Y24.66 Z0 F800
G1 X48.044 Y24.621 Z0 F800
G1 X47.876 Y24.585 Z0 F800
G1 X47.673 Y24.551 Z0 F800
G1 X47.453 Y24.528 Z0 F800
G1 X47.234 Y24.525 Z0 F800
G1 X47.034 Y24.55 Z0 F800
G1 X46.872 Y24.614 Z0 F800
G1 X46.231 Y25.02 Z0 F800
G1 X45.865 Y25.255 Z0 F800
G1 X44.217 Y24.614 Z0 F800
G1 X44.088 Y24.673 Z0 F800
G1 X43.956 Y24.725 Z0 F800
G1 X43.805 Y24.774 Z0 F800
G1 X43.654 Y24.806 Z0 F800
G1 X43.522 Z0 F800
G1 X43.428 Y24.763 Z0 F800
G1 X43.393 Y24.66 Z0 F800
G1 X43.37 Y24.168 Z0 F800
G1 X43.393 Y23.99 Z0 F800
G1 X43.485 Y23.882 Z0 F800
G1 X43.543 Y23.861 Z0 F800
G1 X43.645 Y23.834 Z0 F800
G1 X43.785 Y23.801 Z0 F800
G1 X43.955 Y23.764 Z0 F800
G1 X44.362 Y23.682 Z0 F800
G1 X44.812 Y23.596 Z0 F800
G1 X45.635 Y23.444 Z0 F800
G1 X46.002 Y23.378 Z0 F800
G1 X46.019 Y23.428 Z0 F800
G1 X46.071 Y23.533 Z0 F800
G1 X46.157 Y23.629 Z0 F800
G1 X46.277 Y23.653 Z0 F800
G1 X46.385 Y23.622 Z0 F800
G1 X46.554 Y23.569 Z0 F800
G1 X46.986 Y23.43 Z0 F800
G1 X47.559 Y23.241 Z0 F800
G1 X47.925 Y21.73 Z0 F800
G1 X47.009 Y21.776 Z0 F800
G1 X45.636 Y22.6 Z0 F800
G1 X44.034 Y22.554 Z0 F800
G1 X43.393 Y21.913 Z0 F800
G1 X43.276 Y21.769 Z0 F800
G1 X43.161 Y21.619 Z0 F800
G1 X43.038 Y21.444 Z0 F800
G1 X42.928 Y21.265 Z0 F800
G1 X42.852 Y21.102 Z0 F800
G1 X42.832 Y20.976 Z0 F800
G1 X42.889 Y20.906 Z0 F800
G1 X43.035 Y20.884 Z0 F800
G1 X43.248 Z0 F800
G1 X43.503 Y20.895 Z0 F800
G1 X43.771 Y20.918 Z0 F800
G1 X44.026 Y20.945 Z0 F800
G1 X44.241 Y20.971 Z0 F800
G1 X44.446 Y20.998 Z0 F800
G1 X46.048 Y21.089 Z0 F800
G1 X47.513 Y20.769 Z0 F800
G1 X44.858 Y21.685 Z0 F800
G1 X42.661 Y19.899 Z0 F800
G1 X42.477 Y16.283 Z0 F800
G1 X41.699 Y15.734 Z0 F800
G1 X37.35 Y15.642 Z0 F800
G1 X33.322 Y16.1 Z0 F800
G1 X31.216 Y15.55 Z0 F800
G1 X30.575 Y18.022 Z0 F800
G1 X28.332 Y17.885 Z0 F800
G1 X27.371 Y18.938 Z0 F800
G1 X26.456 Y20.266 Z0 F800
G1 X26.501 Y21.776 Z0 F800
G1 X24.762 Y22.097 Z0 F800
G1 X22.977 Z0 F800
G1 X22.336 Y21.73 Z0 F800
G1 X20.917 Y22.463 Z0 F800
G1 X20.276 Y24.202 Z0 F800
G1 X20.093 Y25.392 Z0 F800
G1 X20.367 Y26.445 Z0 F800
G1 X20.413 Y27.086 Z0 F800
G1 X19.223 Y27.269 Z0 F800
G1 X17.346 Y27.04 Z0 F800
G1 X16.476 Y26.491 Z0 F800
G1 X16.522 Y25.896 Z0 F800
G1 X17.895 Y25.804 Z0 F800
G1 X18.17 Y26.216 Z0 F800
G1 X20.093 Y26.491 Z0 F800
G1 X19.04 Y25.713 Z0 F800
G1 X18.859 Y25.693 Z0 F800
G1 X18.68 Y25.665 Z0 F800
G1 X18.485 Y25.621 Z0 F800
G1 X18.304 Y25.561 Z0 F800
G1 X18.171 Y25.481 Z0 F800
G1 X18.131 Y25.433 Z0 F800
G1 X18.115 Y25.38 Z0 F800
G1 X18.127 Y25.321 Z0 F800
G1 X18.17 Y25.255 Z0 F800
G1 X18.317 Y25.124 Z0 F800
G1 X18.505 Y25.008 Z0 F800
G1 X18.716 Y24.906 Z0 F800
G1 X18.931 Y24.82 Z0 F800
G1 X19.131 Y24.752 Z0 F800
G1 X19.297 Y24.702 Z0 F800
G1 X19.452 Y24.66 Z0 F800
G1 X18.399 Y27.727 Z0 F800
G1 X16.934 Y26.308 Z0 F800
G1 X20.001 Y23.79 Z0 F800
G1 X18.399 Y23.973 Z0 F800
G1 X18.811 Y22.417 Z0 F800
G1 X18.399 Y21.593 Z0 F800
G1 X19.223 Y20.449 Z0 F800
G1 X18.719 Y19.396 Z0 F800
G1 X19.452 Y18.618 Z0 F800
G1 X18.811 Y18.297 Z0 F800
G1 X18.17 Y17.702 Z0 F800
G1 X17.758 Y16.695 Z0 F800
G1 X18.307 Y15.505 Z0 F800
G0 Z3.5 F500
G0 X29.751 Y20.86 Z3.5 F333
G1 Z0 F500
;Layer C3 Pass 1 of 2
G1 X31.125 Y20.998 Z0 F800
G1 X33.185 Y20.952 Z0 F800
G1 X33.459 Y21.364 Z0 F800
G1 X33.551 Y22.737 Z0 F800
G1 X33.368 Y23.332 Z0 F800
G1 X31.491 Y23.012 Z0 F800
G1 X30.026 Y22.92 Z0 F800
G1 X29.568 Y23.103 Z0 F800
G1 X30.163 Y23.378 Z0 F800
G1 X31.811 Z0 F800
G1 X33.414 Y23.561 Z0 F800
G1 X33.917 Y24.889 Z0 F800
G1 X33.871 Y26.125 Z0 F800
G1 Y27.452 Z0 F800
G1 X33.368 Y27.91 Z0 F800
G1 X33.185 Y17.976 Z0 F800
G1 X36.893 Z0 F800
G1 X38.632 Y17.656 Z0 F800
G1 X40.326 Z0 F800
G1 X40.875 Y18.114 Z0 F800
G1 X39.731 Y18.571 Z0 F800
G1 X38.541 Y18.343 Z0 F800
G1 X36.435 Y18.022 Z0 F800
G1 X34.375 Y17.885 Z0 F800
G1 X33.414 Y18.617 Z0 F800
G1 X33.322 Y19.899 Z0 F800
G1 X33.459 Y20.494 Z0 F800
G1 X32.864 Y20.677 Z0 F800
G1 X30.53 Y20.357 Z0 F800
G1 X29.751 Y20.86 Z0 F800
;Layer C3 Pass 2 of 2
G1 X31.125 Y20.998 Z0 F800
G1 X33.185 Y20.952 Z0 F800
G1 X33.459 Y21.364 Z0 F800
G1 X33.551 Y22.737 Z0 F800
G1 X33.368 Y23.332 Z0 F800
G1 X31.491 Y23.012 Z0 F800
G1 X30.026 Y22.92 Z0 F800
G1 X29.568 Y23.103 Z0 F800
G1 X30.163 Y23.378 Z0 F800
G1 X31.811 Z0 F800
G1 X33.414 Y23.561 Z0 F800
G1 X33.917 Y24.889 Z0 F800
G1 X33.871 Y26.125 Z0 F800
G1 Y27.452 Z0 F800
G1 X33.368 Y27.91 Z0 F800
G1 X33.185 Y17.976 Z0 F800
G1 X36.893 Z0 F800
G1 X38.632 Y17.656 Z0 F800
G1 X40.326 Z0 F800
G1 X40.875 Y18.114 Z0 F800
G1 X39.731 Y18.571 Z0 F800
G1 X38.541 Y18.343 Z0 F800
G1 X36.435 Y18.022 Z0 F800
G1 X34.375 Y17.885 Z0 F800
G1 X33.414 Y18.617 Z0 F800
G1 X33.322 Y19.899 Z0 F800
G1 X33.459 Y20.494 Z0 F800
G1 X32.864 Y20.677 Z0 F800
G1 X30.53 Y20.357 Z0 F800
G1 X29.751 Y20.86 Z0 F800
G0 Z3.5 F500
G0 X36.069 Y20.723 Z3.5 
G1 Z0 F500
;Layer C3 Pass 1 of 2
G1 X38.22 Y20.677 Z0 F800
G1 X39.685 Y20.723 Z0 F800
G1 X39.868 Y21.043 Z0 F800
G1 X38.358 Y21.135 Z0 F800
G1 X36.618 Y21.043 Z0 F800
G1 X36.252 Y21.41 Z0 F800
G1 X35.794 Y22.829 Z0 F800
G1 X36.618 Y23.058 Z0 F800
G1 X38.724 Z0 F800
G1 X40.143 Y22.829 Z0 F800
G1 X40.097 Y23.378 Z0 F800
G1 X38.174 Y23.561 Z0 F800
G1 X36.16 Y23.378 Z0 F800
G1 Y25.346 Z0 F800
G1 X36.206 Y27.727 Z0 F800
G1 X36.343 Y28.917 Z0 F800
G1 X36.349 Y29.099 Z0 F800
G1 X36.334 Y29.35 Z0 F800
G1 X36.306 Y29.643 Z0 F800
G1 X36.269 Y29.947 Z0 F800
G1 X36.23 Y30.234 Z0 F800
G1 X36.195 Y30.475 Z0 F800
G1 X36.16 Y30.702 Z0 F800
G1 X35.971 Y30.708 Z0 F800
G1 X35.716 Y30.722 Z0 F800
G1 X35.336 Y30.748 Z0 F800
G1 X35.059 Y30.755 Z0 F800
G1 X34.699 Y30.746 Z0 F800
G1 X34.293 Y30.725 Z0 F800
G1 X33.877 Y30.697 Z0 F800
G1 X33.49 Y30.666 Z0 F800
G1 X33.167 Y30.639 Z0 F800
G1 X32.864 Y30.611 Z0 F800
G1 X31.445 Y29.878 Z0 F800
G1 X30.942 Y29.054 Z0 F800
G1 X30.902 Y28.871 Z0 F800
G1 X30.864 Y28.666 Z0 F800
G1 X30.827 Y28.408 Z0 F800
G1 X30.799 Y28.113 Z0 F800
G1 X30.787 Y27.799 Z0 F800
G1 X30.801 Y27.482 Z0 F800
G1 X30.85 Y27.178 Z0 F800
G1 X30.907 Y26.895 Z0 F800
G1 X30.942 Y26.635 Z0 F800
G1 X30.96 Y26.401 Z0 F800
G1 X30.965 Y26.199 Z0 F800
G1 X30.961 Y26.034 Z0 F800
G1 X30.953 Y25.909 Z0 F800
G1 X30.942 Y25.804 Z0 F800
G1 X30.301 Y25.53 Z0 F800
G1 X30.026 Y26.445 Z0 F800
G1 X30.118 Y27.91 Z0 F800
G1 X29.568 Y27.544 Z0 F800
G1 X29.202 Y25.942 Z0 F800
G1 X30.347 Y26.582 Z0 F800
G1 X30.072 Y29.375 Z0 F800
G1 X31.445 Y29.421 Z0 F800
G1 X32.132 Y30.565 Z0 F800
G1 X33.734 Y31.023 Z0 F800
G1 X36.343 Y30.153 Z0 F800
G1 X36.481 Y23.882 Z0 F800
G1 X36.069 Y20.723 Z0 F800
;Layer C3 Pass 2 of 2
G1 X38.22 Y20.677 Z0 F800
G1 X39.685 Y20.723 Z0 F800
G1 X39.868 Y21.043 Z0 F800
G1 X38.358 Y21.135 Z0 F800
G1 X36.618 Y21.043 Z0 F800
G1 X36.252 Y21.41 Z0 F800
G1 X35.794 Y22.829 Z0 F800
G1 X36.618 Y23.058 Z0 F800
G1 X38.724 Z0 F800
G1 X40.143 Y22.829 Z0 F800
G1 X40.097 Y23.378 Z0 F800
G1 X38.174 Y23.561 Z0 F800
G1 X36.16 Y23.378 Z0 F800
G1 Y25.346 Z0 F800
G1 X36.206 Y27.727 Z0 F800
G1 X36.343 Y28.917 Z0 F800
G1 X36.349 Y29.099 Z0 F800
G1 X36.334 Y29.35 Z0 F800
G1 X36.306 Y29.643 Z0 F800
G1 X36.269 Y29.947 Z0 F800
G1 X36.23 Y30.234 Z0 F800
G1 X36.195 Y30.475 Z0 F800
G1 X36.16 Y30.702 Z0 F800
G1 X35.971 Y30.708 Z0 F800
G1 X35.716 Y30.722 Z0 F800
G1 X35.336 Y30.748 Z0 F800
G1 X35.059 Y30.755 Z0 F800
G1 X34.699 Y30.746 Z0 F800
G1 X34.293 Y30.725 Z0 F800
G1 X33.877 Y30.697 Z0 F800
G1 X33.49 Y30.666 Z0 F800
G1 X33.167 Y30.639 Z0 F800
G1 X32.864 Y30.611 Z0 F800
G1 X31.445 Y29.878 Z0 F800
G1 X30.942 Y29.054 Z0 F800
G1 X30.902 Y28.871 Z0 F800
G1 X30.864 Y28.666 Z0 F800
G1 X30.827 Y28.408 Z0 F800
G1 X30.799 Y28.113 Z0 F800
G1 X30.787 Y27.799 Z0 F800
G1 X30.801 Y27.482 Z0 F800
G1 X30.85 Y27.178 Z0 F800
G1 X30.907 Y26.895 Z0 F800
G1 X30.942 Y26.635 Z0 F800
G1 X30.96 Y26.401 Z0 F800
G1 X30.965 Y26.199 Z0 F800
G1 X30.961 Y26.034 Z0 F800
G1 X30.953 Y25.909 Z0 F800
G1 X30.942 Y25.804 Z0 F800
G1 X30.301 Y25.53 Z0 F800
G1 X30.026 Y26.445 Z0 F800
G1 X30.118 Y27.91 Z0 F800
G1 X29.568 Y27.544 Z0 F800
G1 X29.202 Y25.942 Z0 F800
G1 X30.347 Y26.582 Z0 F800
G1 X30.072 Y29.375 Z0 F800
G1 X31.445 Y29.421 Z0 F800
G1 X32.132 Y30.565 Z0 F800
G1 X33.734 Y31.023 Z0 F800
G1 X36.343 Y30.153 Z0 F800
G1 X36.481 Y23.882 Z0 F800
G1 X36.069 Y20.723 Z0 F800
G0 Z3.5 F500
G0 X38.724 Y25.438 Z3.5 
G1 Z0 F500
;Layer C3 Pass 1 of 2
G1 X38.495 Y33.586 Z0 F800
G1 X35.931 Y33.403 Z0 F800
G1 X33.917 Y33.861 Z0 F800
G1 X32.178 Y33.449 Z0 F800
G1 X30.621 Y32.945 Z0 F800
G1 X29.751 Y32.533 Z0 F800
G1 X28.973 Y32.259 Z0 F800
G1 X28.241 Y33.678 Z0 F800
G1 X28.195 Y35.784 Z0 F800
G1 X29.614 Y35.738 Z0 F800
G1 X28.927 Y33.952 Z0 F800
G1 X28.424 Y32.167 Z0 F800
G1 X29.889 Y33.724 Z0 F800
G1 X31.72 Y33.312 Z0 F800
G1 X34.238 Y33.037 Z0 F800
G1 X36.618 Y33.907 Z0 F800
G1 X38.953 Y33.769 Z0 F800
G1 X39.639 Y32.35 Z0 F800
G1 X39.731 Y31.252 Z0 F800
G1 X40.829 Y31.893 Z0 F800
G1 X40.372 Y33.952 Z0 F800
G1 X40.967 Y35.738 Z0 F800
G1 X41.058 Y37.477 Z0 F800
G1 X40.829 Y38.896 Z0 F800
G1 X41.148 Y38.949 Z0 F800
G1 X41.481 Y38.998 Z0 F800
G1 X41.871 Y39.045 Z0 F800
G1 X42.273 Y39.08 Z0 F800
G1 X42.645 Y39.09 Z0 F800
G1 X42.805 Y39.082 Z0 F800
G1 X42.941 Y39.063 Z0 F800
G1 X43.047 Y39.032 Z0 F800
G1 X43.118 Y38.988 Z0 F800
G1 X43.26 Y38.919 Z0 F800
G1 X43.463 Y38.908 Z0 F800
G1 X43.702 Y38.94 Z0 F800
G1 X43.954 Y38.999 Z0 F800
G1 X44.192 Y39.072 Z0 F800
G1 X44.393 Y39.142 Z0 F800
G1 X44.583 Y39.217 Z0 F800
G1 X45.041 Y40.544 Z0 F800
G1 X45.27 Y41.506 Z0 F800
G1 X47.879 Y41.231 Z0 F800
G1 X47.467 Y38.301 Z0 F800
G1 X47.742 Y36.333 Z0 F800
G1 X45.773 Y36.287 Z0 F800
G1 X43.256 Z0 F800
G1 X42.111 Y37.34 Z0 F800
G1 X46.506 Z0 F800
G1 X47.009 Y38.256 Z0 F800
G1 X44.4 Y38.164 Z0 F800
G1 X42.477 Y37.981 Z0 F800
G1 X41.836 Y38.713 Z0 F800
G1 X45.361 Y38.942 Z0 F800
G1 X47.147 Y39.446 Z0 F800
G1 X46.139 Y40.865 Z0 F800
G1 X45.544 Y39.949 Z0 F800
G1 X41.287 Y37.523 Z0 F800
G1 X40.829 Y35.417 Z0 F800
G1 X41.196 Y33.724 Z0 F800
G1 X39.456 Y33.312 Z0 F800
G1 X38.678 Y30.931 Z0 F800
G1 X38.266 Y25.758 Z0 F800
G1 X38.724 Y25.438 Z0 F800
;Layer C3 Pass 2 of 2
G1 X38.495 Y33.586 Z0 F800
G1 X35.931 Y33.403 Z0 F800
G1 X33.917 Y33.861 Z0 F800
G1 X32.178 Y33.449 Z0 F800
G1 X30.621 Y32.945 Z0 F800
G1 X29.751 Y32.533 Z0 F800
G1 X28.973 Y32.259 Z0 F800
G1 X28.241 Y33.678 Z0 F800
G1 X28.195 Y35.784 Z0 F800
G1 X29.614 Y35.738 Z0 F800
G1 X28.927 Y33.952 Z0 F800
G1 X28.424 Y32.167 Z0 F800
G1 X29.889 Y33.724 Z0 F800
G1 X31.72 Y33.312 Z0 F800
G1 X34.238 Y33.037 Z0 F800
G1 X36.618 Y33.907 Z0 F800
G1 X38.953 Y33.769 Z0 F800
G1 X39.639 Y32.35 Z0 F800
G1 X39.731 Y31.252 Z0 F800
G1 X40.829 Y31.893 Z0 F800
G1 X40.372 Y33.952 Z0 F800
G1 X40.967 Y35.738 Z0 F800
G1 X41.058 Y37.477 Z0 F800
G1 X40.829 Y38.896 Z0 F800
G1 X41.148 Y38.949 Z0 F800
G1 X41.481 Y38.998 Z0 F800
G1 X41.871 Y39.045 Z0 F800
G1 X42.273 Y39.08 Z0 F800
G1 X42.645 Y39.09 Z0 F800
G1 X42.805 Y39.082 Z0 F800
G1 X42.941 Y39.063 Z0 F800
G1 X43.047 Y39.032 Z0 F800
G1 X43.118 Y38.988 Z0 F800
G1 X43.26 Y38.919 Z0 F800
G1 X43.463 Y38.908 Z0 F800
G1 X43.702 Y38.94 Z0 F800
G1 X43.954 Y38.999 Z0 F800
G1 X44.192 Y39.072 Z0 F800
G1 X44.393 Y39.142 Z0 F800
G1 X44.583 Y39.217 Z0 F800
G1 X45.041 Y40.544 Z0 F800
G1 X45.27 Y41.506 Z0 F800
G1 X47.879 Y41.231 Z0 F800
G1 X47.467 Y38.301 Z0 F800
G1 X47.742 Y36.333 Z0 F800
G1 X45.773 Y36.287 Z0 F800
G1 X43.256 Z0 F800
G1 X42.111 Y37.34 Z0 F800
G1 X46.506 Z0 F800
G1 X47.009 Y38.256 Z0 F800
G1 X44.4 Y38.164 Z0 F800
G1 X42.477 Y37.981 Z0 F800
G1 X41.836 Y38.713 Z0 F800
G1 X45.361 Y38.942 Z0 F800
G1 X47.147 Y39.446 Z0 F800
G1 X46.139 Y40.865 Z0 F800
G1 X45.544 Y39.949 Z0 F800
G1 X41.287 Y37.523 Z0 F800
G1 X40.829 Y35.417 Z0 F800
G1 X41.196 Y33.724 Z0 F800
G1 X39.456 Y33.312 Z0 F800
G1 X38.678 Y30.931 Z0 F800
G1 X38.266 Y25.758 Z0 F800
G1 X38.724 Y25.438 Z0 F800
G0 Z3.5 F500
G0 X27.424 Y26.541 Z3.5 
G1 Z0 F500
;Layer C3 Pass 1 of 2
G1 X27.417 Y26.72 Z0 F800
G1 X27.005 Y28.78 Z0 F800
G1 X27.044 Y28.887 Z0 F800
G1 X27.08 Y28.997 Z0 F800
G1 X27.114 Y29.123 Z0 F800
G1 X27.137 Y29.249 Z0 F800
G1 X27.14 Y29.359 Z0 F800
G1 X27.114 Y29.437 Z0 F800
G1 X27.051 Y29.466 Z0 F800
G1 X26.922 Y29.451 Z0 F800
G1 X26.725 Y29.409 Z0 F800
G1 X26.487 Y29.35 Z0 F800
G1 X26.232 Y29.283 Z0 F800
G1 X25.783 Y29.157 Z0 F800
G1 X25.586 Y29.1 Z0 F800
G1 X25.589 Y29.108 Z0 F800
G1 X25.599 Y29.116 Z0 F800
G1 X25.62 Y29.095 Z0 F800
G1 X25.655 Y29.02 Z0 F800
G1 X25.678 Y28.953 Z0 F800
G1 X25.707 Y28.863 Z0 F800
G1 X25.74 Y28.746 Z0 F800
G1 X25.779 Y28.598 Z0 F800
G1 X25.824 Y28.416 Z0 F800
G1 X25.875 Y28.198 Z0 F800
G1 X25.933 Y27.938 Z0 F800
G1 X25.998 Y27.635 Z0 F800
G1 X26.047 Y27.332 Z0 F800
G1 X26.062 Y27.073 Z0 F800
G1 X26.045 Y26.854 Z0 F800
G1 X26.002 Y26.672 Z0 F800
G1 X25.937 Y26.525 Z0 F800
G1 X25.855 Y26.407 Z0 F800
G1 X25.759 Y26.317 Z0 F800
G1 X25.655 Y26.25 Z0 F800
G1 X25.437 Y26.175 Z0 F800
G1 X25.238 Y26.155 Z0 F800
G1 X25.093 Y26.162 Z0 F800
G1 X25.037 Y26.17 Z0 F800
G1 X24.167 Y26.491 Z0 F800
G1 X23.709 Y28.047 Z0 F800
G1 X23.984 Y29.054 Z0 F800
G1 X24.258 Y29.833 Z0 F800
G1 X24.945 Y31.114 Z0 F800
G1 X25.677 Y32.121 Z0 F800
G1 X25.769 Y33.724 Z0 F800
G1 X25.716 Y33.837 Z0 F800
G1 X25.658 Y33.95 Z0 F800
G1 X25.586 Y34.078 Z0 F800
G1 X25.505 Y34.202 Z0 F800
G1 X25.421 Y34.303 Z0 F800
G1 X25.34 Y34.363 Z0 F800
G1 X25.265 Z0 F800
G1 X25.166 Y34.309 Z0 F800
G1 X25.017 Y34.218 Z0 F800
G1 X24.648 Y33.987 Z0 F800
G1 X24.167 Y33.678 Z0 F800
G1 X25.128 Y31.664 Z0 F800
G1 X24.899 Y29.237 Z0 F800
G1 X24.67 Y27.315 Z0 F800
G1 X26.273 Y27.406 Z0 F800
G1 X25.861 Y30.199 Z0 F800
G1 X23.389 Y31.297 Z0 F800
G1 X23.434 Y34.364 Z0 F800
G1 X24.121 Y34.319 Z0 F800
G1 X23.892 Y30.657 Z0 F800
G1 X22.794 Y30.565 Z0 F800
G1 X21.741 Y31.114 Z0 F800
G1 X19.864 Y30.656 Z0 F800
G1 X18.719 Z0 F800
G1 X17.026 Y30.794 Z0 F800
G1 X16.293 Y31.069 Z0 F800
G1 X16.11 Y29.97 Z0 F800
G1 X18.536 Y30.29 Z0 F800
G1 X20.23 Y30.199 Z0 F800
G1 X21.969 Y30.107 Z0 F800
G1 X23.114 Y29.833 Z0 F800
G1 X23.205 Y27.589 Z0 F800
G1 X23.297 Y25.621 Z0 F800
G1 X24.075 Y25.117 Z0 F800
G1 X25.082 Y25.301 Z0 F800
G1 X25.998 Z0 F800
G1 X26.959 Y25.621 Z0 F800
G1 X27.044 Y25.728 Z0 F800
G1 X27.128 Y25.848 Z0 F800
G1 X27.222 Y25.999 Z0 F800
G1 X27.312 Y26.171 Z0 F800
G1 X27.384 Y26.355 Z0 F800
G1 X27.424 Y26.541 Z0 F800
;Layer C3 Pass 2 of 2
G1 X27.417 Y26.72 Z0 F800
G1 X27.005 Y28.78 Z0 F800
G1 X27.044 Y28.887 Z0 F800
G1 X27.08 Y28.997 Z0 F800
G1 X27.114 Y29.123 Z0 F800
G1 X27.137 Y29.249 Z0 F800
G1 X27.14 Y29.359 Z0 F800
G1 X27.114 Y29.437 Z0 F800
G1 X27.051 Y29.466 Z0 F800
G1 X26.922 Y29.451 Z0 F800
G1 X26.725 Y29.409 Z0 F800
G1 X26.487 Y29.35 Z0 F800
G1 X26.232 Y29.283 Z0 F800
G1 X25.783 Y29.157 Z0 F800
G1 X25.586 Y29.1 Z0 F800
G1 X25.589 Y29.108 Z0 F800
G1 X25.599 Y29.116 Z0 F800
G1 X25.62 Y29.095 Z0 F800
G1 X25.655 Y29.02 Z0 F800
G1 X25.678 Y28.953 Z0 F800
G1 X25.707 Y28.863 Z0 F800
G1 X25.74 Y28.746 Z0 F800
G1 X25.779 Y28.598 Z0 F800
G1 X25.824 Y28.416 Z0 F800
G1 X25.875 Y28.198 Z0 F800
G1 X25.933 Y27.938 Z0 F800
G1 X25.998 Y27.635 Z0 F800
G1 X26.047 Y27.332 Z0 F800
G1 X26.062 Y27.073 Z0 F800
G1 X26.045 Y26.854 Z0 F800
G1 X26.002 Y26.672 Z0 F800
G1 X25.937 Y26.525 Z0 F800
G1 X25.855 Y26.407 Z0 F800
G1 X25.759 Y26.317 Z0 F800
G1 X25.655 Y26.25 Z0 F800
G1 X25.437 Y26.175 Z0 F800
G1 X25.238 Y26.155 Z0 F800
G1 X25.093 Y26.162 Z0 F800
G1 X25.037 Y26.17 Z0 F800
G1 X24.167 Y26.491 Z0 F800
G1 X23.709 Y28.047 Z0 F800
G1 X23.984 Y29.054 Z0 F800
G1 X24.258 Y29.833 Z0 F800
G1 X24.945 Y31.114 Z0 F800
G1 X25.677 Y32.121 Z0 F800
G1 X25.769 Y33.724 Z0 F800
G1 X25.716 Y33.837 Z0 F800
G1 X25.658 Y33.95 Z0 F800
G1 X25.586 Y34.078 Z0 F800
G1 X25.505 Y34.202 Z0 F800
G1 X25.421 Y34.303 Z0 F800
G1 X25.34 Y34.363 Z0 F800
G1 X25.265 Z0 F800
G1 X25.166 Y34.309 Z0 F800
G1 X25.017 Y34.218 Z0 F800
G1 X24.648 Y33.987 Z0 F800
G1 X24.167 Y33.678 Z0 F800
G1 X25.128 Y31.664 Z0 F800
G1 X24.899 Y29.237 Z0 F800
G1 X24.67 Y27.315 Z0 F800
G1 X26.273 Y27.406 Z0 F800
G1 X25.861 Y30.199 Z0 F800
G1 X23.389 Y31.297 Z0 F800
G1 X23.434 Y34.364 Z0 F800
G1 X24.121 Y34.319 Z0 F800
G1 X23.892 Y30.657 Z0 F800
G1 X22.794 Y30.565 Z0 F800
G1 X21.741 Y31.114 Z0 F800
G1 X19.864 Y30.656 Z0 F800
G1 X18.719 Z0 F800
G1 X17.026 Y30.794 Z0 F800
G1 X16.293 Y31.069 Z0 F800
G1 X16.11 Y29.97 Z0 F800
G1 X18.536 Y30.29 Z0 F800
G1 X20.23 Y30.199 Z0 F800
G1 X21.969 Y30.107 Z0 F800
G1 X23.114 Y29.833 Z0 F800
G1 X23.205 Y27.589 Z0 F800
G1 X23.297 Y25.621 Z0 F800
G1 X24.075 Y25.117 Z0 F800
G1 X25.082 Y25.301 Z0 F800
G1 X25.998 Z0 F800
G1 X26.959 Y25.621 Z0 F800
G1 X27.044 Y25.728 Z0 F800
G1 X27.128 Y25.848 Z0 F800
G1 X27.222 Y25.999 Z0 F800
G1 X27.312 Y26.171 Z0 F800
G1 X27.384 Y26.355 Z0 F800
G1 X27.424 Y26.541 Z0 F800
G0 Z3.5 F500
G0 X20.276 Y33.312 Z3.5 
G1 Z0 F500
;Layer C3 Pass 1 of 2
G1 X19.91 Y37.203 Z0 F800
G1 X20.459 Y39.904 Z0 F800
G1 X21.237 Y38.713 Z0 F800
G1 X21.969 Y39.354 Z0 F800
G1 X22.381 Y37.66 Z0 F800
G1 X23.343 Y37.569 Z0 F800
G1 X24.899 Y37.889 Z0 F800
G1 X25.952 Y37.981 Z0 F800
G1 X27.417 Y38.484 Z0 F800
G1 X28.882 Y38.851 Z0 F800
G1 X30.988 Y38.896 Z0 F800
G1 X32.086 Y38.439 Z0 F800
G1 X33.231 Y38.668 Z0 F800
G1 X33.276 Y36.837 Z0 F800
G1 X33.688 Y36.882 Z0 F800
G1 X33.231 Y39.354 Z0 F800
G1 X31.308 Y38.759 Z0 F800
G1 X30.209 Y38.301 Z0 F800
G1 X28.973 Y39.354 Z0 F800
G1 X29.431 Y40.407 Z0 F800
G1 X29.202 Y42.971 Z0 F800
G1 X29.614 Y46.267 Z0 F800
G1 X29.248 Y46.129 Z0 F800
G1 X29.843 Y39.4 Z0 F800
G1 X28.561 Y40.499 Z0 F800
G1 X27.921 Y39.995 Z0 F800
G1 X26.776 Y41.552 Z0 F800
G1 X27.097 Y46.084 Z0 F800
G1 X26.73 Y46.129 Z0 F800
G1 X26.959 Y40.453 Z0 F800
G1 X25.677 Y41.094 Z0 F800
G1 X27.28 Y39.812 Z0 F800
G1 X27.051 Y38.805 Z0 F800
G1 X26.089 Y37.706 Z0 F800
G1 X25.357 Y37.203 Z0 F800
G1 X25.265 Y39.217 Z0 F800
G1 X25.952 Y39.721 Z0 F800
G1 X24.945 Y41.14 Z0 F800
G1 X23.846 Y40.041 Z0 F800
G1 X24.396 Y38.942 Z0 F800
G1 X24.167 Y37.111 Z0 F800
G1 X23.022 Y37.523 Z0 F800
G1 X22.885 Y39.446 Z0 F800
G1 X23.114 Y40.636 Z0 F800
G1 X22.198 Y40.453 Z0 F800
G1 X20.276 Y38.622 Z0 F800
G1 X20.321 Y35.692 Z0 F800
G1 X20.138 Y34.044 Z0 F800
G1 X19.314 Y33.861 Z0 F800
G1 X19.199 Y33.816 Z0 F800
G1 X19.08 Y33.776 Z0 F800
G1 X18.942 Y33.741 Z0 F800
G1 X18.803 Y33.72 Z0 F800
G1 X18.677 Y33.726 Z0 F800
G1 X18.583 Y33.769 Z0 F800
G1 X18.536 Y33.861 Z0 F800
G1 X18.528 Y33.942 Z0 F800
G1 X18.521 Y34.061 Z0 F800
G1 X18.51 Y34.39 Z0 F800
G1 X18.502 Y34.798 Z0 F800
G1 X18.496 Y35.24 Z0 F800
G1 X18.491 Y36.03 Z0 F800
G1 Y36.379 Z0 F800
G1 X18.582 Y38.072 Z0 F800
G1 X19.04 Y39.858 Z0 F800
G1 X18.628 Y40.819 Z0 F800
G1 X18.078 Y42.513 Z0 F800
G1 X19.269 Y43.154 Z0 F800
G1 X21.512 Y42.925 Z0 F800
G1 X22.153 Y41.094 Z0 F800
G1 X21.283 Y40.499 Z0 F800
G1 X19.36 Y40.407 Z0 F800
G1 X19.177 Y36.196 Z0 F800
G1 X19.406 Y34.96 Z0 F800
G1 X20.276 Y33.312 Z0 F800
;Layer C3 Pass 2 of 2
G1 X19.91 Y37.203 Z0 F800
G1 X20.459 Y39.904 Z0 F800
G1 X21.237 Y38.713 Z0 F800
G1 X21.969 Y39.354 Z0 F800
G1 X22.381 Y37.66 Z0 F800
G1 X23.343 Y37.569 Z0 F800
G1 X24.899 Y37.889 Z0 F800
G1 X25.952 Y37.981 Z0 F800
G1 X27.417 Y38.484 Z0 F800
G1 X28.882 Y38.851 Z0 F800
G1 X30.988 Y38.896 Z0 F800
G1 X32.086 Y38.439 Z0 F800
G1 X33.231 Y38.668 Z0 F800
G1 X33.276 Y36.837 Z0 F800
G1 X33.688 Y36.882 Z0 F800
G1 X33.231 Y39.354 Z0 F800
G1 X31.308 Y38.759 Z0 F800
G1 X30.209 Y38.301 Z0 F800
G1 X28.973 Y39.354 Z0 F800
G1 X29.431 Y40.407 Z0 F800
G1 X29.202 Y42.971 Z0 F800
G1 X29.614 Y46.267 Z0 F800
G1 X29.248 Y46.129 Z0 F800
G1 X29.843 Y39.4 Z0 F800
G1 X28.561 Y40.499 Z0 F800
G1 X27.921 Y39.995 Z0 F800
G1 X26.776 Y41.552 Z0 F800
G1 X27.097 Y46.084 Z0 F800
G1 X26.73 Y46.129 Z0 F800
G1 X26.959 Y40.453 Z0 F800
G1 X25.677 Y41.094 Z0 F800
G1 X27.28 Y39.812 Z0 F800
G1 X27.051 Y38.805 Z0 F800
G1 X26.089 Y37.706 Z0 F800
G1 X25.357 Y37.203 Z0 F800
G1 X25.265 Y39.217 Z0 F800
G1 X25.952 Y39.721 Z0 F800
G1 X24.945 Y41.14 Z0 F800
G1 X23.846 Y40.041 Z0 F800
G1 X24.396 Y38.942 Z0 F800
G1 X24.167 Y37.111 Z0 F800
G1 X23.022 Y37.523 Z0 F800
G1 X22.885 Y39.446 Z0 F800
G1 X23.114 Y40.636 Z0 F800
G1 X22.198 Y40.453 Z0 F800
G1 X20.276 Y38.622 Z0 F800
G1 X20.321 Y35.692 Z0 F800
G1 X20.138 Y34.044 Z0 F800
G1 X19.314 Y33.861 Z0 F800
G1 X19.199 Y33.816 Z0 F800
G1 X19.08 Y33.776 Z0 F800
G1 X18.942 Y33.741 Z0 F800
G1 X18.803 Y33.72 Z0 F800
G1 X18.677 Y33.726 Z0 F800
G1 X18.583 Y33.769 Z0 F800
G1 X18.536 Y33.861 Z0 F800
G1 X18.528 Y33.942 Z0 F800
G1 X18.521 Y34.061 Z0 F800
G1 X18.51 Y34.39 Z0 F800
G1 X18.502 Y34.798 Z0 F800
G1 X18.496 Y35.24 Z0 F800
G1 X18.491 Y36.03 Z0 F800
G1 Y36.379 Z0 F800
G1 X18.582 Y38.072 Z0 F800
G1 X19.04 Y39.858 Z0 F800
G1 X18.628 Y40.819 Z0 F800
G1 X18.078 Y42.513 Z0 F800
G1 X19.269 Y43.154 Z0 F800
G1 X21.512 Y42.925 Z0 F800
G1 X22.153 Y41.094 Z0 F800
G1 X21.283 Y40.499 Z0 F800
G1 X19.36 Y40.407 Z0 F800
G1 X19.177 Y36.196 Z0 F800
G1 X19.406 Y34.96 Z0 F800
G1 X20.276 Y33.312 Z0 F800
G0 Z3.5 F500
G0 X24.487 Y43.383 Z3.5 
G1 Z0 F500
;Layer C3 Pass 1 of 2
G1 X22.565 Y46.266 Z0 F800
G1 X24.35 Y46.312 Z0 F800
G1 X19.864 Y45.9 Z0 F800
G1 X18.536 Y46.45 Z0 F800
G1 X18.307 Y45.488 Z0 F800
G1 X18.994 Y45.076 Z0 F800
G1 X20.138 Y45.259 Z0 F800
G1 X20.306 Y45.309 Z0 F800
G1 X20.688 Y45.42 Z0 F800
G1 X20.903 Y45.478 Z0 F800
G1 X21.104 Y45.53 Z0 F800
G1 X21.269 Y45.566 Z0 F800
G1 X21.374 Y45.58 Z0 F800
G1 X21.496 Y45.572 Z0 F800
G1 X21.702 Y45.551 Z0 F800
G1 X22.244 Y45.488 Z0 F800
G1 X22.977 Y45.397 Z0 F800
G1 X24.396 Y45.443 Z0 F800
G1 X24.075 Y44.069 Z0 F800
G1 X24.487 Y43.383 Z0 F800
;Layer C3 Pass 2 of 2
G1 X22.565 Y46.266 Z0 F800
G1 X24.35 Y46.312 Z0 F800
G1 X19.864 Y45.9 Z0 F800
G1 X18.536 Y46.45 Z0 F800
G1 X18.307 Y45.488 Z0 F800
G1 X18.994 Y45.076 Z0 F800
G1 X20.138 Y45.259 Z0 F800
G1 X20.306 Y45.309 Z0 F800
G1 X20.688 Y45.42 Z0 F800
G1 X20.903 Y45.478 Z0 F800
G1 X21.104 Y45.53 Z0 F800
G1 X21.269 Y45.566 Z0 F800
G1 X21.374 Y45.58 Z0 F800
G1 X21.496 Y45.572 Z0 F800
G1 X21.702 Y45.551 Z0 F800
G1 X22.244 Y45.488 Z0 F800
G1 X22.977 Y45.397 Z0 F800
G1 X24.396 Y45.443 Z0 F800
G1 X24.075 Y44.069 Z0 F800
G1 X24.487 Y43.383 Z0 F800
G0 Z3.5 F500
G0 X31.811 Y43.749 Z3.5 
G1 Z0 F500
;Layer C3 Pass 1 of 2
G1 X33.917 Y43.383 Z0 F800
G1 X34.65 Y43.84 Z0 F800
G1 X36.069 Y43.062 Z0 F800
G1 X35.703 Y42.284 Z0 F800
G1 X36.298 Y39.949 Z0 F800
G1 X35.886 Y36.928 Z0 F800
G1 X36.114 Y38.805 Z0 F800
G1 X35.931 Y40.178 Z0 F800
G1 X35.794 Y41.139 Z0 F800
G1 X34.375 Y41.048 Z0 F800
G1 X33.368 Y41.368 Z0 F800
G1 X32.361 Y41.185 Z0 F800
G1 X32.223 Y41.551 Z0 F800
G1 X35.062 Y41.689 Z0 F800
G1 X35.794 Y41.46 Z0 F800
G1 X36.252 Y42.101 Z0 F800
G1 X35.931 Y43.382 Z0 F800
G1 X35.702 Y43.749 Z0 F800
G1 X33.734 Y43.428 Z0 F800
G1 X32.315 Y43.657 Z0 F800
G1 X31.949 Y44.802 Z0 F800
G1 X32.132 Y45.992 Z0 F800
G1 X33.643 Y46.221 Z0 F800
G1 X36.664 Y45.992 Z0 F800
G1 X40.326 Y46.358 Z0 F800
G1 X43.073 Y46.129 Z0 F800
G1 X46.14 Y46.266 Z0 F800
G1 X47.742 Y45.946 Z0 F800
G1 X50.351 Y46.45 Z0 F800
G1 X52.548 Y45.9 Z0 F800
G1 X53.739 Y46.083 Z0 F800
G1 X55.615 Y46.266 Z0 F800
G1 X55.478 Y45.351 Z0 F800
G1 X55.707 Y44.069 Z0 F800
G1 X55.112 Y43.566 Z0 F800
G1 X54.425 Y44.161 Z0 F800
G1 X53.876 Y44.985 Z0 F800
G1 X54.517 Y45.626 Z0 F800
G1 X55.02 Y44.39 Z0 F800
G1 X54.791 Y46.541 Z0 F800
G1 X52.915 Y46.312 Z0 F800
G1 X50.122 Y45.9 Z0 F800
G1 X47.192 Y46.358 Z0 F800
G1 X45.545 Y46.038 Z0 F800
G1 X41.425 Y45.854 Z0 F800
G1 X39.227 Y46.312 Z0 F800
G1 X37.946 Y46.404 Z0 F800
G1 X35.702 Y46.175 Z0 F800
G1 X33.688 Y46.358 Z0 F800
G1 X32.727 Y45.671 Z0 F800
G1 X32.086 Y44.756 Z0 F800
G1 X31.811 Y43.749 Z0 F800
;Layer C3 Pass 2 of 2
G1 X33.917 Y43.383 Z0 F800
G1 X34.65 Y43.84 Z0 F800
G1 X36.069 Y43.062 Z0 F800
G1 X35.703 Y42.284 Z0 F800
G1 X36.298 Y39.949 Z0 F800
G1 X35.886 Y36.928 Z0 F800
G1 X36.114 Y38.805 Z0 F800
G1 X35.931 Y40.178 Z0 F800
G1 X35.794 Y41.139 Z0 F800
G1 X34.375 Y41.048 Z0 F800
G1 X33.368 Y41.368 Z0 F800
G1 X32.361 Y41.185 Z0 F800
G1 X32.223 Y41.551 Z0 F800
G1 X35.062 Y41.689 Z0 F800
G1 X35.794 Y41.46 Z0 F800
G1 X36.252 Y42.101 Z0 F800
G1 X35.931 Y43.382 Z0 F800
G1 X35.702 Y43.749 Z0 F800
G1 X33.734 Y43.428 Z0 F800
G1 X32.315 Y43.657 Z0 F800
G1 X31.949 Y44.802 Z0 F800
G1 X32.132 Y45.992 Z0 F800
G1 X33.643 Y46.221 Z0 F800
G1 X36.664 Y45.992 Z0 F800
G1 X40.326 Y46.358 Z0 F800
G1 X43.073 Y46.129 Z0 F800
G1 X46.14 Y46.266 Z0 F800
G1 X47.742 Y45.946 Z0 F800
G1 X50.351 Y46.45 Z0 F800
G1 X52.548 Y45.9 Z0 F800
G1 X53.739 Y46.083 Z0 F800
G1 X55.615 Y46.266 Z0 F800
G1 X55.478 Y45.351 Z0 F800
G1 X55.707 Y44.069 Z0 F800
G1 X55.112 Y43.566 Z0 F800
G1 X54.425 Y44.161 Z0 F800
G1 X53.876 Y44.985 Z0 F800
G1 X54.517 Y45.626 Z0 F800
G1 X55.02 Y44.39 Z0 F800
G1 X54.791 Y46.541 Z0 F800
G1 X52.915 Y46.312 Z0 F800
G1 X50.122 Y45.9 Z0 F800
G1 X47.192 Y46.358 Z0 F800
G1 X45.545 Y46.038 Z0 F800
G1 X41.425 Y45.854 Z0 F800
G1 X39.227 Y46.312 Z0 F800
G1 X37.946 Y46.404 Z0 F800
G1 X35.702 Y46.175 Z0 F800
G1 X33.688 Y46.358 Z0 F800
G1 X32.727 Y45.671 Z0 F800
G1 X32.086 Y44.756 Z0 F800
G1 X31.811 Y43.749 Z0 F800
G0 Z3.5 F500
G0 X38.404 Y44.115 Z3.5 
G1 Z0 F500
;Layer C3 Pass 1 of 2
G1 X38.495 Y42.421 Z0 F800
G1 X38.175 Y41.643 Z0 F800
G1 X38.999 Y40.453 Z0 F800
G1 X38.403 Y38.759 Z0 F800
G1 X38.541 Y37.111 Z0 F800
G1 X38.632 Y39.583 Z0 F800
G1 X38.358 Y40.27 Z0 F800
G1 X38.907 Y41.368 Z0 F800
G1 X41.242 Y41.597 Z0 F800
G1 X42.065 Y41.414 Z0 F800
G1 X41.791 Y41.094 Z0 F800
G1 X40.372 Y41.139 Z0 F800
G1 X38.678 Y41.414 Z0 F800
G1 X38.22 Y42.375 Z0 F800
G1 X38.586 Y43.749 Z0 F800
G1 X40.555 Y43.886 Z0 F800
G1 X42.523 Y43.611 Z0 F800
G1 X44.995 Y44.023 Z0 F800
G1 X46.781 Y43.657 Z0 F800
G1 X48.612 Y43.749 Z0 F800
G1 X49.893 Y43.932 Z0 F800
G1 X50.9 Y43.474 Z0 F800
G1 X51.45 Y42.055 Z0 F800
G1 X51.434 Y41.814 Z0 F800
G1 X51.393 Y41.26 Z0 F800
G1 X51.365 Y40.944 Z0 F800
G1 X51.334 Y40.645 Z0 F800
G1 X51.301 Y40.395 Z0 F800
G1 X51.267 Y40.224 Z0 F800
G1 X51.256 Y40.147 Z0 F800
G1 Y40.038 Z0 F800
G1 X51.271 Y39.902 Z0 F800
G1 X51.292 Y39.745 Z0 F800
G1 X51.357 Y39.388 Z0 F800
G1 X51.438 Y39.005 Z0 F800
G1 X51.524 Y38.637 Z0 F800
G1 X51.601 Y38.325 Z0 F800
G1 X51.679 Y38.027 Z0 F800
G1 X51.77 Y36.241 Z0 F800
G1 X51.175 Y35.326 Z0 F800
G1 X50.214 Y35.967 Z0 F800
G1 X50.58 Y37.203 Z0 F800
G1 X50.672 Y41.14 Z0 F800
G1 X50.763 Y42.192 Z0 F800
G1 X51.358 Y43.749 Z0 F800
G1 X50.122 Y43.474 Z0 F800
G1 X47.33 Y43.932 Z0 F800
G1 X45.362 Y43.291 Z0 F800
G1 X43.714 Y43.703 Z0 F800
G1 X42.066 Y44.069 Z0 F800
G1 X40.189 Y43.611 Z0 F800
G1 X38.404 Y44.115 Z0 F800
;Layer C3 Pass 2 of 2
G1 X38.495 Y42.421 Z0 F800
G1 X38.175 Y41.643 Z0 F800
G1 X38.999 Y40.453 Z0 F800
G1 X38.403 Y38.759 Z0 F800
G1 X38.541 Y37.111 Z0 F800
G1 X38.632 Y39.583 Z0 F800
G1 X38.358 Y40.27 Z0 F800
G1 X38.907 Y41.368 Z0 F800
G1 X41.242 Y41.597 Z0 F800
G1 X42.065 Y41.414 Z0 F800
G1 X41.791 Y41.094 Z0 F800
G1 X40.372 Y41.139 Z0 F800
G1 X38.678 Y41.414 Z0 F800
G1 X38.22 Y42.375 Z0 F800
G1 X38.586 Y43.749 Z0 F800
G1 X40.555 Y43.886 Z0 F800
G1 X42.523 Y43.611 Z0 F800
G1 X44.995 Y44.023 Z0 F800
G1 X46.781 Y43.657 Z0 F800
G1 X48.612 Y43.749 Z0 F800
G1 X49.893 Y43.932 Z0 F800
G1 X50.9 Y43.474 Z0 F800
G1 X51.45 Y42.055 Z0 F800
G1 X51.434 Y41.814 Z0 F800
G1 X51.393 Y41.26 Z0 F800
G1 X51.365 Y40.944 Z0 F800
G1 X51.334 Y40.645 Z0 F800
G1 X51.301 Y40.395 Z0 F800
G1 X51.267 Y40.224 Z0 F800
G1 X51.256 Y40.147 Z0 F800
G1 Y40.038 Z0 F800
G1 X51.271 Y39.902 Z0 F800
G1 X51.292 Y39.745 Z0 F800
G1 X51.357 Y39.388 Z0 F800
G1 X51.438 Y39.005 Z0 F800
G1 X51.524 Y38.637 Z0 F800
G1 X51.601 Y38.325 Z0 F800
G1 X51.679 Y38.027 Z0 F800
G1 X51.77 Y36.241 Z0 F800
G1 X51.175 Y35.326 Z0 F800
G1 X50.214 Y35.967 Z0 F800
G1 X50.58 Y37.203 Z0 F800
G1 X50.672 Y41.14 Z0 F800
G1 X50.763 Y42.192 Z0 F800
G1 X51.358 Y43.749 Z0 F800
G1 X50.122 Y43.474 Z0 F800
G1 X47.33 Y43.932 Z0 F800
G1 X45.362 Y43.291 Z0 F800
G1 X43.714 Y43.703 Z0 F800
G1 X42.066 Y44.069 Z0 F800
G1 X40.189 Y43.611 Z0 F800
G1 X38.404 Y44.115 Z0 F800
G0 Z3.5 F500
G0 X54.151 Y40.819 Z3.5 
G1 Z0 F500
;Layer C3 Pass 1 of 2
G1 X54.105 Y38.851 Z0 F800
G1 X54.013 Y37.203 Z0 F800
G1 X55.112 Y36.974 Z0 F800
G1 X55.066 Y38.072 Z0 F800
G1 X55.02 Y39.308 Z0 F800
G1 X54.929 Y40.453 Z0 F800
G1 X55.249 Y41.002 Z0 F800
G1 X55.707 Y40.361 Z0 F800
G1 X55.569 Y38.988 Z0 F800
G1 X55.89 Y37.798 Z0 F800
G1 X55.661 Y36.928 Z0 F800
G1 X54.562 Y38.164 Z0 F800
G1 X54.608 Y40.682 Z0 F800
G1 X54.151 Y40.819 Z0 F800
;Layer C3 Pass 2 of 2
G1 X54.105 Y38.851 Z0 F800
G1 X54.013 Y37.203 Z0 F800
G1 X55.112 Y36.974 Z0 F800
G1 X55.066 Y38.072 Z0 F800
G1 X55.02 Y39.308 Z0 F800
G1 X54.929 Y40.453 Z0 F800
G1 X55.249 Y41.002 Z0 F800
G1 X55.707 Y40.361 Z0 F800
G1 X55.569 Y38.988 Z0 F800
G1 X55.89 Y37.798 Z0 F800
G1 X55.661 Y36.928 Z0 F800
G1 X54.562 Y38.164 Z0 F800
G1 X54.608 Y40.682 Z0 F800
G1 X54.151 Y40.819 Z0 F800
G0 Z3.5 F500
G0 X51.633 Y31.389 Z3.5 
G1 Z0 F500
;Layer C3 Pass 1 of 2
G1 X50.992 Y31.297 Z0 F800
G1 X50.809 Y29.833 Z0 F800
G1 X50.214 Y27.452 Z0 F800
G1 X50.992 Y26.903 Z0 F800
G1 X51.45 Y28.414 Z0 F800
G1 X51.221 Y29.833 Z0 F800
G1 X51.633 Y31.389 Z0 F800
;Layer C3 Pass 2 of 2
G1 X50.992 Y31.297 Z0 F800
G1 X50.809 Y29.833 Z0 F800
G1 X50.214 Y27.452 Z0 F800
G1 X50.992 Y26.903 Z0 F800
G1 X51.45 Y28.414 Z0 F800
G1 X51.221 Y29.833 Z0 F800
G1 X51.633 Y31.389 Z0 F800
G0 Z3.5 F500
G0 X50.717 Y24.477 Z3.5 
G1 Z0 F500
;Layer C3 Pass 1 of 2
G1 X52.869 Y24.065 Z0 F800
G1 X51.221 Y23.424 Z0 F800
G1 X54.242 Y23.653 Z0 F800
G1 X53.235 Y24.477 Z0 F800
G1 X55.432 Y24.431 Z0 F800
G1 X55.249 Y23.47 Z0 F800
G1 X55.253 Y23.349 Z0 F800
G1 Y23.228 Z0 F800
G1 X55.249 Y23.092 Z0 F800
G1 X55.236 Y22.96 Z0 F800
G1 X55.211 Y22.852 Z0 F800
G1 X55.17 Y22.786 Z0 F800
G1 X55.112 Y22.783 Z0 F800
G1 X55.053 Y22.802 Z0 F800
G1 X54.951 Y22.825 Z0 F800
G1 X54.811 Y22.851 Z0 F800
G1 X54.641 Y22.879 Z0 F800
G1 X54.235 Y22.939 Z0 F800
G1 X53.784 Y23 Z0 F800
G1 X52.962 Y23.105 Z0 F800
G1 X52.594 Y23.149 Z0 F800
G1 X51.358 Y22.691 Z0 F800
G1 X51.038 Y21.41 Z0 F800
G1 X51.083 Y20.677 Z0 F800
G1 X50.488 Y20.906 Z0 F800
G1 X50.809 Y22.783 Z0 F800
G1 X50.717 Y24.477 Z0 F800
;Layer C3 Pass 2 of 2
G1 X52.869 Y24.065 Z0 F800
G1 X51.221 Y23.424 Z0 F800
G1 X54.242 Y23.653 Z0 F800
G1 X53.235 Y24.477 Z0 F800
G1 X55.432 Y24.431 Z0 F800
G1 X55.249 Y23.47 Z0 F800
G1 X55.253 Y23.349 Z0 F800
G1 Y23.228 Z0 F800
G1 X55.249 Y23.092 Z0 F800
G1 X55.236 Y22.96 Z0 F800
G1 X55.211 Y22.852 Z0 F800
G1 X55.17 Y22.786 Z0 F800
G1 X55.112 Y22.783 Z0 F800
G1 X55.053 Y22.802 Z0 F800
G1 X54.951 Y22.825 Z0 F800
G1 X54.811 Y22.851 Z0 F800
G1 X54.641 Y22.879 Z0 F800
G1 X54.235 Y22.939 Z0 F800
G1 X53.784 Y23 Z0 F800
G1 X52.962 Y23.105 Z0 F800
G1 X52.594 Y23.149 Z0 F800
G1 X51.358 Y22.691 Z0 F800
G1 X51.038 Y21.41 Z0 F800
G1 X51.083 Y20.677 Z0 F800
G1 X50.488 Y20.906 Z0 F800
G1 X50.809 Y22.783 Z0 F800
G1 X50.717 Y24.477 Z0 F800
G0 Z3.5 F500
G0 X53.555 Y18.846 Z3.5 
G1 Z0 F500
;Layer C3 Pass 1 of 2
G1 X52.731 Y17.793 Z0 F800
G1 X52.045 Y17.61 Z0 F800
G1 X51.983 Y17.487 Z0 F800
G1 X51.924 Y17.359 Z0 F800
G1 X51.862 Y17.21 Z0 F800
G1 X51.808 Y17.056 Z0 F800
G1 X51.774 Y16.915 Z0 F800
G1 Y16.804 Z0 F800
G1 X51.816 Y16.74 Z0 F800
G1 X51.932 Y16.599 Z0 F800
G1 X52.062 Y16.363 Z0 F800
G1 X52.157 Y16.234 Z0 F800
G1 X52.286 Y16.11 Z0 F800
G1 X52.459 Y16.001 Z0 F800
G1 X52.686 Y15.916 Z0 F800
G1 X53.211 Y15.796 Z0 F800
G1 X53.698 Y15.71 Z0 F800
G1 X53.899 Y15.68 Z0 F800
G1 X54.196 Y15.642 Z0 F800
G1 X55.295 Y16.649 Z0 F800
G1 X55.387 Y17.839 Z0 F800
G1 X54.242 Y18.205 Z0 F800
G1 X53.189 Y17.198 Z0 F800
G1 X53.418 Y16.466 Z0 F800
G1 X54.563 Y17.244 Z0 F800
G1 X55.478 Y15.55 Z0 F800
G1 X55.432 Y18.846 Z0 F800
G1 X53.555 Z0 F800
;Layer C3 Pass 2 of 2
G1 X52.731 Y17.793 Z0 F800
G1 X52.045 Y17.61 Z0 F800
G1 X51.983 Y17.487 Z0 F800
G1 X51.924 Y17.359 Z0 F800
G1 X51.862 Y17.21 Z0 F800
G1 X51.808 Y17.056 Z0 F800
G1 X51.774 Y16.915 Z0 F800
G1 Y16.804 Z0 F800
G1 X51.816 Y16.74 Z0 F800
G1 X51.932 Y16.599 Z0 F800
G1 X52.062 Y16.363 Z0 F800
G1 X52.157 Y16.234 Z0 F800
G1 X52.286 Y16.11 Z0 F800
G1 X52.459 Y16.001 Z0 F800
G1 X52.686 Y15.916 Z0 F800
G1 X53.211 Y15.796 Z0 F800
G1 X53.698 Y15.71 Z0 F800
G1 X53.899 Y15.68 Z0 F800
G1 X54.196 Y15.642 Z0 F800
G1 X55.295 Y16.649 Z0 F800
G1 X55.387 Y17.839 Z0 F800
G1 X54.242 Y18.205 Z0 F800
G1 X53.189 Y17.198 Z0 F800
G1 X53.418 Y16.466 Z0 F800
G1 X54.563 Y17.244 Z0 F800
G1 X55.478 Y15.55 Z0 F800
G1 X55.432 Y18.846 Z0 F800
G1 X53.555 Z0 F800
G0 Z3.5 F500
G0 X48.978 Y17.427 Z3.5 
G1 Z0 F500
;Layer C3 Pass 1 of 2
G1 X48.612 Y17.656 Z0 F800
G1 X46.597 Y17.931 Z0 F800
G1 X45.728 Y17.793 Z0 F800
G1 X44.766 Y18.114 Z0 F800
G1 X44.492 Y17.015 Z0 F800
G1 X44.995 Y16.42 Z0 F800
G1 X46.002 Y15.733 Z0 F800
G1 X48.016 Y16.054 Z0 F800
G1 X48.383 Y15.916 Z0 F800
G1 X49.115 Y16.695 Z0 F800
G1 X48.383 Y16.923 Z0 F800
G1 X46.78 Y16.786 Z0 F800
G1 X45.59 Y16.923 Z0 F800
G1 X45.27 Y17.335 Z0 F800
G1 X47.376 Y17.198 Z0 F800
G1 X48.978 Y17.427 Z0 F800
;Layer C3 Pass 2 of 2
G1 X48.612 Y17.656 Z0 F800
G1 X46.597 Y17.931 Z0 F800
G1 X45.728 Y17.793 Z0 F800
G1 X44.766 Y18.114 Z0 F800
G1 X44.492 Y17.015 Z0 F800
G1 X44.995 Y16.42 Z0 F800
G1 X46.002 Y15.733 Z0 F800
G1 X48.016 Y16.054 Z0 F800
G1 X48.383 Y15.916 Z0 F800
G1 X49.115 Y16.695 Z0 F800
G1 X48.383 Y16.923 Z0 F800
G1 X46.78 Y16.786 Z0 F800
G1 X45.59 Y16.923 Z0 F800
G1 X45.27 Y17.335 Z0 F800
G1 X47.376 Y17.198 Z0 F800
G1 X48.978 Y17.427 Z0 F800
M9
M5
G1 Z10 F500
G90
G1 Z10 F800
