;LightBurn 1.6.04
;Custom GCode device profile, absolute coords
;Bounds: X82.16 Y37.5 to X133.84 Y86.5
G00 G17 G40 G21 G54
G90
M3
G1 Z10 F1000
;Scan @ 1500 mm/min, 90% power

M8
G0 Z3.5 F1000
G0 X101.374 Y37.5 Z3.5 
G1 Z0 F1000
;Layer C2
G91
G1 X0.625 Z0 S0 F1600
G1 X12.002 Z0 S900 F1600
G1 X0.625 Z0 S0 F1600
G1 X3.163 Y1 Z0 F1600
G1 X-0.625 Z0 F1600
G1 X-18.328 Z0 S900 F1600
G1 X-0.625 Z0 S0 F1600
G1 X-2.234 Y1 Z0 F1600
G1 X0.625 Z0 F1600
G1 X22.796 Z0 S900 F1600
G1 X0.625 Z0 S0 F1600
G1 X1.795 Y1 Z0 F1600
G1 X-0.625 Z0 F1600
G1 X-26.386 Z0 S900 F1600
G1 X-0.625 Z0 S0 F1600
G1 X-1.496 Y1 Z0 F1600
G1 X0.625 Z0 F1600
G1 X29.378 Z0 S900 F1600
G1 X0.625 Z0 S0 F1600
G1 X1.31 Y1 Z0 F1600
G1 X-0.625 Z0 F1600
G1 X-31.998 Z0 S900 F1600
G1 X-0.625 Z0 S0 F1600
G1 X-1.141 Y1 Z0 F1600
G1 X0.625 Z0 F1600
G1 X34.28 Z0 S900 F1600
G1 X0.625 Z0 S0 F1600
G1 X1.017 Y1 Z0 F1600
G1 X-0.625 Z0 F1600
G1 X-36.314 Z0 S900 F1600
G1 X-0.625 Z0 S0 F1600
G1 X-0.913 Y1 Z0 F1600
G1 X0.625 Z0 F1600
G1 X38.14 Z0 S900 F1600
G1 X0.625 Z0 S0 F1600
G1 X0.822 Y1 Z0 F1600
G1 X-0.625 Z0 F1600
G1 X-39.784 Z0 S900 F1600
G1 X-0.625 Z0 S0 F1600
G1 X-0.742 Y1 Z0 F1600
G1 X0.625 Z0 F1600
G1 X41.268 Z0 S900 F1600
G1 X0.625 Z0 S0 F1600
G1 X0.669 Y1 Z0 F1600
G1 X-0.625 Z0 F1600
G1 X-42.606 Z0 S900 F1600
G1 X-0.625 Z0 S0 F1600
G1 X-0.603 Y1 Z0 F1600
G1 X0.625 Z0 F1600
G1 X43.812 Z0 S900 F1600
G1 X0.625 Z0 S0 F1600
G1 X0.542 Y1 Z0 F1600
G1 X-0.625 Z0 F1600
G1 X-44.896 Z0 S900 F1600
G1 X-0.625 Z0 S0 F1600
G1 X-0.486 Y1 Z0 F1600
G1 X0.625 Z0 F1600
G1 X45.868 Z0 S900 F1600
G1 X0.625 Z0 S0 F1600
G1 X0.434 Y1 Z0 F1600
G1 X-0.626 Z0 F1600
G1 X-46.735 Z0 S900 F1600
G1 X-0.625 Z0 S0 F1600
G1 X-0.384 Y1 Z0 F1600
G1 X0.625 Z0 F1600
G1 X47.504 Z0 S900 F1600
G1 X0.625 Z0 S0 F1600
G1 X0.338 Y1 Z0 F1600
G1 X-0.625 Z0 F1600
G1 X-48.18 Z0 S900 F1600
G1 X-0.625 Z0 S0 F1600
G1 X-0.284 Y1 Z0 F1600
G1 X0.625 Z0 F1600
G1 X48.748 Z0 S900 F1600
G1 X0.625 Z0 S0 F1600
G1 X0.242 Y1 Z0 F1600
G1 X-0.625 Z0 F1600
G1 X-49.232 Z0 S900 F1600
G1 X-0.625 Z0 S0 F1600
G1 X-0.2 Y1 Z0 F1600
G1 X0.625 Z0 F1600
G1 X49.632 Z0 S900 F1600
G1 X0.625 Z0 S0 F1600
G1 X0.161 Y1 Z0 F1600
G1 X-0.625 Z0 F1600
G1 X-49.954 Z0 S900 F1600
G1 X-0.625 Z0 S0 F1600
G1 X-0.123 Y1 Z0 F1600
G1 X0.625 Z0 F1600
G1 X50.2 Z0 S900 F1600
G1 X0.625 Z0 S0 F1600
G1 X0.076 Y1 Z0 F1600
G1 X-0.625 Z0 F1600
G1 X-50.352 Z0 S900 F1600
G1 X-0.625 Z0 S0 F1600
G1 X-0.036 Y1 Z0 F1600
G1 X0.625 Z0 F1600
G1 X50.424 Z0 S900 F1600
G1 X0.625 Z0 S0 F1600
G1 Y1 Z0 F1600
G1 X-0.625 Z0 F1600
G1 X-50.424 Z0 S900 F1600
G1 X-0.625 Z0 S0 F1600
G1 X0.036 Y1 Z0 F1600
G1 X0.625 Z0 F1600
G1 X50.352 Z0 S900 F1600
G1 X0.625 Z0 S0 F1600
G1 X-0.076 Y1 Z0 F1600
G1 X-0.625 Z0 F1600
G1 X-50.2 Z0 S900 F1600
G1 X-0.625 Z0 S0 F1600
G1 X0.123 Y1 Z0 F1600
G1 X0.625 Z0 F1600
G1 X49.954 Z0 S900 F1600
G1 X0.625 Z0 S0 F1600
G1 X-0.161 Y1 Z0 F1600
G1 X-0.625 Z0 F1600
G1 X-49.632 Z0 S900 F1600
G1 X-0.625 Z0 S0 F1600
G1 X0.2 Y1 Z0 F1600
G1 X0.625 Z0 F1600
G1 X49.232 Z0 S900 F1600
G1 X0.625 Z0 S0 F1600
G1 X-0.242 Y1 Z0 F1600
G1 X-0.625 Z0 F1600
G1 X-48.748 Z0 S900 F1600
G1 X-0.625 Z0 S0 F1600
G1 X0.284 Y1 Z0 F1600
G1 X0.625 Z0 F1600
G1 X48.18 Z0 S900 F1600
G1 X0.625 Z0 S0 F1600
G1 X-0.338 Y1 Z0 F1600
G1 X-0.625 Z0 F1600
G1 X-47.504 Z0 S900 F1600
G1 X-0.625 Z0 S0 F1600
G1 X0.384 Y1 Z0 F1600
G1 X0.625 Z0 F1600
G1 X46.736 Z0 S900 F1600
G1 X0.624 Z0 S0 F1600
G1 X-0.433 Y1 Z0 F1600
G1 X-0.625 Z0 F1600
G1 X-45.868 Z0 S900 F1600
G1 X-0.625 Z0 S0 F1600
G1 X0.486 Y1 Z0 F1600
G1 X0.625 Z0 F1600
G1 X44.896 Z0 S900 F1600
G1 X0.625 Z0 S0 F1600
G1 X-0.542 Y1 Z0 F1600
G1 X-0.625 Z0 F1600
G1 X-43.812 Z0 S900 F1600
G1 X-0.625 Z0 S0 F1600
G1 X0.603 Y1 Z0 F1600
G1 X0.625 Z0 F1600
G1 X42.606 Z0 S900 F1600
G1 X0.625 Z0 S0 F1600
G1 X-0.669 Y1 Z0 F1600
G1 X-0.625 Z0 F1600
G1 X-41.268 Z0 S900 F1600
G1 X-0.625 Z0 S0 F1600
G1 X0.742 Y1 Z0 F1600
G1 X0.625 Z0 F1600
G1 X39.784 Z0 S900 F1600
G1 X0.625 Z0 S0 F1600
G1 X-0.822 Y1 Z0 F1600
G1 X-0.625 Z0 F1600
G1 X-38.14 Z0 S900 F1600
G1 X-0.625 Z0 S0 F1600
G1 X0.913 Y1 Z0 F1600
G1 X0.625 Z0 F1600
G1 X36.314 Z0 S900 F1600
G1 X0.625 Z0 S0 F1600
G1 X-1.017 Y1 Z0 F1600
G1 X-0.625 Z0 F1600
G1 X-34.28 Z0 S900 F1600
G1 X-0.625 Z0 S0 F1600
G1 X1.141 Y1 Z0 F1600
G1 X0.625 Z0 F1600
G1 X31.998 Z0 S900 F1600
G1 X0.625 Z0 S0 F1600
G1 X-1.31 Y1 Z0 F1600
G1 X-0.625 Z0 F1600
G1 X-29.378 Z0 S900 F1600
G1 X-0.625 Z0 S0 F1600
G1 X1.496 Y1 Z0 F1600
G1 X0.625 Z0 F1600
G1 X26.386 Z0 S900 F1600
G1 X0.625 Z0 S0 F1600
G1 X-1.795 Y1 Z0 F1600
G1 X-0.625 Z0 F1600
G1 X-22.796 Z0 S900 F1600
G1 X-0.625 Z0 S0 F1600
G1 X2.234 Y1 Z0 F1600
G1 X0.625 Z0 F1600
G1 X18.328 Z0 S900 F1600
G1 X0.625 Z0 S0 F1600
G1 X-3.163 Y1 Z0 F1600
G1 X-0.625 Z0 F1600
G1 X-12.002 Z0 S900 F1600
G1 X-0.625 Z0 S0 F1600
G90
;Cut @ 1500 mm/min, 80% power

M8
G0 Z3.5 F1000
G0 X101.441 Y82.692 Z3.5 F1500
G1 Z0 F1000
;Layer C1
G1 X101.29 Y82.67 Z0 S800 F1600
G1 X101.104 Y82.616 Z0 F1600
G1 X100.925 Y82.554 Z0 F1600
G1 X100.688 Y82.483 Z0 F1600
G1 X100.548 Y82.437 Z0 F1600
G1 X100.379 Y82.379 Z0 F1600
G1 X100.192 Y82.312 Z0 F1600
G1 X100.081 Y82.253 Z0 F1600
G1 X100.02 Y82.165 Z0 F1600
G1 X100 Y82.105 Z0 F1600
G1 X99.997 Y82.044 Z0 F1600
G1 X100.014 Y81.96 Z0 F1600
G1 X100.053 Y81.831 Z0 F1600
G1 X100.106 Y81.646 Z0 F1600
G1 X100.137 Y81.478 Z0 F1600
G1 X100.161 Y81.381 Z0 F1600
G1 X100.198 Y81.254 Z0 F1600
G1 X100.313 Y80.888 Z0 F1600
G1 X100.372 Y80.691 Z0 F1600
G1 X100.434 Y80.464 Z0 F1600
G1 X100.517 Y80.153 Z0 F1600
G1 X100.569 Y79.964 Z0 F1600
G1 X100.651 Y79.696 Z0 F1600
G1 X100.693 Y79.542 Z0 F1600
G1 X100.939 Y78.518 Z0 F1600
G1 X101.035 Y78.132 Z0 F1600
G1 X101.08 Y77.965 Z0 F1600
G1 X101.098 Y77.832 Z0 F1600
G1 X101.12 Y77.751 Z0 F1600
G1 X101.161 Y77.611 Z0 F1600
G1 X101.234 Y77.355 Z0 F1600
G1 X101.395 Y76.772 Z0 F1600
G1 X101.424 Y76.658 Z0 F1600
G1 X101.452 Y76.531 Z0 F1600
G1 X101.486 Y76.395 Z0 F1600
G1 X101.523 Y76.3 Z0 F1600
G1 X101.569 Y76.239 Z0 F1600
G1 X101.626 Y76.205 Z0 F1600
G1 X101.813 Y76.193 Z0 F1600
G1 X102.066 Y76.249 Z0 F1600
G1 X102.222 Y76.294 Z0 F1600
G1 X103.25 Y76.559 Z0 F1600
G1 X103.508 Y76.621 Z0 F1600
G1 X104.155 Y76.771 Z0 F1600
G1 X104.516 Y76.851 Z0 F1600
G1 X105.085 Y76.965 Z0 F1600
G1 X105.299 Y77.026 Z0 F1600
G1 X105.45 Y77.091 Z0 F1600
G1 X105.53 Y77.156 Z0 F1600
G1 X105.555 Y77.207 Z0 F1600
G1 X105.559 Y77.282 Z0 F1600
G1 X105.553 Y77.341 Z0 F1600
G1 X105.541 Y77.419 Z0 F1600
G1 X105.467 Y77.832 Z0 F1600
G1 X105.415 Y78.145 Z0 F1600
G1 X105.402 Y78.242 Z0 F1600
G1 X105.379 Y78.37 Z0 F1600
G1 X105.344 Y78.475 Z0 F1600
G1 X105.297 Y78.554 Z0 F1600
G1 X105.24 Y78.603 Z0 F1600
G1 X105.204 Y78.614 Z0 F1600
G1 X105.149 Z0 F1600
G1 X105.068 Y78.606 Z0 F1600
G1 X104.953 Y78.585 Z0 F1600
G1 X104.8 Y78.551 Z0 F1600
G1 X104.6 Y78.502 Z0 F1600
G1 X104.035 Y78.354 Z0 F1600
G1 X103.734 Y78.281 Z0 F1600
G1 X103.386 Y78.206 Z0 F1600
G1 X103.223 Y78.174 Z0 F1600
G1 X103.081 Y78.148 Z0 F1600
G1 X102.972 Y78.13 Z0 F1600
G1 X102.908 Y78.124 Z0 F1600
G1 X102.842 Y78.15 Z0 F1600
G1 X102.778 Y78.221 Z0 F1600
G1 X102.723 Y78.327 Z0 F1600
G1 X102.683 Y78.459 Z0 F1600
G1 X102.66 Y78.556 Z0 F1600
G1 X102.564 Y78.938 Z0 F1600
G1 X102.438 Y79.431 Z0 F1600
G1 X102.317 Y79.927 Z0 F1600
G1 X102.189 Y80.49 Z0 F1600
G1 X102.091 Y80.885 Z0 F1600
G1 X101.821 Y82.019 Z0 F1600
G1 X101.765 Y82.27 Z0 F1600
G1 X101.711 Y82.46 Z0 F1600
G1 X101.643 Y82.593 Z0 F1600
G1 X101.558 Y82.674 Z0 F1600
G1 X101.441 Y82.692 Z0 F1600
G0 Z3.5 F1000
G0 X107.436 Y81.289 Z3.5 
G1 Z0 F1000
G1 X107.551 Y81.516 Z0 F1600
G1 X107.691 Y81.721 Z0 F1600
G1 X107.856 Y81.902 Z0 F1600
G1 X108.045 Y82.059 Z0 F1600
G1 X108.257 Y82.191 Z0 F1600
G1 X108.364 Y82.243 Z0 F1600
G1 X108.456 Y82.272 Z0 F1600
G1 X108.568 Y82.284 Z0 F1600
G1 X108.738 Y82.287 Z0 F1600
G1 X108.902 Y82.284 Z0 F1600
G1 X109.013 Y82.273 Z0 F1600
G1 X109.1 Y82.249 Z0 F1600
G1 X109.189 Y82.207 Z0 F1600
G1 X109.395 Y82.079 Z0 F1600
G1 X109.572 Y81.929 Z0 F1600
G1 X109.721 Y81.756 Z0 F1600
G1 X109.841 Y81.558 Z0 F1600
G1 X109.934 Y81.335 Z0 F1600
G1 X110 Y81.087 Z0 F1600
G1 X110.039 Y80.811 Z0 F1600
G1 X110.051 Y80.506 Z0 F1600
G1 X110.036 Y80.177 Z0 F1600
G1 X109.99 Y79.879 Z0 F1600
G1 X109.91 Y79.601 Z0 F1600
G1 X109.793 Y79.332 Z0 F1600
G1 X109.672 Y79.148 Z0 F1600
G1 X109.506 Y78.965 Z0 F1600
G1 X109.317 Y78.805 Z0 F1600
G1 X109.127 Y78.69 Z0 F1600
G1 X108.907 Y78.609 Z0 F1600
G1 X108.62 Y78.587 Z0 F1600
G1 X108.422 Z0 F1600
G1 X108.256 Y78.602 Z0 F1600
G1 X108.126 Y78.629 Z0 F1600
G1 X108.032 Y78.668 Z0 F1600
G1 X107.982 Y78.695 Z0 F1600
G1 X107.924 Y78.722 Z0 F1600
G1 X107.653 Y78.976 Z0 F1600
G1 X107.461 Y79.25 Z0 F1600
G1 X107.444 Y79.299 Z0 F1600
G1 X107.404 Y79.394 Z0 F1600
G1 X107.318 Y79.63 Z0 F1600
G1 X107.265 Y79.887 Z0 F1600
G1 X107.243 Y80.171 Z0 F1600
G1 X107.251 Y80.489 Z0 F1600
G1 X107.286 Y80.775 Z0 F1600
G1 X107.347 Y81.042 Z0 F1600
G1 X107.436 Y81.289 Z0 F1600
G0 Z3.5 F1000
G0 X105.777 Y81.505 Z3.5 
G1 Z0 F1000
G1 X105.67 Y80.986 Z0 F1600
G1 X105.621 Y80.469 Z0 F1600
G1 X105.631 Y79.964 Z0 F1600
G1 X105.701 Y79.477 Z0 F1600
G1 X105.783 Y79.145 Z0 F1600
G1 X105.886 Y78.834 Z0 F1600
G1 X106.004 Y78.559 Z0 F1600
G1 X106.131 Y78.335 Z0 F1600
G1 X106.438 Y78.008 Z0 F1600
G1 X106.829 Y77.681 Z0 F1600
G1 X106.951 Y77.597 Z0 F1600
G1 X107.01 Y77.553 Z0 F1600
G1 X107.073 Y77.515 Z0 F1600
G1 X107.205 Y77.445 Z0 F1600
G1 X107.41 Y77.355 Z0 F1600
G1 X107.659 Y77.272 Z0 F1600
G1 X107.932 Y77.203 Z0 F1600
G1 X108.212 Y77.152 Z0 F1600
G1 X108.62 Y77.138 Z0 F1600
G1 X109.039 Y77.162 Z0 F1600
G1 X109.474 Y77.252 Z0 F1600
G1 X109.86 Y77.383 Z0 F1600
G1 X110.222 Y77.564 Z0 F1600
G1 X110.586 Y77.807 Z0 F1600
G1 X110.851 Y78.03 Z0 F1600
G1 X111.065 Y78.275 Z0 F1600
G1 X111.245 Y78.564 Z0 F1600
G1 X111.407 Y78.921 Z0 F1600
G1 X111.561 Y79.384 Z0 F1600
G1 X111.656 Y79.848 Z0 F1600
G1 X111.691 Y80.323 Z0 F1600
G1 X111.669 Y80.814 Z0 F1600
G1 X111.598 Y81.307 Z0 F1600
G1 X111.491 Y81.751 Z0 F1600
G1 X111.347 Y82.149 Z0 F1600
G1 X111.165 Y82.502 Z0 F1600
G1 X110.944 Y82.81 Z0 F1600
G1 X110.683 Y83.076 Z0 F1600
G1 X110.381 Y83.301 Z0 F1600
G1 X110.037 Y83.486 Z0 F1600
G1 X109.705 Y83.619 Z0 F1600
G1 X109.374 Y83.711 Z0 F1600
G1 X109.034 Y83.766 Z0 F1600
G1 X108.678 Y83.785 Z0 F1600
G1 X108.442 Y83.779 Z0 F1600
G1 X108.223 Y83.762 Z0 F1600
G1 X108.058 Y83.738 Z0 F1600
G1 X107.984 Y83.71 Z0 F1600
G1 X107.953 Y83.692 Z0 F1600
G1 X107.826 Y83.671 Z0 F1600
G1 X107.697 Y83.631 Z0 F1600
G1 X107.517 Y83.567 Z0 F1600
G1 X107.291 Y83.479 Z0 F1600
G1 X107.057 Y83.364 Z0 F1600
G1 X106.832 Y83.211 Z0 F1600
G1 X106.624 Y83.026 Z0 F1600
G1 X106.439 Y82.813 Z0 F1600
G1 X106.36 Y82.713 Z0 F1600
G1 X106.317 Y82.662 Z0 F1600
G1 X106.269 Y82.599 Z0 F1600
G1 X106.179 Y82.467 Z0 F1600
G1 X106.053 Y82.261 Z0 F1600
G1 X105.952 Y82.05 Z0 F1600
G1 X105.864 Y81.808 Z0 F1600
G1 X105.777 Y81.505 Z0 F1600
G0 Z3.5 F1000
G0 X112.819 Y83.095 Z3.5 
G1 Z0 F1000
G1 X112.852 Y79.325 Z0 F1600
G1 X112.867 Y78.176 Z0 F1600
G1 X112.885 Y77.279 Z0 F1600
G1 X112.898 Y76.835 Z0 F1600
G1 X112.907 Y76.674 Z0 F1600
G1 X112.911 Y76.64 Z0 F1600
G1 X112.965 Y76.544 Z0 F1600
G1 X113.088 Y76.444 Z0 F1600
G1 X113.287 Y76.337 Z0 F1600
G1 X113.567 Y76.218 Z0 F1600
G1 X113.817 Y76.124 Z0 F1600
G1 X114.044 Y76.046 Z0 F1600
G1 X114.223 Y75.991 Z0 F1600
G1 X114.327 Y75.968 Z0 F1600
G1 X114.407 Y75.994 Z0 F1600
G1 X114.52 Y76.074 Z0 F1600
G1 X114.65 Y76.195 Z0 F1600
G1 X114.781 Y76.344 Z0 F1600
G1 X114.872 Y76.454 Z0 F1600
G1 X115.189 Y76.829 Z0 F1600
G1 X115.902 Y77.663 Z0 F1600
G1 X118.254 Y80.379 Z0 F1600
G1 X118.418 Y80.581 Z0 F1600
G1 X118.544 Y80.759 Z0 F1600
G1 X118.62 Y80.894 Z0 F1600
G1 X118.633 Y80.967 Z0 F1600
G1 X118.558 Y81.031 Z0 F1600
G1 X118.402 Y81.128 Z0 F1600
G1 X118.19 Y81.246 Z0 F1600
G1 X117.949 Y81.37 Z0 F1600
G1 X117.704 Y81.489 Z0 F1600
G1 X117.48 Y81.59 Z0 F1600
G1 X117.304 Y81.66 Z0 F1600
G1 X117.199 Y81.686 Z0 F1600
G1 X117.147 Y81.672 Z0 F1600
G1 X117.074 Y81.619 Z0 F1600
G1 X116.966 Y81.508 Z0 F1600
G1 X116.808 Y81.32 Z0 F1600
G1 X116.583 Y81.036 Z0 F1600
G1 X116.278 Y80.638 Z0 F1600
G1 X115.877 Y80.107 Z0 F1600
G1 X115.365 Y79.424 Z0 F1600
G1 X115.04 Y79.002 Z0 F1600
G1 X114.761 Y78.66 Z0 F1600
G1 X114.647 Y78.53 Z0 F1600
G1 X114.556 Y78.434 Z0 F1600
G1 X114.491 Y78.375 Z0 F1600
G1 X114.456 Y78.358 Z0 F1600
G1 X114.418 Y78.395 Z0 F1600
G1 X114.391 Y78.489 Z0 F1600
G1 X114.377 Y78.654 Z0 F1600
G1 X114.374 Y78.899 Z0 F1600
G1 X114.378 Y79.057 Z0 F1600
G1 X114.385 Y79.239 Z0 F1600
G1 X114.407 Y79.685 Z0 F1600
G1 X114.443 Y80.248 Z0 F1600
G1 X114.534 Y81.592 Z0 F1600
G1 X114.563 Y82.13 Z0 F1600
G1 X114.572 Y82.34 Z0 F1600
G1 X114.576 Y82.501 Z0 F1600
G1 Y82.605 Z0 F1600
G1 X114.571 Y82.647 Z0 F1600
G1 X114.483 Y82.7 Z0 F1600
G1 X114.318 Y82.769 Z0 F1600
G1 X114.1 Y82.848 Z0 F1600
G1 X113.853 Y82.928 Z0 F1600
G1 X113.601 Y83.004 Z0 F1600
G1 X113.366 Y83.067 Z0 F1600
G1 X113.172 Y83.11 Z0 F1600
G1 X113.044 Y83.126 Z0 F1600
G1 X113.034 Z0 F1600
G1 X112.819 Y83.095 Z0 F1600
G0 Z3.5 F1000
G0 X119.883 Y79.925 Z3.5 
G1 Z0 F1000
G1 X119.802 Y79.845 Z0 F1600
G1 X119.705 Y79.741 Z0 F1600
G1 X119.59 Y79.61 Z0 F1600
G1 X119.454 Y79.449 Z0 F1600
G1 X119.296 Y79.256 Z0 F1600
G1 X119.114 Y79.029 Z0 F1600
G1 X118.667 Y78.461 Z0 F1600
G1 X118.098 Y77.725 Z0 F1600
G1 X117.388 Y76.801 Z0 F1600
G1 X117.152 Y76.488 Z0 F1600
G1 X116.941 Y76.202 Z0 F1600
G1 X116.759 Y75.945 Z0 F1600
G1 X116.605 Y75.72 Z0 F1600
G1 X116.483 Y75.53 Z0 F1600
G1 X116.394 Y75.377 Z0 F1600
G1 X116.339 Y75.263 Z0 F1600
G1 X116.32 Y75.191 Z0 F1600
G1 X116.337 Y75.102 Z0 F1600
G1 X116.398 Y74.996 Z0 F1600
G1 X116.516 Y74.859 Z0 F1600
G1 X116.702 Y74.682 Z0 F1600
G1 X116.825 Y74.575 Z0 F1600
G1 X116.971 Y74.453 Z0 F1600
G1 X117.14 Y74.315 Z0 F1600
G1 X117.334 Y74.16 Z0 F1600
G1 X117.805 Y73.791 Z0 F1600
G1 X118.398 Y73.335 Z0 F1600
G1 X118.74 Y73.082 Z0 F1600
G1 X119.043 Y72.875 Z0 F1600
G1 X119.17 Y72.796 Z0 F1600
G1 X119.274 Y72.736 Z0 F1600
G1 X119.353 Y72.697 Z0 F1600
G1 X119.401 Y72.684 Z0 F1600
G1 X119.499 Y72.722 Z0 F1600
G1 X119.623 Y72.824 Z0 F1600
G1 X119.761 Y72.971 Z0 F1600
G1 X119.899 Y73.146 Z0 F1600
G1 X120.024 Y73.33 Z0 F1600
G1 X120.122 Y73.506 Z0 F1600
G1 X120.18 Y73.654 Z0 F1600
G1 X120.186 Y73.757 Z0 F1600
G1 X120.117 Y73.851 Z0 F1600
G1 X119.969 Y73.994 Z0 F1600
G1 X119.763 Y74.165 Z0 F1600
G1 X119.522 Y74.346 Z0 F1600
G1 X119.26 Y74.535 Z0 F1600
G1 X118.999 Y74.729 Z0 F1600
G1 X118.768 Y74.905 Z0 F1600
G1 X118.598 Y75.04 Z0 F1600
G1 X118.284 Y75.301 Z0 F1600
G1 X118.598 Y75.717 Z0 F1600
G1 X118.723 Y75.879 Z0 F1600
G1 X118.833 Y76.012 Z0 F1600
G1 X118.914 Y76.102 Z0 F1600
G1 X118.957 Y76.136 Z0 F1600
G1 X118.98 Y76.125 Z0 F1600
G1 X119.028 Y76.094 Z0 F1600
G1 X119.189 Y75.978 Z0 F1600
G1 X119.416 Y75.805 Z0 F1600
G1 X119.684 Y75.594 Z0 F1600
G1 X119.965 Y75.382 Z0 F1600
G1 X120.224 Y75.209 Z0 F1600
G1 X120.337 Y75.143 Z0 F1600
G1 X120.434 Y75.092 Z0 F1600
G1 X120.511 Y75.06 Z0 F1600
G1 X120.565 Y75.049 Z0 F1600
G1 X120.657 Y75.078 Z0 F1600
G1 X120.779 Y75.158 Z0 F1600
G1 X120.919 Y75.275 Z0 F1600
G1 X121.062 Y75.415 Z0 F1600
G1 X121.195 Y75.564 Z0 F1600
G1 X121.307 Y75.71 Z0 F1600
G1 X121.384 Y75.838 Z0 F1600
G1 X121.412 Y75.935 Z0 F1600
G1 X121.396 Y75.966 Z0 F1600
G1 X121.351 Y76.02 Z0 F1600
G1 X121.28 Y76.093 Z0 F1600
G1 X121.185 Y76.182 Z0 F1600
G1 X120.939 Y76.397 Z0 F1600
G1 X120.639 Y76.642 Z0 F1600
G1 X120.339 Y76.883 Z0 F1600
G1 X120.093 Y77.087 Z0 F1600
G1 X119.999 Y77.169 Z0 F1600
G1 X119.927 Y77.233 Z0 F1600
G1 X119.882 Y77.277 Z0 F1600
G1 X119.866 Y77.298 Z0 F1600
G1 X119.891 Y77.355 Z0 F1600
G1 X119.955 Y77.452 Z0 F1600
G1 X120.048 Y77.574 Z0 F1600
G1 X120.157 Y77.706 Z0 F1600
G1 X120.27 Y77.834 Z0 F1600
G1 X120.373 Y77.944 Z0 F1600
G1 X120.456 Y78.02 Z0 F1600
G1 X120.504 Y78.049 Z0 F1600
G1 X120.536 Y78.036 Z0 F1600
G1 X120.596 Y77.999 Z0 F1600
G1 X120.681 Y77.94 Z0 F1600
G1 X120.788 Y77.862 Z0 F1600
G1 X121.052 Y77.66 Z0 F1600
G1 X121.36 Y77.412 Z0 F1600
G1 X121.69 Y77.155 Z0 F1600
G1 X121.979 Y76.954 Z0 F1600
G1 X122.1 Y76.879 Z0 F1600
G1 X122.204 Y76.824 Z0 F1600
G1 X122.286 Y76.789 Z0 F1600
G1 X122.344 Y76.778 Z0 F1600
G1 X122.441 Y76.805 Z0 F1600
G1 X122.561 Y76.878 Z0 F1600
G1 X122.693 Y76.985 Z0 F1600
G1 X122.825 Y77.115 Z0 F1600
G1 X122.946 Y77.255 Z0 F1600
G1 X123.046 Y77.395 Z0 F1600
G1 X123.115 Y77.522 Z0 F1600
G1 X123.14 Y77.625 Z0 F1600
G1 X123.109 Y77.691 Z0 F1600
G1 X123.02 Y77.796 Z0 F1600
G1 X122.883 Y77.935 Z0 F1600
G1 X122.703 Y78.102 Z0 F1600
G1 X122.249 Y78.494 Z0 F1600
G1 X121.721 Y78.924 Z0 F1600
G1 X121.179 Y79.343 Z0 F1600
G1 X120.685 Y79.703 Z0 F1600
G1 X120.475 Y79.845 Z0 F1600
G1 X120.3 Y79.954 Z0 F1600
G1 X120.167 Y80.024 Z0 F1600
G1 X120.085 Y80.048 Z0 F1600
G1 X120.004 Y80.021 Z0 F1600
G1 X119.883 Y79.925 Z0 F1600
G0 Z3.5 F1000
G0 X98.358 Y74.522 Z3.5 
G1 Z0 F1000
G1 X98.208 Y74.75 Z0 F1600
G1 X98.048 Y74.933 Z0 F1600
G1 X98.031 Y74.951 Z0 F1600
G1 X98.024 Y74.979 Z0 F1600
G1 X97.999 Y75.03 Z0 F1600
G1 X97.939 Y75.104 Z0 F1600
G1 X97.889 Y75.162 Z0 F1600
G1 X97.812 Y75.258 Z0 F1600
G1 X97.588 Y75.551 Z0 F1600
G1 X97.287 Y75.953 Z0 F1600
G1 X96.934 Y76.433 Z0 F1600
G1 X96.391 Y77.177 Z0 F1600
G1 X96.191 Y77.456 Z0 F1600
G1 X96.017 Y77.703 Z0 F1600
G1 X95.83 Y77.964 Z0 F1600
G1 X95.597 Y78.274 Z0 F1600
G1 X95.349 Y78.609 Z0 F1600
G1 X94.975 Y79.142 Z0 F1600
G1 X94.854 Y79.289 Z0 F1600
G1 X94.755 Y79.374 Z0 F1600
G1 X94.676 Y79.403 Z0 F1600
G1 X94.661 Z0 F1600
G1 X94.648 Y79.399 Z0 F1600
G1 X94.373 Y79.262 Z0 F1600
G1 X94.067 Y79.066 Z0 F1600
G1 X93.969 Y78.995 Z0 F1600
G1 X93.916 Y78.966 Z0 F1600
G1 X93.712 Y78.809 Z0 F1600
G1 X93.479 Y78.592 Z0 F1600
G1 X93.441 Y78.514 Z0 F1600
G1 X93.427 Y78.41 Z0 F1600
G1 X93.445 Y78.303 Z0 F1600
G1 X93.528 Y78.149 Z0 F1600
G1 X93.606 Y78.036 Z0 F1600
G1 X93.714 Y77.887 Z0 F1600
G1 X94.337 Y77.068 Z0 F1600
G1 X94.811 Y76.429 Z0 F1600
G1 X95.337 Y75.735 Z0 F1600
G1 X95.615 Y75.363 Z0 F1600
G1 X95.883 Y75.011 Z0 F1600
G1 X96.131 Y74.698 Z0 F1600
G1 X96.352 Y74.424 Z0 F1600
G1 X96.56 Y74.16 Z0 F1600
G1 X96.741 Y73.923 Z0 F1600
G1 X96.881 Y73.73 Z0 F1600
G1 X96.986 Y73.596 Z0 F1600
G1 X97.069 Y73.513 Z0 F1600
G1 X97.135 Y73.471 Z0 F1600
G1 X97.209 Y73.482 Z0 F1600
G1 X97.269 Y73.518 Z0 F1600
G1 X97.356 Y73.578 Z0 F1600
G1 X97.886 Y73.979 Z0 F1600
G1 X98.075 Y74.124 Z0 F1600
G1 X98.21 Y74.234 Z0 F1600
G1 X98.3 Y74.316 Z0 F1600
G1 X98.374 Y74.428 Z0 F1600
G1 X98.358 Y74.522 Z0 F1600
G0 Z3.5 F1000
G0 X93.075 Y52.498 Z3.5 
G1 Z0 F1000
G1 X93.072 Y52.474 Z0 F1600
G1 X93.054 Y52.427 Z0 F1600
G1 X93.021 Y52.357 Z0 F1600
G1 X92.977 Y52.268 Z0 F1600
G1 X92.858 Y52.042 Z0 F1600
G1 X92.707 Y51.769 Z0 F1600
G1 X92.542 Y51.483 Z0 F1600
G1 X92.396 Y51.243 Z0 F1600
G1 X92.336 Y51.148 Z0 F1600
G1 X92.287 Y51.074 Z0 F1600
G1 X92.251 Y51.024 Z0 F1600
G1 X92.229 Y51.001 Z0 F1600
G1 X92.167 Y51.016 Z0 F1600
G1 X92.068 Y51.097 Z0 F1600
G1 X91.948 Y51.223 Z0 F1600
G1 X91.82 Y51.375 Z0 F1600
G1 X91.702 Y51.534 Z0 F1600
G1 X91.608 Y51.68 Z0 F1600
G1 X91.553 Y51.794 Z0 F1600
G1 Y51.856 Z0 F1600
G1 X92.311 Y52.203 Z0 F1600
G1 X93.075 Y52.498 Z0 F1600
G0 Z3.5 F1000
G0 X94.655 Y52.138 Z3.5 
G1 Z0 F1000
G1 X94.843 Y52.502 Z0 F1600
G1 X94.986 Y52.788 Z0 F1600
G1 X95.079 Y52.985 Z0 F1600
G1 X95.104 Y53.046 Z0 F1600
G1 X95.115 Y53.08 Z0 F1600
G1 X95.085 Y53.208 Z0 F1600
G1 X94.982 Y53.391 Z0 F1600
G1 X94.826 Y53.608 Z0 F1600
G1 X94.637 Y53.836 Z0 F1600
G1 X94.436 Y54.052 Z0 F1600
G1 X94.24 Y54.234 Z0 F1600
G1 X94.072 Y54.36 Z0 F1600
G1 X93.949 Y54.408 Z0 F1600
G1 X93.894 Y54.4 Z0 F1600
G1 X93.802 Y54.378 Z0 F1600
G1 X93.678 Y54.344 Z0 F1600
G1 X93.527 Y54.299 Z0 F1600
G1 X93.164 Y54.181 Z0 F1600
G1 X92.752 Y54.038 Z0 F1600
G1 X90.078 Y53.077 Z0 F1600
G1 X89.393 Y52.829 Z0 F1600
G1 X88.885 Y52.64 Z0 F1600
G1 X88.69 Y52.564 Z0 F1600
G1 X88.529 Y52.499 Z0 F1600
G1 X88.399 Y52.442 Z0 F1600
G1 X88.218 Y52.348 Z0 F1600
G1 X88.119 Y52.269 Z0 F1600
G1 X88.075 Y52.194 Z0 F1600
G1 X88.059 Y52.109 Z0 F1600
G1 X88.069 Y51.978 Z0 F1600
G1 X88.125 Y51.806 Z0 F1600
G1 X88.222 Y51.6 Z0 F1600
G1 X88.357 Y51.371 Z0 F1600
G1 X88.487 Y51.178 Z0 F1600
G1 X88.604 Y51.033 Z0 F1600
G1 X88.716 Y50.935 Z0 F1600
G1 X88.834 Y50.88 Z0 F1600
G1 X88.967 Y50.866 Z0 F1600
G1 X89.122 Y50.89 Z0 F1600
G1 X89.311 Y50.95 Z0 F1600
G1 X89.716 Y51.114 Z0 F1600
G1 X89.877 Y51.171 Z0 F1600
G1 X90.006 Y51.211 Z0 F1600
G1 X90.087 Y51.225 Z0 F1600
G1 X90.119 Y51.209 Z0 F1600
G1 X90.174 Y51.162 Z0 F1600
G1 X90.248 Y51.09 Z0 F1600
G1 X90.338 Y50.996 Z0 F1600
G1 X90.551 Y50.758 Z0 F1600
G1 X90.786 Y50.481 Z0 F1600
G1 X91.017 Y50.199 Z0 F1600
G1 X91.215 Y49.943 Z0 F1600
G1 X91.293 Y49.835 Z0 F1600
G1 X91.353 Y49.746 Z0 F1600
G1 X91.392 Y49.68 Z0 F1600
G1 X91.406 Y49.641 Z0 F1600
G1 X91.384 Y49.587 Z0 F1600
G1 X91.325 Y49.476 Z0 F1600
G1 X91.239 Y49.324 Z0 F1600
G1 X91.133 Y49.148 Z0 F1600
G1 X91.027 Y48.958 Z0 F1600
G1 X90.941 Y48.771 Z0 F1600
G1 X90.884 Y48.606 Z0 F1600
G1 X90.864 Y48.487 Z0 F1600
G1 X90.895 Y48.368 Z0 F1600
G1 X90.977 Y48.208 Z0 F1600
G1 X91.099 Y48.026 Z0 F1600
G1 X91.25 Y47.839 Z0 F1600
G1 X91.37 Y47.704 Z0 F1600
G1 X91.476 Y47.589 Z0 F1600
G1 X91.572 Y47.498 Z0 F1600
G1 X91.662 Y47.435 Z0 F1600
G1 X91.749 Y47.403 Z0 F1600
G1 X91.837 Z0 F1600
G1 X91.93 Y47.446 Z0 F1600
G1 X92.031 Y47.529 Z0 F1600
G1 X92.144 Y47.658 Z0 F1600
G1 X92.273 Y47.836 Z0 F1600
G1 X92.422 Y48.067 Z0 F1600
G1 X92.594 Y48.355 Z0 F1600
G1 X92.793 Y48.703 Z0 F1600
G1 X93.022 Y49.115 Z0 F1600
G1 X93.286 Y49.595 Z0 F1600
G1 X93.89 Y50.7 Z0 F1600
G1 X94.173 Y51.225 Z0 F1600
G1 X94.43 Y51.708 Z0 F1600
G1 X94.655 Y52.138 Z0 F1600
G0 Z3.5 F1000
G0 X97.488 Y49.269 Z3.5 
G1 Z0 F1000
G1 X97.61 Y49.301 Z0 F1600
G1 X97.711 Y49.285 Z0 F1600
G1 X97.821 Y49.235 Z0 F1600
G1 X97.944 Y49.15 Z0 F1600
G1 X98.085 Y49.033 Z0 F1600
G1 X98.269 Y48.84 Z0 F1600
G1 X98.402 Y48.633 Z0 F1600
G1 X98.485 Y48.419 Z0 F1600
G1 X98.516 Y48.207 Z0 F1600
G1 X98.497 Y48.005 Z0 F1600
G1 X98.426 Y47.821 Z0 F1600
G1 X98.303 Y47.663 Z0 F1600
G1 X98.129 Y47.539 Z0 F1600
G1 X97.898 Y47.446 Z0 F1600
G1 X97.707 Y47.41 Z0 F1600
G1 X97.534 Y47.434 Z0 F1600
G1 X97.352 Y47.496 Z0 F1600
G1 X97.172 Y47.586 Z0 F1600
G1 X97.006 Y47.695 Z0 F1600
G1 X96.865 Y47.816 Z0 F1600
G1 X96.76 Y47.939 Z0 F1600
G1 X96.703 Y48.057 Z0 F1600
G1 Y48.16 Z0 F1600
G1 X96.75 Y48.249 Z0 F1600
G1 X96.836 Y48.399 Z0 F1600
G1 X96.951 Y48.59 Z0 F1600
G1 X97.083 Y48.8 Z0 F1600
G1 X97.233 Y49.021 Z0 F1600
G1 X97.365 Y49.176 Z0 F1600
G1 X97.488 Y49.269 Z0 F1600
G0 Z3.5 F1000
G0 X98.719 Y50.234 Z3.5 
G1 Z0 F1000
G1 X98.269 Y50.579 Z0 F1600
G1 X97.901 Y50.856 Z0 F1600
G1 X97.605 Y51.069 Z0 F1600
G1 X97.375 Y51.226 Z0 F1600
G1 X97.202 Y51.33 Z0 F1600
G1 X97.078 Y51.389 Z0 F1600
G1 X96.995 Y51.407 Z0 F1600
G1 X96.925 Y51.381 Z0 F1600
G1 X96.825 Y51.294 Z0 F1600
G1 X96.687 Y51.137 Z0 F1600
G1 X96.502 Y50.897 Z0 F1600
G1 X96.39 Y50.743 Z0 F1600
G1 X96.263 Y50.563 Z0 F1600
G1 X96.12 Y50.358 Z0 F1600
G1 X95.782 Y49.862 Z0 F1600
G1 X95.369 Y49.244 Z0 F1600
G1 X94.796 Y48.376 Z0 F1600
G1 X94.481 Y47.892 Z0 F1600
G1 X94.195 Y47.445 Z0 F1600
G1 X93.943 Y47.048 Z0 F1600
G1 X93.733 Y46.71 Z0 F1600
G1 X93.572 Y46.443 Z0 F1600
G1 X93.513 Y46.34 Z0 F1600
G1 X93.468 Y46.259 Z0 F1600
G1 X93.439 Y46.201 Z0 F1600
G1 X93.426 Y46.167 Z0 F1600
G1 X93.431 Y46.054 Z0 F1600
G1 X93.496 Y45.932 Z0 F1600
G1 X93.635 Y45.785 Z0 F1600
G1 X93.86 Y45.597 Z0 F1600
G1 X94.105 Y45.412 Z0 F1600
G1 X94.308 Y45.288 Z0 F1600
G1 X94.48 Y45.229 Z0 F1600
G1 X94.635 Y45.24 Z0 F1600
G1 X94.785 Y45.323 Z0 F1600
G1 X94.944 Y45.484 Z0 F1600
G1 X95.124 Y45.725 Z0 F1600
G1 X95.338 Y46.052 Z0 F1600
G1 X95.473 Y46.261 Z0 F1600
G1 X95.592 Y46.441 Z0 F1600
G1 X95.698 Y46.59 Z0 F1600
G1 X95.79 Y46.707 Z0 F1600
G1 X95.869 Y46.792 Z0 F1600
G1 X95.938 Y46.845 Z0 F1600
G1 X95.996 Y46.863 Z0 F1600
G1 X96.045 Y46.847 Z0 F1600
G1 X96.086 Y46.796 Z0 F1600
G1 X96.119 Y46.709 Z0 F1600
G1 X96.147 Y46.585 Z0 F1600
G1 X96.169 Y46.424 Z0 F1600
G1 X96.187 Y46.224 Z0 F1600
G1 X96.201 Y45.986 Z0 F1600
G1 X96.214 Y45.708 Z0 F1600
G1 X96.225 Y45.389 Z0 F1600
G1 X96.247 Y44.831 Z0 F1600
G1 X96.275 Y44.366 Z0 F1600
G1 X96.289 Y44.182 Z0 F1600
G1 X96.304 Y44.041 Z0 F1600
G1 X96.318 Y43.946 Z0 F1600
G1 X96.331 Y43.905 Z0 F1600
G1 X96.397 Y43.861 Z0 F1600
G1 X96.53 Y43.785 Z0 F1600
G1 X96.712 Y43.69 Z0 F1600
G1 X96.922 Y43.584 Z0 F1600
G1 X97.215 Y43.444 Z0 F1600
G1 X97.436 Y43.356 Z0 F1600
G1 X97.595 Y43.333 Z0 F1600
G1 X97.704 Y43.386 Z0 F1600
G1 X97.742 Y43.445 Z0 F1600
G1 X97.772 Y43.528 Z0 F1600
G1 X97.794 Y43.635 Z0 F1600
G1 X97.81 Y43.77 Z0 F1600
G1 X97.822 Y43.932 Z0 F1600
G1 X97.83 Y44.124 Z0 F1600
G1 X97.836 Y44.347 Z0 F1600
G1 X97.867 Y45.844 Z0 F1600
G1 X98.322 Y45.906 Z0 F1600
G1 X98.679 Y45.99 Z0 F1600
G1 X99.015 Y46.136 Z0 F1600
G1 X99.321 Y46.337 Z0 F1600
G1 X99.593 Y46.586 Z0 F1600
G1 X99.823 Y46.876 Z0 F1600
G1 X100.004 Y47.2 Z0 F1600
G1 X100.13 Y47.55 Z0 F1600
G1 X100.195 Y47.92 Z0 F1600
G1 X100.209 Y48.214 Z0 F1600
G1 X100.186 Y48.446 Z0 F1600
G1 X100.115 Y48.673 Z0 F1600
G1 X99.983 Y48.951 Z0 F1600
G1 X99.842 Y49.188 Z0 F1600
G1 X99.671 Y49.415 Z0 F1600
G1 X99.475 Y49.626 Z0 F1600
G1 X99.259 Y49.814 Z0 F1600
G1 X98.719 Y50.234 Z0 F1600
G0 Z3.5 F1000
G0 X101.386 Y48.655 Z3.5 
G1 Z0 F1000
G1 X101.325 Y48.586 Z0 F1600
G1 X101.254 Y48.435 Z0 F1600
G1 X101.179 Y48.231 Z0 F1600
G1 X101.109 Y47.999 Z0 F1600
G1 X101.05 Y47.765 Z0 F1600
G1 X101.01 Y47.555 Z0 F1600
G1 X100.996 Y47.397 Z0 F1600
G1 X101.016 Y47.316 Z0 F1600
G1 X101.046 Y47.298 Z0 F1600
G1 X101.104 Y47.273 Z0 F1600
G1 X101.187 Y47.242 Z0 F1600
G1 X101.291 Y47.206 Z0 F1600
G1 X101.549 Y47.124 Z0 F1600
G1 X101.85 Y47.036 Z0 F1600
G1 X102.149 Y46.944 Z0 F1600
G1 X102.399 Y46.854 Z0 F1600
G1 X102.498 Y46.812 Z0 F1600
G1 X102.575 Y46.775 Z0 F1600
G1 X102.627 Y46.743 Z0 F1600
G1 X102.65 Y46.718 Z0 F1600
G1 Y46.675 Z0 F1600
G1 X102.64 Y46.59 Z0 F1600
G1 X102.618 Y46.468 Z0 F1600
G1 X102.585 Y46.315 Z0 F1600
G1 X102.492 Y45.934 Z0 F1600
G1 X102.372 Y45.488 Z0 F1600
G1 X102.061 Y44.347 Z0 F1600
G1 X101.78 Y43.259 Z0 F1600
G1 X101.666 Y42.795 Z0 F1600
G1 X101.577 Y42.415 Z0 F1600
G1 X101.544 Y42.264 Z0 F1600
G1 X101.519 Y42.144 Z0 F1600
G1 X101.504 Y42.056 Z0 F1600
G1 X101.499 Y42.004 Z0 F1600
G1 X101.536 Y41.933 Z0 F1600
G1 X101.645 Y41.855 Z0 F1600
G1 X101.823 Y41.771 Z0 F1600
G1 X102.067 Y41.684 Z0 F1600
G1 X102.309 Y41.615 Z0 F1600
G1 X102.547 Y41.561 Z0 F1600
G1 X102.755 Y41.528 Z0 F1600
G1 X102.904 Y41.521 Z0 F1600
G1 X103.009 Y41.53 Z0 F1600
G1 X103.093 Y41.563 Z0 F1600
G1 X103.169 Y41.657 Z0 F1600
G1 X103.249 Y41.847 Z0 F1600
G1 X103.295 Y41.991 Z0 F1600
G1 X103.346 Y42.172 Z0 F1600
G1 X103.405 Y42.395 Z0 F1600
G1 X103.473 Y42.666 Z0 F1600
G1 X103.642 Y43.366 Z0 F1600
G1 X103.866 Y44.309 Z0 F1600
G1 X104.049 Y45.072 Z0 F1600
G1 X104.205 Y45.706 Z0 F1600
G1 X104.317 Y46.147 Z0 F1600
G1 X104.352 Y46.273 Z0 F1600
G1 X104.37 Y46.327 Z0 F1600
G1 X104.421 Y46.343 Z0 F1600
G1 X104.529 Y46.337 Z0 F1600
G1 X104.677 Y46.31 Z0 F1600
G1 X104.85 Y46.265 Z0 F1600
G1 X105.29 Y46.166 Z0 F1600
G1 X105.732 Y46.111 Z0 F1600
G1 X106.176 Y46.088 Z0 F1600
G1 X106.284 Y46.542 Z0 F1600
G1 X106.362 Y46.936 Z0 F1600
G1 X106.4 Y47.243 Z0 F1600
G1 X106.404 Y47.334 Z0 F1600
G1 X106.393 Y47.404 Z0 F1600
G1 X106.341 Y47.463 Z0 F1600
G1 X106.224 Y47.519 Z0 F1600
G1 X106.132 Y47.549 Z0 F1600
G1 X106.015 Y47.582 Z0 F1600
G1 X105.868 Y47.618 Z0 F1600
G1 X105.69 Y47.66 Z0 F1600
G1 X105.223 Y47.763 Z0 F1600
G1 X104.59 Y47.901 Z0 F1600
G1 X103.501 Y48.156 Z0 F1600
G1 X102.478 Y48.424 Z0 F1600
G1 X102.136 Y48.516 Z0 F1600
G1 X101.832 Y48.589 Z0 F1600
G1 X101.588 Y48.638 Z0 F1600
G1 X101.429 Y48.658 Z0 F1600
G1 X101.403 Z0 F1600
G1 X101.386 Y48.655 Z0 F1600
G0 Z3.5 F1000
G0 X107.746 Y47.415 Z3.5 
G1 Z0 F1000
G1 X107.738 Y47.389 Z0 F1600
G1 X107.731 Y47.329 Z0 F1600
G1 X107.726 Y47.238 Z0 F1600
G1 X107.722 Y47.119 Z0 F1600
G1 Y46.803 Z0 F1600
G1 Y46.4 Z0 F1600
G1 X107.732 Y45.925 Z0 F1600
G1 X107.745 Y45.398 Z0 F1600
G1 X107.762 Y44.835 Z0 F1600
G1 X107.782 Y44.254 Z0 F1600
G1 X107.804 Y43.672 Z0 F1600
G1 X107.828 Y43.108 Z0 F1600
G1 X107.854 Y42.578 Z0 F1600
G1 X107.88 Y42.1 Z0 F1600
G1 X107.906 Y41.693 Z0 F1600
G1 X107.931 Y41.372 Z0 F1600
G1 X107.943 Y41.25 Z0 F1600
G1 X107.955 Y41.157 Z0 F1600
G1 X107.966 Y41.094 Z0 F1600
G1 X107.977 Y41.064 Z0 F1600
G1 X108.037 Y41.023 Z0 F1600
G1 X108.138 Y40.991 Z0 F1600
G1 X108.275 Y40.968 Z0 F1600
G1 X108.44 Y40.956 Z0 F1600
G1 X108.83 Y40.961 Z0 F1600
G1 X109.253 Y41.009 Z0 F1600
G1 X109.597 Y41.066 Z0 F1600
G1 X109.536 Y43.84 Z0 F1600
G1 X109.513 Y44.727 Z0 F1600
G1 X109.491 Y45.491 Z0 F1600
G1 X109.468 Y46.13 Z0 F1600
G1 X109.446 Y46.646 Z0 F1600
G1 X109.423 Y47.038 Z0 F1600
G1 X109.412 Y47.187 Z0 F1600
G1 X109.401 Y47.306 Z0 F1600
G1 X109.39 Y47.395 Z0 F1600
G1 X109.378 Y47.452 Z0 F1600
G1 X109.367 Y47.479 Z0 F1600
G1 X109.28 Y47.5 Z0 F1600
G1 X109.094 Y47.51 Z0 F1600
G1 X108.703 Z0 F1600
G1 X108.274 Y47.488 Z0 F1600
G1 X108.081 Y47.474 Z0 F1600
G1 X107.919 Y47.456 Z0 F1600
G1 X107.803 Y47.437 Z0 F1600
G1 X107.746 Y47.415 Z0 F1600
G0 Z3.5 F1000
G0 X111.302 Y46.84 Z3.5 
G1 Z0 F1000
G1 X111.239 Y46.598 Z0 F1600
G1 X111.209 Y46.351 Z0 F1600
G1 X111.212 Y46.103 Z0 F1600
G1 X111.249 Y45.855 Z0 F1600
G1 X111.322 Y45.613 Z0 F1600
G1 X111.431 Y45.377 Z0 F1600
G1 X111.578 Y45.152 Z0 F1600
G1 X111.762 Y44.941 Z0 F1600
G1 X111.914 Y44.803 Z0 F1600
G1 X112.072 Y44.688 Z0 F1600
G1 X112.246 Y44.595 Z0 F1600
G1 X112.444 Y44.519 Z0 F1600
G1 X112.674 Y44.459 Z0 F1600
G1 X112.944 Y44.412 Z0 F1600
G1 X113.262 Y44.375 Z0 F1600
G1 X113.974 Y44.319 Z0 F1600
G1 X114.246 Y44.283 Z0 F1600
G1 X114.46 Y44.236 Z0 F1600
G1 X114.622 Y44.175 Z0 F1600
G1 X114.737 Y44.096 Z0 F1600
G1 X114.812 Y43.996 Z0 F1600
G1 X114.853 Y43.873 Z0 F1600
G1 X114.865 Y43.723 Z0 F1600
G1 X114.853 Y43.566 Z0 F1600
G1 X114.814 Y43.444 Z0 F1600
G1 X114.742 Y43.344 Z0 F1600
G1 X114.629 Y43.255 Z0 F1600
G1 X114.484 Y43.18 Z0 F1600
G1 X114.308 Y43.123 Z0 F1600
G1 X114.11 Y43.083 Z0 F1600
G1 X113.898 Y43.062 Z0 F1600
G1 X113.472 Y43.075 Z0 F1600
G1 X113.101 Y43.168 Z0 F1600
G1 X112.955 Y43.225 Z0 F1600
G1 X112.816 Y43.271 Z0 F1600
G1 X112.699 Y43.303 Z0 F1600
G1 X112.621 Y43.314 Z0 F1600
G1 X112.556 Y43.275 Z0 F1600
G1 X112.472 Y43.17 Z0 F1600
G1 X112.378 Y43.017 Z0 F1600
G1 X112.281 Y42.832 Z0 F1600
G1 X112.191 Y42.634 Z0 F1600
G1 X112.116 Y42.439 Z0 F1600
G1 X112.065 Y42.266 Z0 F1600
G1 X112.046 Y42.133 Z0 F1600
G1 X112.086 Y42.003 Z0 F1600
G1 X112.204 Y41.884 Z0 F1600
G1 X112.402 Y41.773 Z0 F1600
G1 X112.678 Y41.673 Z0 F1600
G1 X112.883 Y41.628 Z0 F1600
G1 X113.136 Y41.601 Z0 F1600
G1 X113.42 Y41.59 Z0 F1600
G1 X113.722 Y41.596 Z0 F1600
G1 X114.029 Y41.618 Z0 F1600
G1 X114.324 Y41.655 Z0 F1600
G1 X114.596 Y41.706 Z0 F1600
G1 X114.828 Y41.771 Z0 F1600
G1 X115.237 Y41.931 Z0 F1600
G1 X115.585 Y42.109 Z0 F1600
G1 X115.875 Y42.308 Z0 F1600
G1 X116.112 Y42.533 Z0 F1600
G1 X116.296 Y42.787 Z0 F1600
G1 X116.432 Y43.072 Z0 F1600
G1 X116.523 Y43.392 Z0 F1600
G1 X116.57 Y43.751 Z0 F1600
G1 X116.578 Y44.007 Z0 F1600
G1 X116.564 Y44.243 Z0 F1600
G1 X116.526 Y44.461 Z0 F1600
G1 X116.464 Y44.662 Z0 F1600
G1 X116.377 Y44.849 Z0 F1600
G1 X116.265 Y45.023 Z0 F1600
G1 X116.127 Y45.187 Z0 F1600
G1 X115.963 Y45.341 Z0 F1600
G1 X115.673 Y45.541 Z0 F1600
G1 X115.322 Y45.677 Z0 F1600
G1 X115.098 Y45.728 Z0 F1600
G1 X114.829 Y45.771 Z0 F1600
G1 X114.506 Y45.809 Z0 F1600
G1 X113.77 Y45.876 Z0 F1600
G1 X113.489 Y45.912 Z0 F1600
G1 X113.27 Y45.955 Z0 F1600
G1 X113.106 Y46.007 Z0 F1600
G1 X112.991 Y46.071 Z0 F1600
G1 X112.916 Y46.151 Z0 F1600
G1 X112.876 Y46.247 Z0 F1600
G1 X112.865 Y46.365 Z0 F1600
G1 X112.897 Y46.532 Z0 F1600
G1 X112.986 Y46.68 Z0 F1600
G1 X113.126 Y46.805 Z0 F1600
G1 X113.306 Y46.904 Z0 F1600
G1 X113.518 Y46.973 Z0 F1600
G1 X113.754 Y47.009 Z0 F1600
G1 X114.005 Z0 F1600
G1 X114.262 Y46.964 Z0 F1600
G1 X114.432 Y46.924 Z0 F1600
G1 X114.592 Y46.891 Z0 F1600
G1 X114.723 Y46.869 Z0 F1600
G1 X114.808 Y46.86 Z0 F1600
G1 X114.868 Y46.898 Z0 F1600
G1 X114.943 Y46.998 Z0 F1600
G1 X115.028 Y47.145 Z0 F1600
G1 X115.113 Y47.323 Z0 F1600
G1 X115.192 Y47.514 Z0 F1600
G1 X115.258 Y47.702 Z0 F1600
G1 X115.303 Y47.872 Z0 F1600
G1 X115.32 Y48.005 Z0 F1600
G1 X115.294 Y48.09 Z0 F1600
G1 X115.219 Y48.166 Z0 F1600
G1 X115.102 Y48.232 Z0 F1600
G1 X114.947 Y48.289 Z0 F1600
G1 X114.549 Y48.369 Z0 F1600
G1 X114.068 Y48.401 Z0 F1600
G1 X113.76 Y48.396 Z0 F1600
G1 X113.448 Y48.371 Z0 F1600
G1 X113.142 Y48.326 Z0 F1600
G1 X112.851 Y48.259 Z0 F1600
G1 X112.565 Y48.16 Z0 F1600
G1 X112.303 Y48.033 Z0 F1600
G1 X112.066 Y47.88 Z0 F1600
G1 X111.856 Y47.705 Z0 F1600
G1 X111.674 Y47.51 Z0 F1600
G1 X111.52 Y47.3 Z0 F1600
G1 X111.396 Y47.075 Z0 F1600
G1 X111.302 Y46.84 Z0 F1600
G0 Z3.5 F1000
G0 X116.32 Y48.127 Z3.5 
G1 Z0 F1000
G1 X116.429 Y47.99 Z0 F1600
G1 X116.541 Y47.906 Z0 F1600
G1 X116.665 Y47.875 Z0 F1600
G1 X116.809 Y47.896 Z0 F1600
G1 X116.984 Y47.968 Z0 F1600
G1 X117.197 Y48.092 Z0 F1600
G1 X117.457 Y48.266 Z0 F1600
G1 X118.037 Y48.672 Z0 F1600
G1 X118.426 Y48.132 Z0 F1600
G1 X118.665 Y47.786 Z0 F1600
G1 X119.152 Y47.07 Z0 F1600
G1 X119.854 Y46.025 Z0 F1600
G1 X120.171 Y45.556 Z0 F1600
G1 X120.424 Y45.189 Z0 F1600
G1 X120.577 Y44.974 Z0 F1600
G1 X120.676 Y44.859 Z0 F1600
G1 X120.784 Y44.765 Z0 F1600
G1 X120.887 Y44.701 Z0 F1600
G1 X120.973 Y44.678 Z0 F1600
G1 X121.098 Y44.709 Z0 F1600
G1 X121.274 Y44.791 Z0 F1600
G1 X121.48 Y44.91 Z0 F1600
G1 X121.695 Y45.052 Z0 F1600
G1 X121.898 Y45.202 Z0 F1600
G1 X122.069 Y45.345 Z0 F1600
G1 X122.186 Y45.468 Z0 F1600
G1 X122.23 Y45.555 Z0 F1600
G1 X122.21 Y45.637 Z0 F1600
G1 X122.155 Y45.753 Z0 F1600
G1 X122.074 Y45.889 Z0 F1600
G1 X121.975 Y46.029 Z0 F1600
G1 X121.901 Y46.129 Z0 F1600
G1 X121.788 Y46.288 Z0 F1600
G1 X121.469 Y46.748 Z0 F1600
G1 X121.062 Y47.345 Z0 F1600
G1 X120.613 Y48.013 Z0 F1600
G1 X119.507 Y49.665 Z0 F1600
G1 X120.141 Y50.135 Z0 F1600
G1 X120.387 Y50.328 Z0 F1600
G1 X120.589 Y50.506 Z0 F1600
G1 X120.667 Y50.583 Z0 F1600
G1 X120.725 Y50.648 Z0 F1600
G1 X120.763 Y50.7 Z0 F1600
G1 X120.776 Y50.736 Z0 F1600
G1 X120.747 Y50.848 Z0 F1600
G1 X120.669 Y50.997 Z0 F1600
G1 X120.555 Y51.167 Z0 F1600
G1 X120.419 Y51.342 Z0 F1600
G1 X120.274 Y51.505 Z0 F1600
G1 X120.132 Y51.642 Z0 F1600
G1 X120.008 Y51.736 Z0 F1600
G1 X119.915 Y51.771 Z0 F1600
G1 X119.86 Y51.757 Z0 F1600
G1 X119.775 Y51.72 Z0 F1600
G1 X119.663 Y51.66 Z0 F1600
G1 X119.53 Y51.582 Z0 F1600
G1 X119.216 Y51.377 Z0 F1600
G1 X118.866 Y51.127 Z0 F1600
G1 X117.955 Y50.47 Z0 F1600
G1 X116.979 Y49.792 Z0 F1600
G1 X116.742 Y49.629 Z0 F1600
G1 X116.535 Y49.481 Z0 F1600
G1 X116.359 Y49.349 Z0 F1600
G1 X116.215 Y49.234 Z0 F1600
G1 X116.102 Y49.134 Z0 F1600
G1 X116.021 Y49.051 Z0 F1600
G1 X115.973 Y48.985 Z0 F1600
G1 X115.956 Y48.935 Z0 F1600
G1 X115.976 Y48.835 Z0 F1600
G1 X116.03 Y48.685 Z0 F1600
G1 X116.109 Y48.506 Z0 F1600
G1 X116.206 Y48.317 Z0 F1600
G1 X116.32 Y48.127 Z0 F1600
G0 Z3.5 F1000
G0 X121.656 Y51.106 Z3.5 
G1 Z0 F1000
G1 X121.878 Y50.935 Z0 F1600
G1 X122.117 Y50.798 Z0 F1600
G1 X122.368 Y50.696 Z0 F1600
G1 X122.623 Y50.633 Z0 F1600
G1 X122.879 Y50.611 Z0 F1600
G1 X123.13 Y50.633 Z0 F1600
G1 X123.213 Y50.654 Z0 F1600
G1 X123.323 Y50.691 Z0 F1600
G1 X123.456 Y50.743 Z0 F1600
G1 X123.607 Y50.807 Z0 F1600
G1 X123.943 Y50.962 Z0 F1600
G1 X124.293 Y51.141 Z0 F1600
G1 X124.598 Y51.299 Z0 F1600
G1 X124.855 Y51.42 Z0 F1600
G1 X125.071 Y51.506 Z0 F1600
G1 X125.251 Y51.558 Z0 F1600
G1 X125.401 Y51.577 Z0 F1600
G1 X125.526 Y51.563 Z0 F1600
G1 X125.632 Y51.519 Z0 F1600
G1 X125.725 Y51.446 Z0 F1600
G1 X125.805 Y51.342 Z0 F1600
G1 X125.853 Y51.228 Z0 F1600
G1 X125.87 Y51.106 Z0 F1600
G1 X125.858 Y50.978 Z0 F1600
G1 X125.756 Y50.715 Z0 F1600
G1 X125.566 Y50.459 Z0 F1600
G1 X125.304 Y50.226 Z0 F1600
G1 X124.987 Y50.037 Z0 F1600
G1 X124.633 Y49.909 Z0 F1600
G1 X124.259 Y49.862 Z0 F1600
G1 X124.099 Y49.83 Z0 F1600
G1 X123.994 Y49.754 Z0 F1600
G1 X123.965 Y49.658 Z0 F1600
G1 X123.949 Y49.501 Z0 F1600
G1 X123.945 Y49.303 Z0 F1600
G1 X123.953 Y49.084 Z0 F1600
G1 X123.97 Y48.867 Z0 F1600
G1 X123.995 Y48.671 Z0 F1600
G1 X124.028 Y48.519 Z0 F1600
G1 X124.067 Y48.429 Z0 F1600
G1 X124.171 Y48.348 Z0 F1600
G1 X124.325 Y48.323 Z0 F1600
G1 X124.433 Y48.332 Z0 F1600
G1 X124.568 Y48.355 Z0 F1600
G1 X124.734 Y48.393 Z0 F1600
G1 X124.937 Y48.445 Z0 F1600
G1 X125.422 Y48.612 Z0 F1600
G1 X125.864 Y48.847 Z0 F1600
G1 X126.278 Y49.16 Z0 F1600
G1 X126.678 Y49.561 Z0 F1600
G1 X127.011 Y49.986 Z0 F1600
G1 X127.256 Y50.412 Z0 F1600
G1 X127.413 Y50.836 Z0 F1600
G1 X127.48 Y51.252 Z0 F1600
G1 X127.459 Y51.656 Z0 F1600
G1 X127.349 Y52.043 Z0 F1600
G1 X127.149 Y52.41 Z0 F1600
G1 X126.859 Y52.751 Z0 F1600
G1 X126.523 Y53.004 Z0 F1600
G1 X126.123 Y53.183 Z0 F1600
G1 X125.912 Y53.241 Z0 F1600
G1 X125.701 Y53.276 Z0 F1600
G1 X125.495 Y53.285 Z0 F1600
G1 X125.3 Y53.267 Z0 F1600
G1 X125.206 Y53.245 Z0 F1600
G1 X125.085 Y53.207 Z0 F1600
G1 X124.942 Y53.155 Z0 F1600
G1 X124.782 Y53.091 Z0 F1600
G1 X124.431 Y52.937 Z0 F1600
G1 X123.727 Y52.587 Z0 F1600
G1 X123.411 Y52.446 Z0 F1600
G1 X123.274 Y52.392 Z0 F1600
G1 X123.158 Y52.351 Z0 F1600
G1 X123.067 Y52.325 Z0 F1600
G1 X123.005 Y52.316 Z0 F1600
G1 X122.841 Y52.356 Z0 F1600
G1 X122.711 Y52.468 Z0 F1600
G1 X122.625 Y52.638 Z0 F1600
G1 X122.594 Y52.853 Z0 F1600
G1 X122.618 Y52.962 Z0 F1600
G1 X122.685 Y53.086 Z0 F1600
G1 X122.787 Y53.218 Z0 F1600
G1 X122.919 Y53.352 Z0 F1600
G1 X123.243 Y53.601 Z0 F1600
G1 X123.599 Y53.781 Z0 F1600
G1 X124.003 Y53.928 Z0 F1600
G1 X123.979 Y54.372 Z0 F1600
G1 X123.963 Y54.634 Z0 F1600
G1 X123.943 Y54.837 Z0 F1600
G1 X123.917 Y54.987 Z0 F1600
G1 X123.88 Y55.093 Z0 F1600
G1 X123.827 Y55.163 Z0 F1600
G1 X123.757 Y55.203 Z0 F1600
G1 X123.664 Y55.221 Z0 F1600
G1 X123.544 Y55.226 Z0 F1600
G1 X123.263 Y55.188 Z0 F1600
G1 X122.952 Y55.081 Z0 F1600
G1 X122.627 Y54.915 Z0 F1600
G1 X122.302 Y54.7 Z0 F1600
G1 X121.991 Y54.448 Z0 F1600
G1 X121.708 Y54.169 Z0 F1600
G1 X121.467 Y53.873 Z0 F1600
G1 X121.283 Y53.57 Z0 F1600
G1 X121.174 Y53.312 Z0 F1600
G1 X121.096 Y53.043 Z0 F1600
G1 X121.05 Y52.768 Z0 F1600
G1 X121.034 Y52.495 Z0 F1600
G1 X121.05 Y52.228 Z0 F1600
G1 X121.096 Y51.976 Z0 F1600
G1 X121.174 Y51.742 Z0 F1600
G1 X121.284 Y51.535 Z0 F1600
G1 X121.456 Y51.306 Z0 F1600
G1 X121.656 Y51.106 Z0 F1600
;Offset @ 1500 mm/min, 80% power

M8
G0 Z3.5 F1000
G0 X108.433 Y58.45 Z3.5 
G1 Z0 F1000
;Layer C3
G1 X108.887 Y58.455 Z0 F1600
G1 X109.626 Y58.49 Z0 F1600
G1 X110.364 Y58.563 Z0 F1600
G1 X111.119 Y58.668 Z0 F1600
G1 X112 Y58.819 Z0 F1600
G1 X112.773 Y58.946 Z0 F1600
G1 X113.374 Y59.089 Z0 F1600
G1 X114.056 Y59.291 Z0 F1600
G1 X115.36 Y59.731 Z0 F1600
G1 X115.802 Y59.898 Z0 F1600
G1 X116.19 Y60.064 Z0 F1600
G1 X116.764 Y60.348 Z0 F1600
G1 X117.258 Y60.55 Z0 F1600
G1 X117.563 Y60.704 Z0 F1600
G1 X118.042 Y60.969 Z0 F1600
G1 X118.462 Y61.203 Z0 F1600
G1 X118.998 Y61.533 Z0 F1600
G1 X119.614 Y61.908 Z0 F1600
G1 X119.83 Y62.045 Z0 F1600
G1 X119.966 Y62.139 Z0 F1600
G1 X120.022 Y62.181 Z0 F1600
G1 X120.221 Y62.355 Z0 F1600
G1 X120.767 Y62.783 Z0 F1600
G1 X121.138 Y63.102 Z0 F1600
G1 X121.378 Y63.341 Z0 F1600
G1 X121.626 Y63.649 Z0 F1600
G1 X121.887 Y64 Z0 F1600
G1 X122.042 Y64.245 Z0 F1600
G1 X122.153 Y64.46 Z0 F1600
G1 X122.184 Y64.535 Z0 F1600
G1 X122.203 Y64.622 Z0 F1600
G1 X122.214 Y64.707 Z0 F1600
G1 X122.095 Y65.101 Z0 F1600
G1 X121.844 Y64.98 Z0 F1600
G1 X121.529 Y64.79 Z0 F1600
G1 X120.977 Y64.432 Z0 F1600
G1 X120.493 Y64.14 Z0 F1600
G1 X119.895 Y63.712 Z0 F1600
G1 X119.038 Y63.145 Z0 F1600
G1 X118.083 Y62.585 Z0 F1600
G1 X117.196 Y62.147 Z0 F1600
G1 X116.54 Y61.818 Z0 F1600
G1 X115.723 Y61.466 Z0 F1600
G1 X114.885 Y61.158 Z0 F1600
G1 X114.041 Y60.898 Z0 F1600
G1 X112.936 Y60.609 Z0 F1600
G1 X112.318 Y60.468 Z0 F1600
G1 X111.485 Y60.315 Z0 F1600
G1 X110.144 Y60.201 Z0 F1600
G1 X108.905 Y60.123 Z0 F1600
G1 X107.529 Y60.111 Z0 F1600
G1 X106.263 Y60.208 Z0 F1600
G1 X105.473 Y60.272 Z0 F1600
G1 X104.645 Y60.413 Z0 F1600
G1 X104.045 Y60.541 Z0 F1600
G1 X103.407 Y60.67 Z0 F1600
G1 X102.26 Y61.004 Z0 F1600
G1 X101.2 Y61.354 Z0 F1600
G1 X100.084 Y61.791 Z0 F1600
G1 X99.115 Y62.255 Z0 F1600
G1 X98.315 Y62.626 Z0 F1600
G1 X97.396 Y63.143 Z0 F1600
G1 X96.448 Y63.712 Z0 F1600
G1 X95.917 Y64.011 Z0 F1600
G1 X95.607 Y64.262 Z0 F1600
G1 X95.58 Y64.282 Z0 F1600
G1 X95.456 Y64.369 Z0 F1600
G1 X95.27 Y64.495 Z0 F1600
G1 X94.823 Y64.785 Z0 F1600
G1 X94.39 Y65.052 Z0 F1600
G1 X94.118 Y65.211 Z0 F1600
G1 X94.007 Y65.262 Z0 F1600
G1 X93.884 Y65.303 Z0 F1600
G1 X93.772 Y65.327 Z0 F1600
G1 X93.66 Y65.339 Z0 F1600
G1 X93.521 Y65.266 Z0 F1600
G1 X93.432 Y65.18 Z0 F1600
G1 X93.423 Y64.877 Z0 F1600
G1 X93.445 Y64.535 Z0 F1600
G1 X93.473 Y64.461 Z0 F1600
G1 X93.523 Y64.366 Z0 F1600
G1 X93.622 Y64.222 Z0 F1600
G1 X93.844 Y63.956 Z0 F1600
G1 X94.117 Y63.646 Z0 F1600
G1 X94.265 Y63.501 Z0 F1600
G1 X94.75 Y63.137 Z0 F1600
G1 X95.249 Y62.67 Z0 F1600
G1 X95.509 Y62.478 Z0 F1600
G1 X96.05 Y62.118 Z0 F1600
G1 X96.441 Y61.841 Z0 F1600
G1 X97.186 Y61.439 Z0 F1600
G1 X98.031 Y60.974 Z0 F1600
G1 X99.522 Y60.283 Z0 F1600
G1 X101.063 Y59.657 Z0 F1600
G1 X101.771 Y59.41 Z0 F1600
G1 X102.478 Y59.196 Z0 F1600
G1 X103.178 Y59.019 Z0 F1600
G1 X103.964 Y58.864 Z0 F1600
G1 X104.778 Y58.715 Z0 F1600
G1 X105.531 Y58.609 Z0 F1600
G1 X106.294 Y58.534 Z0 F1600
G1 X107.163 Y58.481 Z0 F1600
G1 X107.59 Y58.455 Z0 F1600
G1 X107.979 Y58.448 Z0 F1600
G1 X108.433 Z0 F1600
G0 Z3.5 F1000
G0 X112.95 Y58.063 Z3.5 
G1 Z0 F1000
G1 X113.605 Y58.219 Z0 F1600
G1 X114.327 Y58.433 Z0 F1600
G1 X115.673 Y58.887 Z0 F1600
G1 X116.141 Y59.063 Z0 F1600
G1 X116.56 Y59.243 Z0 F1600
G1 X117.134 Y59.527 Z0 F1600
G1 X117.628 Y59.729 Z0 F1600
G1 X117.984 Y59.909 Z0 F1600
G1 X118.463 Y60.173 Z0 F1600
G1 X118.925 Y60.43 Z0 F1600
G1 X119.468 Y60.766 Z0 F1600
G1 X120.093 Y61.146 Z0 F1600
G1 X120.322 Y61.292 Z0 F1600
G1 X120.495 Y61.41 Z0 F1600
G1 X120.59 Y61.482 Z0 F1600
G1 X120.795 Y61.662 Z0 F1600
G1 X121.342 Y62.091 Z0 F1600
G1 X121.744 Y62.436 Z0 F1600
G1 X122.048 Y62.737 Z0 F1600
G1 X122.34 Y63.1 Z0 F1600
G1 X122.627 Y63.488 Z0 F1600
G1 X122.823 Y63.798 Z0 F1600
G1 X122.97 Y64.082 Z0 F1600
G1 X123.046 Y64.269 Z0 F1600
G1 X123.089 Y64.462 Z0 F1600
G1 X123.131 Y64.782 Z0 F1600
G1 X122.888 Y65.589 Z0 F1600
G1 X122.813 Y65.706 Z0 F1600
G1 X122.593 Y65.906 Z0 F1600
G1 X122.31 Y66.052 Z0 F1600
G1 X122.266 Y66.068 Z0 F1600
G1 X122.218 Y66.079 Z0 F1600
G1 X122.163 Y66.083 Z0 F1600
G1 X122.115 Z0 F1600
G1 X122.072 Y66.075 Z0 F1600
G1 X122.033 Y66.063 Z0 F1600
G1 X121.82 Y65.966 Z0 F1600
G1 X121.415 Y65.773 Z0 F1600
G1 X121.058 Y65.557 Z0 F1600
G1 X120.5 Y65.195 Z0 F1600
G1 X119.999 Y64.893 Z0 F1600
G1 X119.384 Y64.454 Z0 F1600
G1 X118.561 Y63.908 Z0 F1600
G1 X117.656 Y63.378 Z0 F1600
G1 X116.797 Y62.954 Z0 F1600
G1 X116.16 Y62.634 Z0 F1600
G1 X115.389 Y62.302 Z0 F1600
G1 X114.597 Y62.011 Z0 F1600
G1 X113.794 Y61.764 Z0 F1600
G1 X112.721 Y61.483 Z0 F1600
G1 X112.136 Y61.349 Z0 F1600
G1 X111.365 Y61.208 Z0 F1600
G1 X110.078 Y61.098 Z0 F1600
G1 X108.873 Y61.022 Z0 F1600
G1 X107.56 Y61.011 Z0 F1600
G1 X106.334 Y61.104 Z0 F1600
G1 X105.585 Y61.166 Z0 F1600
G1 X104.814 Y61.297 Z0 F1600
G1 X104.227 Y61.422 Z0 F1600
G1 X103.623 Y61.545 Z0 F1600
G1 X102.527 Y61.864 Z0 F1600
G1 X101.505 Y62.201 Z0 F1600
G1 X100.443 Y62.617 Z0 F1600
G1 X99.528 Y63.056 Z0 F1600
G1 X98.726 Y63.428 Z0 F1600
G1 X97.848 Y63.921 Z0 F1600
G1 X96.893 Y64.494 Z0 F1600
G1 X96.425 Y64.758 Z0 F1600
G1 X96.157 Y64.975 Z0 F1600
G1 X96.095 Y65.021 Z0 F1600
G1 X95.958 Y65.116 Z0 F1600
G1 X95.772 Y65.242 Z0 F1600
G1 X95.319 Y65.537 Z0 F1600
G1 X94.848 Y65.827 Z0 F1600
G1 X94.531 Y66.013 Z0 F1600
G1 X94.331 Y66.104 Z0 F1600
G1 X94.126 Y66.171 Z0 F1600
G1 X93.914 Y66.217 Z0 F1600
G1 X93.702 Y66.24 Z0 F1600
G1 X93.497 Z0 F1600
G1 X93.422 Y66.231 Z0 F1600
G1 X93.089 Y66.055 Z0 F1600
G1 X92.912 Y65.99 Z0 F1600
G1 X92.823 Y65.843 Z0 F1600
G1 X92.543 Y65.572 Z0 F1600
G1 X92.521 Y64.862 Z0 F1600
G1 X92.553 Y64.374 Z0 F1600
G1 X92.574 Y64.291 Z0 F1600
G1 X92.651 Y64.089 Z0 F1600
G1 X92.75 Y63.9 Z0 F1600
G1 X92.904 Y63.678 Z0 F1600
G1 X93.155 Y63.376 Z0 F1600
G1 X93.467 Y63.022 Z0 F1600
G1 X93.677 Y62.817 Z0 F1600
G1 X94.171 Y62.446 Z0 F1600
G1 X94.673 Y61.976 Z0 F1600
G1 X94.986 Y61.745 Z0 F1600
G1 X95.54 Y61.376 Z0 F1600
G1 X95.966 Y61.074 Z0 F1600
G1 X96.755 Y60.649 Z0 F1600
G1 X97.628 Y60.168 Z0 F1600
G1 X99.159 Y59.459 Z0 F1600
G1 X100.753 Y58.812 Z0 F1600
G1 X101.483 Y58.557 Z0 F1600
G1 X102.234 Y58.329 Z0 F1600
G1 X102.979 Y58.141 Z0 F1600
G1 X103.798 Y57.979 Z0 F1600
G1 X104.631 Y57.827 Z0 F1600
G1 X105.428 Y57.715 Z0 F1600
G1 X106.227 Y57.636 Z0 F1600
G1 X107.108 Y57.583 Z0 F1600
G1 X107.553 Y57.555 Z0 F1600
G1 X107.969 Y57.547 Z0 F1600
G1 X108.458 Y57.55 Z0 F1600
G1 X108.901 Y57.555 Z0 F1600
G1 X109.699 Y57.593 Z0 F1600
G1 X110.458 Y57.667 Z0 F1600
G1 X111.266 Y57.781 Z0 F1600
G1 X112.148 Y57.931 Z0 F1600
G1 X112.95 Y58.063 Z0 F1600
G0 Z3.5 F1000
G0 X116.943 Y58.428 Z3.5 
G1 Z0 F1000
G1 X117.505 Y58.706 Z0 F1600
G1 X118.006 Y58.912 Z0 F1600
G1 X118.401 Y59.111 Z0 F1600
G1 X118.901 Y59.387 Z0 F1600
G1 X119.38 Y59.654 Z0 F1600
G1 X119.938 Y59.999 Z0 F1600
G1 X120.561 Y60.377 Z0 F1600
G1 X120.814 Y60.538 Z0 F1600
G1 X121.024 Y60.682 Z0 F1600
G1 X121.159 Y60.784 Z0 F1600
G1 X121.37 Y60.969 Z0 F1600
G1 X121.91 Y61.392 Z0 F1600
G1 X122.357 Y61.776 Z0 F1600
G1 X122.718 Y62.134 Z0 F1600
G1 X123.047 Y62.543 Z0 F1600
G1 X123.374 Y62.984 Z0 F1600
G1 X123.603 Y63.346 Z0 F1600
G1 X123.79 Y63.708 Z0 F1600
G1 X123.909 Y63.998 Z0 F1600
G1 X123.977 Y64.308 Z0 F1600
G1 X124.034 Y64.741 Z0 F1600
G1 X124.037 Y64.833 Z0 F1600
G1 X124.033 Y64.903 Z0 F1600
G1 X124.03 Y64.92 Z0 F1600
G1 X123.801 Y65.68 Z0 F1600
G1 X123.821 Y65.8 Z0 F1600
G1 X123.507 Y66.292 Z0 F1600
G1 X123.112 Y66.651 Z0 F1600
G1 X122.669 Y66.879 Z0 F1600
G1 X122.514 Y66.936 Z0 F1600
G1 X122.357 Y66.97 Z0 F1600
G1 X122.189 Y66.985 Z0 F1600
G1 X122.027 Y66.979 Z0 F1600
G1 X121.865 Y66.953 Z0 F1600
G1 X121.716 Y66.908 Z0 F1600
G1 X121.443 Y66.784 Z0 F1600
G1 X120.987 Y66.566 Z0 F1600
G1 X120.575 Y66.317 Z0 F1600
G1 X120.023 Y65.958 Z0 F1600
G1 X119.501 Y65.645 Z0 F1600
G1 X118.873 Y65.195 Z0 F1600
G1 X118.084 Y64.672 Z0 F1600
G1 X117.229 Y64.17 Z0 F1600
G1 X116.399 Y63.761 Z0 F1600
G1 X115.779 Y63.451 Z0 F1600
G1 X115.056 Y63.138 Z0 F1600
G1 X114.31 Y62.864 Z0 F1600
G1 X113.548 Y62.63 Z0 F1600
G1 X112.506 Y62.357 Z0 F1600
G1 X111.955 Y62.231 Z0 F1600
G1 X111.246 Y62.101 Z0 F1600
G1 X110.011 Y61.996 Z0 F1600
G1 X108.841 Y61.922 Z0 F1600
G1 X107.59 Y61.912 Z0 F1600
G1 X106.405 Y62.002 Z0 F1600
G1 X105.698 Y62.06 Z0 F1600
G1 X104.983 Y62.181 Z0 F1600
G1 X104.415 Y62.302 Z0 F1600
G1 X103.839 Y62.419 Z0 F1600
G1 X102.794 Y62.724 Z0 F1600
G1 X101.81 Y63.048 Z0 F1600
G1 X100.802 Y63.443 Z0 F1600
G1 X99.894 Y63.878 Z0 F1600
G1 X99.136 Y64.229 Z0 F1600
G1 X98.3 Y64.7 Z0 F1600
G1 X97.354 Y65.267 Z0 F1600
G1 X96.933 Y65.505 Z0 F1600
G1 X96.709 Y65.686 Z0 F1600
G1 X96.627 Y65.746 Z0 F1600
G1 X96.457 Y65.865 Z0 F1600
G1 X96.279 Y65.985 Z0 F1600
G1 X95.786 Y66.306 Z0 F1600
G1 X95.306 Y66.602 Z0 F1600
G1 X94.945 Y66.813 Z0 F1600
G1 X94.663 Y66.941 Z0 F1600
G1 X94.364 Y67.04 Z0 F1600
G1 X94.055 Y67.107 Z0 F1600
G1 X93.751 Y67.14 Z0 F1600
G1 X93.44 Z0 F1600
G1 X93.153 Y67.106 Z0 F1600
G1 X92.721 Y66.879 Z0 F1600
G1 X92.304 Y66.725 Z0 F1600
G1 X92.113 Y66.408 Z0 F1600
G1 X91.652 Y65.96 Z0 F1600
G1 Y65.944 Z0 F1600
G1 X91.621 Y64.847 Z0 F1600
G1 X91.661 Y64.232 Z0 F1600
G1 X91.715 Y64.019 Z0 F1600
G1 X91.831 Y63.717 Z0 F1600
G1 X91.979 Y63.432 Z0 F1600
G1 X92.186 Y63.134 Z0 F1600
G1 X92.466 Y62.797 Z0 F1600
G1 X92.813 Y62.403 Z0 F1600
G1 X93.09 Y62.133 Z0 F1600
G1 X93.591 Y61.756 Z0 F1600
G1 X94.093 Y61.285 Z0 F1600
G1 X94.48 Y61.001 Z0 F1600
G1 X95.03 Y60.634 Z0 F1600
G1 X95.49 Y60.309 Z0 F1600
G1 X96.324 Y59.859 Z0 F1600
G1 X97.215 Y59.368 Z0 F1600
G1 X98.802 Y58.633 Z0 F1600
G1 X100.437 Y57.969 Z0 F1600
G1 X101.207 Y57.7 Z0 F1600
G1 X101.991 Y57.462 Z0 F1600
G1 X102.794 Y57.26 Z0 F1600
G1 X103.631 Y57.094 Z0 F1600
G1 X104.485 Y56.938 Z0 F1600
G1 X105.31 Y56.823 Z0 F1600
G1 X106.162 Y56.739 Z0 F1600
G1 X107.052 Y56.685 Z0 F1600
G1 X107.523 Y56.655 Z0 F1600
G1 X107.958 Y56.647 Z0 F1600
G1 X108.463 Y56.65 Z0 F1600
G1 X108.928 Y56.655 Z0 F1600
G1 X109.761 Y56.695 Z0 F1600
G1 X110.577 Y56.775 Z0 F1600
G1 X111.394 Y56.89 Z0 F1600
G1 X112.296 Y57.043 Z0 F1600
G1 X113.125 Y57.179 Z0 F1600
G1 X113.838 Y57.349 Z0 F1600
G1 X114.606 Y57.577 Z0 F1600
G1 X115.961 Y58.034 Z0 F1600
G1 X116.482 Y58.23 Z0 F1600
G1 X116.943 Y58.428 Z0 F1600
G0 Z3.5 F1000
G0 X121.302 Y59.782 Z3.5 
G1 Z0 F1000
G1 X121.552 Y59.953 Z0 F1600
G1 X121.728 Y60.086 Z0 F1600
G1 X121.945 Y60.276 Z0 F1600
G1 X122.485 Y60.699 Z0 F1600
G1 X122.971 Y61.117 Z0 F1600
G1 X123.388 Y61.531 Z0 F1600
G1 X123.754 Y61.986 Z0 F1600
G1 X124.118 Y62.477 Z0 F1600
G1 X124.385 Y62.899 Z0 F1600
G1 X124.607 Y63.328 Z0 F1600
G1 X124.77 Y63.727 Z0 F1600
G1 X124.864 Y64.154 Z0 F1600
G1 X124.932 Y64.668 Z0 F1600
G1 X124.938 Y64.845 Z0 F1600
G1 X124.929 Y65.001 Z0 F1600
G1 X124.908 Y65.127 Z0 F1600
G1 X124.724 Y65.737 Z0 F1600
G1 X124.758 Y65.939 Z0 F1600
G1 X124.732 Y66.047 Z0 F1600
G1 X124.202 Y66.876 Z0 F1600
G1 X123.707 Y67.327 Z0 F1600
G1 X123.686 Y67.368 Z0 F1600
G1 X123.026 Y67.708 Z0 F1600
G1 X122.767 Y67.801 Z0 F1600
G1 X122.494 Y67.861 Z0 F1600
G1 X122.215 Y67.887 Z0 F1600
G1 X121.936 Y67.876 Z0 F1600
G1 X121.663 Y67.832 Z0 F1600
G1 X121.4 Y67.752 Z0 F1600
G1 X121.037 Y67.587 Z0 F1600
G1 X120.561 Y67.36 Z0 F1600
G1 X120.094 Y67.078 Z0 F1600
G1 X119.546 Y66.721 Z0 F1600
G1 X119.005 Y66.396 Z0 F1600
G1 X118.362 Y65.937 Z0 F1600
G1 X117.608 Y65.436 Z0 F1600
G1 X116.801 Y64.963 Z0 F1600
G1 X116.011 Y64.573 Z0 F1600
G1 X115.399 Y64.267 Z0 F1600
G1 X114.722 Y63.975 Z0 F1600
G1 X114.022 Y63.717 Z0 F1600
G1 X113.301 Y63.496 Z0 F1600
G1 X112.292 Y63.231 Z0 F1600
G1 X111.772 Y63.113 Z0 F1600
G1 X111.126 Y62.994 Z0 F1600
G1 X109.945 Y62.893 Z0 F1600
G1 X108.809 Y62.822 Z0 F1600
G1 X107.621 Y62.812 Z0 F1600
G1 X106.476 Y62.899 Z0 F1600
G1 X105.81 Y62.954 Z0 F1600
G1 X105.152 Y63.065 Z0 F1600
G1 X104.619 Y63.179 Z0 F1600
G1 X104.055 Y63.294 Z0 F1600
G1 X103.061 Y63.583 Z0 F1600
G1 X102.115 Y63.896 Z0 F1600
G1 X101.162 Y64.269 Z0 F1600
G1 X100.275 Y64.693 Z0 F1600
G1 X99.546 Y65.031 Z0 F1600
G1 X98.752 Y65.478 Z0 F1600
G1 X97.807 Y66.045 Z0 F1600
G1 X97.44 Y66.252 Z0 F1600
G1 X97.253 Y66.403 Z0 F1600
G1 X97.167 Y66.466 Z0 F1600
G1 X96.97 Y66.604 Z0 F1600
G1 X96.751 Y66.752 Z0 F1600
G1 X96.268 Y67.066 Z0 F1600
G1 X95.796 Y67.357 Z0 F1600
G1 X95.359 Y67.614 Z0 F1600
G1 X94.99 Y67.781 Z0 F1600
G1 X94.603 Y67.909 Z0 F1600
G1 X94.195 Y67.998 Z0 F1600
G1 X93.796 Y68.041 Z0 F1600
G1 X93.394 Z0 F1600
G1 X92.992 Y67.994 Z0 F1600
G1 X92.823 Y67.954 Z0 F1600
G1 X92.792 Y67.934 Z0 F1600
G1 X92.354 Y67.703 Z0 F1600
G1 X91.825 Y67.507 Z0 F1600
G1 X91.714 Y67.489 Z0 F1600
G1 X91.403 Y66.973 Z0 F1600
G1 X90.876 Y66.462 Z0 F1600
G1 X90.831 Y66.44 Z0 F1600
G1 X90.73 Y66.084 Z0 F1600
G1 X90.752 Y65.902 Z0 F1600
G1 X90.72 Y64.832 Z0 F1600
G1 X90.768 Y64.089 Z0 F1600
G1 X90.855 Y63.748 Z0 F1600
G1 X91.008 Y63.347 Z0 F1600
G1 X91.208 Y62.966 Z0 F1600
G1 X91.467 Y62.591 Z0 F1600
G1 X91.794 Y62.198 Z0 F1600
G1 X92.16 Y61.783 Z0 F1600
G1 X92.501 Y61.449 Z0 F1600
G1 X93.011 Y61.066 Z0 F1600
G1 X93.519 Y60.59 Z0 F1600
G1 X93.956 Y60.269 Z0 F1600
G1 X94.521 Y59.892 Z0 F1600
G1 X95.016 Y59.542 Z0 F1600
G1 X95.894 Y59.069 Z0 F1600
G1 X96.812 Y58.563 Z0 F1600
G1 X98.441 Y57.808 Z0 F1600
G1 X100.112 Y57.129 Z0 F1600
G1 X100.931 Y56.843 Z0 F1600
G1 X101.76 Y56.592 Z0 F1600
G1 X102.588 Y56.383 Z0 F1600
G1 X103.458 Y56.211 Z0 F1600
G1 X104.339 Y56.05 Z0 F1600
G1 X105.206 Y55.929 Z0 F1600
G1 X106.084 Y55.842 Z0 F1600
G1 X106.997 Y55.786 Z0 F1600
G1 X107.484 Y55.756 Z0 F1600
G1 X107.968 Y55.747 Z0 F1600
G1 X108.46 Y55.75 Z0 F1600
G1 X108.955 Y55.755 Z0 F1600
G1 X109.824 Y55.797 Z0 F1600
G1 X110.682 Y55.881 Z0 F1600
G1 X111.543 Y56.002 Z0 F1600
G1 X112.445 Y56.156 Z0 F1600
G1 X113.301 Y56.296 Z0 F1600
G1 X114.079 Y56.481 Z0 F1600
G1 X114.861 Y56.713 Z0 F1600
G1 X116.278 Y57.191 Z0 F1600
G1 X116.811 Y57.393 Z0 F1600
G1 X117.323 Y57.612 Z0 F1600
G1 X117.875 Y57.885 Z0 F1600
G1 X118.377 Y58.091 Z0 F1600
G1 X118.828 Y58.319 Z0 F1600
G1 X119.339 Y58.6 Z0 F1600
G1 X119.838 Y58.878 Z0 F1600
G1 X120.409 Y59.231 Z0 F1600
G1 X121.045 Y59.618 Z0 F1600
G1 X121.302 Y59.782 Z0 F1600
G0 Z3.5 F1000
G0 X124.478 Y61.451 Z3.5 
G1 Z0 F1000
G1 X124.856 Y61.96 Z0 F1600
G1 X125.167 Y62.451 Z0 F1600
G1 X125.424 Y62.949 Z0 F1600
G1 X125.633 Y63.46 Z0 F1600
G1 X125.752 Y64 Z0 F1600
G1 X125.831 Y64.595 Z0 F1600
G1 X125.838 Y64.853 Z0 F1600
G1 X125.824 Y65.105 Z0 F1600
G1 X125.787 Y65.327 Z0 F1600
G1 X125.646 Y65.794 Z0 F1600
G1 X125.689 Y66.045 Z0 F1600
G1 X125.659 Z0 F1600
G1 X125.485 Y66.762 Z0 F1600
G1 X125.341 Y66.765 Z0 F1600
G1 X124.832 Y67.561 Z0 F1600
G1 X124.761 Y67.584 Z0 F1600
G1 X124.434 Y67.882 Z0 F1600
G1 X124.356 Y68.035 Z0 F1600
G1 X123.389 Y68.534 Z0 F1600
G1 X123.017 Y68.667 Z0 F1600
G1 X122.634 Y68.752 Z0 F1600
G1 X122.238 Y68.788 Z0 F1600
G1 X121.848 Y68.774 Z0 F1600
G1 X121.455 Y68.709 Z0 F1600
G1 X121.083 Y68.597 Z0 F1600
G1 X120.665 Y68.407 Z0 F1600
G1 X120.134 Y68.153 Z0 F1600
G1 X119.627 Y67.847 Z0 F1600
G1 X119.069 Y67.485 Z0 F1600
G1 X118.514 Y67.151 Z0 F1600
G1 X117.852 Y66.678 Z0 F1600
G1 X117.131 Y66.2 Z0 F1600
G1 X116.374 Y65.756 Z0 F1600
G1 X115.603 Y65.375 Z0 F1600
G1 X115.019 Y65.083 Z0 F1600
G1 X114.388 Y64.811 Z0 F1600
G1 X113.734 Y64.571 Z0 F1600
G1 X113.055 Y64.362 Z0 F1600
G1 X112.077 Y64.106 Z0 F1600
G1 X111.591 Y63.994 Z0 F1600
G1 X111.006 Y63.887 Z0 F1600
G1 X109.878 Y63.791 Z0 F1600
G1 X108.777 Y63.722 Z0 F1600
G1 X107.651 Y63.712 Z0 F1600
G1 X106.547 Y63.796 Z0 F1600
G1 X105.922 Y63.847 Z0 F1600
G1 X105.321 Y63.949 Z0 F1600
G1 X104.79 Y64.063 Z0 F1600
G1 X104.271 Y64.168 Z0 F1600
G1 X103.328 Y64.443 Z0 F1600
G1 X102.421 Y64.742 Z0 F1600
G1 X101.521 Y65.095 Z0 F1600
G1 X100.674 Y65.5 Z0 F1600
G1 X99.957 Y65.833 Z0 F1600
G1 X99.204 Y66.256 Z0 F1600
G1 X98.252 Y66.827 Z0 F1600
G1 X97.948 Y66.999 Z0 F1600
G1 X97.813 Y67.109 Z0 F1600
G1 X97.675 Y67.209 Z0 F1600
G1 X97.492 Y67.338 Z0 F1600
G1 X97.258 Y67.496 Z0 F1600
G1 X96.75 Y67.826 Z0 F1600
G1 X96.237 Y68.142 Z0 F1600
G1 X95.777 Y68.413 Z0 F1600
G1 X95.318 Y68.621 Z0 F1600
G1 X94.837 Y68.78 Z0 F1600
G1 X94.345 Y68.886 Z0 F1600
G1 X93.84 Y68.94 Z0 F1600
G1 X93.338 Z0 F1600
G1 X92.841 Y68.882 Z0 F1600
G1 X92.458 Y68.793 Z0 F1600
G1 X92.331 Y68.708 Z0 F1600
G1 X91.986 Y68.526 Z0 F1600
G1 X91.594 Y68.381 Z0 F1600
G1 X91.169 Y68.312 Z0 F1600
G1 X91.057 Y68.318 Z0 F1600
G1 X91.049 Y68.278 Z0 F1600
G1 X90.913 Y67.903 Z0 F1600
G1 X90.692 Y67.537 Z0 F1600
G1 X90.354 Y67.209 Z0 F1600
G1 X90.076 Y67.076 Z0 F1600
G1 X89.898 Y66.449 Z0 F1600
G1 X89.755 Y66.392 Z0 F1600
G1 X89.807 Y66.213 Z0 F1600
G1 X89.851 Y65.86 Z0 F1600
G1 X89.819 Y64.813 Z0 F1600
G1 X89.875 Y63.949 Z0 F1600
G1 X89.996 Y63.476 Z0 F1600
G1 X90.187 Y62.976 Z0 F1600
G1 X90.436 Y62.501 Z0 F1600
G1 X90.752 Y62.043 Z0 F1600
G1 X91.116 Y61.606 Z0 F1600
G1 X91.503 Y61.167 Z0 F1600
G1 X91.915 Y60.764 Z0 F1600
G1 X92.431 Y60.376 Z0 F1600
G1 X92.941 Y59.898 Z0 F1600
G1 X93.442 Y59.529 Z0 F1600
G1 X94.011 Y59.15 Z0 F1600
G1 X94.541 Y58.775 Z0 F1600
G1 X95.463 Y58.278 Z0 F1600
G1 X96.401 Y57.761 Z0 F1600
G1 X98.085 Y56.981 Z0 F1600
G1 X99.804 Y56.283 Z0 F1600
G1 X100.647 Y55.989 Z0 F1600
G1 X101.516 Y55.726 Z0 F1600
G1 X102.389 Y55.505 Z0 F1600
G1 X103.3 Y55.325 Z0 F1600
G1 X104.204 Y55.16 Z0 F1600
G1 X105.101 Y55.035 Z0 F1600
G1 X106.005 Y54.945 Z0 F1600
G1 X106.941 Y54.888 Z0 F1600
G1 X107.455 Y54.856 Z0 F1600
G1 X107.958 Y54.847 Z0 F1600
G1 X108.469 Y54.85 Z0 F1600
G1 X108.982 Y54.855 Z0 F1600
G1 X109.897 Y54.899 Z0 F1600
G1 X110.788 Y54.987 Z0 F1600
G1 X111.672 Y55.111 Z0 F1600
G1 X112.594 Y55.268 Z0 F1600
G1 X113.477 Y55.413 Z0 F1600
G1 X114.31 Y55.611 Z0 F1600
G1 X115.144 Y55.858 Z0 F1600
G1 X116.561 Y56.336 Z0 F1600
G1 X117.158 Y56.562 Z0 F1600
G1 X117.696 Y56.792 Z0 F1600
G1 X118.246 Y57.064 Z0 F1600
G1 X118.755 Y57.273 Z0 F1600
G1 X119.245 Y57.521 Z0 F1600
G1 X119.777 Y57.814 Z0 F1600
G1 X120.288 Y58.099 Z0 F1600
G1 X120.879 Y58.464 Z0 F1600
G1 X121.514 Y58.85 Z0 F1600
G1 X121.813 Y59.04 Z0 F1600
G1 X122.07 Y59.216 Z0 F1600
G1 X122.297 Y59.388 Z0 F1600
G1 X122.52 Y59.583 Z0 F1600
G1 X123.053 Y60.001 Z0 F1600
G1 X123.581 Y60.454 Z0 F1600
G1 X124.055 Y60.925 Z0 F1600
G1 X124.478 Y61.451 Z0 F1600
G0 Z3.5 F1000
G0 X90.117 Y69.856 Z3.5 
G1 Z0 F1000
G1 X90.19 Y69.595 Z0 F1600
G1 X90.234 Y69.321 Z0 F1600
G1 X90.248 Y69.044 Z0 F1600
G1 X90.229 Y68.774 Z0 F1600
G1 X90.18 Y68.52 Z0 F1600
G1 X90.097 Y68.293 Z0 F1600
G1 X89.982 Y68.102 Z0 F1600
G1 X89.833 Y67.957 Z0 F1600
G1 X89.649 Y67.869 Z0 F1600
G1 X89.43 Y67.846 Z0 F1600
G1 X89.176 Y67.898 Z0 F1600
G1 X88.94 Y67.985 Z0 F1600
G1 X88.785 Y68.022 Z0 F1600
G1 X88.699 Y68.018 Z0 F1600
G1 X88.671 Y67.979 Z0 F1600
G1 X88.69 Y67.91 Z0 F1600
G1 X88.744 Y67.819 Z0 F1600
G1 X88.821 Y67.713 Z0 F1600
G1 X88.911 Y67.598 Z0 F1600
G1 X89.083 Y67.367 Z0 F1600
G1 X89.17 Y67.181 Z0 F1600
G1 X89.153 Y67.121 Z0 F1600
G1 X89.081 Y67.092 Z0 F1600
G1 X88.942 Y67.101 Z0 F1600
G1 X88.725 Y67.153 Z0 F1600
G1 X88.379 Y67.092 Z0 F1600
G1 X88.098 Y67.059 Z0 F1600
G1 X87.875 Y67.053 Z0 F1600
G1 X87.705 Y67.072 Z0 F1600
G1 X87.581 Y67.116 Z0 F1600
G1 X87.498 Y67.183 Z0 F1600
G1 X87.45 Y67.272 Z0 F1600
G1 X87.431 Y67.382 Z0 F1600
G1 X87.457 Y67.659 Z0 F1600
G1 X87.526 Y68.006 Z0 F1600
G1 X87.595 Y68.412 Z0 F1600
G1 X87.613 Y68.868 Z0 F1600
G1 X88.096 Y69.225 Z0 F1600
G1 X88.566 Y69.621 Z0 F1600
G1 X88.785 Y69.84 Z0 F1600
G1 X88.986 Y70.079 Z0 F1600
G1 X89.167 Y70.339 Z0 F1600
G1 X89.321 Y70.625 Z0 F1600
G1 X89.535 Y70.576 Z0 F1600
G1 X89.722 Y70.464 Z0 F1600
G1 X89.882 Y70.301 Z0 F1600
G1 X90.014 Y70.095 Z0 F1600
G1 X90.117 Y69.856 Z0 F1600
G0 Z3.5 F1000
G0 X126.374 Y66.914 Z3.5 
G1 Z0 F1000
G1 X126.672 Y67.086 Z0 F1600
G1 X126.899 Y67.315 Z0 F1600
G1 X127.046 Y67.563 Z0 F1600
G1 X127.106 Y67.793 Z0 F1600
G1 X127.1 Y67.89 Z0 F1600
G1 X127.069 Y67.967 Z0 F1600
G1 X127.011 Y68.021 Z0 F1600
G1 X126.926 Y68.046 Z0 F1600
G1 X126.813 Y68.038 Z0 F1600
G1 X126.67 Y67.993 Z0 F1600
G1 X126.496 Y67.905 Z0 F1600
G1 X126.291 Y67.77 Z0 F1600
G1 X126.068 Y67.688 Z0 F1600
G1 X125.922 Y67.651 Z0 F1600
G1 X125.841 Z0 F1600
G1 X125.818 Y67.69 Z0 F1600
G1 X125.841 Y67.756 Z0 F1600
G1 X125.9 Y67.847 Z0 F1600
G1 X125.988 Y67.958 Z0 F1600
G1 X126.092 Y68.083 Z0 F1600
G1 X126.314 Y68.36 Z0 F1600
G1 X126.489 Y68.637 Z0 F1600
G1 X126.534 Y68.765 Z0 F1600
G1 X126.537 Y68.877 Z0 F1600
G1 X126.49 Y68.971 Z0 F1600
G1 X126.382 Y69.041 Z0 F1600
G1 X126.127 Y68.801 Z0 F1600
G1 X125.868 Y68.59 Z0 F1600
G1 X125.62 Y68.432 Z0 F1600
G1 X125.401 Y68.353 Z0 F1600
G1 X125.307 Z0 F1600
G1 X125.227 Y68.377 Z0 F1600
G1 X125.161 Y68.437 Z0 F1600
G1 X125.113 Y68.532 Z0 F1600
G1 X125.084 Y68.665 Z0 F1600
G1 X125.078 Y68.841 Z0 F1600
G1 X125.094 Y69.061 Z0 F1600
G1 X125.136 Y69.33 Z0 F1600
G1 X125.067 Y69.667 Z0 F1600
G1 X125.04 Y69.947 Z0 F1600
G1 X125.05 Y70.171 Z0 F1600
G1 X125.096 Y70.345 Z0 F1600
G1 X125.173 Y70.473 Z0 F1600
G1 X125.279 Y70.557 Z0 F1600
G1 X125.41 Y70.603 Z0 F1600
G1 X125.562 Y70.613 Z0 F1600
G1 X125.732 Y70.593 Z0 F1600
G1 X125.917 Y70.546 Z0 F1600
G1 X126.114 Y70.476 Z0 F1600
G1 X126.319 Y70.386 Z0 F1600
G1 X126.741 Y70.165 Z0 F1600
G1 X127.156 Y69.914 Z0 F1600
G1 X127.449 Y69.55 Z0 F1600
G1 X127.757 Y69.11 Z0 F1600
G1 X128.03 Y68.634 Z0 F1600
G1 X128.219 Y68.157 Z0 F1600
G1 X128.267 Y67.931 Z0 F1600
G1 X128.276 Y67.719 Z0 F1600
G1 X128.239 Y67.526 Z0 F1600
G1 X128.15 Y67.356 Z0 F1600
G1 X128.004 Y67.215 Z0 F1600
G1 X127.793 Y67.106 Z0 F1600
G1 X127.513 Y67.036 Z0 F1600
G1 X127.157 Y67.008 Z0 F1600
G1 X126.962 Y66.973 Z0 F1600
G1 X126.767 Y66.932 Z0 F1600
G1 X126.571 Y66.905 Z0 F1600
G1 X126.374 Y66.914 Z0 F1600
G0 Z3.5 F1000
G0 X125.007 Y70.386 Z3.5 
G1 Z0 F1000
G1 X125.001 Y70.444 Z0 F1600
G1 X125.011 Y70.495 Z0 F1600
G1 X125.031 Y70.474 Z0 F1600
G1 X125.04 Y70.419 Z0 F1600
G1 X125.027 Y70.38 Z0 F1600
G1 X125.007 Y70.386 Z0 F1600
G0 Z3.5 F1000
G0 X124.511 Y70.591 Z3.5 
G1 Z0 F1000
G1 X124.457 Y70.163 Z0 F1600
G1 X124.413 Y69.743 Z0 F1600
G1 X124.383 Y69.552 Z0 F1600
G1 X124.341 Y69.381 Z0 F1600
G1 X124.284 Y69.236 Z0 F1600
G1 X124.207 Y69.125 Z0 F1600
G1 X123.748 Y69.361 Z0 F1600
G1 X123.267 Y69.534 Z0 F1600
G1 X122.77 Y69.644 Z0 F1600
G1 X122.264 Y69.689 Z0 F1600
G1 X121.756 Y69.671 Z0 F1600
G1 X121.254 Y69.588 Z0 F1600
G1 X120.764 Y69.44 Z0 F1600
G1 X120.293 Y69.227 Z0 F1600
G1 X119.705 Y68.946 Z0 F1600
G1 X119.145 Y68.607 Z0 F1600
G1 X118.592 Y68.248 Z0 F1600
G1 X118.021 Y67.905 Z0 F1600
G1 X117.341 Y67.419 Z0 F1600
G1 X116.655 Y66.964 Z0 F1600
G1 X115.947 Y66.549 Z0 F1600
G1 X115.205 Y66.183 Z0 F1600
G1 X114.639 Y65.899 Z0 F1600
G1 X114.055 Y65.647 Z0 F1600
G1 X113.447 Y65.424 Z0 F1600
G1 X112.809 Y65.228 Z0 F1600
G1 X111.863 Y64.98 Z0 F1600
G1 X111.409 Y64.876 Z0 F1600
G1 X110.887 Y64.78 Z0 F1600
G1 X109.812 Y64.688 Z0 F1600
G1 X108.745 Y64.622 Z0 F1600
G1 X107.681 Y64.612 Z0 F1600
G1 X106.618 Y64.693 Z0 F1600
G1 X106.035 Y64.741 Z0 F1600
G1 X105.491 Y64.833 Z0 F1600
G1 X104.978 Y64.943 Z0 F1600
G1 X104.487 Y65.043 Z0 F1600
G1 X103.595 Y65.303 Z0 F1600
G1 X102.726 Y65.589 Z0 F1600
G1 X101.879 Y65.921 Z0 F1600
G1 X101.053 Y66.317 Z0 F1600
G1 X100.368 Y66.635 Z0 F1600
G1 X99.656 Y67.035 Z0 F1600
G1 X98.705 Y67.605 Z0 F1600
G1 X98.456 Y67.746 Z0 F1600
G1 X98.356 Y67.827 Z0 F1600
G1 X98.199 Y67.942 Z0 F1600
G1 X97.996 Y68.083 Z0 F1600
G1 X97.759 Y68.244 Z0 F1600
G1 X97.231 Y68.587 Z0 F1600
G1 X96.709 Y68.908 Z0 F1600
G1 X96.191 Y69.213 Z0 F1600
G1 X95.645 Y69.46 Z0 F1600
G1 X95.074 Y69.649 Z0 F1600
G1 X94.487 Y69.776 Z0 F1600
G1 X93.889 Y69.84 Z0 F1600
G1 X93.287 Z0 F1600
G1 X92.686 Y69.771 Z0 F1600
G1 X92.093 Y69.632 Z0 F1600
G1 X91.869 Y69.481 Z0 F1600
G1 X91.619 Y69.35 Z0 F1600
G1 X91.363 Y69.255 Z0 F1600
G1 X91.122 Y69.216 Z0 F1600
G1 X91.012 Y69.222 Z0 F1600
G1 X90.913 Y69.25 Z0 F1600
G1 X90.827 Y69.3 Z0 F1600
G1 X90.756 Y69.375 Z0 F1600
G1 X90.704 Y69.478 Z0 F1600
G1 X90.672 Y69.61 Z0 F1600
G1 X90.662 Y69.775 Z0 F1600
G1 X90.678 Y69.974 Z0 F1600
G1 X90.665 Y70.315 Z0 F1600
G1 X90.585 Y70.621 Z0 F1600
G1 X90.444 Y70.881 Z0 F1600
G1 X90.246 Y71.084 Z0 F1600
G1 X89.998 Y71.222 Z0 F1600
G1 X89.704 Y71.283 Z0 F1600
G1 X89.541 Z0 F1600
G1 X89.368 Y71.256 Z0 F1600
G1 X89.187 Y71.208 Z0 F1600
G1 X88.998 Y71.133 Z0 F1600
G1 X88.754 Y71.03 Z0 F1600
G1 X88.584 Y70.866 Z0 F1600
G1 X88.464 Y70.663 Z0 F1600
G1 X88.269 Y70.216 Z0 F1600
G1 X88.144 Y70.014 Z0 F1600
G1 X87.967 Y69.853 Z0 F1600
G1 X87.712 Y69.752 Z0 F1600
G1 X87.537 Y69.708 Z0 F1600
G1 X87.392 Y69.646 Z0 F1600
G1 X87.275 Y69.568 Z0 F1600
G1 X87.181 Y69.476 Z0 F1600
G1 X87.054 Y69.256 Z0 F1600
G1 X86.986 Y69.002 Z0 F1600
G1 X86.93 Y68.443 Z0 F1600
G1 X86.813 Y67.912 Z0 F1600
G1 X86.712 Y67.781 Z0 F1600
G1 X86.643 Y67.648 Z0 F1600
G1 X86.602 Y67.515 Z0 F1600
G1 X86.587 Y67.382 Z0 F1600
G1 X86.629 Y67.124 Z0 F1600
G1 X86.748 Y66.886 Z0 F1600
G1 X86.926 Y66.678 Z0 F1600
G1 X87.143 Y66.513 Z0 F1600
G1 X87.38 Y66.399 Z0 F1600
G1 X87.62 Y66.35 Z0 F1600
G1 X87.972 Y66.472 Z0 F1600
G1 X88.257 Y66.529 Z0 F1600
G1 X88.483 Y66.525 Z0 F1600
G1 X88.657 Y66.467 Z0 F1600
G1 X88.783 Y66.361 Z0 F1600
G1 X88.87 Y66.213 Z0 F1600
G1 X88.923 Y66.031 Z0 F1600
G1 X88.949 Y65.818 Z0 F1600
G1 X88.918 Y64.8 Z0 F1600
G1 X88.982 Y63.808 Z0 F1600
G1 X89.137 Y63.202 Z0 F1600
G1 X89.365 Y62.605 Z0 F1600
G1 X89.665 Y62.033 Z0 F1600
G1 X90.034 Y61.499 Z0 F1600
G1 X90.424 Y61.031 Z0 F1600
G1 X90.853 Y60.543 Z0 F1600
G1 X91.327 Y60.08 Z0 F1600
G1 X91.852 Y59.686 Z0 F1600
G1 X92.366 Y59.204 Z0 F1600
G1 X92.926 Y58.792 Z0 F1600
G1 X93.501 Y58.408 Z0 F1600
G1 X94.064 Y58.01 Z0 F1600
G1 X95.032 Y57.488 Z0 F1600
G1 X95.999 Y56.956 Z0 F1600
G1 X97.725 Y56.156 Z0 F1600
G1 X99.479 Y55.443 Z0 F1600
G1 X100.371 Y55.132 Z0 F1600
G1 X101.275 Y54.858 Z0 F1600
G1 X102.192 Y54.627 Z0 F1600
G1 X103.125 Y54.442 Z0 F1600
G1 X104.058 Y54.272 Z0 F1600
G1 X104.996 Y54.141 Z0 F1600
G1 X105.939 Y54.047 Z0 F1600
G1 X106.886 Y53.99 Z0 F1600
G1 X107.416 Y53.957 Z0 F1600
G1 X107.947 Y53.947 Z0 F1600
G1 X108.478 Y53.95 Z0 F1600
G1 X109.009 Y53.956 Z0 F1600
G1 X109.959 Y54.001 Z0 F1600
G1 X110.894 Y54.093 Z0 F1600
G1 X111.818 Y54.223 Z0 F1600
G1 X112.742 Y54.38 Z0 F1600
G1 X113.653 Y54.53 Z0 F1600
G1 X114.542 Y54.741 Z0 F1600
G1 X115.411 Y54.999 Z0 F1600
G1 X116.878 Y55.494 Z0 F1600
G1 X117.487 Y55.724 Z0 F1600
G1 X118.073 Y55.975 Z0 F1600
G1 X118.617 Y56.244 Z0 F1600
G1 X119.125 Y56.452 Z0 F1600
G1 X119.667 Y56.726 Z0 F1600
G1 X120.215 Y57.028 Z0 F1600
G1 X120.746 Y57.324 Z0 F1600
G1 X121.35 Y57.697 Z0 F1600
G1 X121.992 Y58.087 Z0 F1600
G1 X122.305 Y58.287 Z0 F1600
G1 X122.599 Y58.487 Z0 F1600
G1 X122.865 Y58.689 Z0 F1600
G1 X123.094 Y58.89 Z0 F1600
G1 X123.628 Y59.308 Z0 F1600
G1 X124.19 Y59.792 Z0 F1600
G1 X124.727 Y60.325 Z0 F1600
G1 X125.185 Y60.894 Z0 F1600
G1 X125.601 Y61.454 Z0 F1600
G1 X125.949 Y62.004 Z0 F1600
G1 X126.243 Y62.573 Z0 F1600
G1 X126.495 Y63.191 Z0 F1600
G1 X126.639 Y63.841 Z0 F1600
G1 X126.729 Y64.522 Z0 F1600
G1 X126.739 Y64.865 Z0 F1600
G1 X126.72 Y65.204 Z0 F1600
G1 X126.665 Y65.534 Z0 F1600
G1 X126.569 Y65.851 Z0 F1600
G1 X126.592 Y65.982 Z0 F1600
G1 X126.64 Y66.089 Z0 F1600
G1 X126.71 Y66.174 Z0 F1600
G1 X126.8 Y66.239 Z0 F1600
G1 X127.026 Y66.324 Z0 F1600
G1 X127.295 Y66.365 Z0 F1600
G1 X127.584 Y66.387 Z0 F1600
G1 X127.869 Y66.412 Z0 F1600
G1 X128.126 Y66.463 Z0 F1600
G1 X128.333 Y66.564 Z0 F1600
G1 X128.59 Y66.738 Z0 F1600
G1 X128.803 Y66.969 Z0 F1600
G1 X128.963 Y67.242 Z0 F1600
G1 X129.063 Y67.541 Z0 F1600
G1 X129.096 Y67.849 Z0 F1600
G1 X129.055 Y68.152 Z0 F1600
G1 X128.932 Y68.433 Z0 F1600
G1 X128.719 Y68.675 Z0 F1600
G1 X128.481 Y68.91 Z0 F1600
G1 X128.319 Y69.178 Z0 F1600
G1 X128.205 Y69.462 Z0 F1600
G1 X128.108 Y69.747 Z0 F1600
G1 X128.002 Y70.013 Z0 F1600
G1 X127.855 Y70.246 Z0 F1600
G1 X127.759 Y70.345 Z0 F1600
G1 X127.641 Y70.428 Z0 F1600
G1 X127.499 Y70.495 Z0 F1600
G1 X127.329 Y70.542 Z0 F1600
G1 X127.075 Y70.588 Z0 F1600
G1 X126.841 Y70.683 Z0 F1600
G1 X126.622 Y70.812 Z0 F1600
G1 X126.413 Y70.959 Z0 F1600
G1 X126.208 Y71.11 Z0 F1600
G1 X126.003 Y71.25 Z0 F1600
G1 X125.792 Y71.364 Z0 F1600
G1 X125.57 Y71.436 Z0 F1600
G1 X125.316 Y71.47 Z0 F1600
G1 X125.105 Y71.452 Z0 F1600
G1 X124.935 Y71.388 Z0 F1600
G1 X124.798 Y71.284 Z0 F1600
G1 X124.693 Y71.146 Z0 F1600
G1 X124.613 Y70.981 Z0 F1600
G1 X124.554 Y70.794 Z0 F1600
G1 X124.511 Y70.591 Z0 F1600
M9
M5
G1 Z10 F1000
G90
G1 Z10 F800
