;LightBurn 1.6.04
;Custom GCode device profile, absolute coords
;Bounds: X14 Y48.34 to X56 Y59.66
G00 G17 G40 G21 G54
G90
M3
G1 Z10 F500
;Cut @ 1200 mm/min, 80% power

M8
G0 Z2.8
G0 X17.194Y49.081Z2.8
G0 Z0
;Layer Brown
G1 X16.811Y49.18Z0S800F1200
G1 X16.443Y49.314Z0
G1 X16.093Y49.483Z0
G1 X15.764Y49.683Z0
G1 X15.456Y49.913Z0
G1 X15.172Y50.172Z0
G1 X14.913Y50.456Z0
G1 X14.683Y50.764Z0
G1 X14.483Y51.093Z0
G1 X14.314Y51.443Z0
G1 X14.18Y51.811Z0
G1 X14.081Y52.194Z0
G1 X14.021Y52.591Z0
G1 X14Y53Z0
G1 X14.021Y53.409Z0
G1 X14.081Y53.806Z0
G1 X14.18Y54.189Z0
G1 X14.314Y54.557Z0
G1 X14.483Y54.907Z0
G1 X14.683Y55.236Z0
G1 X14.913Y55.544Z0
G1 X15.172Y55.828Z0
G1 X15.456Y56.087Z0
G1 X15.764Y56.317Z0
G1 X16.093Y56.517Z0
G1 X16.443Y56.686Z0
G1 X16.811Y56.82Z0
G1 X17.194Y56.919Z0
G1 X17.591Y56.979Z0
G1 X18Y57Z0
G1 X18.409Y56.979Z0
G1 X18.806Y56.919Z0
G1 X19.189Y56.82Z0
G1 X19.557Y56.686Z0
G1 X19.907Y56.517Z0
G1 X20.236Y56.317Z0
G1 X20.544Y56.087Z0
G1 X20.828Y55.828Z0
G1 X21.087Y55.544Z0
G1 X21.317Y55.236Z0
G1 X21.517Y54.907Z0
G1 X21.686Y54.557Z0
G1 X21.82Y54.189Z0
G1 X21.919Y53.806Z0
G1 X21.979Y53.409Z0
G1 X22Y53Z0
G1 X21.979Y52.591Z0
G1 X21.919Y52.194Z0
G1 X21.82Y51.811Z0
G1 X21.686Y51.443Z0
G1 X21.517Y51.093Z0
G1 X21.317Y50.764Z0
G1 X21.087Y50.456Z0
G1 X20.828Y50.172Z0
G1 X20.544Y49.913Z0
G1 X20.236Y49.683Z0
G1 X19.907Y49.483Z0
G1 X19.557Y49.314Z0
G1 X19.189Y49.18Z0
G1 X18.806Y49.081Z0
G1 X18.409Y49.021Z0
G1 X18Y49Z0
G1 X17.591Y49.021Z0
G1 X17.194Y49.081Z0
G0 Z2.8
G0 Z2.8
G0 Z0
G1 X16.811Y49.18Z0
G1 X16.443Y49.314Z0
G1 X16.093Y49.483Z0
G1 X15.764Y49.683Z0
G1 X15.456Y49.913Z0
G1 X15.172Y50.172Z0
G1 X14.913Y50.456Z0
G1 X14.683Y50.764Z0
G1 X14.483Y51.093Z0
G1 X14.314Y51.443Z0
G1 X14.18Y51.811Z0
G1 X14.081Y52.194Z0
G1 X14.021Y52.591Z0
G1 X14Y53Z0
G1 X14.021Y53.409Z0
G1 X14.081Y53.806Z0
G1 X14.18Y54.189Z0
G1 X14.314Y54.557Z0
G1 X14.483Y54.907Z0
G1 X14.683Y55.236Z0
G1 X14.913Y55.544Z0
G1 X15.172Y55.828Z0
G1 X15.456Y56.087Z0
G1 X15.764Y56.317Z0
G1 X16.093Y56.517Z0
G1 X16.443Y56.686Z0
G1 X16.811Y56.82Z0
G1 X17.194Y56.919Z0
G1 X17.591Y56.979Z0
G1 X18Y57Z0
G1 X18.409Y56.979Z0
G1 X18.806Y56.919Z0
G1 X19.189Y56.82Z0
G1 X19.557Y56.686Z0
G1 X19.907Y56.517Z0
G1 X20.236Y56.317Z0
G1 X20.544Y56.087Z0
G1 X20.828Y55.828Z0
G1 X21.087Y55.544Z0
G1 X21.317Y55.236Z0
G1 X21.517Y54.907Z0
G1 X21.686Y54.557Z0
G1 X21.82Y54.189Z0
G1 X21.919Y53.806Z0
G1 X21.979Y53.409Z0
G1 X22Y53Z0
G1 X21.979Y52.591Z0
G1 X21.919Y52.194Z0
G1 X21.82Y51.811Z0
G1 X21.686Y51.443Z0
G1 X21.517Y51.093Z0
G1 X21.317Y50.764Z0
G1 X21.087Y50.456Z0
G1 X20.828Y50.172Z0
G1 X20.544Y49.913Z0
G1 X20.236Y49.683Z0
G1 X19.907Y49.483Z0
G1 X19.557Y49.314Z0
G1 X19.189Y49.18Z0
G1 X18.806Y49.081Z0
G1 X18.409Y49.021Z0
G1 X18Y49Z0
G1 X17.591Y49.021Z0
G1 X17.194Y49.081Z0
G0 Z2.8
G0 X24.343Y54Z2.8
G0 Z0
G1 X31Y59.657Z0
G1 X35.657Y53Z0
G1 X29Y48.343Z0
G1 X24.343Y55Z0
G0 Z2.8
G0 X37.021Y53.409Z2.8
G0 Z0
G1 X37.081Y53.806Z0
G1 X37.18Y54.189Z0
G1 X37.314Y54.557Z0
G1 X37.483Y54.907Z0
G1 X37.683Y55.236Z0
G1 X37.913Y55.544Z0
G1 X38.172Y55.828Z0
G1 X38.456Y56.087Z0
G1 X38.764Y56.317Z0
G1 X39.093Y56.517Z0
G1 X39.443Y56.686Z0
G1 X39.811Y56.82Z0
G1 X40.194Y56.919Z0
G1 X40.591Y56.979Z0
G1 X41Y57Z0
G1 X41.409Y56.979Z0
G1 X41.806Y56.919Z0
G1 X42.189Y56.82Z0
G1 X42.557Y56.686Z0
G1 X42.907Y56.517Z0
G1 X43.236Y56.317Z0
G1 X43.544Y56.087Z0
G1 X43.828Y55.828Z0
G1 X44.087Y55.544Z0
G1 X44.317Y55.236Z0
G1 X44.517Y54.907Z0
G1 X44.686Y54.557Z0
G1 X44.82Y54.189Z0
G1 X44.919Y53.806Z0
G1 X44.979Y53.409Z0
G1 X45Y53Z0
G1 X44.979Y52.591Z0
G1 X44.919Y52.194Z0
G1 X44.82Y51.811Z0
G1 X44.686Y51.443Z0
G1 X44.517Y51.093Z0
G1 X44.317Y50.764Z0
G1 X44.087Y50.456Z0
G1 X43.828Y50.172Z0
G1 X43.544Y49.913Z0
G1 X43.236Y49.683Z0
G1 X42.907Y49.483Z0
G1 X42.557Y49.314Z0
G1 X42.189Y49.18Z0
G1 X41.806Y49.081Z0
G1 X41.409Y49.021Z0
G1 X41Y49Z0
G1 X40.591Y49.021Z0
G1 X40.194Y49.081Z0
G1 X39.811Y49.18Z0
G1 X39.443Y49.314Z0
G1 X39.093Y49.483Z0
G1 X38.764Y49.683Z0
G1 X38.456Y49.913Z0
G1 X38.172Y50.172Z0
G1 X37.913Y50.456Z0
G1 X37.683Y50.764Z0
G1 X37.483Y51.093Z0
G1 X37.314Y51.443Z0
G1 X37.18Y51.811Z0
G1 X37.081Y52.194Z0
G1 X37.021Y52.591Z0
G1 X37Y53Z0
G1 X37.021Y53.409Z0
G0 Z2.8
G0 X48Y50Z2.8
G0 Z0
G1 Y58Z0
G1 X56Z0
G1 Y49Z0
G1 X47Z0
M9
M5
G1 Z10 F500
G90
G1 Z10 F500
