;LightBurn 1.6.04
;Custom GCode device profile, absolute coords
;Bounds: X4.17 Y27.02 to X146.36 Y129.72
G00 G17 G40 G21 G54
G90
M3
G1 Z10 F1000
;Cut @ 1500 mm/min, 90% power

M8
G0 Z3.5 F1000
G0 X21.362 Y27.050 Z3.500
G1 Z0 F1000
;Layer Blue
G1 X21.362 Y29.617 Z0.000 F1600
G0 Z3.5 F1000
G0 X47.028 Y29.617 Z3.500
G1 Z0 F1000
; --- FIX Y Backlash: -1.300mm ---
G0 X47.028 Y28.317 F1200
G1 X47.028 Y25.750 Z0.000 F1600
G0 Z3.5 F1000
; --- FIX Y Backlash: 1.300mm ---
G0 X47.028 Y27.050 F1200
G0 X52.689 Y31.010 Z3.500
G1 Z0 F1000
; --- FIX Y Backlash: -1.300mm ---
G0 X52.689 Y29.710 F1200
G1 X52.849 Y29.648 Z0.000 F1600
G1 X52.995 Y29.637 Z0.000 F1600
G1 X53.005 Y29.637 Z0.000 F1600
; --- FIX Y Backlash: 1.300mm ---
G0 X53.005 Y30.937 F1200
G1 X53.215 Y30.989 Z0.000 F1600
G1 X53.414 Y31.126 Z0.000 F1600
G1 X53.537 Y31.337 Z0.000 F1600
G1 X53.590 Y31.566 Z0.000 F1600
G1 X53.600 Y31.786 Z0.000 F1600
G1 X53.571 Y31.985 Z0.000 F1600
; --- FIX X Backlash: -1.300mm ---
G0 X52.271 Y31.985 F1200
G1 X52.197 Y32.162 Z0.000 F1600
G1 X52.091 Y32.298 Z0.000 F1600
G1 X51.944 Y32.424 Z0.000 F1600
G1 X51.788 Y32.478 Z0.000 F1600
G1 X51.642 Y32.488 Z0.000 F1600
G1 X51.472 Y32.458 Z0.000 F1600
; --- FIX Y Backlash: -1.300mm ---
G0 X51.472 Y31.158 F1200
G1 X51.316 Y31.061 Z0.000 F1600
G1 X51.179 Y30.905 Z0.000 F1600
G1 X51.106 Y30.759 Z0.000 F1600
G1 X51.044 Y30.539 Z0.000 F1600
G1 X51.044 Y30.369 Z0.000 F1600
G1 X51.065 Y30.173 Z0.000 F1600
; --- FIX X Backlash: 1.300mm ---
G0 X52.365 Y30.173 F1200
G1 X52.416 Y29.993 Z0.000 F1600
G1 X52.543 Y29.826 Z0.000 F1600
G1 X52.689 Y29.710 Z0.000 F1600
G0 Z3.5 F1000
; --- FIX Y Backlash: 1.300mm ---
G0 X52.689 Y31.010 F1200
G0 X54.346 Y31.189 Z3.500
G1 Z0 F1000
; --- FIX Y Backlash: -1.300mm ---
G0 X54.346 Y29.889 F1200
G1 X54.515 Y29.773 Z0.000 F1600
G1 X54.692 Y29.679 Z0.000 F1600
G1 X54.851 Y29.648 Z0.000 F1600
G1 X55.048 Y29.658 Z0.000 F1600
; --- FIX Y Backlash: 1.300mm ---
G0 X55.048 Y30.958 F1200
G1 X55.174 Y31.021 Z0.000 F1600
G1 X55.344 Y31.178 Z0.000 F1600
G1 X55.457 Y31.420 Z0.000 F1600
G1 X55.490 Y31.649 Z0.000 F1600
G1 X55.490 Y31.922 Z0.000 F1600
; --- FIX X Backlash: -1.300mm ---
G0 X54.190 Y31.922 F1200
G1 X54.117 Y32.162 Z0.000 F1600
G1 X53.971 Y32.371 Z0.000 F1600
G1 X53.801 Y32.468 Z0.000 F1600
G1 X53.581 Y32.468 Z0.000 F1600
G1 X53.402 Y32.434 Z0.000 F1600
; --- FIX Y Backlash: -1.300mm ---
G0 X53.402 Y31.134 F1200
G1 X53.192 Y31.021 Z0.000 F1600
G1 X53.016 Y30.842 Z0.000 F1600
; --- FIX Y Backlash: 1.300mm ---
G0 X53.016 Y32.142 F1200
G1 X53.016 Y32.478 Z0.000 F1600
; --- FIX Y Backlash: -1.300mm ---
G0 X53.016 Y31.178 F1200
G1 X53.016 Y28.925 Z0.000 F1600
G0 Z3.5 F1000
; --- FIX X Backlash: 1.300mm ---
G0 X54.316 Y28.925 F1200
; --- FIX Y Backlash: 1.300mm ---
G0 X54.316 Y30.225 F1200
G0 X56.086 Y31.756 Z3.500
G1 Z0 F1000
G1 X57.240 Y31.756 Z0.000 F1600
G1 X57.240 Y31.942 Z0.000 F1600
; --- FIX X Backlash: -1.300mm ---
G0 X55.940 Y31.942 F1200
G1 X55.887 Y32.185 Z0.000 F1600
G1 X55.730 Y32.371 Z0.000 F1600
G1 X55.571 Y32.478 Z0.000 F1600
G1 X55.351 Y32.488 Z0.000 F1600
; --- FIX Y Backlash: -1.300mm ---
G0 X55.351 Y31.188 F1200
G1 X55.132 Y31.124 Z0.000 F1600
G1 X54.942 Y30.968 Z0.000 F1600
G1 X54.869 Y30.812 Z0.000 F1600
G1 X54.786 Y30.612 Z0.000 F1600
G1 X54.765 Y30.403 Z0.000 F1600
; --- FIX X Backlash: 1.300mm ---
G0 X56.065 Y30.403 F1200
G1 X56.118 Y30.150 Z0.000 F1600
G1 X56.212 Y29.920 Z0.000 F1600
G1 X56.402 Y29.731 Z0.000 F1600
G1 X56.578 Y29.648 Z0.000 F1600
G1 X56.798 Y29.627 Z0.000 F1600
; --- FIX Y Backlash: 1.300mm ---
G0 X56.798 Y30.927 F1200
G1 X56.987 Y30.979 Z0.000 F1600
G1 X57.167 Y31.073 Z0.000 F1600
G0 Z3.5 F1000
; --- FIX Y Backlash: -1.300mm ---
G0 X57.167 Y29.773 F1200
G0 X57.889 Y29.627 Z3.500
G1 Z0 F1000
; --- FIX Y Backlash: 1.300mm ---
G0 X57.889 Y30.927 F1200
G1 X57.889 Y32.478 Z0.000 F1600
; --- FIX Y Backlash: -1.300mm ---
G0 X57.889 Y31.178 F1200
G1 X57.889 Y30.802 Z0.000 F1600
; --- FIX Y Backlash: 1.300mm ---
G0 X57.889 Y32.102 F1200
G1 X58.035 Y32.248 Z0.000 F1600
G1 X58.172 Y32.371 Z0.000 F1600
G1 X58.278 Y32.434 Z0.000 F1600
G1 X58.434 Y32.478 Z0.000 F1600
G1 X58.538 Y32.488 Z0.000 F1600
G1 X58.697 Y32.444 Z0.000 F1600
; --- FIX Y Backlash: -1.300mm ---
G0 X58.697 Y31.144 F1200
G1 X58.790 Y31.085 Z0.000 F1600
G1 X58.864 Y30.978 Z0.000 F1600
G1 X58.927 Y30.832 Z0.000 F1600
G1 X58.927 Y29.627 Z0.000 F1600
G0 Z3.5 F1000
; --- FIX Y Backlash: 1.300mm ---
G0 X58.927 Y30.927 F1200
G0 X59.755 Y32.185 Z3.500
G1 Z0 F1000
G1 X59.965 Y32.351 Z0.000 F1600
G1 X60.164 Y32.458 Z0.000 F1600
G1 X60.364 Y32.498 Z0.000 F1600
G1 X60.554 Y32.458 Z0.000 F1600
; --- FIX Y Backlash: -1.300mm ---
G0 X60.554 Y31.158 F1200
G1 X60.690 Y31.085 Z0.000 F1600
G1 X60.846 Y30.885 Z0.000 F1600
G1 X60.896 Y30.642 Z0.000 F1600
G1 X60.910 Y30.383 Z0.000 F1600
G1 X60.866 Y30.120 Z0.000 F1600
; --- FIX X Backlash: -1.300mm ---
G0 X59.566 Y30.120 F1200
G1 X59.463 Y29.910 Z0.000 F1600
G1 X59.327 Y29.763 Z0.000 F1600
G1 X59.104 Y29.637 Z0.000 F1600
G1 X58.918 Y29.648 Z0.000 F1600
; --- FIX Y Backlash: 1.300mm ---
G0 X58.918 Y30.948 F1200
G1 X58.728 Y31.000 Z0.000 F1600
G1 X58.552 Y31.115 Z0.000 F1600
G1 X58.435 Y31.210 Z0.000 F1600
; --- FIX Y Backlash: -1.300mm ---
G0 X58.435 Y29.910 F1200
G1 X58.435 Y29.627 Z0.000 F1600
; --- FIX Y Backlash: 1.300mm ---
G0 X58.435 Y30.927 F1200
G1 X58.435 Y33.263 Z0.000 F1600
G0 Z3.5 F1000
G0 X58.395 Y33.851 Z3.500
G1 Z0 F1000
; --- FIX X Backlash: 1.300mm ---
G0 X59.695 Y33.851 F1200
G1 X59.818 Y33.882 Z0.000 F1600
G1 X59.935 Y33.962 Z0.000 F1600
G1 X60.007 Y34.086 Z0.000 F1600
G1 X60.039 Y34.221 Z0.000 F1600
G1 X60.044 Y34.349 Z0.000 F1600
G1 X60.027 Y34.467 Z0.000 F1600
G1 X59.984 Y34.570 Z0.000 F1600
; --- FIX X Backlash: -1.300mm ---
G0 X58.684 Y34.570 F1200
G1 X58.621 Y34.650 Z0.000 F1600
G1 X58.535 Y34.724 Z0.000 F1600
G1 X58.444 Y34.756 Z0.000 F1600
G1 X58.358 Y34.762 Z0.000 F1600
G1 X58.258 Y34.744 Z0.000 F1600
; --- FIX Y Backlash: -1.300mm ---
G0 X58.258 Y33.444 F1200
G1 X58.166 Y33.387 Z0.000 F1600
G1 X58.086 Y33.296 Z0.000 F1600
G1 X58.043 Y33.210 Z0.000 F1600
G1 X58.007 Y33.081 Z0.000 F1600
G1 X58.007 Y32.981 Z0.000 F1600
G1 X58.019 Y32.866 Z0.000 F1600
G1 X58.049 Y32.760 Z0.000 F1600
; --- FIX X Backlash: 1.300mm ---
G0 X59.349 Y32.760 F1200
G1 X59.423 Y32.662 Z0.000 F1600
G1 X59.509 Y32.594 Z0.000 F1600
G1 X59.603 Y32.558 Z0.000 F1600
G1 X59.689 Y32.551 Z0.000 F1600
G1 X59.695 Y32.551 Z0.000 F1600
G0 Z3.5 F1000
G0 X60.476 Y32.551 Z3.500
G1 Z0 F1000
; --- FIX Y Backlash: 1.300mm ---
G0 X60.476 Y33.851 F1200
G1 X60.476 Y34.756 Z0.000 F1600
; --- FIX Y Backlash: -1.300mm ---
G0 X60.476 Y33.456 F1200
G1 X60.476 Y33.178 Z0.000 F1600
; --- FIX Y Backlash: 1.300mm ---
G0 X60.476 Y34.478 F1200
G1 X60.533 Y34.590 Z0.000 F1600
G1 X60.619 Y34.701 Z0.000 F1600
G1 X60.710 Y34.744 Z0.000 F1600
G1 X60.796 Y34.756 Z0.000 F1600
G1 X60.851 Y34.750 Z0.000 F1600
G0 Z3.5 F1000
; --- FIX Y Backlash: -1.300mm ---
G0 X60.851 Y33.450 F1200
G0 X61.128 Y32.545 Z3.500
G1 Z0 F1000
; --- FIX Y Backlash: 1.300mm ---
G0 X61.128 Y33.845 F1200
G1 X61.128 Y34.750 Z0.000 F1600
; --- FIX Y Backlash: -1.300mm ---
G0 X61.128 Y33.450 F1200
G1 X61.128 Y33.247 Z0.000 F1600
; --- FIX Y Backlash: 1.300mm ---
G0 X61.128 Y34.547 F1200
G1 X61.214 Y34.621 Z0.000 F1600
G1 X61.294 Y34.687 Z0.000 F1600
G1 X61.368 Y34.736 Z0.000 F1600
G1 X61.460 Y34.762 Z0.000 F1600
G1 X61.540 Y34.750 Z0.000 F1600
G1 X61.595 Y34.724 Z0.000 F1600
; --- FIX Y Backlash: -1.300mm ---
G0 X61.595 Y33.424 F1200
G1 X61.657 Y33.364 Z0.000 F1600
G1 X61.700 Y33.258 Z0.000 F1600
G1 X61.712 Y33.130 Z0.000 F1600
G1 X61.712 Y32.545 Z0.000 F1600
; --- FIX Y Backlash: 1.300mm ---
G0 X61.712 Y33.845 F1200
G1 X61.712 Y34.527 Z0.000 F1600
G1 X61.738 Y34.578 Z0.000 F1600
G1 X61.866 Y34.693 Z0.000 F1600
G1 X61.964 Y34.744 Z0.000 F1600
G1 X62.044 Y34.767 Z0.000 F1600
G1 X62.130 Y34.744 Z0.000 F1600
G1 X62.187 Y34.713 Z0.000 F1600
; --- FIX Y Backlash: -1.300mm ---
G0 X62.187 Y33.413 F1200
G1 X62.253 Y33.333 Z0.000 F1600
G1 X62.284 Y33.172 Z0.000 F1600
G1 X62.284 Y32.551 Z0.000 F1600
G0 Z3.5 F1000
; --- FIX Y Backlash: 1.300mm ---
G0 X62.284 Y33.851 F1200
G0 X62.747 Y34.650 Z3.500
G1 Z0 F1000
G1 X62.876 Y34.724 Z0.000 F1600
G1 X62.985 Y34.756 Z0.000 F1600
G1 X63.097 Y34.767 Z0.000 F1600
G1 X63.183 Y34.736 Z0.000 F1600
; --- FIX Y Backlash: -1.300mm ---
G0 X63.183 Y33.436 F1200
G1 X63.257 Y33.370 Z0.000 F1600
G1 X63.306 Y33.270 Z0.000 F1600
G1 X63.312 Y33.135 Z0.000 F1600
G1 X63.312 Y32.558 Z0.000 F1600
; --- FIX Y Backlash: 1.300mm ---
G0 X63.312 Y33.858 F1200
G1 X63.306 Y34.023 Z0.000 F1600
; --- FIX X Backlash: -1.300mm ---
G0 X62.006 Y34.023 F1200
; --- FIX Y Backlash: -1.300mm ---
G0 X62.006 Y32.723 F1200
G1 X61.926 Y32.668 Z0.000 F1600
G1 X61.840 Y32.607 Z0.000 F1600
G1 X61.742 Y32.564 Z0.000 F1600
G1 X61.631 Y32.545 Z0.000 F1600
G1 X61.539 Y32.576 Z0.000 F1600
G1 X61.465 Y32.625 Z0.000 F1600
; --- FIX Y Backlash: 1.300mm ---
G0 X61.465 Y33.925 F1200
G1 X61.409 Y34.005 Z0.000 F1600
G1 X61.409 Y34.123 Z0.000 F1600
G1 X61.453 Y34.215 Z0.000 F1600
; --- FIX X Backlash: 1.300mm ---
G0 X62.753 Y34.215 F1200
G1 X62.851 Y34.295 Z0.000 F1600
G1 X62.948 Y34.332 Z0.000 F1600
G1 X63.065 Y34.369 Z0.000 F1600
G1 X63.177 Y34.387 Z0.000 F1600
G1 X63.245 Y34.392 Z0.000 F1600
G1 X63.300 Y34.392 Z0.000 F1600
G0 Z3.5 F1000
G0 X63.806 Y35.008 Z3.500
G1 Z0 F1000
; --- FIX Y Backlash: -1.300mm ---
G0 X63.806 Y33.708 F1200
G1 X63.806 Y33.430 Z0.000 F1600
G1 X64.100 Y33.430 Z0.000 F1600
; --- FIX X Backlash: -1.300mm ---
G0 X62.800 Y33.430 F1200
G1 X62.326 Y33.430 Z0.000 F1600
; --- FIX X Backlash: 1.300mm ---
G0 X63.626 Y33.430 F1200
G1 X63.806 Y33.430 Z0.000 F1600
G1 X63.806 Y32.798 Z0.000 F1600
G1 X63.817 Y32.662 Z0.000 F1600
G1 X63.886 Y32.582 Z0.000 F1600
G1 X63.964 Y32.558 Z0.000 F1600
G1 X64.052 Y32.558 Z0.000 F1600
G1 X64.118 Y32.588 Z0.000 F1600
G0 Z3.5 F1000
G0 X64.432 Y32.545 Z3.500
G1 Z0 F1000
; --- FIX Y Backlash: 1.300mm ---
G0 X64.432 Y33.845 F1200
G1 X64.432 Y34.750 Z0.000 F1600
G0 Z3.5 F1000
G0 X64.475 Y35.027 Z3.500
G1 Z0 F1000
G1 X64.475 Y35.125 Z0.000 F1600
; --- FIX X Backlash: -1.300mm ---
G0 X63.175 Y35.125 F1200
G1 X63.077 Y35.125 Z0.000 F1600
; --- FIX Y Backlash: -1.300mm ---
G0 X63.077 Y33.825 F1200
G1 X63.077 Y33.727 Z0.000 F1600
; --- FIX X Backlash: 1.300mm ---
G0 X64.377 Y33.727 F1200
G1 X64.475 Y33.727 Z0.000 F1600
G0 Z3.5 F1000
G0 X65.016 Y33.387 Z3.500
G1 Z0 F1000
; --- FIX X Backlash: -1.300mm ---
G0 X63.716 Y33.387 F1200
G1 X63.636 Y33.296 Z0.000 F1600
G1 X63.593 Y33.210 Z0.000 F1600
G1 X63.557 Y33.081 Z0.000 F1600
G1 X63.557 Y32.981 Z0.000 F1600
G1 X63.569 Y32.866 Z0.000 F1600
G1 X63.599 Y32.760 Z0.000 F1600
; --- FIX X Backlash: 1.300mm ---
G0 X64.899 Y32.760 F1200
G1 X64.973 Y32.662 Z0.000 F1600
G1 X65.059 Y32.594 Z0.000 F1600
G1 X65.153 Y32.558 Z0.000 F1600
G1 X65.239 Y32.551 Z0.000 F1600
G1 X65.245 Y32.551 Z0.000 F1600
G1 X65.368 Y32.582 Z0.000 F1600
; --- FIX Y Backlash: 1.300mm ---
G0 X65.368 Y33.882 F1200
G1 X65.485 Y33.962 Z0.000 F1600
G1 X65.557 Y34.086 Z0.000 F1600
G1 X65.588 Y34.221 Z0.000 F1600
G1 X65.594 Y34.349 Z0.000 F1600
G1 X65.577 Y34.467 Z0.000 F1600
G1 X65.534 Y34.570 Z0.000 F1600
; --- FIX X Backlash: -1.300mm ---
G0 X64.234 Y34.570 F1200
G1 X64.171 Y34.650 Z0.000 F1600
G1 X64.085 Y34.724 Z0.000 F1600
G1 X63.994 Y34.756 Z0.000 F1600
G1 X63.908 Y34.762 Z0.000 F1600
G1 X63.808 Y34.744 Z0.000 F1600
; --- FIX Y Backlash: -1.300mm ---
G0 X63.808 Y33.444 F1200
G1 X63.716 Y33.387 Z0.000 F1600
G0 Z3.5 F1000
; --- FIX X Backlash: 1.300mm ---
G0 X65.016 Y33.387 F1200
G0 X66.020 Y32.545 Z3.500
G1 Z0 F1000
; --- FIX Y Backlash: 1.300mm ---
G0 X66.020 Y33.845 F1200
G1 X66.020 Y34.756 Z0.000 F1600
; --- FIX Y Backlash: -1.300mm ---
G0 X66.020 Y33.456 F1200
G1 X66.020 Y33.235 Z0.000 F1600
; --- FIX Y Backlash: 1.300mm ---
G0 X66.020 Y34.535 F1200
G1 X66.106 Y34.621 Z0.000 F1600
G1 X66.186 Y34.693 Z0.000 F1600
G1 X66.249 Y34.730 Z0.000 F1600
G1 X66.340 Y34.756 Z0.000 F1600
G1 X66.401 Y34.762 Z0.000 F1600
G1 X66.495 Y34.736 Z0.000 F1600
G1 X66.549 Y34.701 Z0.000 F1600
; --- FIX Y Backlash: -1.300mm ---
G0 X66.549 Y33.401 F1200
G1 X66.592 Y33.338 Z0.000 F1600
G1 X66.629 Y33.253 Z0.000 F1600
G1 X66.629 Y32.545 Z0.000 F1600
G0 Z3.5 F1000
G0 X68.175 Y31.158 Z3.500
G1 Z0 F1000
; --- FIX X Backlash: -1.300mm ---
G0 X66.875 Y31.158 F1200
G1 X66.719 Y31.061 Z0.000 F1600
G1 X66.583 Y30.905 Z0.000 F1600
G1 X66.509 Y30.759 Z0.000 F1600
G1 X66.448 Y30.539 Z0.000 F1600
G1 X66.448 Y30.369 Z0.000 F1600
G1 X66.468 Y30.173 Z0.000 F1600
; --- FIX X Backlash: 1.300mm ---
G0 X67.768 Y30.173 F1200
G1 X67.819 Y29.993 Z0.000 F1600
G1 X67.946 Y29.826 Z0.000 F1600
G1 X68.092 Y29.710 Z0.000 F1600
G1 X68.252 Y29.648 Z0.000 F1600
G1 X68.398 Y29.637 Z0.000 F1600
G1 X68.408 Y29.637 Z0.000 F1600
; --- FIX Y Backlash: 1.300mm ---
G0 X68.408 Y30.937 F1200
G1 X68.618 Y30.989 Z0.000 F1600
G1 X68.818 Y31.126 Z0.000 F1600
G1 X68.941 Y31.337 Z0.000 F1600
G1 X68.994 Y31.566 Z0.000 F1600
G1 X69.004 Y31.786 Z0.000 F1600
G1 X68.974 Y31.985 Z0.000 F1600
; --- FIX X Backlash: -1.300mm ---
G0 X67.674 Y31.985 F1200
G1 X67.601 Y32.162 Z0.000 F1600
G1 X67.494 Y32.298 Z0.000 F1600
G1 X67.348 Y32.424 Z0.000 F1600
G1 X67.192 Y32.478 Z0.000 F1600
G1 X67.045 Y32.488 Z0.000 F1600
G1 X66.875 Y32.458 Z0.000 F1600
G0 Z3.5 F1000
; --- FIX X Backlash: 1.300mm ---
G0 X68.175 Y32.458 F1200
; --- FIX Y Backlash: -1.300mm ---
G0 X68.175 Y31.158 F1200
G0 X69.895 Y30.266 Z3.500
G1 Z0 F1000
; --- FIX X Backlash: -1.300mm ---
G0 X68.595 Y30.266 F1200
; --- FIX Y Backlash: 1.300mm ---
G0 X68.595 Y31.566 F1200
G1 X68.502 Y31.649 Z0.000 F1600
G1 X68.419 Y31.756 Z0.000 F1600
G1 X68.376 Y31.922 Z0.000 F1600
G1 X68.386 Y32.132 Z0.000 F1600
; --- FIX X Backlash: 1.300mm ---
G0 X69.686 Y32.132 F1200
G1 X69.782 Y32.321 Z0.000 F1600
G1 X69.949 Y32.458 Z0.000 F1600
G1 X70.192 Y32.478 Z0.000 F1600
G1 X70.348 Y32.444 Z0.000 F1600
G1 X70.850 Y32.444 Z0.000 F1600
; --- FIX X Backlash: -1.300mm ---
G0 X69.550 Y32.444 F1200
G1 X69.048 Y32.444 Z0.000 F1600
; --- FIX X Backlash: 1.300mm ---
G0 X70.348 Y32.444 F1200
; --- FIX Y Backlash: -1.300mm ---
G0 X70.348 Y31.144 F1200
G1 X70.494 Y31.051 Z0.000 F1600
G1 X70.557 Y30.968 Z0.000 F1600
G1 X70.641 Y30.778 Z0.000 F1600
G1 X70.641 Y30.569 Z0.000 F1600
; --- FIX X Backlash: -1.300mm ---
G0 X69.341 Y30.569 F1200
G1 X69.267 Y30.393 Z0.000 F1600
G1 X69.111 Y30.246 Z0.000 F1600
G1 X68.892 Y30.173 Z0.000 F1600
G1 X68.712 Y30.203 Z0.000 F1600
; --- FIX Y Backlash: 1.300mm ---
G0 X68.712 Y31.503 F1200
G1 X68.595 Y31.576 Z0.000 F1600
; --- FIX Y Backlash: -1.300mm ---
G0 X68.595 Y30.276 F1200
G1 X68.419 Y30.077 Z0.000 F1600
G1 X68.386 Y29.940 Z0.000 F1600
; --- FIX X Backlash: 1.300mm ---
G0 X69.686 Y29.940 F1200
G1 X69.749 Y29.794 Z0.000 F1600
G1 X69.885 Y29.700 Z0.000 F1600
G1 X70.524 Y29.700 Z0.000 F1600
G1 X70.757 Y29.637 Z0.000 F1600
G1 X70.850 Y29.469 Z0.000 F1600
G1 X70.860 Y29.291 Z0.000 F1600
; --- FIX X Backlash: -1.300mm ---
G0 X69.560 Y29.291 F1200
G1 X69.467 Y29.135 Z0.000 F1600
G1 X69.214 Y28.965 Z0.000 F1600
G1 X68.965 Y28.902 Z0.000 F1600
G1 X68.682 Y28.935 Z0.000 F1600
; --- FIX Y Backlash: 1.300mm ---
G0 X68.682 Y30.235 F1200
G1 X68.439 Y30.339 Z0.000 F1600
G1 X68.293 Y30.498 Z0.000 F1600
G1 X68.314 Y30.686 Z0.000 F1600
; --- FIX X Backlash: 1.300mm ---
G0 X69.614 Y30.686 F1200
G1 X69.719 Y30.864 Z0.000 F1600
G1 X69.875 Y31.010 Z0.000 F1600
G0 Z3.5 F1000
; --- FIX Y Backlash: -1.300mm ---
G0 X69.875 Y29.710 F1200
G0 X71.436 Y29.637 Z3.500
G1 Z0 F1000
; --- FIX Y Backlash: 1.300mm ---
G0 X71.436 Y30.937 F1200
G1 X71.436 Y32.478 Z0.000 F1600
; --- FIX Y Backlash: -1.300mm ---
G0 X71.436 Y31.178 F1200
G1 X71.436 Y30.705 Z0.000 F1600
; --- FIX Y Backlash: 1.300mm ---
G0 X71.436 Y32.005 F1200
G1 X71.532 Y32.195 Z0.000 F1600
G1 X71.679 Y32.385 Z0.000 F1600
G1 X71.835 Y32.458 Z0.000 F1600
G1 X71.981 Y32.478 Z0.000 F1600
G1 X72.075 Y32.468 Z0.000 F1600
G0 Z3.5 F1000
; --- FIX Y Backlash: -1.300mm ---
G0 X72.075 Y31.168 F1200
G0 X72.527 Y30.998 Z3.500
G1 Z0 F1000
; --- FIX Y Backlash: 1.300mm ---
G0 X72.527 Y32.298 F1200
G1 X72.747 Y32.424 Z0.000 F1600
G1 X72.933 Y32.478 Z0.000 F1600
G1 X73.122 Y32.498 Z0.000 F1600
; --- FIX Y Backlash: -1.300mm ---
G0 X73.122 Y31.198 F1200
G1 X73.269 Y31.144 Z0.000 F1600
G1 X73.395 Y31.031 Z0.000 F1600
G1 X73.478 Y30.862 Z0.000 F1600
G1 X73.488 Y30.632 Z0.000 F1600
G1 X73.488 Y29.648 Z0.000 F1600
; --- FIX Y Backlash: 1.300mm ---
G0 X73.488 Y30.948 F1200
G1 X73.478 Y31.230 Z0.000 F1600
; --- FIX X Backlash: -1.300mm ---
G0 X72.178 Y31.230 F1200
; --- FIX Y Backlash: -1.300mm ---
G0 X72.178 Y29.930 F1200
G1 X72.042 Y29.836 Z0.000 F1600
G1 X71.896 Y29.731 Z0.000 F1600
G1 X71.729 Y29.658 Z0.000 F1600
G1 X71.540 Y29.627 Z0.000 F1600
; --- FIX Y Backlash: 1.300mm ---
G0 X71.540 Y30.927 F1200
G1 X71.383 Y30.979 Z0.000 F1600
G1 X71.257 Y31.063 Z0.000 F1600
G1 X71.162 Y31.199 Z0.000 F1600
G1 X71.162 Y31.400 Z0.000 F1600
; --- FIX X Backlash: 1.300mm ---
G0 X72.462 Y31.400 F1200
G1 X72.537 Y31.556 Z0.000 F1600
G1 X72.703 Y31.693 Z0.000 F1600
G1 X72.870 Y31.756 Z0.000 F1600
G1 X73.069 Y31.819 Z0.000 F1600
G1 X73.259 Y31.849 Z0.000 F1600
G1 X73.375 Y31.859 Z0.000 F1600
G1 X73.468 Y31.859 Z0.000 F1600
G0 Z3.5 F1000
; --- FIX Y Backlash: -1.300mm ---
G0 X73.468 Y30.559 F1200
G0 X74.307 Y29.889 Z3.500
G1 Z0 F1000
G1 X74.477 Y29.773 Z0.000 F1600
G1 X74.653 Y29.679 Z0.000 F1600
G1 X74.813 Y29.648 Z0.000 F1600
G1 X75.009 Y29.658 Z0.000 F1600
; --- FIX Y Backlash: 1.300mm ---
G0 X75.009 Y30.958 F1200
G1 X75.135 Y31.021 Z0.000 F1600
G1 X75.305 Y31.178 Z0.000 F1600
G1 X75.418 Y31.420 Z0.000 F1600
G1 X75.451 Y31.649 Z0.000 F1600
G1 X75.451 Y31.922 Z0.000 F1600
; --- FIX X Backlash: -1.300mm ---
G0 X74.151 Y31.922 F1200
G1 X74.078 Y32.162 Z0.000 F1600
G1 X73.932 Y32.371 Z0.000 F1600
G1 X73.762 Y32.468 Z0.000 F1600
G1 X73.542 Y32.468 Z0.000 F1600
G1 X73.363 Y32.434 Z0.000 F1600
; --- FIX Y Backlash: -1.300mm ---
G0 X73.363 Y31.134 F1200
G1 X73.153 Y31.021 Z0.000 F1600
G1 X72.977 Y30.842 Z0.000 F1600
; --- FIX Y Backlash: 1.300mm ---
G0 X72.977 Y32.142 F1200
G1 X72.977 Y32.478 Z0.000 F1600
; --- FIX Y Backlash: -1.300mm ---
G0 X72.977 Y31.178 F1200
G1 X72.977 Y28.925 Z0.000 F1600
G0 Z3.5 F1000
G0 X71.395 Y28.199 Z3.500
G1 Z0 F1000
G1 X71.395 Y25.716 Z0.000 F1600
G0 Z3.5 F1000
; --- FIX X Backlash: 1.300mm ---
G0 X72.695 Y25.716 F1200
; --- FIX Y Backlash: 1.300mm ---
G0 X72.695 Y27.016 F1200
G0 X76.173 Y30.948 Z3.500
G1 Z0 F1000
G1 X76.173 Y33.253 Z0.000 F1600
; --- FIX Y Backlash: -1.300mm ---
G0 X76.173 Y31.953 F1200
G1 X76.173 Y30.788 Z0.000 F1600
; --- FIX Y Backlash: 1.300mm ---
G0 X76.173 Y32.088 F1200
G1 X76.330 Y32.258 Z0.000 F1600
G1 X76.466 Y32.385 Z0.000 F1600
G1 X76.666 Y32.468 Z0.000 F1600
G1 X76.865 Y32.488 Z0.000 F1600
; --- FIX Y Backlash: -1.300mm ---
G0 X76.865 Y31.188 F1200
G1 X77.095 Y31.061 Z0.000 F1600
G1 X77.178 Y30.915 Z0.000 F1600
G1 X77.221 Y30.675 Z0.000 F1600
G1 X77.221 Y29.637 Z0.000 F1600
G0 Z3.5 F1000
G0 X77.922 Y29.648 Z3.500
G1 Z0 F1000
G1 X78.089 Y29.648 Z0.000 F1600
; --- FIX Y Backlash: 1.300mm ---
G0 X78.089 Y30.948 F1200
G1 X78.089 Y31.115 Z0.000 F1600
; --- FIX X Backlash: -1.300mm ---
G0 X76.789 Y31.115 F1200
G1 X76.622 Y31.115 Z0.000 F1600
; --- FIX Y Backlash: -1.300mm ---
G0 X76.622 Y29.815 F1200
G1 X76.622 Y29.648 Z0.000 F1600
G0 Z3.5 F1000
; --- FIX X Backlash: 1.300mm ---
G0 X77.922 Y29.648 F1200
; --- FIX Y Backlash: 1.300mm ---
G0 X77.922 Y30.948 F1200
G0 X78.991 Y31.010 Z3.500
G1 Z0 F1000
; --- FIX X Backlash: -1.300mm ---
G0 X77.691 Y31.010 F1200
; --- FIX Y Backlash: -1.300mm ---
G0 X77.691 Y29.710 F1200
G1 X77.535 Y29.564 Z0.000 F1600
G1 X77.430 Y29.386 Z0.000 F1600
G1 X77.408 Y29.198 Z0.000 F1600
; --- FIX X Backlash: 1.300mm ---
G0 X78.708 Y29.198 F1200
G1 X78.855 Y29.039 Z0.000 F1600
G1 X79.098 Y28.935 Z0.000 F1600
G1 X79.380 Y28.902 Z0.000 F1600
; --- FIX Y Backlash: 1.300mm ---
G0 X79.380 Y30.202 F1200
G1 X79.630 Y30.265 Z0.000 F1600
G1 X79.883 Y30.435 Z0.000 F1600
G1 X79.976 Y30.591 Z0.000 F1600
G1 X79.966 Y30.769 Z0.000 F1600
; --- FIX X Backlash: -1.300mm ---
G0 X78.666 Y30.769 F1200
G1 X78.573 Y30.937 Z0.000 F1600
G1 X78.340 Y31.000 Z0.000 F1600
G1 X77.701 Y31.000 Z0.000 F1600
G1 X77.565 Y31.094 Z0.000 F1600
G1 X77.501 Y31.240 Z0.000 F1600
G1 X77.535 Y31.377 Z0.000 F1600
; --- FIX X Backlash: 1.300mm ---
G0 X78.835 Y31.377 F1200
G1 X79.011 Y31.576 Z0.000 F1600
; --- FIX Y Backlash: -1.300mm ---
G0 X79.011 Y30.276 F1200
G1 X79.127 Y30.203 Z0.000 F1600
G1 X79.307 Y30.173 Z0.000 F1600
; --- FIX Y Backlash: 1.300mm ---
G0 X79.307 Y31.473 F1200
G1 X79.527 Y31.546 Z0.000 F1600
G1 X79.683 Y31.693 Z0.000 F1600
G1 X79.756 Y31.869 Z0.000 F1600
G1 X79.756 Y32.078 Z0.000 F1600
; --- FIX X Backlash: -1.300mm ---
G0 X78.456 Y32.078 F1200
G1 X78.373 Y32.268 Z0.000 F1600
G1 X78.310 Y32.351 Z0.000 F1600
G1 X78.163 Y32.444 Z0.000 F1600
; --- FIX X Backlash: 1.300mm ---
G0 X79.463 Y32.444 F1200
G1 X79.966 Y32.444 Z0.000 F1600
; --- FIX X Backlash: -1.300mm ---
G0 X78.666 Y32.444 F1200
G1 X78.163 Y32.444 Z0.000 F1600
G1 X78.007 Y32.478 Z0.000 F1600
G1 X77.764 Y32.458 Z0.000 F1600
; --- FIX Y Backlash: -1.300mm ---
G0 X77.764 Y31.158 F1200
G1 X77.598 Y31.021 Z0.000 F1600
G1 X77.501 Y30.832 Z0.000 F1600
G1 X77.491 Y30.622 Z0.000 F1600
G1 X77.535 Y30.456 Z0.000 F1600
; --- FIX X Backlash: 1.300mm ---
G0 X78.835 Y30.456 F1200
G1 X78.918 Y30.349 Z0.000 F1600
G1 X79.011 Y30.266 Z0.000 F1600
G0 Z3.5 F1000
G0 X80.541 Y29.627 Z3.500
G1 Z0 F1000
; --- FIX Y Backlash: 1.300mm ---
G0 X80.541 Y30.927 F1200
G1 X80.541 Y32.468 Z0.000 F1600
G0 Z3.5 F1000
G0 X80.615 Y32.940 Z3.500
G1 Z0 F1000
G1 X80.615 Y33.106 Z0.000 F1600
; --- FIX X Backlash: -1.300mm ---
G0 X79.315 Y33.106 F1200
G1 X79.147 Y33.106 Z0.000 F1600
; --- FIX Y Backlash: -1.300mm ---
G0 X79.147 Y31.806 F1200
G1 X79.147 Y31.640 Z0.000 F1600
; --- FIX X Backlash: 1.300mm ---
G0 X80.447 Y31.640 F1200
G1 X80.615 Y31.640 Z0.000 F1600
G0 Z3.5 F1000
G0 X81.423 Y31.607 Z3.500
G1 Z0 F1000
G1 X81.423 Y31.134 Z0.000 F1600
G1 X81.925 Y31.134 Z0.000 F1600
; --- FIX X Backlash: -1.300mm ---
G0 X80.625 Y31.134 F1200
G1 X79.818 Y31.134 Z0.000 F1600
; --- FIX X Backlash: 1.300mm ---
G0 X81.118 Y31.134 F1200
G1 X81.423 Y31.134 Z0.000 F1600
G1 X81.423 Y30.057 Z0.000 F1600
G1 X81.443 Y29.826 Z0.000 F1600
G1 X81.559 Y29.689 Z0.000 F1600
G1 X81.692 Y29.648 Z0.000 F1600
G1 X81.842 Y29.648 Z0.000 F1600
; --- FIX Y Backlash: 1.300mm ---
G0 X81.842 Y30.948 F1200
G1 X81.955 Y31.000 Z0.000 F1600
G0 Z3.5 F1000
; --- FIX Y Backlash: -1.300mm ---
G0 X81.955 Y29.700 F1200
G0 X82.491 Y29.648 Z3.500
G1 Z0 F1000
; --- FIX Y Backlash: 1.300mm ---
G0 X82.491 Y30.948 F1200
G1 X82.491 Y33.253 Z0.000 F1600
; --- FIX Y Backlash: -1.300mm ---
G0 X82.491 Y31.953 F1200
G1 X82.491 Y30.788 Z0.000 F1600
; --- FIX Y Backlash: 1.300mm ---
G0 X82.491 Y32.088 F1200
G1 X82.647 Y32.258 Z0.000 F1600
G1 X82.784 Y32.385 Z0.000 F1600
G1 X82.983 Y32.468 Z0.000 F1600
G1 X83.183 Y32.488 Z0.000 F1600
; --- FIX Y Backlash: -1.300mm ---
G0 X83.183 Y31.188 F1200
G1 X83.412 Y31.061 Z0.000 F1600
G1 X83.496 Y30.915 Z0.000 F1600
G1 X83.539 Y30.675 Z0.000 F1600
G1 X83.539 Y29.637 Z0.000 F1600
G0 Z3.5 F1000
; --- FIX Y Backlash: 1.300mm ---
G0 X83.539 Y30.937 F1200
G0 X84.314 Y32.458 Z3.500
G1 Z0 F1000
; --- FIX Y Backlash: -1.300mm ---
G0 X84.314 Y31.158 F1200
G1 X84.314 Y30.183 Z0.000 F1600
G1 X84.324 Y29.920 Z0.000 F1600
G1 X84.397 Y29.784 Z0.000 F1600
G1 X84.524 Y29.679 Z0.000 F1600
G1 X84.710 Y29.627 Z0.000 F1600
G1 X84.890 Y29.658 Z0.000 F1600
; --- FIX Y Backlash: 1.300mm ---
G0 X84.890 Y30.958 F1200
G1 X85.079 Y31.063 Z0.000 F1600
G1 X85.216 Y31.199 Z0.000 F1600
G1 X85.329 Y31.337 Z0.000 F1600
; --- FIX Y Backlash: -1.300mm ---
G0 X85.329 Y30.037 F1200
G1 X85.329 Y29.637 Z0.000 F1600
; --- FIX Y Backlash: 1.300mm ---
G0 X85.329 Y30.937 F1200
G1 X85.329 Y32.458 Z0.000 F1600
G0 Z3.5 F1000
; --- FIX Y Backlash: -1.300mm ---
G0 X85.329 Y31.158 F1200
G0 X86.187 Y30.885 Z3.500
G1 Z0 F1000
; --- FIX Y Backlash: 1.300mm ---
G0 X86.187 Y32.185 F1200
G1 X86.397 Y32.351 Z0.000 F1600
G1 X86.596 Y32.458 Z0.000 F1600
G1 X86.796 Y32.498 Z0.000 F1600
G1 X86.986 Y32.458 Z0.000 F1600
; --- FIX Y Backlash: -1.300mm ---
G0 X86.986 Y31.158 F1200
G1 X87.122 Y31.085 Z0.000 F1600
G1 X87.278 Y30.885 Z0.000 F1600
G1 X87.328 Y30.642 Z0.000 F1600
G1 X87.341 Y30.383 Z0.000 F1600
G1 X87.298 Y30.120 Z0.000 F1600
; --- FIX X Backlash: -1.300mm ---
G0 X85.998 Y30.120 F1200
G1 X85.895 Y29.910 Z0.000 F1600
G1 X85.759 Y29.763 Z0.000 F1600
G1 X85.536 Y29.637 Z0.000 F1600
G1 X85.350 Y29.648 Z0.000 F1600
; --- FIX Y Backlash: 1.300mm ---
G0 X85.350 Y30.948 F1200
G1 X85.160 Y31.000 Z0.000 F1600
G1 X84.984 Y31.115 Z0.000 F1600
G1 X84.867 Y31.210 Z0.000 F1600
; --- FIX Y Backlash: -1.300mm ---
G0 X84.867 Y29.910 F1200
G1 X84.867 Y29.627 Z0.000 F1600
; --- FIX Y Backlash: 1.300mm ---
G0 X84.867 Y30.927 F1200
G1 X84.867 Y33.263 Z0.000 F1600
G0 Z3.5 F1000
; --- FIX X Backlash: 1.300mm ---
G0 X86.167 Y33.263 F1200
; --- FIX Y Backlash: -1.300mm ---
G0 X86.167 Y31.963 F1200
G0 X88.787 Y31.806 Z3.500
G1 Z0 F1000
G1 X88.787 Y31.640 Z0.000 F1600
G1 X88.955 Y31.640 Z0.000 F1600
; --- FIX Y Backlash: 1.300mm ---
G0 X88.955 Y32.940 F1200
G1 X88.955 Y33.106 Z0.000 F1600
; --- FIX X Backlash: -1.300mm ---
G0 X87.655 Y33.106 F1200
G1 X87.487 Y33.106 Z0.000 F1600
G0 Z3.5 F1000
; --- FIX X Backlash: 1.300mm ---
G0 X88.787 Y33.106 F1200
; --- FIX Y Backlash: -1.300mm ---
G0 X88.787 Y31.806 F1200
G0 X88.882 Y31.168 Z3.500
G1 Z0 F1000
G1 X88.882 Y29.627 Z0.000 F1600
G0 Z3.5 F1000
; --- FIX X Backlash: -1.300mm ---
G0 X87.582 Y29.627 F1200
G0 X86.827 Y29.648 Z3.500
G1 Z0 F1000
; --- FIX Y Backlash: 1.300mm ---
G0 X86.827 Y30.948 F1200
G1 X86.827 Y31.115 Z0.000 F1600
G1 X86.659 Y31.115 Z0.000 F1600
; --- FIX Y Backlash: -1.300mm ---
G0 X86.659 Y29.815 F1200
G1 X86.659 Y29.648 Z0.000 F1600
; --- FIX X Backlash: 1.300mm ---
G0 X87.959 Y29.648 F1200
G1 X88.127 Y29.648 Z0.000 F1600
G0 Z3.5 F1000
; --- FIX Y Backlash: 1.300mm ---
G0 X88.127 Y30.948 F1200
G0 X89.677 Y31.293 Z3.500
G1 Z0 F1000
; --- FIX Y Backlash: -1.300mm ---
G0 X89.677 Y29.993 F1200
G1 X89.803 Y29.826 Z0.000 F1600
G1 X89.950 Y29.710 Z0.000 F1600
G1 X90.109 Y29.648 Z0.000 F1600
G1 X90.256 Y29.637 Z0.000 F1600
G1 X90.266 Y29.637 Z0.000 F1600
; --- FIX Y Backlash: 1.300mm ---
G0 X90.266 Y30.937 F1200
G1 X90.475 Y30.989 Z0.000 F1600
G1 X90.675 Y31.126 Z0.000 F1600
G1 X90.798 Y31.337 Z0.000 F1600
G1 X90.851 Y31.566 Z0.000 F1600
G1 X90.861 Y31.786 Z0.000 F1600
G1 X90.831 Y31.985 Z0.000 F1600
; --- FIX X Backlash: -1.300mm ---
G0 X89.531 Y31.985 F1200
G1 X89.458 Y32.162 Z0.000 F1600
G1 X89.352 Y32.298 Z0.000 F1600
G1 X89.205 Y32.424 Z0.000 F1600
G1 X89.049 Y32.478 Z0.000 F1600
G1 X88.903 Y32.488 Z0.000 F1600
G1 X88.733 Y32.458 Z0.000 F1600
; --- FIX Y Backlash: -1.300mm ---
G0 X88.733 Y31.158 F1200
G1 X88.577 Y31.061 Z0.000 F1600
G1 X88.440 Y30.905 Z0.000 F1600
G1 X88.367 Y30.759 Z0.000 F1600
G1 X88.305 Y30.539 Z0.000 F1600
G1 X88.305 Y30.369 Z0.000 F1600
G1 X88.326 Y30.173 Z0.000 F1600
; --- FIX X Backlash: 1.300mm ---
G0 X89.626 Y30.173 F1200
G1 X89.677 Y29.993 Z0.000 F1600
G0 Z3.5 F1000
G0 X94.477 Y29.746 Z3.500
G1 Z0 F1000
; --- FIX X Backlash: -1.300mm ---
G0 X93.177 Y29.746 F1200
G1 X93.010 Y29.618 Z0.000 F1600
G1 X92.785 Y29.539 Z0.000 F1600
G1 X92.562 Y29.570 Z0.000 F1600
; --- FIX Y Backlash: 1.300mm ---
G0 X92.562 Y30.870 F1200
G1 X92.355 Y30.982 Z0.000 F1600
G1 X92.196 Y31.173 Z0.000 F1600
G1 X92.117 Y31.373 Z0.000 F1600
G1 X92.093 Y31.674 Z0.000 F1600
G1 X92.117 Y31.955 Z0.000 F1600
; --- FIX X Backlash: 1.300mm ---
G0 X93.417 Y31.955 F1200
G1 X93.521 Y32.185 Z0.000 F1600
G1 X93.680 Y32.360 Z0.000 F1600
G1 X93.862 Y32.449 Z0.000 F1600
G1 X94.070 Y32.464 Z0.000 F1600
G1 X94.255 Y32.426 Z0.000 F1600
; --- FIX Y Backlash: -1.300mm ---
G0 X94.255 Y31.126 F1200
G1 X94.381 Y31.045 Z0.000 F1600
G1 X94.422 Y30.997 Z0.000 F1600
G0 Z3.5 F1000
; --- FIX Y Backlash: 1.300mm ---
G0 X94.422 Y32.297 F1200
G0 X95.801 Y32.426 Z3.500
G1 Z0 F1000
; --- FIX X Backlash: -1.300mm ---
G0 X94.501 Y32.426 F1200
G1 X93.686 Y32.426 Z0.000 F1600
; --- FIX Y Backlash: -1.300mm ---
G0 X93.686 Y31.126 F1200
G1 X93.686 Y30.400 Z0.000 F1600
; --- FIX X Backlash: 1.300mm ---
G0 X94.986 Y30.400 F1200
G1 X95.690 Y30.400 Z0.000 F1600
; --- FIX X Backlash: -1.300mm ---
G0 X94.390 Y30.400 F1200
G1 X93.686 Y30.400 Z0.000 F1600
G1 X93.686 Y29.578 Z0.000 F1600
; --- FIX X Backlash: 1.300mm ---
G0 X94.986 Y29.578 F1200
G1 X95.832 Y29.578 Z0.000 F1600
G0 Z3.5 F1000
G0 X96.343 Y29.546 Z3.500
G1 Z0 F1000
; --- FIX Y Backlash: 1.300mm ---
G0 X96.343 Y30.846 F1200
G1 X96.343 Y32.441 Z0.000 F1600
G1 X96.877 Y32.441 Z0.000 F1600
G1 X97.006 Y32.401 Z0.000 F1600
; --- FIX Y Backlash: -1.300mm ---
G0 X97.006 Y31.101 F1200
G1 X97.148 Y31.030 Z0.000 F1600
G1 X97.251 Y30.870 Z0.000 F1600
G1 X97.251 Y30.734 Z0.000 F1600
G1 X97.229 Y30.582 Z0.000 F1600
; --- FIX X Backlash: -1.300mm ---
G0 X95.929 Y30.582 F1200
G1 X95.832 Y30.448 Z0.000 F1600
G1 X95.713 Y30.374 Z0.000 F1600
G1 X95.521 Y30.329 Z0.000 F1600
G1 X95.050 Y30.329 Z0.000 F1600
; --- FIX X Backlash: 1.300mm ---
G0 X96.350 Y30.329 F1200
G1 X96.806 Y30.329 Z0.000 F1600
G1 X97.269 Y29.546 Z0.000 F1600
G0 Z3.5 F1000
G0 X97.803 Y29.554 Z3.500
G1 Z0 F1000
; --- FIX Y Backlash: 1.300mm ---
G0 X97.803 Y30.854 F1200
G1 X97.803 Y32.441 Z0.000 F1600
G1 X97.859 Y32.441 Z0.000 F1600
; --- FIX Y Backlash: -1.300mm ---
G0 X97.859 Y31.141 F1200
G1 X98.808 Y29.554 Z0.000 F1600
; --- FIX Y Backlash: 1.300mm ---
G0 X98.808 Y30.854 F1200
G1 X98.808 Y32.449 Z0.000 F1600
G0 Z3.5 F1000
; --- FIX Y Backlash: -1.300mm ---
G0 X98.808 Y31.149 F1200
G0 X99.285 Y30.159 Z3.500
G1 Z0 F1000
G1 X99.802 Y30.159 Z0.000 F1600
G0 Z3.5 F1000
; --- FIX Y Backlash: 1.300mm ---
G0 X99.802 Y31.459 F1200
G0 X100.203 Y31.563 Z3.500
G1 Z0 F1000
; --- FIX Y Backlash: -1.300mm ---
G0 X100.203 Y30.263 F1200
G1 X100.235 Y30.055 Z0.000 F1600
G1 X100.314 Y29.865 Z0.000 F1600
G1 X100.428 Y29.714 Z0.000 F1600
G1 X100.554 Y29.610 Z0.000 F1600
G1 X100.691 Y29.562 Z0.000 F1600
G1 X100.817 Y29.554 Z0.000 F1600
G1 X101.025 Y29.586 Z0.000 F1600
; --- FIX Y Backlash: 1.300mm ---
G0 X101.025 Y30.886 F1200
G1 X101.232 Y31.022 Z0.000 F1600
G1 X101.374 Y31.236 Z0.000 F1600
G1 X101.448 Y31.517 Z0.000 F1600
G1 X101.448 Y31.778 Z0.000 F1600
G1 X101.407 Y31.993 Z0.000 F1600
; --- FIX X Backlash: -1.300mm ---
G0 X100.107 Y31.993 F1200
G1 X100.029 Y32.170 Z0.000 F1600
G1 X99.900 Y32.337 Z0.000 F1600
G1 X99.725 Y32.441 Z0.000 F1600
G1 X99.548 Y32.474 Z0.000 F1600
G1 X99.398 Y32.449 Z0.000 F1600
; --- FIX Y Backlash: -1.300mm ---
G0 X99.398 Y31.149 F1200
G1 X99.229 Y31.085 Z0.000 F1600
G1 X99.072 Y30.949 Z0.000 F1600
G1 X98.950 Y30.718 Z0.000 F1600
G1 X98.911 Y30.536 Z0.000 F1600
G1 X98.903 Y30.263 Z0.000 F1600
G0 Z3.5 F1000
; --- FIX X Backlash: 1.300mm ---
G0 X100.203 Y30.263 F1200
G0 X102.020 Y29.554 Z3.500
G1 Z0 F1000
; --- FIX Y Backlash: 1.300mm ---
G0 X102.020 Y30.854 F1200
G1 X102.020 Y32.449 Z0.000 F1600
; --- FIX Y Backlash: -1.300mm ---
G0 X102.020 Y31.149 F1200
G1 X102.020 Y30.407 Z0.000 F1600
G1 X103.032 Y30.407 Z0.000 F1600
; --- FIX Y Backlash: 1.300mm ---
G0 X103.032 Y31.707 F1200
G1 X103.032 Y32.441 Z0.000 F1600
; --- FIX Y Backlash: -1.300mm ---
G0 X103.032 Y31.141 F1200
G1 X103.032 Y29.554 Z0.000 F1600
G0 Z3.5 F1000
G0 X104.507 Y29.578 Z3.500
G1 Z0 F1000
; --- FIX X Backlash: -1.300mm ---
G0 X103.207 Y29.578 F1200
G1 X102.410 Y29.578 Z0.000 F1600
; --- FIX Y Backlash: 1.300mm ---
G0 X102.410 Y30.878 F1200
G1 X102.410 Y32.456 Z0.000 F1600
G0 Z3.5 F1000
; --- FIX X Backlash: 1.300mm ---
G0 X103.710 Y32.456 F1200
; --- FIX Y Backlash: -1.300mm ---
G0 X103.710 Y31.156 F1200
G0 X104.762 Y30.159 Z3.500
G1 Z0 F1000
G1 X105.279 Y30.159 Z0.000 F1600
G0 Z3.5 F1000
; --- FIX Y Backlash: 1.300mm ---
G0 X105.279 Y31.459 F1200
G0 X105.783 Y31.588 Z3.500
G1 Z0 F1000
G1 X106.168 Y31.588 Z0.000 F1600
G1 X106.357 Y31.596 Z0.000 F1600
G1 X106.524 Y31.659 Z0.000 F1600
G1 X106.643 Y31.755 Z0.000 F1600
G1 X106.709 Y31.915 Z0.000 F1600
G1 X106.717 Y32.059 Z0.000 F1600
G1 X106.684 Y32.218 Z0.000 F1600
; --- FIX X Backlash: -1.300mm ---
G0 X105.384 Y32.218 F1200
G1 X105.305 Y32.322 Z0.000 F1600
G1 X105.202 Y32.401 Z0.000 F1600
G1 X105.057 Y32.441 Z0.000 F1600
G1 X104.491 Y32.441 Z0.000 F1600
; --- FIX Y Backlash: -1.300mm ---
G0 X104.491 Y31.141 F1200
G1 X104.491 Y29.539 Z0.000 F1600
G0 Z3.5 F1000
; --- FIX X Backlash: 1.300mm ---
G0 X105.791 Y29.539 F1200
; --- FIX Y Backlash: 1.300mm ---
G0 X105.791 Y30.839 F1200
G0 X107.060 Y31.459 Z3.500
G1 Z0 F1000
G1 X107.577 Y31.459 Z0.000 F1600
G0 Z3.5 F1000
G0 X107.938 Y32.211 Z3.500
G1 Z0 F1000
G1 X108.043 Y32.312 Z0.000 F1600
G1 X108.170 Y32.393 Z0.000 F1600
G1 X108.329 Y32.433 Z0.000 F1600
G1 X108.466 Y32.408 Z0.000 F1600
; --- FIX Y Backlash: -1.300mm ---
G0 X108.466 Y31.108 F1200
G1 X108.607 Y31.037 Z0.000 F1600
G1 X108.696 Y30.918 Z0.000 F1600
G1 X108.736 Y30.741 Z0.000 F1600
G1 X108.726 Y30.592 Z0.000 F1600
; --- FIX X Backlash: -1.300mm ---
G0 X107.426 Y30.592 F1200
G1 X107.348 Y30.407 Z0.000 F1600
G1 X107.204 Y30.200 Z0.000 F1600
G1 X107.029 Y29.984 Z0.000 F1600
G1 X106.870 Y29.817 Z0.000 F1600
G1 X106.654 Y29.578 Z0.000 F1600
; --- FIX X Backlash: 1.300mm ---
G0 X107.954 Y29.578 F1200
G1 X108.855 Y29.578 Z0.000 F1600
G0 Z3.5 F1000
G0 X109.269 Y29.554 Z3.500
G1 Z0 F1000
G1 X109.397 Y29.554 Z0.000 F1600
; --- FIX Y Backlash: 1.300mm ---
G0 X109.397 Y30.854 F1200
G1 X109.397 Y30.982 Z0.000 F1600
; --- FIX X Backlash: -1.300mm ---
G0 X108.097 Y30.982 F1200
G1 X107.969 Y30.982 Z0.000 F1600
; --- FIX Y Backlash: -1.300mm ---
G0 X107.969 Y29.682 F1200
G1 X107.969 Y29.554 Z0.000 F1600
G0 Z3.5 F1000
; --- FIX X Backlash: 1.300mm ---
G0 X109.269 Y29.554 F1200
; --- FIX Y Backlash: 1.300mm ---
G0 X109.269 Y30.854 F1200
G0 X109.972 Y31.038 Z3.500
G1 Z0 F1000
; --- FIX Y Backlash: -1.300mm ---
G0 X109.972 Y29.738 F1200
G1 X110.068 Y29.634 Z0.000 F1600
G1 X110.164 Y29.554 Z0.000 F1600
G1 X110.275 Y29.546 Z0.000 F1600
G1 X110.427 Y29.578 Z0.000 F1600
; --- FIX Y Backlash: 1.300mm ---
G0 X110.427 Y30.878 F1200
G1 X110.587 Y31.038 Z0.000 F1600
G1 X110.657 Y31.206 Z0.000 F1600
G1 X110.690 Y31.396 Z0.000 F1600
G1 X110.705 Y31.659 Z0.000 F1600
G1 X110.690 Y31.907 Z0.000 F1600
; --- FIX X Backlash: -1.300mm ---
G0 X109.390 Y31.907 F1200
G1 X109.332 Y32.145 Z0.000 F1600
G1 X109.254 Y32.297 Z0.000 F1600
G1 X109.127 Y32.393 Z0.000 F1600
G1 X109.013 Y32.433 Z0.000 F1600
G1 X108.920 Y32.426 Z0.000 F1600
; --- FIX Y Backlash: -1.300mm ---
G0 X108.920 Y31.126 F1200
G1 X108.768 Y31.037 Z0.000 F1600
G1 X108.664 Y30.893 Z0.000 F1600
G1 X108.592 Y30.663 Z0.000 F1600
G1 X108.568 Y30.422 Z0.000 F1600
G1 X108.560 Y30.184 Z0.000 F1600
G1 X108.592 Y29.962 Z0.000 F1600
; --- FIX X Backlash: 1.300mm ---
G0 X109.892 Y29.962 F1200
G1 X109.972 Y29.738 Z0.000 F1600
G0 Z3.5 F1000
; --- FIX Y Backlash: 1.300mm ---
G0 X109.972 Y31.038 F1200
G0 X113.130 Y32.280 Z3.500
G1 Z0 F1000
G1 X113.240 Y32.387 Z0.000 F1600
G1 X113.374 Y32.473 Z0.000 F1600
G1 X113.543 Y32.516 Z0.000 F1600
G1 X113.687 Y32.489 Z0.000 F1600
; --- FIX Y Backlash: -1.300mm ---
G0 X113.687 Y31.189 F1200
G1 X113.837 Y31.114 Z0.000 F1600
G1 X113.931 Y30.988 Z0.000 F1600
G1 X113.973 Y30.801 Z0.000 F1600
G1 X113.963 Y30.643 Z0.000 F1600
; --- FIX X Backlash: -1.300mm ---
G0 X112.663 Y30.643 F1200
G1 X112.580 Y30.448 Z0.000 F1600
G1 X112.427 Y30.229 Z0.000 F1600
G1 X112.243 Y30.001 Z0.000 F1600
G1 X112.074 Y29.825 Z0.000 F1600
G1 X111.847 Y29.572 Z0.000 F1600
; --- FIX X Backlash: 1.300mm ---
G0 X113.147 Y29.572 F1200
G1 X114.099 Y29.572 Z0.000 F1600
G0 Z3.5 F1000
; --- FIX Y Backlash: 1.300mm ---
G0 X114.099 Y30.872 F1200
G0 X114.436 Y31.058 Z3.500
G1 Z0 F1000
; --- FIX Y Backlash: -1.300mm ---
G0 X114.436 Y29.758 F1200
G1 X114.529 Y29.673 Z0.000 F1600
G1 X114.680 Y29.589 Z0.000 F1600
G1 X114.832 Y29.547 Z0.000 F1600
G1 X114.993 Y29.547 Z0.000 F1600
G1 X115.143 Y29.589 Z0.000 F1600
; --- FIX Y Backlash: 1.300mm ---
G0 X115.143 Y30.889 F1200
G1 X115.263 Y30.964 Z0.000 F1600
G1 X115.346 Y31.082 Z0.000 F1600
G1 X115.373 Y31.183 Z0.000 F1600
G1 X115.381 Y31.309 Z0.000 F1600
G1 X115.354 Y31.427 Z0.000 F1600
; --- FIX X Backlash: -1.300mm ---
G0 X114.054 Y31.427 F1200
G1 X113.987 Y31.529 Z0.000 F1600
G1 X113.843 Y31.638 Z0.000 F1600
G1 X113.709 Y31.689 Z0.000 F1600
G1 X113.575 Y31.705 Z0.000 F1600
G1 X113.447 Y31.705 Z0.000 F1600
; --- FIX X Backlash: 1.300mm ---
G0 X114.747 Y31.705 F1200
G1 X114.848 Y31.705 Z0.000 F1600
G1 X114.985 Y31.732 Z0.000 F1600
G1 X115.143 Y31.815 Z0.000 F1600
G1 X115.287 Y31.925 Z0.000 F1600
G1 X115.330 Y32.069 Z0.000 F1600
G1 X115.303 Y32.229 Z0.000 F1600
; --- FIX X Backlash: -1.300mm ---
G0 X114.003 Y32.229 F1200
G1 X113.944 Y32.363 Z0.000 F1600
G1 X113.818 Y32.465 Z0.000 F1600
G1 X113.666 Y32.508 Z0.000 F1600
G1 X113.524 Y32.508 Z0.000 F1600
; --- FIX Y Backlash: -1.300mm ---
G0 X113.524 Y31.208 F1200
G1 X113.348 Y31.130 Z0.000 F1600
G1 X113.212 Y31.028 Z0.000 F1600
G0 Z3.5 F1000
; --- FIX Y Backlash: 1.300mm ---
G0 X113.212 Y32.328 F1200
G0 X111.865 Y33.342 Z3.500
G1 Z0 F1000
; --- FIX X Backlash: 1.300mm ---
G0 X113.165 Y33.342 F1200
G1 X113.473 Y33.342 Z0.000 F1600
G1 X113.592 Y33.349 Z0.000 F1600
G1 X113.749 Y33.394 Z0.000 F1600
G1 X113.912 Y33.491 Z0.000 F1600
G1 X114.019 Y33.649 Z0.000 F1600
G1 X114.078 Y33.775 Z0.000 F1600
G1 X114.100 Y33.955 Z0.000 F1600
G1 X114.107 Y34.112 Z0.000 F1600
G1 X114.107 Y34.230 Z0.000 F1600
G1 X114.071 Y34.425 Z0.000 F1600
; --- FIX X Backlash: -1.300mm ---
G0 X112.771 Y34.425 F1200
G1 X112.664 Y34.598 Z0.000 F1600
G1 X112.577 Y34.686 Z0.000 F1600
G1 X112.449 Y34.754 Z0.000 F1600
G1 X112.278 Y34.799 Z0.000 F1600
G1 X111.858 Y34.799 Z0.000 F1600
; --- FIX Y Backlash: -1.300mm ---
G0 X111.858 Y33.499 F1200
G1 X111.858 Y32.042 Z0.000 F1600
G0 Z3.5 F1000
; --- FIX X Backlash: 1.300mm ---
G0 X113.158 Y32.042 F1200
; --- FIX Y Backlash: 1.300mm ---
G0 X113.158 Y33.342 F1200
G0 X114.610 Y34.282 Z3.500
G1 Z0 F1000
G1 X114.766 Y34.373 Z0.000 F1600
G1 X114.899 Y34.410 Z0.000 F1600
G1 X115.034 Y34.425 Z0.000 F1600
G1 X115.139 Y34.387 Z0.000 F1600
; --- FIX Y Backlash: -1.300mm ---
G0 X115.139 Y33.087 F1200
G1 X115.229 Y33.006 Z0.000 F1600
G1 X115.288 Y32.885 Z0.000 F1600
G1 X115.295 Y32.721 Z0.000 F1600
G1 X115.295 Y32.020 Z0.000 F1600
; --- FIX Y Backlash: 1.300mm ---
G0 X115.295 Y33.320 F1200
G1 X115.288 Y33.521 Z0.000 F1600
; --- FIX X Backlash: -1.300mm ---
G0 X113.988 Y33.521 F1200
; --- FIX Y Backlash: -1.300mm ---
G0 X113.988 Y32.221 F1200
G1 X113.891 Y32.154 Z0.000 F1600
G1 X113.786 Y32.079 Z0.000 F1600
G1 X113.668 Y32.027 Z0.000 F1600
G1 X113.533 Y32.005 Z0.000 F1600
G1 X113.421 Y32.042 Z0.000 F1600
; --- FIX Y Backlash: 1.300mm ---
G0 X113.421 Y33.342 F1200
G1 X113.331 Y33.402 Z0.000 F1600
G1 X113.264 Y33.499 Z0.000 F1600
G1 X113.264 Y33.642 Z0.000 F1600
; --- FIX X Backlash: 1.300mm ---
G0 X114.564 Y33.642 F1200
G1 X114.617 Y33.753 Z0.000 F1600
G1 X114.735 Y33.851 Z0.000 F1600
G1 X114.854 Y33.896 Z0.000 F1600
G1 X114.996 Y33.941 Z0.000 F1600
G1 X115.131 Y33.962 Z0.000 F1600
G1 X115.214 Y33.969 Z0.000 F1600
G1 X115.281 Y33.969 Z0.000 F1600
G0 Z3.5 F1000
G0 X115.895 Y34.716 Z3.500
G1 Z0 F1000
; --- FIX Y Backlash: -1.300mm ---
G0 X115.895 Y33.416 F1200
G1 X115.895 Y33.080 Z0.000 F1600
G1 X116.253 Y33.080 Z0.000 F1600
; --- FIX X Backlash: -1.300mm ---
G0 X114.953 Y33.080 F1200
G1 X114.377 Y33.080 Z0.000 F1600
; --- FIX X Backlash: 1.300mm ---
G0 X115.677 Y33.080 F1200
G1 X115.895 Y33.080 Z0.000 F1600
G1 X115.895 Y32.311 Z0.000 F1600
G1 X115.909 Y32.147 Z0.000 F1600
G1 X115.992 Y32.049 Z0.000 F1600
G1 X116.087 Y32.020 Z0.000 F1600
G1 X116.194 Y32.020 Z0.000 F1600
G1 X116.275 Y32.057 Z0.000 F1600
G0 Z3.5 F1000
; --- FIX Y Backlash: 1.300mm ---
G0 X116.275 Y33.357 F1200
G0 X116.567 Y33.896 Z3.500
G1 Z0 F1000
G1 X117.390 Y33.896 Z0.000 F1600
G1 X117.390 Y34.029 Z0.000 F1600
G1 X117.352 Y34.202 Z0.000 F1600
; --- FIX X Backlash: -1.300mm ---
G0 X116.052 Y34.202 F1200
G1 X115.940 Y34.335 Z0.000 F1600
G1 X115.826 Y34.410 Z0.000 F1600
G1 X115.670 Y34.418 Z0.000 F1600
G1 X115.513 Y34.373 Z0.000 F1600
; --- FIX Y Backlash: -1.300mm ---
G0 X115.513 Y33.073 F1200
G1 X115.378 Y32.961 Z0.000 F1600
G1 X115.326 Y32.850 Z0.000 F1600
G1 X115.267 Y32.707 Z0.000 F1600
G1 X115.252 Y32.558 Z0.000 F1600
G1 X115.289 Y32.378 Z0.000 F1600
; --- FIX X Backlash: 1.300mm ---
G0 X116.589 Y32.378 F1200
G1 X116.657 Y32.214 Z0.000 F1600
G1 X116.792 Y32.079 Z0.000 F1600
G1 X116.918 Y32.020 Z0.000 F1600
G1 X117.074 Y32.005 Z0.000 F1600
G1 X117.209 Y32.042 Z0.000 F1600
; --- FIX Y Backlash: 1.300mm ---
G0 X117.209 Y33.342 F1200
G1 X117.337 Y33.409 Z0.000 F1600
G0 Z3.5 F1000
G0 X117.785 Y33.439 Z3.500
G1 Z0 F1000
; --- FIX Y Backlash: -1.300mm ---
G0 X117.785 Y32.139 F1200
G1 X117.785 Y32.027 Z0.000 F1600
G1 X117.897 Y32.027 Z0.000 F1600
; --- FIX Y Backlash: 1.300mm ---
G0 X117.897 Y33.327 F1200
G1 X117.897 Y33.439 Z0.000 F1600
; --- FIX X Backlash: -1.300mm ---
G0 X116.597 Y33.439 F1200
G1 X116.485 Y33.439 Z0.000 F1600
G0 Z3.5 F1000
G0 X116.485 Y34.230 Z3.500
G1 Z0 F1000
; --- FIX X Backlash: 1.300mm ---
G0 X117.785 Y34.230 F1200
G1 X117.897 Y34.230 Z0.000 F1600
G1 X117.897 Y34.344 Z0.000 F1600
; --- FIX X Backlash: -1.300mm ---
G0 X116.597 Y34.344 F1200
G1 X116.485 Y34.344 Z0.000 F1600
; --- FIX Y Backlash: -1.300mm ---
G0 X116.485 Y33.044 F1200
G1 X116.485 Y32.930 Z0.000 F1600
G0 Z3.5 F1000
; --- FIX X Backlash: 1.300mm ---
G0 X117.785 Y32.930 F1200
G0 X118.332 Y31.087 Z3.500
G1 Z0 F1000
; --- FIX X Backlash: -1.300mm ---
G0 X117.032 Y31.087 F1200
G1 X116.753 Y31.079 Z0.000 F1600
; --- FIX X Backlash: 1.300mm ---
G0 X118.053 Y31.079 F1200
; --- FIX Y Backlash: 1.300mm ---
G0 X118.053 Y32.379 F1200
G1 X118.340 Y32.489 Z0.000 F1600
; --- FIX Y Backlash: -1.300mm ---
G0 X118.340 Y31.189 F1200
G1 X118.340 Y29.572 Z0.000 F1600
; --- FIX X Backlash: -1.300mm ---
G0 X117.040 Y29.572 F1200
G1 X116.617 Y29.572 Z0.000 F1600
; --- FIX X Backlash: 1.300mm ---
G0 X117.917 Y29.572 F1200
G1 X118.752 Y29.572 Z0.000 F1600
G0 Z3.5 F1000
G0 X119.232 Y29.547 Z3.500
G1 Z0 F1000
G1 X119.367 Y29.547 Z0.000 F1600
; --- FIX Y Backlash: 1.300mm ---
G0 X119.367 Y30.847 F1200
G1 X119.367 Y30.981 Z0.000 F1600
; --- FIX X Backlash: -1.300mm ---
G0 X118.067 Y30.981 F1200
G1 X117.932 Y30.981 Z0.000 F1600
; --- FIX Y Backlash: -1.300mm ---
G0 X117.932 Y29.681 F1200
G1 X117.932 Y29.547 Z0.000 F1600
G0 Z3.5 F1000
; --- FIX X Backlash: 1.300mm ---
G0 X119.232 Y29.547 F1200
G0 X120.809 Y29.572 Z3.500
G1 Z0 F1000
; --- FIX X Backlash: -1.300mm ---
G0 X119.509 Y29.572 F1200
G1 X118.556 Y29.572 Z0.000 F1600
; --- FIX X Backlash: 1.300mm ---
G0 X119.856 Y29.572 F1200
; --- FIX Y Backlash: 1.300mm ---
G0 X119.856 Y30.872 F1200
G1 X120.084 Y31.125 Z0.000 F1600
G1 X120.252 Y31.301 Z0.000 F1600
G1 X120.437 Y31.529 Z0.000 F1600
G1 X120.589 Y31.748 Z0.000 F1600
G1 X120.672 Y31.943 Z0.000 F1600
G1 X120.683 Y32.101 Z0.000 F1600
G1 X120.640 Y32.288 Z0.000 F1600
; --- FIX X Backlash: -1.300mm ---
G0 X119.340 Y32.288 F1200
G1 X119.247 Y32.414 Z0.000 F1600
G1 X119.097 Y32.489 Z0.000 F1600
G1 X118.952 Y32.516 Z0.000 F1600
G1 X118.784 Y32.473 Z0.000 F1600
; --- FIX Y Backlash: -1.300mm ---
G0 X118.784 Y31.173 F1200
G1 X118.650 Y31.087 Z0.000 F1600
G1 X118.539 Y30.980 Z0.000 F1600
G0 Z3.5 F1000
; --- FIX X Backlash: 1.300mm ---
G0 X119.839 Y30.980 F1200
; --- FIX Y Backlash: 1.300mm ---
G0 X119.839 Y32.280 F1200
G0 X122.047 Y32.473 Z3.500
G1 Z0 F1000
; --- FIX X Backlash: -1.300mm ---
G0 X120.747 Y32.473 F1200
G1 X120.057 Y32.473 Z0.000 F1600
; --- FIX Y Backlash: -1.300mm ---
G0 X120.057 Y31.173 F1200
G1 X120.006 Y30.464 Z0.000 F1600
G1 X120.022 Y30.440 Z0.000 F1600
; --- FIX X Backlash: 1.300mm ---
G0 X121.322 Y30.440 F1200
; --- FIX Y Backlash: 1.300mm ---
G0 X121.322 Y31.740 F1200
G1 X121.467 Y31.815 Z0.000 F1600
G1 X121.609 Y31.850 Z0.000 F1600
G1 X121.804 Y31.834 Z0.000 F1600
; --- FIX Y Backlash: -1.300mm ---
G0 X121.804 Y30.534 F1200
G1 X121.997 Y30.424 Z0.000 F1600
G1 X122.090 Y30.255 Z0.000 F1600
G1 X122.114 Y30.036 Z0.000 F1600
G1 X122.072 Y29.849 Z0.000 F1600
; --- FIX X Backlash: -1.300mm ---
G0 X120.772 Y29.849 F1200
G1 X120.662 Y29.690 Z0.000 F1600
G1 X120.528 Y29.580 Z0.000 F1600
G1 X120.335 Y29.530 Z0.000 F1600
G1 X120.207 Y29.538 Z0.000 F1600
; --- FIX Y Backlash: 1.300mm ---
G0 X120.207 Y30.838 F1200
G1 X120.073 Y30.889 Z0.000 F1600
G1 X119.956 Y30.956 Z0.000 F1600
G1 X119.846 Y31.049 Z0.000 F1600
G0 Z3.5 F1000
; --- FIX X Backlash: 1.300mm ---
G0 X121.146 Y31.049 F1200
; --- FIX Y Backlash: -1.300mm ---
G0 X121.146 Y29.749 F1200
G0 X124.029 Y28.317 Z3.500
G1 Z0 F1000
G1 X124.029 Y25.750 Z0.000 F1600
G0 Z3.5 F1000
; --- FIX Y Backlash: 1.300mm ---
G0 X124.029 Y27.050 F1200
G0 X128.859 Y30.604 Z3.500
G1 Z0 F1000
G1 X128.849 Y30.655 Z0.000 F1600
G1 X128.832 Y30.777 Z0.000 F1600
G1 X128.799 Y31.034 Z0.000 F1600
G1 X128.789 Y31.623 Z0.000 F1600
G1 X128.810 Y32.222 Z0.000 F1600
G1 X128.859 Y32.533 Z0.000 F1600
G1 X128.916 Y32.794 Z0.000 F1600
G1 X128.986 Y33.019 Z0.000 F1600
G1 X129.071 Y33.219 Z0.000 F1600
G1 X129.224 Y33.496 Z0.000 F1600
G1 X129.365 Y33.702 Z0.000 F1600
G1 X129.530 Y33.878 Z0.000 F1600
G1 X129.677 Y34.006 Z0.000 F1600
G1 X129.811 Y34.090 Z0.000 F1600
G1 X129.938 Y34.135 Z0.000 F1600
G1 X130.073 Y34.153 Z0.000 F1600
G1 X130.221 Y34.157 Z0.000 F1600
G1 X130.341 Y34.149 Z0.000 F1600
G1 X130.390 Y34.128 Z0.000 F1600
G1 X130.386 Y34.107 Z0.000 F1600
G1 X130.375 Y34.094 Z0.000 F1600
G1 X130.329 Y34.046 Z0.000 F1600
; --- FIX X Backlash: -1.300mm ---
G0 X129.029 Y34.046 F1200
; --- FIX Y Backlash: -1.300mm ---
G0 X129.029 Y32.746 F1200
G1 X128.940 Y32.636 Z0.000 F1600
G1 X128.830 Y32.492 Z0.000 F1600
G1 X128.721 Y32.343 Z0.000 F1600
G1 X128.484 Y31.975 Z0.000 F1600
G1 X128.288 Y31.596 Z0.000 F1600
G1 X128.130 Y31.197 Z0.000 F1600
G1 X128.004 Y30.767 Z0.000 F1600
G1 X127.967 Y30.590 Z0.000 F1600
G1 X127.938 Y30.402 Z0.000 F1600
G1 X127.923 Y30.258 Z0.000 F1600
G1 X127.930 Y30.212 Z0.000 F1600
G1 X127.945 Y30.240 Z0.000 F1600
; --- FIX X Backlash: 1.300mm ---
G0 X129.245 Y30.240 F1200
; --- FIX Y Backlash: 1.300mm ---
G0 X129.245 Y31.540 F1200
G1 X129.373 Y31.837 Z0.000 F1600
G1 X129.616 Y32.370 Z0.000 F1600
G1 X129.876 Y32.873 Z0.000 F1600
G1 X130.238 Y33.442 Z0.000 F1600
G1 X130.626 Y33.957 Z0.000 F1600
G1 X130.685 Y34.011 Z0.000 F1600
G1 X130.749 Y33.997 Z0.000 F1600
; --- FIX Y Backlash: -1.300mm ---
G0 X130.749 Y32.697 F1200
G1 X130.972 Y32.564 Z0.000 F1600
G1 X131.100 Y32.440 Z0.000 F1600
G1 X131.079 Y32.356 Z0.000 F1600
; --- FIX X Backlash: -1.300mm ---
G0 X129.779 Y32.356 F1200
G1 X129.725 Y32.210 Z0.000 F1600
G1 X129.651 Y32.034 Z0.000 F1600
G1 X129.570 Y31.863 Z0.000 F1600
G1 X129.271 Y31.347 Z0.000 F1600
G1 X128.896 Y30.847 Z0.000 F1600
G1 X128.664 Y30.577 Z0.000 F1600
G1 X128.257 Y30.155 Z0.000 F1600
G1 X128.217 Y30.100 Z0.000 F1600
G1 X128.252 Y30.105 Z0.000 F1600
; --- FIX X Backlash: 1.300mm ---
G0 X129.552 Y30.105 F1200
; --- FIX Y Backlash: 1.300mm ---
G0 X129.552 Y31.405 F1200
G1 X129.660 Y31.462 Z0.000 F1600
G1 X129.957 Y31.654 Z0.000 F1600
G1 X130.243 Y31.884 Z0.000 F1600
G1 X130.512 Y32.148 Z0.000 F1600
G1 X130.757 Y32.439 Z0.000 F1600
G1 X130.920 Y32.675 Z0.000 F1600
G1 X131.074 Y32.935 Z0.000 F1600
G1 X131.204 Y33.195 Z0.000 F1600
G1 X131.297 Y33.431 Z0.000 F1600
G1 X131.330 Y33.525 Z0.000 F1600
G1 X131.347 Y33.564 Z0.000 F1600
; --- FIX Y Backlash: -1.300mm ---
G0 X131.347 Y32.264 F1200
G1 X131.422 Y32.140 Z0.000 F1600
G1 X131.512 Y31.934 Z0.000 F1600
G1 X131.544 Y31.801 Z0.000 F1600
G1 X131.554 Y31.647 Z0.000 F1600
G1 X131.536 Y31.439 Z0.000 F1600
; --- FIX X Backlash: -1.300mm ---
G0 X130.236 Y31.439 F1200
G1 X130.180 Y31.231 Z0.000 F1600
G1 X130.089 Y31.023 Z0.000 F1600
G1 X129.963 Y30.817 Z0.000 F1600
G1 X129.804 Y30.614 Z0.000 F1600
G1 X129.613 Y30.417 Z0.000 F1600
G1 X129.390 Y30.226 Z0.000 F1600
G1 X129.137 Y30.043 Z0.000 F1600
G1 X128.832 Y29.860 Z0.000 F1600
G1 X128.466 Y29.672 Z0.000 F1600
G1 X128.076 Y29.496 Z0.000 F1600
G1 X127.700 Y29.351 Z0.000 F1600
G1 X127.559 Y29.304 Z0.000 F1600
G0 Z3.5 F1000
; --- FIX X Backlash: 1.300mm ---
G0 X128.859 Y29.304 F1200
; --- FIX Y Backlash: 1.300mm ---
G0 X128.859 Y30.604 F1200
G0 X131.910 Y32.795 Z3.500
G1 Z0 F1000
G1 X131.906 Y32.814 Z0.000 F1600
G1 X131.902 Y32.868 Z0.000 F1600
G1 X131.899 Y33.046 Z0.000 F1600
G1 X131.889 Y33.282 Z0.000 F1600
G1 X131.843 Y33.452 Z0.000 F1600
; --- FIX X Backlash: -1.300mm ---
G0 X130.543 Y33.452 F1200
G1 X130.488 Y33.606 Z0.000 F1600
; --- FIX X Backlash: 1.300mm ---
G0 X131.788 Y33.606 F1200
G1 X132.301 Y34.373 Z0.000 F1600
G1 X132.505 Y34.671 Z0.000 F1600
G1 X132.539 Y34.717 Z0.000 F1600
G1 X132.586 Y34.713 Z0.000 F1600
G1 X132.680 Y34.690 Z0.000 F1600
G1 X132.895 Y34.643 Z0.000 F1600
G1 X133.145 Y34.610 Z0.000 F1600
G1 X133.419 Y34.590 Z0.000 F1600
G1 X133.705 Y34.583 Z0.000 F1600
G1 X133.990 Y34.589 Z0.000 F1600
G1 X134.263 Y34.609 Z0.000 F1600
G1 X134.513 Y34.643 Z0.000 F1600
G1 X134.727 Y34.689 Z0.000 F1600
G1 X134.831 Y34.717 Z0.000 F1600
G1 X134.890 Y34.726 Z0.000 F1600
G1 X134.921 Y34.717 Z0.000 F1600
; --- FIX Y Backlash: -1.300mm ---
G0 X134.921 Y33.417 F1200
G1 X135.020 Y33.266 Z0.000 F1600
G1 X135.186 Y33.022 Z0.000 F1600
G1 X135.487 Y32.584 Z0.000 F1600
G1 X135.536 Y32.502 Z0.000 F1600
G1 X135.547 Y32.460 Z0.000 F1600
G1 X135.523 Y32.450 Z0.000 F1600
; --- FIX X Backlash: -1.300mm ---
G0 X134.223 Y32.450 F1200
G1 X134.088 Y32.411 Z0.000 F1600
G1 X133.770 Y32.329 Z0.000 F1600
G1 X133.562 Y32.280 Z0.000 F1600
G1 X133.445 Y32.254 Z0.000 F1600
G1 X133.295 Y31.496 Z0.000 F1600
G1 X133.270 Y31.376 Z0.000 F1600
G1 X133.245 Y31.276 Z0.000 F1600
G1 X133.224 Y31.206 Z0.000 F1600
G1 X133.210 Y31.175 Z0.000 F1600
G1 X133.148 Y31.169 Z0.000 F1600
G1 X132.997 Y31.164 Z0.000 F1600
G1 X132.781 Y31.161 Z0.000 F1600
G1 X132.521 Y31.161 Z0.000 F1600
G1 X132.203 Y31.161 Z0.000 F1600
G1 X131.995 Y31.164 Z0.000 F1600
G1 X131.879 Y31.172 Z0.000 F1600
G1 X131.837 Y31.184 Z0.000 F1600
G1 X131.825 Y31.214 Z0.000 F1600
; --- FIX Y Backlash: 1.300mm ---
G0 X131.825 Y32.514 F1200
G1 X131.807 Y32.579 Z0.000 F1600
G1 X131.786 Y32.669 Z0.000 F1600
G1 X131.645 Y33.355 Z0.000 F1600
G1 X131.625 Y33.470 Z0.000 F1600
G1 X131.616 Y33.529 Z0.000 F1600
G1 X131.589 Y33.560 Z0.000 F1600
G1 X131.507 Y33.582 Z0.000 F1600
G1 X131.335 Y33.611 Z0.000 F1600
G1 X131.203 Y33.628 Z0.000 F1600
G1 X131.155 Y33.606 Z0.000 F1600
; --- FIX Y Backlash: -1.300mm ---
G0 X131.155 Y32.306 F1200
G1 X131.095 Y32.221 Z0.000 F1600
G1 X130.981 Y32.052 Z0.000 F1600
G1 X130.645 Y31.540 Z0.000 F1600
G1 X130.610 Y31.495 Z0.000 F1600
G0 Z3.5 F1000
; --- FIX Y Backlash: 1.300mm ---
G0 X130.610 Y32.795 F1200
G0 X130.265 Y33.808 Z3.500
G1 Z0 F1000
G1 X130.238 Y33.808 Z0.000 F1600
G1 X130.197 Y33.839 Z0.000 F1600
G1 X130.136 Y33.898 Z0.000 F1600
G1 X129.974 Y34.047 Z0.000 F1600
G1 X129.766 Y34.188 Z0.000 F1600
G1 X129.463 Y34.339 Z0.000 F1600
G1 X129.217 Y34.413 Z0.000 F1600
G1 X129.184 Y34.418 Z0.000 F1600
G1 X129.171 Y34.433 Z0.000 F1600
G1 X129.178 Y34.462 Z0.000 F1600
; --- FIX X Backlash: 1.300mm ---
G0 X130.478 Y34.462 F1200
G1 X130.556 Y34.590 Z0.000 F1600
G1 X130.633 Y34.723 Z0.000 F1600
G1 X130.722 Y34.882 Z0.000 F1600
G1 X130.870 Y35.154 Z0.000 F1600
G1 X130.941 Y35.278 Z0.000 F1600
G1 X131.080 Y35.544 Z0.000 F1600
G1 X131.120 Y35.617 Z0.000 F1600
G1 X131.161 Y35.697 Z0.000 F1600
G1 X131.249 Y35.877 Z0.000 F1600
G1 X131.494 Y36.391 Z0.000 F1600
G1 X131.529 Y36.455 Z0.000 F1600
G1 X131.551 Y36.478 Z0.000 F1600
; --- FIX Y Backlash: -1.300mm ---
G0 X131.551 Y35.178 F1200
G1 X132.655 Y34.508 Z0.000 F1600
G1 X132.769 Y34.432 Z0.000 F1600
G1 X132.817 Y34.388 Z0.000 F1600
G1 X132.781 Y34.323 Z0.000 F1600
; --- FIX X Backlash: -1.300mm ---
G0 X131.481 Y34.323 F1200
G1 X131.396 Y34.198 Z0.000 F1600
G1 X131.154 Y33.856 Z0.000 F1600
G1 X131.011 Y33.649 Z0.000 F1600
G1 X130.852 Y33.410 Z0.000 F1600
G1 X130.608 Y33.040 Z0.000 F1600
G1 X130.384 Y32.694 Z0.000 F1600
G1 X130.282 Y32.532 Z0.000 F1600
G1 X130.265 Y32.508 Z0.000 F1600
G0 Z3.5 F1000
; --- FIX Y Backlash: 1.300mm ---
G0 X130.265 Y33.808 F1200
G0 X128.940 Y34.691 Z3.500
G1 Z0 F1000
G1 X128.904 Y34.712 Z0.000 F1600
G1 X128.748 Y34.838 Z0.000 F1600
G1 X128.700 Y34.874 Z0.000 F1600
G1 X128.670 Y34.865 Z0.000 F1600
G1 X128.605 Y34.830 Z0.000 F1600
; --- FIX Y Backlash: -1.300mm ---
G0 X128.605 Y33.530 F1200
G1 X128.512 Y33.475 Z0.000 F1600
G1 X128.401 Y33.406 Z0.000 F1600
G1 X128.155 Y33.245 Z0.000 F1600
G1 X127.937 Y33.090 Z0.000 F1600
G1 X127.848 Y33.030 Z0.000 F1600
G1 X127.782 Y33.009 Z0.000 F1600
G1 X127.723 Y33.026 Z0.000 F1600
; --- FIX Y Backlash: 1.300mm ---
G0 X127.723 Y34.326 F1200
G1 X127.653 Y34.380 Z0.000 F1600
G1 X127.588 Y34.445 Z0.000 F1600
G1 X127.331 Y34.706 Z0.000 F1600
G1 X127.058 Y34.990 Z0.000 F1600
G1 X126.901 Y35.158 Z0.000 F1600
G1 X126.852 Y35.215 Z0.000 F1600
G1 X126.799 Y35.287 Z0.000 F1600
G1 X126.792 Y35.325 Z0.000 F1600
G1 X126.841 Y35.416 Z0.000 F1600
; --- FIX X Backlash: 1.300mm ---
G0 X128.141 Y35.416 F1200
G1 X128.241 Y35.574 Z0.000 F1600
G1 X128.337 Y35.721 Z0.000 F1600
G1 X128.388 Y35.806 Z0.000 F1600
G1 X128.467 Y35.925 Z0.000 F1600
G1 X128.672 Y36.227 Z0.000 F1600
; --- FIX X Backlash: -1.300mm ---
G0 X127.372 Y36.227 F1200
G1 X127.288 Y36.354 Z0.000 F1600
G1 X127.192 Y36.514 Z0.000 F1600
G1 X127.014 Y36.834 Z0.000 F1600
G1 X126.968 Y36.907 Z0.000 F1600
G1 X126.934 Y36.947 Z0.000 F1600
G1 X126.909 Y36.958 Z0.000 F1600
G1 X126.856 Y36.955 Z0.000 F1600
; --- FIX Y Backlash: -1.300mm ---
G0 X126.856 Y35.655 F1200
G1 X126.190 Y35.590 Z0.000 F1600
G1 X126.032 Y35.578 Z0.000 F1600
G1 X125.925 Y35.574 Z0.000 F1600
G1 X125.878 Y35.577 Z0.000 F1600
G1 X125.850 Y35.620 Z0.000 F1600
; --- FIX Y Backlash: 1.300mm ---
G0 X125.850 Y36.920 F1200
G1 X125.806 Y37.030 Z0.000 F1600
G1 X125.744 Y37.219 Z0.000 F1600
G1 X125.601 Y37.687 Z0.000 F1600
G1 X125.513 Y37.968 Z0.000 F1600
G1 X125.482 Y38.083 Z0.000 F1600
G1 X125.465 Y38.166 Z0.000 F1600
G1 X125.465 Y38.210 Z0.000 F1600
; --- FIX X Backlash: 1.300mm ---
G0 X126.765 Y38.210 F1200
G1 X126.825 Y38.267 Z0.000 F1600
G1 X126.972 Y38.361 Z0.000 F1600
G1 X127.202 Y38.489 Z0.000 F1600
G1 X127.506 Y38.646 Z0.000 F1600
G1 X127.692 Y38.740 Z0.000 F1600
G1 X127.659 Y39.283 Z0.000 F1600
G1 X127.646 Y39.479 Z0.000 F1600
G1 X127.635 Y39.590 Z0.000 F1600
G1 X127.627 Y39.629 Z0.000 F1600
G1 X127.599 Y39.642 Z0.000 F1600
; --- FIX X Backlash: -1.300mm ---
G0 X126.299 Y39.642 F1200
G1 X126.140 Y39.704 Z0.000 F1600
G1 X125.779 Y39.836 Z0.000 F1600
G1 X125.563 Y39.911 Z0.000 F1600
G1 X125.405 Y39.971 Z0.000 F1600
G1 X125.324 Y40.015 Z0.000 F1600
G1 X125.309 Y40.053 Z0.000 F1600
G1 X125.309 Y40.126 Z0.000 F1600
G1 X125.325 Y40.255 Z0.000 F1600
G1 X125.360 Y40.462 Z0.000 F1600
; --- FIX X Backlash: 1.300mm ---
G0 X126.660 Y40.462 F1200
G1 X126.759 Y41.024 Z0.000 F1600
G1 X126.788 Y41.180 Z0.000 F1600
G1 X126.813 Y41.293 Z0.000 F1600
G1 X126.835 Y41.367 Z0.000 F1600
G1 X126.854 Y41.402 Z0.000 F1600
G1 X126.887 Y41.419 Z0.000 F1600
G1 X126.963 Y41.430 Z0.000 F1600
G1 X127.103 Y41.439 Z0.000 F1600
G1 X127.510 Y41.451 Z0.000 F1600
G1 X127.906 Y41.460 Z0.000 F1600
G1 X127.935 Y41.473 Z0.000 F1600
G1 X127.956 Y41.506 Z0.000 F1600
G1 X128.020 Y41.669 Z0.000 F1600
G1 X128.281 Y42.287 Z0.000 F1600
; --- FIX X Backlash: -1.300mm ---
G0 X126.981 Y42.287 F1200
G1 X126.390 Y42.918 Z0.000 F1600
G1 X126.313 Y43.008 Z0.000 F1600
G1 X126.275 Y43.071 Z0.000 F1600
G1 X126.275 Y43.111 Z0.000 F1600
G1 X126.311 Y43.188 Z0.000 F1600
G1 X126.357 Y43.257 Z0.000 F1600
; --- FIX X Backlash: 1.300mm ---
G0 X127.657 Y43.257 F1200
G1 X127.726 Y43.358 Z0.000 F1600
G1 X128.313 Y44.194 Z0.000 F1600
G1 X128.361 Y44.247 Z0.000 F1600
G1 X128.423 Y44.262 Z0.000 F1600
G1 X128.523 Y44.237 Z0.000 F1600
; --- FIX Y Backlash: -1.300mm ---
G0 X128.523 Y42.937 F1200
G1 X128.683 Y42.871 Z0.000 F1600
G1 X128.904 Y42.772 Z0.000 F1600
G1 X129.404 Y42.543 Z0.000 F1600
; --- FIX Y Backlash: 1.300mm ---
G0 X129.404 Y43.843 F1200
G1 X129.477 Y43.907 Z0.000 F1600
G1 X129.555 Y43.977 Z0.000 F1600
G1 X129.639 Y44.057 Z0.000 F1600
G1 X129.706 Y44.117 Z0.000 F1600
G1 X129.743 Y44.143 Z0.000 F1600
G1 X129.761 Y44.127 Z0.000 F1600
G1 X129.780 Y44.088 Z0.000 F1600
; --- FIX Y Backlash: -1.300mm ---
G0 X129.780 Y42.788 F1200
G1 X129.808 Y42.721 Z0.000 F1600
G1 X130.082 Y42.119 Z0.000 F1600
G1 X130.179 Y41.898 Z0.000 F1600
G1 X130.190 Y41.821 Z0.000 F1600
G1 X130.147 Y41.746 Z0.000 F1600
; --- FIX X Backlash: -1.300mm ---
G0 X128.847 Y41.746 F1200
G1 X128.739 Y41.624 Z0.000 F1600
G1 X128.472 Y41.304 Z0.000 F1600
G1 X128.237 Y40.981 Z0.000 F1600
G1 X128.033 Y40.650 Z0.000 F1600
G1 X127.860 Y40.310 Z0.000 F1600
G1 X127.717 Y39.959 Z0.000 F1600
G1 X127.601 Y39.594 Z0.000 F1600
G1 X127.513 Y39.212 Z0.000 F1600
G1 X127.450 Y38.811 Z0.000 F1600
G1 X127.437 Y38.148 Z0.000 F1600
; --- FIX X Backlash: 1.300mm ---
G0 X128.737 Y38.148 F1200
G1 X128.790 Y37.474 Z0.000 F1600
G1 X128.928 Y36.876 Z0.000 F1600
G1 X129.128 Y36.320 Z0.000 F1600
G1 X129.395 Y35.794 Z0.000 F1600
G1 X129.733 Y35.288 Z0.000 F1600
G1 X130.165 Y34.800 Z0.000 F1600
G1 X130.612 Y34.367 Z0.000 F1600
G1 X130.678 Y34.310 Z0.000 F1600
G1 X130.706 Y34.277 Z0.000 F1600
G1 X130.680 Y34.221 Z0.000 F1600
; --- FIX X Backlash: -1.300mm ---
G0 X129.380 Y34.221 F1200
G1 X129.216 Y33.915 Z0.000 F1600
G1 X128.940 Y33.391 Z0.000 F1600
G0 Z3.5 F1000
; --- FIX X Backlash: 1.300mm ---
G0 X130.240 Y33.391 F1200
; --- FIX Y Backlash: 1.300mm ---
G0 X130.240 Y34.691 F1200
G0 X132.297 Y36.395 Z3.500
G1 Z0 F1000
; --- FIX X Backlash: -1.300mm ---
G0 X130.997 Y36.395 F1200
G1 X130.565 Y36.653 Z0.000 F1600
G1 X130.397 Y36.751 Z0.000 F1600
G1 X130.365 Y36.767 Z0.000 F1600
G1 X130.365 Y36.794 Z0.000 F1600
G1 X130.376 Y36.861 Z0.000 F1600
G1 X130.402 Y36.961 Z0.000 F1600
G1 X130.438 Y37.086 Z0.000 F1600
; --- FIX X Backlash: 1.300mm ---
G0 X131.738 Y37.086 F1200
G1 X131.832 Y37.377 Z0.000 F1600
G1 X131.939 Y37.669 Z0.000 F1600
G1 X132.127 Y38.099 Z0.000 F1600
G1 X132.361 Y38.538 Z0.000 F1600
G1 X132.505 Y38.777 Z0.000 F1600
G1 X132.672 Y39.036 Z0.000 F1600
G1 X132.864 Y39.323 Z0.000 F1600
G1 X133.695 Y40.510 Z0.000 F1600
G1 X133.993 Y40.931 Z0.000 F1600
G1 X134.243 Y41.280 Z0.000 F1600
G1 X134.381 Y41.468 Z0.000 F1600
G1 X135.323 Y42.781 Z0.000 F1600
G1 X136.291 Y44.135 Z0.000 F1600
G1 X136.922 Y45.034 Z0.000 F1600
G1 X137.695 Y46.147 Z0.000 F1600
G1 X137.777 Y46.262 Z0.000 F1600
G1 X138.110 Y46.748 Z0.000 F1600
G1 X138.241 Y46.931 Z0.000 F1600
G1 X138.273 Y46.969 Z0.000 F1600
G1 X138.341 Y46.987 Z0.000 F1600
G1 X138.415 Y46.970 Z0.000 F1600
G1 X138.476 Y46.926 Z0.000 F1600
; --- FIX Y Backlash: -1.300mm ---
G0 X138.476 Y45.626 F1200
G1 X138.501 Y45.567 Z0.000 F1600
G1 X138.495 Y45.537 Z0.000 F1600
G1 X138.476 Y45.480 Z0.000 F1600
; --- FIX X Backlash: -1.300mm ---
G0 X137.176 Y45.480 F1200
G1 X137.102 Y45.286 Z0.000 F1600
G1 X136.980 Y44.989 Z0.000 F1600
G1 X136.402 Y43.635 Z0.000 F1600
G1 X134.952 Y40.326 Z0.000 F1600
G1 X134.379 Y39.024 Z0.000 F1600
G1 X134.034 Y38.244 Z0.000 F1600
G1 X133.739 Y37.589 Z0.000 F1600
G1 X133.472 Y37.027 Z0.000 F1600
G1 X133.227 Y36.545 Z0.000 F1600
G1 X132.995 Y36.130 Z0.000 F1600
G1 X132.767 Y35.767 Z0.000 F1600
G1 X132.536 Y35.443 Z0.000 F1600
G1 X132.294 Y35.145 Z0.000 F1600
G1 X132.033 Y34.859 Z0.000 F1600
G1 X131.890 Y34.713 Z0.000 F1600
G1 X131.813 Y34.638 Z0.000 F1600
G1 X131.779 Y34.638 Z0.000 F1600
G1 X131.704 Y34.671 Z0.000 F1600
; --- FIX Y Backlash: 1.300mm ---
G0 X131.704 Y35.971 F1200
G1 X131.564 Y36.050 Z0.000 F1600
G1 X131.339 Y36.186 Z0.000 F1600
G1 X130.997 Y36.395 Z0.000 F1600
G0 Z3.5 F1000
; --- FIX X Backlash: 1.300mm ---
G0 X132.297 Y36.395 F1200
G0 X133.923 Y36.384 Z3.500
G1 Z0 F1000
G1 X133.941 Y36.415 Z0.000 F1600
G1 X133.989 Y36.463 Z0.000 F1600
G1 X134.066 Y36.559 Z0.000 F1600
G1 X134.164 Y36.693 Z0.000 F1600
G1 X134.275 Y36.850 Z0.000 F1600
G1 X134.497 Y37.184 Z0.000 F1600
G1 X134.661 Y37.458 Z0.000 F1600
G1 X134.809 Y37.737 Z0.000 F1600
G1 X134.993 Y38.090 Z0.000 F1600
G1 X135.131 Y38.361 Z0.000 F1600
G1 X135.168 Y38.424 Z0.000 F1600
G1 X135.189 Y38.439 Z0.000 F1600
G1 X135.202 Y38.419 Z0.000 F1600
; --- FIX Y Backlash: -1.300mm ---
G0 X135.202 Y37.119 F1200
G1 X135.477 Y36.442 Z0.000 F1600
G1 X135.570 Y36.201 Z0.000 F1600
G1 X135.639 Y36.007 Z0.000 F1600
G1 X135.746 Y35.685 Z0.000 F1600
G1 X135.791 Y35.539 Z0.000 F1600
G1 X135.797 Y35.511 Z0.000 F1600
G1 X135.760 Y35.481 Z0.000 F1600
; --- FIX X Backlash: -1.300mm ---
G0 X134.460 Y35.481 F1200
G1 X134.359 Y35.414 Z0.000 F1600
G1 X134.210 Y35.319 Z0.000 F1600
G1 X133.323 Y34.780 Z0.000 F1600
G1 X133.149 Y34.677 Z0.000 F1600
G1 X133.091 Y34.645 Z0.000 F1600
G1 X133.063 Y34.633 Z0.000 F1600
G1 X133.038 Y34.649 Z0.000 F1600
G1 X132.986 Y34.691 Z0.000 F1600
; --- FIX Y Backlash: 1.300mm ---
G0 X132.986 Y35.991 F1200
G1 X132.914 Y36.055 Z0.000 F1600
G1 X132.831 Y36.132 Z0.000 F1600
G1 X132.713 Y36.250 Z0.000 F1600
G1 X132.645 Y36.331 Z0.000 F1600
G1 X132.623 Y36.384 Z0.000 F1600
G0 Z3.5 F1000
; --- FIX X Backlash: 1.300mm ---
G0 X133.923 Y36.384 F1200
; --- FIX Y Backlash: -1.300mm ---
G0 X133.923 Y35.084 F1200
G0 X134.756 Y34.495 Z3.500
G1 Z0 F1000
; --- FIX Y Backlash: 1.300mm ---
G0 X134.756 Y35.795 F1200
G1 X134.886 Y35.873 Z0.000 F1600
G1 X135.238 Y36.092 Z0.000 F1600
G1 X135.662 Y36.346 Z0.000 F1600
G1 X135.855 Y36.456 Z0.000 F1600
G1 X135.890 Y36.473 Z0.000 F1600
; --- FIX Y Backlash: -1.300mm ---
G0 X135.890 Y35.173 F1200
G1 X135.934 Y35.121 Z0.000 F1600
G1 X136.003 Y34.986 Z0.000 F1600
G1 X136.350 Y34.270 Z0.000 F1600
G1 X136.766 Y33.513 Z0.000 F1600
G1 X136.843 Y33.379 Z0.000 F1600
G1 X136.949 Y33.186 Z0.000 F1600
G1 X136.967 Y33.151 Z0.000 F1600
G1 X136.928 Y33.124 Z0.000 F1600
; --- FIX X Backlash: -1.300mm ---
G0 X135.628 Y33.124 F1200
G1 X135.527 Y33.091 Z0.000 F1600
G1 X135.325 Y33.020 Z0.000 F1600
G1 X135.118 Y32.915 Z0.000 F1600
G1 X134.915 Y32.782 Z0.000 F1600
G1 X134.726 Y32.625 Z0.000 F1600
G1 X134.646 Y32.551 Z0.000 F1600
G1 X134.603 Y32.515 Z0.000 F1600
G1 X134.577 Y32.532 Z0.000 F1600
; --- FIX Y Backlash: 1.300mm ---
G0 X134.577 Y33.832 F1200
G1 X134.538 Y33.886 Z0.000 F1600
G1 X134.472 Y33.993 Z0.000 F1600
G1 X133.989 Y34.723 Z0.000 F1600
G1 X133.778 Y35.034 Z0.000 F1600
G1 X133.587 Y35.307 Z0.000 F1600
G1 X133.350 Y35.634 Z0.000 F1600
G1 X133.313 Y35.694 Z0.000 F1600
G1 X133.355 Y35.731 Z0.000 F1600
; --- FIX X Backlash: 1.300mm ---
G0 X134.655 Y35.731 F1200
G1 X134.756 Y35.795 Z0.000 F1600
G0 Z3.5 F1000
; --- FIX Y Backlash: -1.300mm ---
G0 X134.756 Y34.495 F1200
G0 X136.751 Y34.263 Z3.500
G1 Z0 F1000
G1 X136.762 Y34.294 Z0.000 F1600
; --- FIX Y Backlash: 1.300mm ---
G0 X136.762 Y35.594 F1200
G1 X136.809 Y35.645 Z0.000 F1600
G1 X136.903 Y35.730 Z0.000 F1600
G1 X137.334 Y36.150 Z0.000 F1600
G1 X137.698 Y36.573 Z0.000 F1600
G1 X138.000 Y37.008 Z0.000 F1600
G1 X138.246 Y37.462 Z0.000 F1600
G1 X138.437 Y37.952 Z0.000 F1600
G1 X138.588 Y38.469 Z0.000 F1600
G1 X138.677 Y39.012 Z0.000 F1600
G1 X138.709 Y39.576 Z0.000 F1600
G1 X138.682 Y40.134 Z0.000 F1600
; --- FIX X Backlash: -1.300mm ---
G0 X137.382 Y40.134 F1200
G1 X137.297 Y40.659 Z0.000 F1600
G1 X137.196 Y41.032 Z0.000 F1600
G1 X137.090 Y41.350 Z0.000 F1600
G1 X137.029 Y41.498 Z0.000 F1600
G1 X136.866 Y41.834 Z0.000 F1600
G1 X136.700 Y42.141 Z0.000 F1600
G1 X136.502 Y42.429 Z0.000 F1600
G1 X136.343 Y42.651 Z0.000 F1600
G1 X136.145 Y42.884 Z0.000 F1600
G1 X135.990 Y43.059 Z0.000 F1600
G1 X135.955 Y43.103 Z0.000 F1600
G1 X135.960 Y43.143 Z0.000 F1600
G1 X135.994 Y43.235 Z0.000 F1600
; --- FIX X Backlash: 1.300mm ---
G0 X137.294 Y43.235 F1200
G1 X137.356 Y43.382 Z0.000 F1600
G1 X137.487 Y43.674 Z0.000 F1600
G1 X137.600 Y43.936 Z0.000 F1600
G1 X137.652 Y44.048 Z0.000 F1600
G1 X137.690 Y44.118 Z0.000 F1600
G1 X137.711 Y44.143 Z0.000 F1600
G1 X137.757 Y44.110 Z0.000 F1600
; --- FIX Y Backlash: -1.300mm ---
G0 X137.757 Y42.810 F1200
G1 X137.843 Y42.733 Z0.000 F1600
G1 X138.041 Y42.545 Z0.000 F1600
; --- FIX Y Backlash: 1.300mm ---
G0 X138.041 Y43.845 F1200
G1 X138.237 Y43.936 Z0.000 F1600
G1 X138.699 Y44.148 Z0.000 F1600
G1 X138.874 Y44.222 Z0.000 F1600
G1 X138.993 Y44.254 Z0.000 F1600
G1 X139.069 Y44.246 Z0.000 F1600
G1 X139.114 Y44.201 Z0.000 F1600
G1 X139.137 Y44.165 Z0.000 F1600
; --- FIX Y Backlash: -1.300mm ---
G0 X139.137 Y42.865 F1200
G1 X139.262 Y42.686 Z0.000 F1600
G1 X139.558 Y42.272 Z0.000 F1600
G1 X139.762 Y41.992 Z0.000 F1600
G1 X139.847 Y41.865 Z0.000 F1600
G1 X139.883 Y41.791 Z0.000 F1600
G1 X139.847 Y41.726 Z0.000 F1600
; --- FIX X Backlash: -1.300mm ---
G0 X138.547 Y41.726 F1200
G1 X138.459 Y41.623 Z0.000 F1600
G1 X138.251 Y41.403 Z0.000 F1600
G1 X137.992 Y41.126 Z0.000 F1600
G1 X137.925 Y41.049 Z0.000 F1600
G1 X137.877 Y40.969 Z0.000 F1600
G1 X137.887 Y40.923 Z0.000 F1600
G1 X137.923 Y40.828 Z0.000 F1600
; --- FIX X Backlash: 1.300mm ---
G0 X139.223 Y40.828 F1200
G1 X139.349 Y40.526 Z0.000 F1600
G1 X139.413 Y40.366 Z0.000 F1600
G1 X139.463 Y40.247 Z0.000 F1600
G1 X139.498 Y40.182 Z0.000 F1600
G1 X139.535 Y40.170 Z0.000 F1600
G1 X139.629 Y40.160 Z0.000 F1600
G1 X139.790 Y40.152 Z0.000 F1600
G1 X140.299 Y40.137 Z0.000 F1600
G1 X140.458 Y40.129 Z0.000 F1600
G1 X140.539 Y40.117 Z0.000 F1600
G1 X140.574 Y40.099 Z0.000 F1600
G1 X140.608 Y40.023 Z0.000 F1600
G1 X140.641 Y39.880 Z0.000 F1600
G1 X140.700 Y39.556 Z0.000 F1600
G1 X140.800 Y39.033 Z0.000 F1600
G1 X140.819 Y38.926 Z0.000 F1600
G1 X140.833 Y38.834 Z0.000 F1600
G1 X140.840 Y38.767 Z0.000 F1600
G1 X140.840 Y38.733 Z0.000 F1600
G1 X140.828 Y38.711 Z0.000 F1600
G1 X140.794 Y38.690 Z0.000 F1600
; --- FIX X Backlash: -1.300mm ---
G0 X139.494 Y38.690 F1200
G1 X139.406 Y38.656 Z0.000 F1600
G1 X138.973 Y38.503 Z0.000 F1600
G1 X138.748 Y38.420 Z0.000 F1600
G1 X138.586 Y38.357 Z0.000 F1600
G1 X138.518 Y38.325 Z0.000 F1600
G1 X138.510 Y38.290 Z0.000 F1600
G1 X138.501 Y38.207 Z0.000 F1600
G1 X138.492 Y38.089 Z0.000 F1600
G1 X138.468 Y37.669 Z0.000 F1600
G1 X138.457 Y37.512 Z0.000 F1600
G1 X138.464 Y37.444 Z0.000 F1600
; --- FIX X Backlash: 1.300mm ---
G0 X139.764 Y37.444 F1200
G1 X139.850 Y37.389 Z0.000 F1600
G1 X140.104 Y37.256 Z0.000 F1600
G1 X140.362 Y37.113 Z0.000 F1600
G1 X140.566 Y36.994 Z0.000 F1600
G1 X140.629 Y36.954 Z0.000 F1600
G1 X140.657 Y36.933 Z0.000 F1600
G1 X140.670 Y36.894 Z0.000 F1600
G1 X140.670 Y36.833 Z0.000 F1600
G1 X140.649 Y36.744 Z0.000 F1600
G1 X140.614 Y36.623 Z0.000 F1600
; --- FIX X Backlash: -1.300mm ---
G0 X139.314 Y36.623 F1200
G1 X139.127 Y36.024 Z0.000 F1600
G1 X139.071 Y35.849 Z0.000 F1600
G1 X139.024 Y35.713 Z0.000 F1600
G1 X138.987 Y35.624 Z0.000 F1600
G1 X138.964 Y35.585 Z0.000 F1600
G1 X138.934 Y35.570 Z0.000 F1600
G1 X138.862 Y35.570 Z0.000 F1600
G1 X138.687 Y35.584 Z0.000 F1600
; --- FIX Y Backlash: 1.300mm ---
G0 X138.687 Y36.884 F1200
G1 X138.063 Y36.952 Z0.000 F1600
G1 X137.977 Y36.957 Z0.000 F1600
G1 X137.918 Y36.952 Z0.000 F1600
G1 X137.850 Y36.905 Z0.000 F1600
; --- FIX Y Backlash: -1.300mm ---
G0 X137.850 Y35.605 F1200
G1 X137.793 Y35.496 Z0.000 F1600
G1 X137.700 Y35.325 Z0.000 F1600
G1 X137.512 Y35.004 Z0.000 F1600
G1 X137.478 Y34.933 Z0.000 F1600
G1 X137.500 Y34.891 Z0.000 F1600
; --- FIX X Backlash: 1.300mm ---
G0 X138.800 Y34.891 F1200
G1 X138.862 Y34.792 Z0.000 F1600
G1 X139.177 Y34.308 Z0.000 F1600
G1 X139.268 Y34.162 Z0.000 F1600
G1 X139.328 Y34.057 Z0.000 F1600
G1 X139.350 Y34.006 Z0.000 F1600
G1 X139.335 Y33.970 Z0.000 F1600
G1 X139.288 Y33.907 Z0.000 F1600
; --- FIX X Backlash: -1.300mm ---
G0 X137.988 Y33.907 F1200
G1 X137.907 Y33.814 Z0.000 F1600
G1 X137.789 Y33.689 Z0.000 F1600
G1 X137.348 Y33.237 Z0.000 F1600
G1 X137.183 Y33.075 Z0.000 F1600
G1 X137.132 Y33.029 Z0.000 F1600
G1 X137.099 Y33.003 Z0.000 F1600
G1 X137.081 Y32.994 Z0.000 F1600
G1 X137.034 Y33.018 Z0.000 F1600
; --- FIX Y Backlash: 1.300mm ---
G0 X137.034 Y34.318 F1200
G1 X136.929 Y34.382 Z0.000 F1600
G1 X136.781 Y34.477 Z0.000 F1600
G1 X136.605 Y34.592 Z0.000 F1600
G1 X136.158 Y34.890 Z0.000 F1600
; --- FIX Y Backlash: -1.300mm ---
G0 X136.158 Y33.590 F1200
G1 X135.896 Y33.392 Z0.000 F1600
; --- FIX Y Backlash: 1.300mm ---
G0 X135.896 Y34.692 F1200
G1 X135.542 Y35.385 Z0.000 F1600
G1 X135.463 Y35.534 Z0.000 F1600
G1 X135.451 Y35.563 Z0.000 F1600
G0 Z3.5 F1000
; --- FIX X Backlash: 1.300mm ---
G0 X136.751 Y35.563 F1200
; --- FIX Y Backlash: -1.300mm ---
G0 X136.751 Y34.263 F1200
G0 X137.135 Y32.853 Z3.500
G1 Z0 F1000
G1 X137.291 Y32.853 Z0.000 F1600
G1 X137.494 Y32.835 Z0.000 F1600
G1 X137.647 Y32.771 Z0.000 F1600
G1 X137.785 Y32.684 Z0.000 F1600
G1 X137.920 Y32.567 Z0.000 F1600
G1 X138.051 Y32.423 Z0.000 F1600
G1 X138.175 Y32.257 Z0.000 F1600
G1 X138.388 Y31.874 Z0.000 F1600
G1 X138.538 Y31.452 Z0.000 F1600
G1 X138.593 Y31.210 Z0.000 F1600
G1 X138.626 Y30.967 Z0.000 F1600
G1 X138.644 Y30.682 Z0.000 F1600
G1 X138.649 Y30.310 Z0.000 F1600
G1 X138.643 Y29.941 Z0.000 F1600
G1 X138.628 Y29.618 Z0.000 F1600
G1 X138.618 Y29.489 Z0.000 F1600
G1 X138.607 Y29.390 Z0.000 F1600
G1 X138.595 Y29.327 Z0.000 F1600
G1 X138.583 Y29.305 Z0.000 F1600
; --- FIX X Backlash: -1.300mm ---
G0 X137.283 Y29.305 F1200
G1 X137.233 Y29.319 Z0.000 F1600
G1 X137.132 Y29.352 Z0.000 F1600
; --- FIX Y Backlash: 1.300mm ---
G0 X137.132 Y30.652 F1200
G1 X136.839 Y30.764 Z0.000 F1600
G1 X136.466 Y30.925 Z0.000 F1600
G1 X136.286 Y31.007 Z0.000 F1600
G1 X136.130 Y31.081 Z0.000 F1600
G1 X136.013 Y31.142 Z0.000 F1600
G1 X135.948 Y31.181 Z0.000 F1600
G1 X135.873 Y31.232 Z0.000 F1600
G1 X135.721 Y31.331 Z0.000 F1600
G1 X135.508 Y31.473 Z0.000 F1600
G1 X135.368 Y31.587 Z0.000 F1600
G1 X135.112 Y31.832 Z0.000 F1600
G1 X134.912 Y32.072 Z0.000 F1600
G1 X134.761 Y32.314 Z0.000 F1600
G1 X134.653 Y32.568 Z0.000 F1600
G1 X134.615 Y32.726 Z0.000 F1600
G1 X134.606 Y32.952 Z0.000 F1600
G1 X134.614 Y33.179 Z0.000 F1600
G1 X134.660 Y33.314 Z0.000 F1600
G1 X134.710 Y33.412 Z0.000 F1600
G1 X134.756 Y33.489 Z0.000 F1600
G1 X134.800 Y33.549 Z0.000 F1600
; --- FIX X Backlash: 1.300mm ---
G0 X136.100 Y33.549 F1200
; --- FIX Y Backlash: -1.300mm ---
G0 X136.100 Y32.249 F1200
G1 X136.163 Y32.074 Z0.000 F1600
G1 X136.270 Y31.817 Z0.000 F1600
G1 X136.403 Y31.560 Z0.000 F1600
G1 X136.555 Y31.314 Z0.000 F1600
G1 X136.721 Y31.090 Z0.000 F1600
G1 X136.796 Y31.008 Z0.000 F1600
G1 X136.840 Y30.976 Z0.000 F1600
G1 X136.852 Y30.972 Z0.000 F1600
G1 X136.852 Y30.955 Z0.000 F1600
G1 X136.865 Y30.927 Z0.000 F1600
G1 X136.909 Y30.874 Z0.000 F1600
G1 X136.978 Y30.801 Z0.000 F1600
G1 X137.064 Y30.715 Z0.000 F1600
G1 X137.259 Y30.535 Z0.000 F1600
G1 X137.438 Y30.386 Z0.000 F1600
G1 X137.582 Y30.286 Z0.000 F1600
G1 X137.737 Y30.190 Z0.000 F1600
G1 X137.863 Y30.120 Z0.000 F1600
G1 X137.923 Y30.100 Z0.000 F1600
; --- FIX Y Backlash: 1.300mm ---
G0 X137.923 Y31.400 F1200
G1 X137.888 Y31.451 Z0.000 F1600
; --- FIX X Backlash: -1.300mm ---
G0 X136.588 Y31.451 F1200
G1 X136.095 Y31.970 Z0.000 F1600
G1 X135.770 Y32.361 Z0.000 F1600
G1 X135.502 Y32.746 Z0.000 F1600
G1 X135.279 Y33.140 Z0.000 F1600
G1 X135.181 Y33.341 Z0.000 F1600
G1 X135.102 Y33.519 Z0.000 F1600
G1 X135.050 Y33.656 Z0.000 F1600
G1 X135.030 Y33.736 Z0.000 F1600
; --- FIX X Backlash: 1.300mm ---
G0 X136.330 Y33.736 F1200
G1 X136.540 Y33.910 Z0.000 F1600
G1 X136.771 Y34.016 Z0.000 F1600
; --- FIX Y Backlash: -1.300mm ---
G0 X136.771 Y32.716 F1200
G1 X136.925 Y32.521 Z0.000 F1600
G1 X137.256 Y32.071 Z0.000 F1600
G1 X137.548 Y31.609 Z0.000 F1600
G1 X137.814 Y31.109 Z0.000 F1600
G1 X138.069 Y30.549 Z0.000 F1600
G1 X138.147 Y30.371 Z0.000 F1600
G1 X138.191 Y30.276 Z0.000 F1600
G1 X138.213 Y30.251 Z0.000 F1600
G1 X138.221 Y30.277 Z0.000 F1600
; --- FIX Y Backlash: 1.300mm ---
G0 X138.221 Y31.577 F1200
G1 X138.213 Y31.701 Z0.000 F1600
G1 X138.182 Y31.893 Z0.000 F1600
G1 X138.137 Y32.109 Z0.000 F1600
; --- FIX X Backlash: -1.300mm ---
G0 X136.837 Y32.109 F1200
G1 X136.785 Y32.303 Z0.000 F1600
G1 X136.683 Y32.598 Z0.000 F1600
G1 X136.563 Y32.887 Z0.000 F1600
G1 X136.428 Y33.159 Z0.000 F1600
G1 X136.284 Y33.406 Z0.000 F1600
G1 X136.041 Y33.751 Z0.000 F1600
G1 X135.803 Y34.058 Z0.000 F1600
G1 X135.765 Y34.112 Z0.000 F1600
G1 X135.760 Y34.144 Z0.000 F1600
; --- FIX X Backlash: 1.300mm ---
G0 X137.060 Y34.144 F1200
G1 X137.135 Y34.153 Z0.000 F1600
G0 Z3.5 F1000
; --- FIX X Backlash: -1.300mm ---
G0 X135.835 Y34.153 F1200
G0 X131.042 Y39.071 Z3.500
G1 Z0 F1000
G1 X131.025 Y39.097 Z0.000 F1600
G1 X130.988 Y39.171 Z0.000 F1600
G1 X130.876 Y39.411 Z0.000 F1600
G1 X130.518 Y40.216 Z0.000 F1600
G1 X130.474 Y40.326 Z0.000 F1600
G1 X130.369 Y40.559 Z0.000 F1600
G1 X129.614 Y42.267 Z0.000 F1600
G1 X129.283 Y43.023 Z0.000 F1600
G1 X129.012 Y43.635 Z0.000 F1600
G1 X128.639 Y44.489 Z0.000 F1600
G1 X128.599 Y44.589 Z0.000 F1600
G1 X128.515 Y44.777 Z0.000 F1600
G1 X128.481 Y44.869 Z0.000 F1600
G1 X128.357 Y45.149 Z0.000 F1600
G1 X128.191 Y45.535 Z0.000 F1600
G1 X127.709 Y46.669 Z0.000 F1600
G1 X127.663 Y46.807 Z0.000 F1600
G1 X127.657 Y46.905 Z0.000 F1600
G1 X127.693 Y46.964 Z0.000 F1600
; --- FIX X Backlash: 1.300mm ---
G0 X128.993 Y46.964 F1200
G1 X129.070 Y46.984 Z0.000 F1600
G1 X129.142 Y46.968 Z0.000 F1600
; --- FIX Y Backlash: -1.300mm ---
G0 X129.142 Y45.668 F1200
G1 X129.243 Y45.568 Z0.000 F1600
G1 X129.323 Y45.464 Z0.000 F1600
G1 X129.434 Y45.310 Z0.000 F1600
G1 X130.156 Y44.272 Z0.000 F1600
G1 X130.635 Y43.590 Z0.000 F1600
G1 X130.971 Y43.107 Z0.000 F1600
G1 X132.015 Y41.628 Z0.000 F1600
G1 X133.100 Y40.104 Z0.000 F1600
G1 X133.344 Y39.766 Z0.000 F1600
G1 X133.442 Y39.626 Z0.000 F1600
G1 X133.493 Y39.546 Z0.000 F1600
G1 X133.508 Y39.509 Z0.000 F1600
G1 X133.494 Y39.471 Z0.000 F1600
; --- FIX X Backlash: -1.300mm ---
G0 X132.194 Y39.471 F1200
G1 X132.136 Y39.379 Z0.000 F1600
G1 X132.082 Y39.300 Z0.000 F1600
G1 X131.541 Y38.528 Z0.000 F1600
G1 X131.350 Y38.250 Z0.000 F1600
G1 X131.212 Y38.041 Z0.000 F1600
G1 X131.072 Y37.810 Z0.000 F1600
G1 X131.042 Y37.771 Z0.000 F1600
G0 Z3.5 F1000
; --- FIX Y Backlash: 1.300mm ---
G0 X131.042 Y39.071 F1200
G0 X130.297 Y44.064 Z3.500
G1 Z0 F1000
G1 X130.250 Y44.117 Z0.000 F1600
G1 X130.158 Y44.246 Z0.000 F1600
G1 X130.061 Y44.390 Z0.000 F1600
G1 X129.964 Y44.528 Z0.000 F1600
G1 X129.463 Y45.258 Z0.000 F1600
G1 X129.194 Y45.648 Z0.000 F1600
G1 X129.103 Y45.786 Z0.000 F1600
G1 X129.092 Y45.808 Z0.000 F1600
; --- FIX X Backlash: 1.300mm ---
G0 X130.392 Y45.808 F1200
G1 X130.782 Y46.007 Z0.000 F1600
G1 X131.165 Y46.175 Z0.000 F1600
G1 X131.225 Y46.150 Z0.000 F1600
; --- FIX Y Backlash: -1.300mm ---
G0 X131.225 Y44.850 F1200
G1 X131.310 Y44.752 Z0.000 F1600
G1 X131.401 Y44.636 Z0.000 F1600
G1 X131.575 Y44.420 Z0.000 F1600
G1 X131.756 Y44.188 Z0.000 F1600
G1 X131.831 Y44.099 Z0.000 F1600
G1 X131.859 Y44.062 Z0.000 F1600
G1 X131.892 Y44.032 Z0.000 F1600
G1 X131.943 Y44.043 Z0.000 F1600
; --- FIX Y Backlash: 1.300mm ---
G0 X131.943 Y45.343 F1200
G1 X132.260 Y45.431 Z0.000 F1600
G1 X132.591 Y45.497 Z0.000 F1600
G1 X132.696 Y45.515 Z0.000 F1600
G1 X132.739 Y45.546 Z0.000 F1600
G1 X132.754 Y45.598 Z0.000 F1600
G1 X132.781 Y45.714 Z0.000 F1600
G1 X132.816 Y45.876 Z0.000 F1600
G1 X132.897 Y46.269 Z0.000 F1600
G1 X132.933 Y46.426 Z0.000 F1600
G1 X132.961 Y46.531 Z0.000 F1600
G1 X132.978 Y46.572 Z0.000 F1600
G1 X133.045 Y46.579 Z0.000 F1600
G1 X133.207 Y46.584 Z0.000 F1600
G1 X133.440 Y46.588 Z0.000 F1600
G1 X134.435 Y46.588 Z0.000 F1600
G1 X134.464 Y46.545 Z0.000 F1600
; --- FIX Y Backlash: -1.300mm ---
G0 X134.464 Y45.245 F1200
G1 X134.494 Y45.162 Z0.000 F1600
G1 X134.526 Y45.023 Z0.000 F1600
G1 X134.685 Y44.215 Z0.000 F1600
G1 X134.861 Y44.191 Z0.000 F1600
G1 X135.061 Y44.153 Z0.000 F1600
G1 X135.293 Y44.099 Z0.000 F1600
G1 X135.549 Y44.032 Z0.000 F1600
; --- FIX Y Backlash: 1.300mm ---
G0 X135.549 Y45.332 F1200
G1 X135.880 Y45.752 Z0.000 F1600
G1 X136.107 Y46.045 Z0.000 F1600
G1 X136.179 Y46.128 Z0.000 F1600
G1 X136.227 Y46.166 Z0.000 F1600
G1 X136.266 Y46.175 Z0.000 F1600
; --- FIX Y Backlash: -1.300mm ---
G0 X136.266 Y44.875 F1200
G1 X136.675 Y44.694 Z0.000 F1600
G1 X137.041 Y44.492 Z0.000 F1600
G1 X137.033 Y44.470 Z0.000 F1600
; --- FIX X Backlash: -1.300mm ---
G0 X135.733 Y44.470 F1200
G1 X135.510 Y44.160 Z0.000 F1600
G1 X134.945 Y43.341 Z0.000 F1600
G1 X134.637 Y42.887 Z0.000 F1600
G1 X134.572 Y42.800 Z0.000 F1600
G1 X134.534 Y42.764 Z0.000 F1600
G1 X134.479 Y42.782 Z0.000 F1600
G1 X134.375 Y42.825 Z0.000 F1600
; --- FIX Y Backlash: 1.300mm ---
G0 X134.375 Y44.125 F1200
G1 X134.068 Y44.240 Z0.000 F1600
G1 X133.710 Y44.345 Z0.000 F1600
G1 X133.343 Y44.427 Z0.000 F1600
G1 X133.009 Y44.477 Z0.000 F1600
G1 X132.418 Y44.497 Z0.000 F1600
G1 X131.820 Y44.468 Z0.000 F1600
; --- FIX Y Backlash: -1.300mm ---
G0 X131.820 Y43.168 F1200
G1 X131.450 Y43.113 Z0.000 F1600
G1 X131.079 Y43.032 Z0.000 F1600
G1 X130.730 Y42.931 Z0.000 F1600
G1 X130.426 Y42.814 Z0.000 F1600
G1 X130.341 Y42.778 Z0.000 F1600
G1 X130.297 Y42.764 Z0.000 F1600
G0 Z3.5 F1000
; --- FIX Y Backlash: 1.300mm ---
G0 X130.297 Y44.064 F1200
G0 X121.979 Y48.077 Z3.500
G1 Z0 F1000
; --- FIX Y Backlash: -1.300mm ---
G0 X121.979 Y46.777 F1200
G1 X121.979 Y28.320 Z0.000 F1600
; --- FIX X Backlash: 1.300mm ---
G0 X123.279 Y28.320 F1200
G1 X143.772 Y28.320 Z0.000 F1600
; --- FIX Y Backlash: 1.300mm ---
G0 X143.772 Y29.620 F1200
G1 X143.772 Y48.077 Z0.000 F1600
; --- FIX X Backlash: -1.300mm ---
G0 X142.472 Y48.077 F1200
G1 X121.979 Y48.077 Z0.000 F1600
G0 Z3.5 F1000
; --- FIX X Backlash: 1.300mm ---
G0 X123.279 Y48.077 F1200
G0 X127.879 Y52.974 Z3.500
G1 Z0 F1000
; --- FIX Y Backlash: -1.300mm ---
G0 X127.879 Y51.674 F1200
G1 X133.012 Y50.390 Z0.000 F1600
; --- FIX Y Backlash: 1.300mm ---
G0 X133.012 Y51.690 F1200
G1 X133.012 Y56.824 Z0.000 F1600
; --- FIX X Backlash: -1.300mm ---
G0 X131.712 Y56.824 F1200
; --- FIX Y Backlash: -1.300mm ---
G0 X131.712 Y55.524 F1200
G1 X126.579 Y54.240 Z0.000 F1600
G1 X126.579 Y51.674 Z0.000 F1600
G0 Z3.5 F1000
; --- FIX Y Backlash: 1.300mm ---
G0 X126.579 Y52.974 F1200
G0 X126.065 Y54.257 Z3.500
G1 Z0 F1000
; --- FIX X Backlash: 1.300mm ---
G0 X127.365 Y54.257 F1200
G1 X139.685 Y54.257 Z0.000 F1600
G0 Z3.5 F1000
; --- FIX X Backlash: -1.300mm ---
G0 X138.385 Y54.257 F1200
G0 X136.589 Y54.257 Z3.500
G1 Z0 F1000
G1 X136.563 Y54.516 Z0.000 F1600
G1 X136.488 Y54.757 Z0.000 F1600
G1 X136.369 Y54.975 Z0.000 F1600
G1 X136.213 Y55.164 Z0.000 F1600
G1 X136.023 Y55.321 Z0.000 F1600
G1 X135.805 Y55.440 Z0.000 F1600
G1 X135.564 Y55.514 Z0.000 F1600
G1 X135.305 Y55.540 Z0.000 F1600
G1 X135.047 Y55.514 Z0.000 F1600
; --- FIX Y Backlash: -1.300mm ---
G0 X135.047 Y54.214 F1200
G1 X134.806 Y54.140 Z0.000 F1600
G1 X134.588 Y54.021 Z0.000 F1600
G1 X134.398 Y53.864 Z0.000 F1600
G1 X134.241 Y53.675 Z0.000 F1600
G1 X134.123 Y53.457 Z0.000 F1600
G1 X134.048 Y53.216 Z0.000 F1600
G1 X134.022 Y52.957 Z0.000 F1600
G1 X134.048 Y52.698 Z0.000 F1600
; --- FIX X Backlash: 1.300mm ---
G0 X135.348 Y52.698 F1200
G1 X135.423 Y52.457 Z0.000 F1600
G1 X135.541 Y52.240 Z0.000 F1600
G1 X135.698 Y52.050 Z0.000 F1600
G1 X135.888 Y51.893 Z0.000 F1600
G1 X136.106 Y51.775 Z0.000 F1600
G1 X136.347 Y51.700 Z0.000 F1600
G1 X136.605 Y51.674 Z0.000 F1600
G1 X136.864 Y51.700 Z0.000 F1600
; --- FIX Y Backlash: 1.300mm ---
G0 X136.864 Y53.000 F1200
G1 X137.105 Y53.075 Z0.000 F1600
G1 X137.323 Y53.193 Z0.000 F1600
G1 X137.513 Y53.350 Z0.000 F1600
G1 X137.669 Y53.540 Z0.000 F1600
G1 X137.788 Y53.757 Z0.000 F1600
G1 X137.863 Y53.998 Z0.000 F1600
G1 X137.889 Y54.257 Z0.000 F1600
G0 Z3.5 F1000
G0 X139.172 Y54.257 Z3.500
G1 Z0 F1000
G1 X139.159 Y54.519 Z0.000 F1600
G1 X139.120 Y54.774 Z0.000 F1600
; --- FIX X Backlash: -1.300mm ---
G0 X137.820 Y54.774 F1200
G1 X137.757 Y55.020 Z0.000 F1600
G1 X137.670 Y55.256 Z0.000 F1600
G1 X137.434 Y55.692 Z0.000 F1600
G1 X137.120 Y56.072 Z0.000 F1600
G1 X136.740 Y56.385 Z0.000 F1600
G1 X136.304 Y56.622 Z0.000 F1600
G1 X136.069 Y56.708 Z0.000 F1600
G1 X135.823 Y56.772 Z0.000 F1600
G1 X135.568 Y56.810 Z0.000 F1600
G1 X135.305 Y56.824 Z0.000 F1600
G1 X135.043 Y56.810 Z0.000 F1600
G1 X134.788 Y56.772 Z0.000 F1600
; --- FIX Y Backlash: -1.300mm ---
G0 X134.788 Y55.472 F1200
G1 X134.542 Y55.408 Z0.000 F1600
G1 X134.306 Y55.322 Z0.000 F1600
G1 X133.870 Y55.085 Z0.000 F1600
G1 X133.490 Y54.772 Z0.000 F1600
G1 X133.177 Y54.392 Z0.000 F1600
G1 X132.940 Y53.956 Z0.000 F1600
G1 X132.854 Y53.720 Z0.000 F1600
G1 X132.791 Y53.474 Z0.000 F1600
G1 X132.752 Y53.219 Z0.000 F1600
G1 X132.739 Y52.957 Z0.000 F1600
G1 X132.752 Y52.695 Z0.000 F1600
G1 X132.791 Y52.440 Z0.000 F1600
; --- FIX X Backlash: 1.300mm ---
G0 X134.091 Y52.440 F1200
G1 X134.154 Y52.194 Z0.000 F1600
G1 X134.240 Y51.958 Z0.000 F1600
G1 X134.477 Y51.522 Z0.000 F1600
G1 X134.790 Y51.142 Z0.000 F1600
G1 X135.170 Y50.829 Z0.000 F1600
G1 X135.606 Y50.592 Z0.000 F1600
G1 X135.842 Y50.506 Z0.000 F1600
G1 X136.088 Y50.443 Z0.000 F1600
G1 X136.343 Y50.404 Z0.000 F1600
G1 X136.605 Y50.390 Z0.000 F1600
G1 X136.868 Y50.404 Z0.000 F1600
G1 X137.123 Y50.443 Z0.000 F1600
; --- FIX Y Backlash: 1.300mm ---
G0 X137.123 Y51.743 F1200
G1 X137.369 Y51.806 Z0.000 F1600
G1 X137.604 Y51.892 Z0.000 F1600
G1 X138.040 Y52.129 Z0.000 F1600
G1 X138.420 Y52.442 Z0.000 F1600
G1 X138.734 Y52.822 Z0.000 F1600
G1 X138.970 Y53.258 Z0.000 F1600
G1 X139.057 Y53.494 Z0.000 F1600
G1 X139.120 Y53.740 Z0.000 F1600
G1 X139.159 Y53.995 Z0.000 F1600
G1 X139.172 Y54.257 Z0.000 F1600
G0 Z3.5 F1000
; --- FIX Y Backlash: -1.300mm ---
G0 X139.172 Y52.957 F1200
G0 X143.792 Y51.417 Z3.500
G1 Z0 F1000
G1 X146.359 Y51.417 Z0.000 F1600
G0 Z3.5 F1000
; --- FIX X Backlash: -1.300mm ---
G0 X145.059 Y51.417 F1200
G0 X135.305 Y49.877 Z3.500
G1 Z0 F1000
; --- FIX Y Backlash: 1.300mm ---
G0 X135.305 Y51.177 F1200
G1 X135.305 Y57.337 Z0.000 F1600
G0 Z3.5 F1000
; --- FIX X Backlash: 1.300mm ---
G0 X136.605 Y57.337 F1200
G0 X145.011 Y64.903 Z3.500
G1 Z0 F1000
; --- FIX X Backlash: -1.300mm ---
G0 X143.711 Y64.903 F1200
G1 X143.602 Y64.960 Z0.000 F1600
G1 X143.508 Y65.040 Z0.000 F1600
G1 X143.434 Y65.139 Z0.000 F1600
G1 X143.380 Y65.255 Z0.000 F1600
G1 X143.348 Y65.387 Z0.000 F1600
G1 X143.337 Y65.537 Z0.000 F1600
G1 X143.348 Y65.686 Z0.000 F1600
G1 X143.380 Y65.819 Z0.000 F1600
; --- FIX X Backlash: 1.300mm ---
G0 X144.680 Y65.819 F1200
G1 X144.734 Y65.935 Z0.000 F1600
G1 X144.808 Y66.034 Z0.000 F1600
G1 X144.902 Y66.114 Z0.000 F1600
G1 X145.011 Y66.171 Z0.000 F1600
G1 X145.136 Y66.205 Z0.000 F1600
G1 X145.277 Y66.217 Z0.000 F1600
G1 X145.391 Y66.209 Z0.000 F1600
G1 X145.499 Y66.185 Z0.000 F1600
G1 X145.599 Y66.146 Z0.000 F1600
; --- FIX Y Backlash: -1.300mm ---
G0 X145.599 Y64.846 F1200
G1 X145.694 Y64.792 Z0.000 F1600
G1 X145.694 Y64.605 Z0.000 F1600
; --- FIX X Backlash: -1.300mm ---
G0 X144.394 Y64.605 F1200
; --- FIX Y Backlash: 1.300mm ---
G0 X144.394 Y65.905 F1200
G1 X144.301 Y65.978 Z0.000 F1600
G1 X144.203 Y66.030 Z0.000 F1600
G1 X144.098 Y66.061 Z0.000 F1600
G1 X143.988 Y66.071 Z0.000 F1600
G1 X143.882 Y66.062 Z0.000 F1600
G1 X143.789 Y66.037 Z0.000 F1600
G1 X143.710 Y65.994 Z0.000 F1600
; --- FIX Y Backlash: -1.300mm ---
G0 X143.710 Y64.694 F1200
G1 X143.644 Y64.634 Z0.000 F1600
G1 X143.554 Y64.466 Z0.000 F1600
G1 X143.524 Y64.237 Z0.000 F1600
G1 X143.554 Y64.008 Z0.000 F1600
; --- FIX X Backlash: 1.300mm ---
G0 X144.854 Y64.008 F1200
G1 X144.944 Y63.840 Z0.000 F1600
G1 X145.010 Y63.780 Z0.000 F1600
G1 X145.089 Y63.738 Z0.000 F1600
G1 X145.182 Y63.712 Z0.000 F1600
G1 X145.288 Y63.703 Z0.000 F1600
G1 X145.398 Y63.714 Z0.000 F1600
G1 X145.503 Y63.744 Z0.000 F1600
; --- FIX Y Backlash: 1.300mm ---
G0 X145.503 Y65.044 F1200
G1 X145.601 Y65.096 Z0.000 F1600
G1 X145.694 Y65.169 Z0.000 F1600
; --- FIX Y Backlash: -1.300mm ---
G0 X145.694 Y63.869 F1200
G1 X145.694 Y63.684 Z0.000 F1600
; --- FIX X Backlash: -1.300mm ---
G0 X144.394 Y63.684 F1200
G1 X144.298 Y63.629 Z0.000 F1600
G1 X144.197 Y63.589 Z0.000 F1600
G1 X144.090 Y63.565 Z0.000 F1600
G1 X143.977 Y63.558 Z0.000 F1600
G1 X143.836 Y63.569 Z0.000 F1600
G1 X143.711 Y63.603 Z0.000 F1600
G0 Z3.5 F1000
; --- FIX X Backlash: 1.300mm ---
G0 X145.011 Y63.603 F1200
; --- FIX Y Backlash: 1.300mm ---
G0 X145.011 Y64.903 F1200
G0 X146.359 Y78.384 Z3.500
G1 Z0 F1000
; --- FIX X Backlash: -1.300mm ---
G0 X145.059 Y78.384 F1200
G1 X139.925 Y78.384 Z0.000 F1600
G0 Z3.5 F1000
; --- FIX X Backlash: 1.300mm ---
G0 X141.225 Y78.384 F1200
G0 X144.953 Y90.695 Z3.500
G1 Z0 F1000
G1 X145.237 Y90.695 Z0.000 F1600
G1 X145.362 Y90.710 Z0.000 F1600
G1 X145.449 Y90.755 Z0.000 F1600
G1 X145.501 Y90.830 Z0.000 F1600
G1 X145.518 Y90.936 Z0.000 F1600
G1 X145.501 Y91.043 Z0.000 F1600
; --- FIX X Backlash: -1.300mm ---
G0 X144.201 Y91.043 F1200
G1 X144.149 Y91.117 Z0.000 F1600
G1 X144.062 Y91.161 Z0.000 F1600
G1 X143.937 Y91.175 Z0.000 F1600
G1 X143.653 Y91.175 Z0.000 F1600
; --- FIX Y Backlash: -1.300mm ---
G0 X143.653 Y89.875 F1200
G1 X143.653 Y89.395 Z0.000 F1600
G0 Z3.5 F1000
; --- FIX Y Backlash: 1.300mm ---
G0 X143.653 Y90.695 F1200
G0 X143.653 Y91.319 Z3.500
G1 Z0 F1000
; --- FIX X Backlash: 1.300mm ---
G0 X144.953 Y91.319 F1200
G1 X145.215 Y91.319 Z0.000 F1600
G1 X145.329 Y91.331 Z0.000 F1600
G1 X145.409 Y91.368 Z0.000 F1600
G1 X145.456 Y91.429 Z0.000 F1600
G1 X145.472 Y91.517 Z0.000 F1600
G1 X145.456 Y91.603 Z0.000 F1600
G1 X145.409 Y91.665 Z0.000 F1600
; --- FIX X Backlash: -1.300mm ---
G0 X144.109 Y91.665 F1200
G1 X144.029 Y91.702 Z0.000 F1600
G1 X143.915 Y91.714 Z0.000 F1600
G1 X143.653 Y91.714 Z0.000 F1600
; --- FIX Y Backlash: -1.300mm ---
G0 X143.653 Y90.414 F1200
G1 X143.653 Y90.019 Z0.000 F1600
G0 Z3.5 F1000
; --- FIX X Backlash: 1.300mm ---
G0 X144.953 Y90.019 F1200
G0 X145.429 Y89.956 Z3.500
G1 Z0 F1000
G1 X145.546 Y89.913 Z0.000 F1600
G1 X145.632 Y89.839 Z0.000 F1600
G1 X145.687 Y89.739 Z0.000 F1600
G1 X145.705 Y89.616 Z0.000 F1600
G1 X145.675 Y89.461 Z0.000 F1600
; --- FIX X Backlash: -1.300mm ---
G0 X144.375 Y89.461 F1200
G1 X144.285 Y89.345 Z0.000 F1600
G1 X144.141 Y89.274 Z0.000 F1600
G1 X143.946 Y89.250 Z0.000 F1600
G1 X143.476 Y89.250 Z0.000 F1600
; --- FIX Y Backlash: 1.300mm ---
G0 X143.476 Y90.550 F1200
G1 X143.476 Y91.860 Z0.000 F1600
; --- FIX X Backlash: 1.300mm ---
G0 X144.776 Y91.860 F1200
G1 X145.228 Y91.860 Z0.000 F1600
G1 X145.408 Y91.839 Z0.000 F1600
; --- FIX Y Backlash: -1.300mm ---
G0 X145.408 Y90.539 F1200
G1 X145.541 Y90.475 Z0.000 F1600
G1 X145.623 Y90.373 Z0.000 F1600
G1 X145.651 Y90.236 Z0.000 F1600
G1 X145.636 Y90.128 Z0.000 F1600
G1 X145.594 Y90.045 Z0.000 F1600
; --- FIX X Backlash: -1.300mm ---
G0 X144.294 Y90.045 F1200
G1 X144.225 Y89.987 Z0.000 F1600
G1 X144.129 Y89.956 Z0.000 F1600
G0 Z3.5 F1000
; --- FIX Y Backlash: 1.300mm ---
G0 X144.129 Y91.256 F1200
G0 X130.583 Y99.184 Z3.500
G1 Z0 F1000
G1 X130.331 Y99.253 Z0.000 F1600
G1 X130.090 Y99.352 Z0.000 F1600
G1 X129.984 Y99.409 Z0.000 F1600
G1 X129.884 Y99.474 Z0.000 F1600
G1 X129.797 Y99.542 Z0.000 F1600
G1 X129.722 Y99.622 Z0.000 F1600
G0 Z3.5 F1000
G0 Z3.5 
G1 Z0 F1000
G1 X129.387 Y100.120 Z0.000 F1600
G0 Z3.5 F1000
G0 Z3.5 
G1 Z0 F1000
; --- FIX Y Backlash: -1.300mm ---
G0 X129.387 Y98.820 F1200
G1 X128.754 Y98.503 Z0.000 F1600
G0 Z3.5 F1000
G0 Z3.5 
G1 Z0 F1000
; --- FIX X Backlash: 1.300mm ---
G0 X130.054 Y98.503 F1200
G1 X130.251 Y97.937 Z0.000 F1600
G0 Z3.5 F1000
G0 Z3.5 
G1 Z0 F1000
G1 X130.269 Y97.828 Z0.000 F1600
G1 X130.272 Y97.718 Z0.000 F1600
G1 X130.263 Y97.599 Z0.000 F1600
G1 X130.245 Y97.481 Z0.000 F1600
; --- FIX X Backlash: -1.300mm ---
G0 X128.945 Y97.481 F1200
G1 X128.879 Y97.228 Z0.000 F1600
G1 X128.784 Y96.985 Z0.000 F1600
G0 Z3.5 F1000
G0 Z3.5 
G1 Z0 F1000
G1 X128.395 Y96.915 Z0.000 F1600
G0 Z3.5 F1000
G0 Z3.5 
G1 Z0 F1000
; --- FIX Y Backlash: 1.300mm ---
G0 X128.395 Y98.215 F1200
G1 X128.221 Y98.410 Z0.000 F1600
G1 X128.071 Y98.624 Z0.000 F1600
G1 X128.013 Y98.728 Z0.000 F1600
G1 X127.964 Y98.837 Z0.000 F1600
G1 X127.928 Y98.941 Z0.000 F1600
G1 X127.907 Y99.049 Z0.000 F1600
G0 Z3.5 F1000
G0 Z3.5 
G1 Z0 F1000
G1 X127.895 Y99.649 Z0.000 F1600
G0 Z3.5 F1000
G0 Z3.5 
G1 Z0 F1000
G1 X127.191 Y99.725 Z0.000 F1600
G0 Z3.5 F1000
G0 Z3.5 
G1 Z0 F1000
; --- FIX Y Backlash: -1.300mm ---
G0 X127.191 Y98.425 F1200
G1 X127.051 Y97.842 Z0.000 F1600
G0 Z3.5 F1000
G0 Z3.5 
G1 Z0 F1000
G1 X127.007 Y97.741 Z0.000 F1600
G1 X126.950 Y97.647 Z0.000 F1600
G1 X126.878 Y97.551 Z0.000 F1600
G1 X126.799 Y97.461 Z0.000 F1600
G1 X126.607 Y97.284 Z0.000 F1600
G1 X126.396 Y97.132 Z0.000 F1600
G0 Z3.5 F1000
G0 Z3.5 
G1 Z0 F1000
; --- FIX Y Backlash: 1.300mm ---
G0 X126.396 Y98.432 F1200
G1 X126.030 Y98.583 Z0.000 F1600
G0 Z3.5 F1000
G0 Z3.5 
G1 Z0 F1000
G1 X125.989 Y98.841 Z0.000 F1600
G1 X125.979 Y99.102 Z0.000 F1600
G1 X125.987 Y99.221 Z0.000 F1600
G1 X126.004 Y99.340 Z0.000 F1600
G1 X126.030 Y99.447 Z0.000 F1600
G1 X126.071 Y99.549 Z0.000 F1600
G0 Z3.5 F1000
G0 Z3.5 
G1 Z0 F1000
; --- FIX X Backlash: 1.300mm ---
G0 X127.371 Y99.549 F1200
G1 X127.685 Y100.060 Z0.000 F1600
G0 Z3.5 F1000
G0 Z3.5 
G1 Z0 F1000
; --- FIX X Backlash: -1.300mm ---
G0 X126.385 Y100.060 F1200
G1 X125.834 Y100.505 Z0.000 F1600
G0 Z3.5 F1000
G0 Z3.5 
G1 Z0 F1000
; --- FIX Y Backlash: -1.300mm ---
G0 X125.834 Y99.205 F1200
G1 X125.401 Y98.790 Z0.000 F1600
G0 Z3.5 F1000
G0 Z3.5 
G1 Z0 F1000
G1 X125.310 Y98.728 Z0.000 F1600
G1 X125.211 Y98.680 Z0.000 F1600
G1 X125.099 Y98.638 Z0.000 F1600
G1 X124.984 Y98.605 Z0.000 F1600
G1 X124.726 Y98.560 Z0.000 F1600
G1 X124.466 Y98.546 Z0.000 F1600
G0 Z3.5 F1000
G0 Z3.5 
G1 Z0 F1000
; --- FIX Y Backlash: 1.300mm ---
G0 X124.466 Y99.846 F1200
G1 X124.240 Y100.171 Z0.000 F1600
G0 Z3.5 F1000
G0 Z3.5 
G1 Z0 F1000
; --- FIX X Backlash: 1.300mm ---
G0 X125.540 Y100.171 F1200
G1 X125.645 Y100.410 Z0.000 F1600
G1 X125.778 Y100.635 Z0.000 F1600
G1 X125.849 Y100.732 Z0.000 F1600
G1 X125.927 Y100.822 Z0.000 F1600
G1 X126.007 Y100.898 Z0.000 F1600
G1 X126.097 Y100.961 Z0.000 F1600
G0 Z3.5 F1000
G0 Z3.5 
G1 Z0 F1000
G1 X126.637 Y101.222 Z0.000 F1600
G0 Z3.5 F1000
G0 Z3.5 
G1 Z0 F1000
; --- FIX X Backlash: -1.300mm ---
G0 X125.337 Y101.222 F1200
G1 X125.114 Y101.894 Z0.000 F1600
G0 Z3.5 F1000
G0 Z3.5 
G1 Z0 F1000
; --- FIX Y Backlash: -1.300mm ---
G0 X125.114 Y100.594 F1200
G1 X124.525 Y100.479 Z0.000 F1600
G0 Z3.5 F1000
G0 Z3.5 
G1 Z0 F1000
G1 X124.415 Y100.476 Z0.000 F1600
G1 X124.306 Y100.490 Z0.000 F1600
G1 X124.189 Y100.515 Z0.000 F1600
G1 X124.075 Y100.550 Z0.000 F1600
; --- FIX Y Backlash: 1.300mm ---
G0 X124.075 Y101.850 F1200
G1 X123.834 Y101.951 Z0.000 F1600
G1 X123.607 Y102.080 Z0.000 F1600
G0 Z3.5 F1000
G0 Z3.5 
G1 Z0 F1000
G1 X123.593 Y102.475 Z0.000 F1600
G0 Z3.5 F1000
G0 Z3.5 
G1 Z0 F1000
; --- FIX X Backlash: 1.300mm ---
G0 X124.893 Y102.475 F1200
G1 X125.111 Y102.619 Z0.000 F1600
G1 X125.344 Y102.737 Z0.000 F1600
G1 X125.455 Y102.780 Z0.000 F1600
G1 X125.570 Y102.813 Z0.000 F1600
G1 X125.679 Y102.834 Z0.000 F1600
G1 X125.788 Y102.839 Z0.000 F1600
G0 Z3.5 F1000
G0 Z3.5 
G1 Z0 F1000
; --- FIX Y Backlash: -1.300mm ---
G0 X125.788 Y101.539 F1200
G1 X126.384 Y101.465 Z0.000 F1600
G0 Z3.5 F1000
G0 Z3.5 
G1 Z0 F1000
; --- FIX Y Backlash: 1.300mm ---
G0 X126.384 Y102.765 F1200
G1 X126.560 Y103.452 Z0.000 F1600
G0 Z3.5 F1000
G0 Z3.5 
G1 Z0 F1000
; --- FIX X Backlash: -1.300mm ---
G0 X125.260 Y103.452 F1200
G1 X124.702 Y103.673 Z0.000 F1600
G0 Z3.5 F1000
G0 Z3.5 
G1 Z0 F1000
G1 X124.608 Y103.731 Z0.000 F1600
G1 X124.523 Y103.801 Z0.000 F1600
G1 X124.439 Y103.885 Z0.000 F1600
G1 X124.361 Y103.976 Z0.000 F1600
G1 X124.213 Y104.192 Z0.000 F1600
G1 X124.092 Y104.423 Z0.000 F1600
G0 Z3.5 F1000
G0 Z3.5 
G1 Z0 F1000
; --- FIX X Backlash: 1.300mm ---
G0 X125.392 Y104.423 F1200
G1 X125.594 Y104.763 Z0.000 F1600
G0 Z3.5 F1000
G0 Z3.5 
G1 Z0 F1000
G1 X125.855 Y104.767 Z0.000 F1600
G1 X126.115 Y104.740 Z0.000 F1600
G1 X126.232 Y104.715 Z0.000 F1600
G1 X126.347 Y104.681 Z0.000 F1600
G1 X126.449 Y104.640 Z0.000 F1600
; --- FIX Y Backlash: -1.300mm ---
G0 X126.449 Y103.340 F1200
G1 X126.544 Y103.285 Z0.000 F1600
G0 Z3.5 F1000
G0 Z3.5 
G1 Z0 F1000
G1 X127.005 Y102.901 Z0.000 F1600
G0 Z3.5 F1000
G0 Z3.5 
G1 Z0 F1000
; --- FIX Y Backlash: 1.300mm ---
G0 X127.005 Y104.201 F1200
G1 X127.524 Y104.684 Z0.000 F1600
G0 Z3.5 F1000
G0 Z3.5 
G1 Z0 F1000
; --- FIX X Backlash: -1.300mm ---
G0 X126.224 Y104.684 F1200
G1 X125.875 Y105.171 Z0.000 F1600
G0 Z3.5 F1000
G0 Z3.5 
G1 Z0 F1000
G1 X125.827 Y105.270 Z0.000 F1600
G1 X125.793 Y105.375 Z0.000 F1600
G1 X125.768 Y105.492 Z0.000 F1600
G1 X125.752 Y105.611 Z0.000 F1600
G1 X125.744 Y105.872 Z0.000 F1600
G1 X125.767 Y106.132 Z0.000 F1600
G0 Z3.5 F1000
G0 Z3.5 
G1 Z0 F1000
; --- FIX X Backlash: 1.300mm ---
G0 X127.067 Y106.132 F1200
G1 X127.421 Y106.309 Z0.000 F1600
G0 Z3.5 F1000
G0 Z3.5 
G1 Z0 F1000
; --- FIX Y Backlash: -1.300mm ---
G0 X127.421 Y105.009 F1200
G1 X127.642 Y104.871 Z0.000 F1600
G1 X127.846 Y104.708 Z0.000 F1600
G1 X127.931 Y104.624 Z0.000 F1600
G1 X128.010 Y104.533 Z0.000 F1600
G1 X128.073 Y104.443 Z0.000 F1600
G1 X128.124 Y104.345 Z0.000 F1600
G0 Z3.5 F1000
G0 Z3.5 
G1 Z0 F1000
G1 X128.304 Y103.773 Z0.000 F1600
G0 Z3.5 F1000
G0 Z3.5 
G1 Z0 F1000
; --- FIX Y Backlash: 1.300mm ---
G0 X128.304 Y105.073 F1200
G1 X129.001 Y105.199 Z0.000 F1600
G0 Z3.5 F1000
G0 Z3.5 
G1 Z0 F1000
G1 X128.971 Y105.798 Z0.000 F1600
G0 Z3.5 F1000
G0 Z3.5 
G1 Z0 F1000
G1 X128.985 Y105.907 Z0.000 F1600
G1 X129.013 Y106.013 Z0.000 F1600
G1 X129.055 Y106.125 Z0.000 F1600
G1 X129.106 Y106.234 Z0.000 F1600
G1 X129.240 Y106.458 Z0.000 F1600
G1 X129.400 Y106.664 Z0.000 F1600
G0 Z3.5 F1000
G0 Z3.5 
G1 Z0 F1000
G1 X129.793 Y106.621 Z0.000 F1600
G0 Z3.5 F1000
G0 Z3.5 
G1 Z0 F1000
; --- FIX Y Backlash: -1.300mm ---
G0 X129.793 Y105.321 F1200
G1 X129.905 Y105.086 Z0.000 F1600
G1 X129.988 Y104.838 Z0.000 F1600
G1 X130.014 Y104.722 Z0.000 F1600
G1 X130.031 Y104.603 Z0.000 F1600
G1 X130.036 Y104.493 Z0.000 F1600
G1 X130.026 Y104.384 Z0.000 F1600
G0 Z3.5 F1000
G0 Z3.5 
G1 Z0 F1000
; --- FIX X Backlash: -1.300mm ---
G0 X128.726 Y104.384 F1200
G1 X128.568 Y103.805 Z0.000 F1600
G0 Z3.5 F1000
G0 Z3.5 
G1 Z0 F1000
; --- FIX X Backlash: 1.300mm ---
G0 X129.868 Y103.805 F1200
G1 X130.523 Y103.533 Z0.000 F1600
G0 Z3.5 F1000
G0 Z3.5 
G1 Z0 F1000
; --- FIX Y Backlash: 1.300mm ---
G0 X130.523 Y104.833 F1200
G1 X130.821 Y105.353 Z0.000 F1600
G0 Z3.5 F1000
G0 Z3.5 
G1 Z0 F1000
G1 X130.891 Y105.438 Z0.000 F1600
G1 X130.973 Y105.512 Z0.000 F1600
G1 X131.069 Y105.584 Z0.000 F1600
G1 X131.170 Y105.648 Z0.000 F1600
G1 X131.404 Y105.763 Z0.000 F1600
G1 X131.650 Y105.850 Z0.000 F1600
G0 Z3.5 F1000
G0 Z3.5 
G1 Z0 F1000
; --- FIX Y Backlash: -1.300mm ---
G0 X131.650 Y104.550 F1200
G1 X131.958 Y104.302 Z0.000 F1600
G0 Z3.5 F1000
G0 Z3.5 
G1 Z0 F1000
G1 X131.925 Y104.043 Z0.000 F1600
; --- FIX X Backlash: -1.300mm ---
G0 X130.625 Y104.043 F1200
G1 X130.561 Y103.790 Z0.000 F1600
G1 X130.520 Y103.678 Z0.000 F1600
G1 X130.470 Y103.569 Z0.000 F1600
G1 X130.415 Y103.473 Z0.000 F1600
G1 X130.347 Y103.387 Z0.000 F1600
G0 Z3.5 F1000
G0 Z3.5 
G1 Z0 F1000
G1 X129.901 Y102.985 Z0.000 F1600
G0 Z3.5 F1000
G0 Z3.5 
G1 Z0 F1000
; --- FIX X Backlash: 1.300mm ---
G0 X131.201 Y102.985 F1200
G1 X131.605 Y102.403 Z0.000 F1600
G0 Z3.5 F1000
G0 Z3.5 
G1 Z0 F1000
; --- FIX Y Backlash: 1.300mm ---
G0 X131.605 Y103.703 F1200
G1 X132.137 Y103.979 Z0.000 F1600
G0 Z3.5 F1000
G0 Z3.5 
G1 Z0 F1000
G1 X132.242 Y104.013 Z0.000 F1600
G1 X132.351 Y104.031 Z0.000 F1600
G1 X132.470 Y104.039 Z0.000 F1600
G1 X132.590 Y104.039 Z0.000 F1600
G1 X132.849 Y104.009 Z0.000 F1600
; --- FIX Y Backlash: -1.300mm ---
G0 X132.849 Y102.709 F1200
G1 X133.103 Y102.649 Z0.000 F1600
G0 Z3.5 F1000
G0 Z3.5 
G1 Z0 F1000
G1 X133.228 Y102.274 Z0.000 F1600
G0 Z3.5 F1000
G0 Z3.5 
G1 Z0 F1000
; --- FIX X Backlash: -1.300mm ---
G0 X131.928 Y102.274 F1200
G1 X131.760 Y102.074 Z0.000 F1600
G1 X131.570 Y101.896 Z0.000 F1600
G1 X131.474 Y101.823 Z0.000 F1600
G1 X131.373 Y101.759 Z0.000 F1600
G1 X131.276 Y101.708 Z0.000 F1600
G1 X131.172 Y101.673 Z0.000 F1600
G0 Z3.5 F1000
G0 Z3.5 
G1 Z0 F1000
G1 X130.580 Y101.575 Z0.000 F1600
G0 Z3.5 F1000
G0 Z3.5 
G1 Z0 F1000
G1 X130.604 Y100.867 Z0.000 F1600
G0 Z3.5 F1000
G0 Z3.5 
G1 Z0 F1000
; --- FIX X Backlash: 1.300mm ---
G0 X131.904 Y100.867 F1200
G1 X132.502 Y100.812 Z0.000 F1600
G0 Z3.5 F1000
G0 Z3.5 
G1 Z0 F1000
G1 X132.608 Y100.783 Z0.000 F1600
G1 X132.709 Y100.740 Z0.000 F1600
G1 X132.814 Y100.682 Z0.000 F1600
G1 X132.914 Y100.617 Z0.000 F1600
G1 X133.117 Y100.452 Z0.000 F1600
G1 X133.298 Y100.265 Z0.000 F1600
G0 Z3.5 F1000
G0 Z3.5 
G1 Z0 F1000
; --- FIX X Backlash: -1.300mm ---
G0 X131.998 Y100.265 F1200
G1 X131.900 Y99.881 Z0.000 F1600
G0 Z3.5 F1000
G0 Z3.5 
G1 Z0 F1000
G1 X131.651 Y99.804 Z0.000 F1600
G1 X131.394 Y99.757 Z0.000 F1600
G1 X131.275 Y99.747 Z0.000 F1600
G1 X131.155 Y99.747 Z0.000 F1600
G1 X131.045 Y99.758 Z0.000 F1600
G1 X130.939 Y99.784 Z0.000 F1600
G0 Z3.5 F1000
G0 Z3.5 
G1 Z0 F1000
; --- FIX Y Backlash: 1.300mm ---
G0 X130.939 Y101.084 F1200
G1 X130.388 Y101.323 Z0.000 F1600
G0 Z3.5 F1000
G0 Z3.5 
G1 Z0 F1000
; --- FIX Y Backlash: -1.300mm ---
G0 X130.388 Y100.023 F1200
G1 X130.026 Y99.414 Z0.000 F1600
G0 Z3.5 F1000
G0 Z3.5 
G1 Z0 F1000
; --- FIX X Backlash: 1.300mm ---
G0 X131.326 Y99.414 F1200
G1 X131.798 Y99.044 Z0.000 F1600
G0 Z3.5 F1000
G0 Z3.5 
G1 Z0 F1000
G1 X131.872 Y98.962 Z0.000 F1600
G1 X131.934 Y98.871 Z0.000 F1600
G1 X131.991 Y98.766 Z0.000 F1600
G1 X132.040 Y98.657 Z0.000 F1600
G1 X132.121 Y98.409 Z0.000 F1600
G1 X132.173 Y98.153 Z0.000 F1600
G0 Z3.5 F1000
G0 Z3.5 
G1 Z0 F1000
; --- FIX X Backlash: -1.300mm ---
G0 X130.873 Y98.153 F1200
G1 X130.583 Y97.884 Z0.000 F1600
G0 Z3.5 F1000
; --- FIX Y Backlash: 1.300mm ---
G0 X130.583 Y99.184 F1200
G0 X128.946 Y101.591 Z3.500
G1 Z0 F1000
; --- FIX Y Backlash: -1.300mm ---
G0 X128.946 Y100.291 F1200
G1 X126.794 Y100.216 Z0.000 F1600
G0 Z3.5 F1000
G0 Z3.5 
G1 Z0 F1000
; --- FIX Y Backlash: 1.300mm ---
G0 X126.794 Y101.516 F1200
G1 X126.652 Y101.711 Z0.000 F1600
G1 X126.548 Y101.923 Z0.000 F1600
G1 X126.482 Y102.147 Z0.000 F1600
G1 X126.454 Y102.377 Z0.000 F1600
G1 X126.466 Y102.608 Z0.000 F1600
G1 X126.516 Y102.836 Z0.000 F1600
; --- FIX X Backlash: 1.300mm ---
G0 X127.816 Y102.836 F1200
G1 X127.905 Y103.055 Z0.000 F1600
G1 X128.033 Y103.260 Z0.000 F1600
G0 Z3.5 F1000
G0 Z3.5 
G1 Z0 F1000
G1 X130.185 Y103.335 Z0.000 F1600
G0 Z3.5 F1000
G0 Z3.5 
G1 Z0 F1000
; --- FIX Y Backlash: -1.300mm ---
G0 X130.185 Y102.035 F1200
G1 X130.327 Y101.840 Z0.000 F1600
G1 X130.432 Y101.628 Z0.000 F1600
G1 X130.497 Y101.404 Z0.000 F1600
G1 X130.525 Y101.174 Z0.000 F1600
G1 X130.513 Y100.942 Z0.000 F1600
; --- FIX X Backlash: -1.300mm ---
G0 X129.213 Y100.942 F1200
G1 X129.163 Y100.714 Z0.000 F1600
G1 X129.074 Y100.496 Z0.000 F1600
G1 X128.946 Y100.291 Z0.000 F1600
G0 Z3.5 F1000
; --- FIX Y Backlash: 1.300mm ---
G0 X128.946 Y101.591 F1200
G0 X128.736 Y109.538 Z3.500
G1 Z0 F1000
G1 X128.493 Y109.538 Z0.000 F1600
G0 Z3.5 F1000
G0 Z3.5 
G1 Z0 F1000
G1 X128.100 Y109.538 Z0.000 F1600
G0 Z3.5 F1000
G0 Z3.5 
G1 Z0 F1000
G1 X127.671 Y109.538 Z0.000 F1600
G0 Z3.5 F1000
G0 Z3.5 
G1 Z0 F1000
G1 X127.004 Y109.538 Z0.000 F1600
G0 Z3.5 F1000
G0 Z3.5 
G1 Z0 F1000
G1 X126.824 Y109.538 Z0.000 F1600
G0 Z3.5 F1000
G0 Z3.5 
G1 Z0 F1000
G1 X126.121 Y109.538 Z0.000 F1600
G0 Z3.5 F1000
G0 Z3.5 
G1 Z0 F1000
G1 X125.767 Y109.538 Z0.000 F1600
G0 Z3.5 F1000
G0 Z3.5 
G1 Z0 F1000
G1 X125.743 Y109.538 Z0.000 F1600
G0 Z3.5 F1000
G0 Z3.5 
G1 Z0 F1000
G1 X125.705 Y109.538 Z0.000 F1600
G0 Z3.5 F1000
G0 Z3.5 
G1 Z0 F1000
G1 X125.244 Y109.538 Z0.000 F1600
G0 Z3.5 F1000
G0 Z3.5 
G1 Z0 F1000
G1 X124.294 Y109.538 Z0.000 F1600
G0 Z3.5 F1000
G0 Z3.5 
G1 Z0 F1000
G1 X124.092 Y109.538 Z0.000 F1600
G0 Z3.5 F1000
G0 Z3.5 
G1 Z0 F1000
G1 X123.593 Y109.538 Z0.000 F1600
G0 Z3.5 F1000
G0 Z3.5 
G1 Z0 F1000
G1 X123.593 Y112.104 Z0.000 F1600
G0 Z3.5 F1000
G0 Z3.5 
G1 Z0 F1000
; --- FIX X Backlash: 1.300mm ---
G0 X124.893 Y112.104 F1200
G1 X125.392 Y112.104 Z0.000 F1600
G0 Z3.5 F1000
G0 Z3.5 
G1 Z0 F1000
G1 X125.594 Y112.104 Z0.000 F1600
G0 Z3.5 F1000
G0 Z3.5 
G1 Z0 F1000
G1 X126.544 Y112.104 Z0.000 F1600
G0 Z3.5 F1000
G0 Z3.5 
G1 Z0 F1000
G1 X127.005 Y112.104 Z0.000 F1600
G0 Z3.5 F1000
G0 Z3.5 
G1 Z0 F1000
G1 X127.043 Y112.104 Z0.000 F1600
G0 Z3.5 F1000
G0 Z3.5 
G1 Z0 F1000
G1 X127.067 Y112.104 Z0.000 F1600
G0 Z3.5 F1000
G0 Z3.5 
G1 Z0 F1000
G1 X127.421 Y112.104 Z0.000 F1600
G0 Z3.5 F1000
G0 Z3.5 
G1 Z0 F1000
G1 X128.124 Y112.104 Z0.000 F1600
G0 Z3.5 F1000
G0 Z3.5 
G1 Z0 F1000
G1 X128.304 Y112.104 Z0.000 F1600
G0 Z3.5 F1000
G0 Z3.5 
G1 Z0 F1000
G1 X128.971 Y112.104 Z0.000 F1600
G0 Z3.5 F1000
G0 Z3.5 
G1 Z0 F1000
G1 X129.400 Y112.104 Z0.000 F1600
G0 Z3.5 F1000
G0 Z3.5 
G1 Z0 F1000
G1 X129.793 Y112.104 Z0.000 F1600
G0 Z3.5 F1000
G0 Z3.5 
G1 Z0 F1000
G1 X130.036 Y112.104 Z0.000 F1600
G0 Z3.5 F1000
G0 Z3.5 
G1 Z0 F1000
G1 X130.523 Y112.104 Z0.000 F1600
