;LightBurn 1.6.04
;Custom GCode device profile, absolute coords
;Bounds: X23.37 Y39.2 to X108.24 Y70.7
G00 G17 G40 G21 G54
G90
M3
G1 Z10 F1500
;Scan @ 1500 mm/min, 90% power

M8
G0 Z3.5 F1500
G0 X31.947 Y39.197 Z3.500
G1 Z0 F1500
;Layer Blue
G91
G0 Z5 F500
G1 X2.5 Z0 S0 F1500
G0 Z-5 F500
G1 X4.07 Z0 S900 F1500
G0 Z5 F500
G1 X2.5 Z0 S0 F1500
G1 X1.992 Y0.9 Z0 F1500
; --- FIX X Backlash (relative): -1.400mm ---
G0 X-1.400 F1200
G1 X-2.5 Z0 F1500
G0 Z-5 F500
G1 X-8.054 Z0 S900 F1500
G0 Z5 F500
G1 X-2.5 Z0 S0 F1500
G1 X-1.22 Y0.9 Z0 F1500
; --- FIX X Backlash (relative): 1.400mm ---
G0 X1.400 F1200
G1 X2.5 Z0 F1500
G0 Z-5 F500
G1 X10.493 Z0 S900 F1500
G0 Z5 F500
G1 X2.5 Z0 S0 F1500
G1 X0.93 Y0.9 Z0 F1500
; --- FIX X Backlash (relative): -1.400mm ---
G0 X-1.400 F1200
G1 X-2.5 Z0 F1500
G0 Z-5 F500
G1 X-12.352 Z0 S900 F1500
G0 Z5 F500
G1 X-2.5 Z0 S0 F1500
G1 X-0.757 Y0.9 Z0 F1500
; --- FIX X Backlash (relative): 1.400mm ---
G0 X1.400 F1200
G1 X2.5 Z0 F1500
G0 Z-5 F500
G1 X13.865 Z0 S900 F1500
G0 Z5 F500
G1 X2.5 Z0 S0 F1500
G1 X0.638 Y0.9 Z0 F1500
; --- FIX X Backlash (relative): -1.400mm ---
G0 X-1.400 F1200
G1 X-2.5 Z0 F1500
G0 Z-5 F500
G1 X-15.14 Z0 S900 F1500
G0 Z5 F500
G1 X-2.5 Z0 S0 F1500
G1 X-0.542 Y0.9 Z0 F1500
; --- FIX X Backlash (relative): 1.400mm ---
G0 X1.400 F1200
G1 X2.5 Z0 F1500
G0 Z-5 F500
G1 X16.224 Z0 S900 F1500
G0 Z5 F500
G1 X2.5 Z0 S0 F1500
G1 X0.468 Y0.9 Z0 F1500
; --- FIX X Backlash (relative): -1.400mm ---
G0 X-1.400 F1200
G1 X-2.5 Z0 F1500
G0 Z-5 F500
G1 X-17.16 Z0 S900 F1500
G0 Z5 F500
G1 X-2.5 Z0 S0 F1500
G1 X-0.404 Y0.9 Z0 F1500
; --- FIX X Backlash (relative): 1.400mm ---
G0 X1.400 F1200
G1 X2.5 Z0 F1500
G0 Z-5 F500
G1 X17.968 Z0 S900 F1500
G0 Z5 F500
G1 X2.5 Z0 S0 F1500
G1 X0.353 Y0.9 Z0 F1500
; --- FIX X Backlash (relative): -1.400mm ---
G0 X-1.400 F1200
G1 X-2.5 Z0 F1500
G0 Z-5 F500
G1 X-18.674 Z0 S900 F1500
G0 Z5 F500
G1 X-2.5 Z0 S0 F1500
G1 X-0.297 Y0.9 Z0 F1500
; --- FIX X Backlash (relative): 1.400mm ---
G0 X1.400 F1200
G1 X2.5 Z0 F1500
G0 Z-5 F500
G1 X19.267 Z0 S900 F1500
G0 Z5 F500
G1 X2.5 Z0 S0 F1500
G1 X0.254 Y0.9 Z0 F1500
; --- FIX X Backlash (relative): -1.400mm ---
G0 X-1.400 F1200
G1 X-2.5 Z0 F1500
G0 Z-5 F500
G1 X-19.775 Z0 S900 F1500
G0 Z5 F500
G1 X-2.5 Z0 S0 F1500
G1 X-0.213 Y0.9 Z0 F1500
; --- FIX X Backlash (relative): 1.400mm ---
G0 X1.400 F1200
G1 X2.5 Z0 F1500
G0 Z-5 F500
G1 X20.202 Z0 S900 F1500
G0 Z5 F500
G1 X2.5 Z0 S0 F1500
G1 X0.176 Y0.9 Z0 F1500
; --- FIX X Backlash (relative): -1.400mm ---
G0 X-1.400 F1200
G1 X-2.5 Z0 F1500
G0 Z-5 F500
G1 X-20.554 Z0 S900 F1500
G0 Z5 F500
G1 X-2.5 Z0 S0 F1500
G1 X-0.136 Y0.9 Z0 F1500
; --- FIX X Backlash (relative): 1.400mm ---
G0 X1.400 F1200
G1 X2.5 Z0 F1500
G0 Z-5 F500
G1 X20.826 Z0 S900 F1500
G0 Z5 F500
G1 X2.5 Z0 S0 F1500
G1 X0.099 Y0.9 Z0 F1500
; --- FIX X Backlash (relative): -1.400mm ---
G0 X-1.400 F1200
G1 X-2.5 Z0 F1500
G0 Z-5 F500
G1 X-21.025 Z0 S900 F1500
G0 Z5 F500
G1 X-2.5 Z0 S0 F1500
G1 X-0.066 Y0.9 Z0 F1500
; --- FIX X Backlash (relative): 1.400mm ---
G0 X1.400 F1200
G1 X2.5 Z0 F1500
G0 Z-5 F500
G1 X21.157 Z0 S900 F1500
G0 Z5 F500
G1 X2.5 Z0 S0 F1500
G1 X0.033 Y0.9 Z0 F1500
; --- FIX X Backlash (relative): -1.400mm ---
G0 X-1.400 F1200
G1 X-2.5 Z0 F1500
G0 Z-5 F500
G1 X-21.222 Z0 S900 F1500
G0 Z5 F500
G1 X-2.5 Z0 S0 F1500
G1 Y0.9 Z0 F1500
; --- FIX X Backlash (relative): 1.400mm ---
G0 X1.400 F1200
G1 X2.5 Z0 F1500
G0 Z-5 F500
G1 X21.222 Z0 S900 F1500
G0 Z5 F500
G1 X2.5 Z0 S0 F1500
G1 X-0.033 Y0.9 Z0 F1500
; --- FIX X Backlash (relative): -1.400mm ---
G0 X-1.400 F1200
G1 X-2.5 Z0 F1500
G0 Z-5 F500
G1 X-21.157 Z0 S900 F1500
G0 Z5 F500
G1 X-2.5 Z0 S0 F1500
; --- FIX X Backlash (relative): 1.400mm ---
G0 X1.400 F1200
G1 X0.066 Y0.9 Z0 F1500
G1 X2.5 Z0 F1500
G0 Z-5 F500
G1 X21.025 Z0 S900 F1500
G0 Z5 F500
G1 X2.5 Z0 S0 F1500
; --- FIX X Backlash (relative): -1.400mm ---
G0 X-1.400 F1200
G1 X-0.099 Y0.9 Z0 F1500
G1 X-2.5 Z0 F1500
G0 Z-5 F500
G1 X-20.826 Z0 S900 F1500
G0 Z5 F500
G1 X-2.5 Z0 S0 F1500
; --- FIX X Backlash (relative): 1.400mm ---
G0 X1.400 F1200
G1 X0.136 Y0.9 Z0 F1500
G1 X2.5 Z0 F1500
G0 Z-5 F500
G1 X20.554 Z0 S900 F1500
G0 Z5 F500
G1 X2.5 Z0 S0 F1500
; --- FIX X Backlash (relative): -1.400mm ---
G0 X-1.400 F1200
G1 X-0.176 Y0.9 Z0 F1500
G1 X-2.5 Z0 F1500
G0 Z-5 F500
G1 X-20.202 Z0 S900 F1500
G0 Z5 F500
G1 X-2.5 Z0 S0 F1500
; --- FIX X Backlash (relative): 1.400mm ---
G0 X1.400 F1200
G1 X0.213 Y0.9 Z0 F1500
G1 X2.5 Z0 F1500
G0 Z-5 F500
G1 X19.775 Z0 S900 F1500
G0 Z5 F500
G1 X2.5 Z0 S0 F1500
; --- FIX X Backlash (relative): -1.400mm ---
G0 X-1.400 F1200
G1 X-0.254 Y0.9 Z0 F1500
G1 X-2.5 Z0 F1500
G0 Z-5 F500
G1 X-19.267 Z0 S900 F1500
G0 Z5 F500
G1 X-2.5 Z0 S0 F1500
; --- FIX X Backlash (relative): 1.400mm ---
G0 X1.400 F1200
G1 X0.297 Y0.9 Z0 F1500
G1 X2.5 Z0 F1500
G0 Z-5 F500
G1 X18.674 Z0 S900 F1500
G0 Z5 F500
G1 X2.5 Z0 S0 F1500
; --- FIX X Backlash (relative): -1.400mm ---
G0 X-1.400 F1200
G1 X-0.353 Y0.9 Z0 F1500
G1 X-2.5 Z0 F1500
G0 Z-5 F500
G1 X-17.968 Z0 S900 F1500
G0 Z5 F500
G1 X-2.5 Z0 S0 F1500
; --- FIX X Backlash (relative): 1.400mm ---
G0 X1.400 F1200
G1 X0.404 Y0.9 Z0 F1500
G1 X2.5 Z0 F1500
G0 Z-5 F500
G1 X17.16 Z0 S900 F1500
G0 Z5 F500
G1 X2.5 Z0 S0 F1500
; --- FIX X Backlash (relative): -1.400mm ---
G0 X-1.400 F1200
G1 X-0.468 Y0.9 Z0 F1500
G1 X-2.5 Z0 F1500
G0 Z-5 F500
G1 X-16.224 Z0 S900 F1500
G0 Z5 F500
G1 X-2.5 Z0 S0 F1500
; --- FIX X Backlash (relative): 1.400mm ---
G0 X1.400 F1200
G1 X0.542 Y0.9 Z0 F1500
G1 X2.5 Z0 F1500
G0 Z-5 F500
G1 X15.14 Z0 S900 F1500
G0 Z5 F500
G1 X2.5 Z0 S0 F1500
; --- FIX X Backlash (relative): -1.400mm ---
G0 X-1.400 F1200
G1 X-0.638 Y0.9 Z0 F1500
G1 X-2.5 Z0 F1500
G0 Z-5 F500
G1 X-13.865 Z0 S900 F1500
G0 Z5 F500
G1 X-2.5 Z0 S0 F1500
; --- FIX X Backlash (relative): 1.400mm ---
G0 X1.400 F1200
G1 X0.757 Y0.9 Z0 F1500
G1 X2.5 Z0 F1500
G0 Z-5 F500
G1 X12.352 Z0 S900 F1500
G0 Z5 F500
G1 X2.5 Z0 S0 F1500
; --- FIX X Backlash (relative): -1.400mm ---
G0 X-1.400 F1200
G1 X-0.93 Y0.9 Z0 F1500
G1 X-2.5 Z0 F1500
G0 Z-5 F500
G1 X-10.493 Z0 S900 F1500
G0 Z5 F500
G1 X-2.5 Z0 S0 F1500
; --- FIX X Backlash (relative): 1.400mm ---
G0 X1.400 F1200
G1 X1.22 Y0.9 Z0 F1500
G1 X2.5 Z0 F1500
G0 Z-5 F500
G1 X8.054 Z0 S900 F1500
G0 Z5 F500
G1 X2.5 Z0 S0 F1500
; --- FIX X Backlash (relative): -1.400mm ---
G0 X-1.400 F1200
G1 X-1.992 Y0.9 Z0 F1500
G1 X-2.5 Z0 F1500
G0 Z-5 F500
G1 X-4.07 Z0 S900 F1500
G0 Z5 F500
G1 X-2.5 Z0 S0 F1500
G90
;Offset @ 1500 mm/min, 90% power

M8
G0 Z3.5 F1500
; --- FIX X Backlash: 1.400mm ---
G0 X31.947 Y70.697 F1200
; --- FIX Y Backlash: -1.500mm ---
G0 X31.947 Y69.197 F1200
G0 X67.740 Y49.762 Z3.500
G1 Z0 F1500
;Layer Green
G1 X67.769 Y49.784 Z0.000 F1500
G1 X67.776 Y49.790 Z0.000 F1500
G1 X67.784 Y49.798 Z0.000 F1500
G1 X67.807 Y49.830 Z0.000 F1500
G1 X67.807 Y49.833 Z0.000 F1500
G1 X67.807 Y49.852 Z0.000 F1500
G1 X67.784 Y49.885 Z0.000 F1500
G1 X67.777 Y49.893 Z0.000 F1500
G1 X67.770 Y49.899 Z0.000 F1500
G1 X67.739 Y49.922 Z0.000 F1500
G1 X67.736 Y49.922 Z0.000 F1500
G1 X67.727 Y49.922 Z0.000 F1500
G1 X67.718 Y49.922 Z0.000 F1500
G1 X67.714 Y49.922 Z0.000 F1500
G1 X67.684 Y49.899 Z0.000 F1500
G1 X67.676 Y49.893 Z0.000 F1500
G1 X67.669 Y49.885 Z0.000 F1500
G1 X67.646 Y49.854 Z0.000 F1500
G1 X67.646 Y49.835 Z0.000 F1500
G1 X67.646 Y49.830 Z0.000 F1500
G1 X67.670 Y49.798 Z0.000 F1500
G1 X67.678 Y49.790 Z0.000 F1500
G1 X67.685 Y49.784 Z0.000 F1500
G1 X67.714 Y49.762 Z0.000 F1500
G1 X67.727 Y49.762 Z0.000 F1500
G1 X67.740 Y49.762 Z0.000 F1500
G0 Z3.5 F1500
G0 X68.706 Y49.781 Z3.500
G1 Z0 F1500
; --- FIX Y Backlash: 1.500mm ---
G0 X68.706 Y51.281 F1200
G1 X68.706 Y51.342 Z0.000 F1500
G1 X68.706 Y51.402 Z0.000 F1500
G1 X68.702 Y51.453 Z0.000 F1500
G1 X68.696 Y51.502 Z0.000 F1500
G1 X68.687 Y51.554 Z0.000 F1500
G1 X68.677 Y51.597 Z0.000 F1500
G1 X68.666 Y51.636 Z0.000 F1500
G1 X68.651 Y51.678 Z0.000 F1500
G1 X68.635 Y51.721 Z0.000 F1500
G1 X68.611 Y51.772 Z0.000 F1500
G1 X68.596 Y51.803 Z0.000 F1500
; --- FIX X Backlash: -1.400mm ---
G0 X67.196 Y51.803 F1200
G1 X67.081 Y51.956 Z0.000 F1500
G1 X67.015 Y52.030 Z0.000 F1500
G1 X66.941 Y52.097 Z0.000 F1500
G1 X66.789 Y52.210 Z0.000 F1500
G1 X66.750 Y52.230 Z0.000 F1500
G1 X66.711 Y52.248 Z0.000 F1500
G1 X66.663 Y52.267 Z0.000 F1500
G1 X66.621 Y52.281 Z0.000 F1500
G1 X66.582 Y52.292 Z0.000 F1500
G1 X66.539 Y52.302 Z0.000 F1500
G1 X66.487 Y52.311 Z0.000 F1500
G1 X66.438 Y52.317 Z0.000 F1500
G1 X66.389 Y52.321 Z0.000 F1500
G1 X66.327 Y52.321 Z0.000 F1500
G1 X66.266 Y52.321 Z0.000 F1500
G1 X66.213 Y52.317 Z0.000 F1500
G1 X66.168 Y52.312 Z0.000 F1500
G1 X66.115 Y52.302 Z0.000 F1500
G1 X66.072 Y52.292 Z0.000 F1500
G1 X66.034 Y52.281 Z0.000 F1500
G1 X65.993 Y52.267 Z0.000 F1500
G1 X65.939 Y52.246 Z0.000 F1500
G1 X65.906 Y52.231 Z0.000 F1500
G1 X65.867 Y52.211 Z0.000 F1500
G1 X65.862 Y52.208 Z0.000 F1500
; --- FIX Y Backlash: -1.500mm ---
G0 X65.862 Y50.708 F1200
G1 X65.713 Y50.597 Z0.000 F1500
G1 X65.639 Y50.530 Z0.000 F1500
G1 X65.572 Y50.456 Z0.000 F1500
G1 X65.462 Y50.309 Z0.000 F1500
G1 X65.457 Y50.301 Z0.000 F1500
G1 X65.438 Y50.263 Z0.000 F1500
G1 X65.419 Y50.221 Z0.000 F1500
G1 X65.405 Y50.185 Z0.000 F1500
G1 X65.387 Y50.132 Z0.000 F1500
G1 X65.376 Y50.095 Z0.000 F1500
G1 X65.367 Y50.054 Z0.000 F1500
G1 X65.358 Y50.005 Z0.000 F1500
G1 X65.352 Y49.958 Z0.000 F1500
G1 X65.348 Y49.896 Z0.000 F1500
G1 X65.348 Y49.842 Z0.000 F1500
G1 X65.348 Y49.785 Z0.000 F1500
G1 X65.352 Y49.722 Z0.000 F1500
G1 X65.358 Y49.679 Z0.000 F1500
G1 X65.366 Y49.635 Z0.000 F1500
G1 X65.377 Y49.588 Z0.000 F1500
G1 X65.387 Y49.553 Z0.000 F1500
G1 X65.404 Y49.502 Z0.000 F1500
G1 X65.423 Y49.455 Z0.000 F1500
G1 X65.436 Y49.425 Z0.000 F1500
G1 X65.461 Y49.376 Z0.000 F1500
; --- FIX X Backlash: 1.400mm ---
G0 X66.861 Y49.376 F1200
G1 X66.972 Y49.228 Z0.000 F1500
G1 X67.037 Y49.157 Z0.000 F1500
G1 X67.113 Y49.088 Z0.000 F1500
G1 X67.262 Y48.976 Z0.000 F1500
G1 X67.267 Y48.973 Z0.000 F1500
G1 X67.308 Y48.953 Z0.000 F1500
G1 X67.345 Y48.936 Z0.000 F1500
G1 X67.387 Y48.919 Z0.000 F1500
G1 X67.438 Y48.902 Z0.000 F1500
G1 X67.474 Y48.892 Z0.000 F1500
G1 X67.515 Y48.882 Z0.000 F1500
G1 X67.567 Y48.873 Z0.000 F1500
G1 X67.606 Y48.868 Z0.000 F1500
G1 X67.666 Y48.863 Z0.000 F1500
G1 X67.727 Y48.863 Z0.000 F1500
G1 X67.789 Y48.863 Z0.000 F1500
G1 X67.844 Y48.868 Z0.000 F1500
G1 X67.890 Y48.874 Z0.000 F1500
G1 X67.939 Y48.882 Z0.000 F1500
G1 X67.979 Y48.892 Z0.000 F1500
G1 X68.017 Y48.902 Z0.000 F1500
G1 X68.069 Y48.920 Z0.000 F1500
G1 X68.105 Y48.934 Z0.000 F1500
G1 X68.149 Y48.954 Z0.000 F1500
G1 X68.189 Y48.975 Z0.000 F1500
; --- FIX Y Backlash: 1.500mm ---
G0 X68.189 Y50.475 F1200
G1 X68.341 Y50.588 Z0.000 F1500
G1 X68.417 Y50.657 Z0.000 F1500
G1 X68.481 Y50.728 Z0.000 F1500
G1 X68.593 Y50.877 Z0.000 F1500
G1 X68.596 Y50.882 Z0.000 F1500
G1 X68.616 Y50.921 Z0.000 F1500
G1 X68.631 Y50.955 Z0.000 F1500
G1 X68.652 Y51.008 Z0.000 F1500
G1 X68.665 Y51.044 Z0.000 F1500
G1 X68.676 Y51.085 Z0.000 F1500
G1 X68.688 Y51.135 Z0.000 F1500
G1 X68.696 Y51.180 Z0.000 F1500
G1 X68.702 Y51.228 Z0.000 F1500
G1 X68.706 Y51.281 Z0.000 F1500
G0 Z3.5 F1500
G0 X68.915 Y52.791 Z3.500
G1 Z0 F1500
; --- FIX X Backlash: -1.400mm ---
G0 X67.515 Y52.791 F1200
G1 X67.287 Y52.961 Z0.000 F1500
G1 X67.214 Y53.003 Z0.000 F1500
G1 X67.145 Y53.039 Z0.000 F1500
G1 X67.054 Y53.080 Z0.000 F1500
G1 X66.974 Y53.112 Z0.000 F1500
G1 X66.892 Y53.140 Z0.000 F1500
G1 X66.803 Y53.165 Z0.000 F1500
G1 X66.716 Y53.185 Z0.000 F1500
G1 X66.623 Y53.201 Z0.000 F1500
G1 X66.532 Y53.213 Z0.000 F1500
G1 X66.432 Y53.221 Z0.000 F1500
G1 X66.327 Y53.221 Z0.000 F1500
G1 X66.223 Y53.221 Z0.000 F1500
G1 X66.129 Y53.213 Z0.000 F1500
G1 X66.023 Y53.200 Z0.000 F1500
G1 X65.938 Y53.185 Z0.000 F1500
G1 X65.851 Y53.165 Z0.000 F1500
G1 X65.769 Y53.142 Z0.000 F1500
G1 X65.680 Y53.111 Z0.000 F1500
G1 X65.593 Y53.077 Z0.000 F1500
G1 X65.515 Y53.042 Z0.000 F1500
G1 X65.430 Y52.998 Z0.000 F1500
G1 X65.368 Y52.962 Z0.000 F1500
; --- FIX Y Backlash: -1.500mm ---
G0 X65.368 Y51.462 F1200
G1 X65.139 Y51.291 Z0.000 F1500
G1 X65.002 Y51.167 Z0.000 F1500
G1 X64.878 Y51.030 Z0.000 F1500
G1 X64.707 Y50.802 Z0.000 F1500
G1 X64.668 Y50.733 Z0.000 F1500
G1 X64.629 Y50.657 Z0.000 F1500
G1 X64.588 Y50.568 Z0.000 F1500
G1 X64.557 Y50.489 Z0.000 F1500
G1 X64.529 Y50.407 Z0.000 F1500
G1 X64.504 Y50.318 Z0.000 F1500
G1 X64.484 Y50.231 Z0.000 F1500
G1 X64.468 Y50.141 Z0.000 F1500
G1 X64.456 Y50.051 Z0.000 F1500
G1 X64.448 Y49.941 Z0.000 F1500
G1 X64.448 Y49.842 Z0.000 F1500
G1 X64.448 Y49.744 Z0.000 F1500
G1 X64.456 Y49.641 Z0.000 F1500
G1 X64.469 Y49.542 Z0.000 F1500
G1 X64.485 Y49.451 Z0.000 F1500
G1 X64.505 Y49.362 Z0.000 F1500
G1 X64.526 Y49.288 Z0.000 F1500
G1 X64.559 Y49.192 Z0.000 F1500
G1 X64.592 Y49.108 Z0.000 F1500
G1 X64.627 Y49.031 Z0.000 F1500
G1 X64.667 Y48.953 Z0.000 F1500
G1 X64.708 Y48.880 Z0.000 F1500
; --- FIX X Backlash: 1.400mm ---
G0 X66.108 Y48.880 F1200
G1 X66.278 Y48.654 Z0.000 F1500
G1 X66.400 Y48.520 Z0.000 F1500
G1 X66.538 Y48.394 Z0.000 F1500
G1 X66.767 Y48.223 Z0.000 F1500
G1 X66.831 Y48.186 Z0.000 F1500
G1 X66.924 Y48.138 Z0.000 F1500
G1 X66.991 Y48.107 Z0.000 F1500
G1 X67.077 Y48.074 Z0.000 F1500
G1 X67.173 Y48.042 Z0.000 F1500
G1 X67.250 Y48.020 Z0.000 F1500
G1 X67.338 Y47.999 Z0.000 F1500
G1 X67.420 Y47.984 Z0.000 F1500
G1 X67.523 Y47.972 Z0.000 F1500
G1 X67.623 Y47.964 Z0.000 F1500
G1 X67.727 Y47.961 Z0.000 F1500
G1 X67.832 Y47.964 Z0.000 F1500
G1 X67.938 Y47.972 Z0.000 F1500
G1 X68.026 Y47.983 Z0.000 F1500
G1 X68.116 Y47.999 Z0.000 F1500
G1 X68.203 Y48.020 Z0.000 F1500
G1 X68.292 Y48.044 Z0.000 F1500
G1 X68.374 Y48.072 Z0.000 F1500
G1 X68.454 Y48.104 Z0.000 F1500
G1 X68.536 Y48.141 Z0.000 F1500
G1 X68.614 Y48.181 Z0.000 F1500
G1 X68.688 Y48.223 Z0.000 F1500
; --- FIX Y Backlash: 1.500mm ---
G0 X68.688 Y49.723 F1200
G1 X68.916 Y49.894 Z0.000 F1500
G1 X69.054 Y50.020 Z0.000 F1500
G1 X69.176 Y50.154 Z0.000 F1500
G1 X69.347 Y50.383 Z0.000 F1500
G1 X69.383 Y50.446 Z0.000 F1500
G1 X69.427 Y50.530 Z0.000 F1500
G1 X69.462 Y50.608 Z0.000 F1500
G1 X69.496 Y50.695 Z0.000 F1500
G1 X69.526 Y50.785 Z0.000 F1500
G1 X69.548 Y50.862 Z0.000 F1500
G1 X69.569 Y50.951 Z0.000 F1500
G1 X69.585 Y51.044 Z0.000 F1500
G1 X69.598 Y51.144 Z0.000 F1500
G1 X69.605 Y51.238 Z0.000 F1500
G1 X69.608 Y51.342 Z0.000 F1500
G1 X69.605 Y51.447 Z0.000 F1500
G1 X69.598 Y51.547 Z0.000 F1500
G1 X69.586 Y51.639 Z0.000 F1500
G1 X69.570 Y51.731 Z0.000 F1500
G1 X69.549 Y51.818 Z0.000 F1500
G1 X69.524 Y51.907 Z0.000 F1500
G1 X69.497 Y51.989 Z0.000 F1500
G1 X69.465 Y52.068 Z0.000 F1500
G1 X69.425 Y52.158 Z0.000 F1500
G1 X69.387 Y52.232 Z0.000 F1500
G1 X69.346 Y52.302 Z0.000 F1500
; --- FIX X Backlash: -1.400mm ---
G0 X67.946 Y52.302 F1200
G1 X67.776 Y52.530 Z0.000 F1500
G1 X67.652 Y52.667 Z0.000 F1500
G1 X67.515 Y52.791 Z0.000 F1500
G0 Z3.5 F1500
G0 X66.180 Y54.120 Z3.500
G1 Z0 F1500
G1 X66.033 Y54.109 Z0.000 F1500
G1 X65.897 Y54.091 Z0.000 F1500
G1 X65.751 Y54.065 Z0.000 F1500
G1 X65.630 Y54.038 Z0.000 F1500
G1 X65.496 Y54.000 Z0.000 F1500
G1 X65.372 Y53.958 Z0.000 F1500
; --- FIX Y Backlash: -1.500mm ---
G0 X65.372 Y52.458 F1200
G1 X65.242 Y52.406 Z0.000 F1500
G1 X65.124 Y52.353 Z0.000 F1500
G1 X65.001 Y52.290 Z0.000 F1500
G1 X64.894 Y52.228 Z0.000 F1500
G1 X64.859 Y52.206 Z0.000 F1500
G1 X64.564 Y51.985 Z0.000 F1500
G1 X64.365 Y51.804 Z0.000 F1500
G1 X64.183 Y51.604 Z0.000 F1500
G1 X63.963 Y51.310 Z0.000 F1500
G1 X63.945 Y51.281 Z0.000 F1500
G1 X63.876 Y51.162 Z0.000 F1500
G1 X63.816 Y51.044 Z0.000 F1500
G1 X63.763 Y50.928 Z0.000 F1500
G1 X63.711 Y50.796 Z0.000 F1500
G1 X63.670 Y50.675 Z0.000 F1500
G1 X63.631 Y50.536 Z0.000 F1500
G1 X63.603 Y50.417 Z0.000 F1500
G1 X63.579 Y50.278 Z0.000 F1500
G1 X63.560 Y50.133 Z0.000 F1500
G1 X63.549 Y49.985 Z0.000 F1500
G1 X63.545 Y49.842 Z0.000 F1500
G1 X63.549 Y49.700 Z0.000 F1500
G1 X63.560 Y49.548 Z0.000 F1500
G1 X63.579 Y49.404 Z0.000 F1500
G1 X63.602 Y49.274 Z0.000 F1500
G1 X63.632 Y49.145 Z0.000 F1500
G1 X63.669 Y49.014 Z0.000 F1500
G1 X63.714 Y48.882 Z0.000 F1500
G1 X63.763 Y48.757 Z0.000 F1500
; --- FIX X Backlash: 1.400mm ---
G0 X65.163 Y48.757 F1200
G1 X65.214 Y48.644 Z0.000 F1500
G1 X65.277 Y48.521 Z0.000 F1500
G1 X65.346 Y48.401 Z0.000 F1500
G1 X65.363 Y48.375 Z0.000 F1500
G1 X65.583 Y48.080 Z0.000 F1500
G1 X65.763 Y47.882 Z0.000 F1500
G1 X65.966 Y47.697 Z0.000 F1500
G1 X66.257 Y47.479 Z0.000 F1500
G1 X66.291 Y47.458 Z0.000 F1500
G1 X66.401 Y47.395 Z0.000 F1500
G1 X66.528 Y47.330 Z0.000 F1500
G1 X66.645 Y47.277 Z0.000 F1500
G1 X66.767 Y47.229 Z0.000 F1500
G1 X66.898 Y47.184 Z0.000 F1500
G1 X67.033 Y47.146 Z0.000 F1500
G1 X67.151 Y47.119 Z0.000 F1500
G1 X67.292 Y47.093 Z0.000 F1500
G1 X67.430 Y47.076 Z0.000 F1500
G1 X67.580 Y47.064 Z0.000 F1500
G1 X67.727 Y47.061 Z0.000 F1500
G1 X67.874 Y47.064 Z0.000 F1500
G1 X68.021 Y47.076 Z0.000 F1500
G1 X68.163 Y47.094 Z0.000 F1500
G1 X68.302 Y47.119 Z0.000 F1500
G1 X68.420 Y47.146 Z0.000 F1500
G1 X68.560 Y47.186 Z0.000 F1500
G1 X68.681 Y47.227 Z0.000 F1500
; --- FIX Y Backlash: 1.500mm ---
G0 X68.681 Y48.727 F1200
G1 X68.811 Y48.778 Z0.000 F1500
G1 X68.927 Y48.831 Z0.000 F1500
G1 X69.052 Y48.894 Z0.000 F1500
G1 X69.162 Y48.957 Z0.000 F1500
G1 X69.196 Y48.979 Z0.000 F1500
G1 X69.487 Y49.197 Z0.000 F1500
G1 X69.691 Y49.382 Z0.000 F1500
G1 X69.870 Y49.580 Z0.000 F1500
G1 X70.091 Y49.875 Z0.000 F1500
G1 X70.113 Y49.909 Z0.000 F1500
G1 X70.175 Y50.017 Z0.000 F1500
G1 X70.238 Y50.140 Z0.000 F1500
G1 X70.291 Y50.257 Z0.000 F1500
G1 X70.342 Y50.387 Z0.000 F1500
G1 X70.384 Y50.511 Z0.000 F1500
G1 X70.421 Y50.642 Z0.000 F1500
G1 X70.452 Y50.774 Z0.000 F1500
G1 X70.476 Y50.909 Z0.000 F1500
G1 X70.494 Y51.048 Z0.000 F1500
G1 X70.505 Y51.195 Z0.000 F1500
G1 X70.508 Y51.342 Z0.000 F1500
G1 X70.505 Y51.489 Z0.000 F1500
G1 X70.494 Y51.634 Z0.000 F1500
G1 X70.476 Y51.774 Z0.000 F1500
G1 X70.450 Y51.917 Z0.000 F1500
G1 X70.422 Y52.039 Z0.000 F1500
G1 X70.385 Y52.171 Z0.000 F1500
G1 X70.342 Y52.297 Z0.000 F1500
; --- FIX X Backlash: -1.400mm ---
G0 X68.942 Y52.297 F1200
G1 X68.891 Y52.428 Z0.000 F1500
G1 X68.836 Y52.549 Z0.000 F1500
G1 X68.776 Y52.666 Z0.000 F1500
G1 X68.714 Y52.774 Z0.000 F1500
G1 X68.691 Y52.810 Z0.000 F1500
G1 X68.470 Y53.104 Z0.000 F1500
G1 X68.289 Y53.304 Z0.000 F1500
G1 X68.089 Y53.485 Z0.000 F1500
G1 X67.794 Y53.706 Z0.000 F1500
G1 X67.759 Y53.729 Z0.000 F1500
G1 X67.652 Y53.791 Z0.000 F1500
G1 X67.532 Y53.852 Z0.000 F1500
G1 X67.413 Y53.905 Z0.000 F1500
G1 X67.282 Y53.958 Z0.000 F1500
G1 X67.156 Y54.000 Z0.000 F1500
G1 X67.024 Y54.038 Z0.000 F1500
G1 X66.902 Y54.065 Z0.000 F1500
G1 X66.759 Y54.091 Z0.000 F1500
G1 X66.619 Y54.109 Z0.000 F1500
G1 X66.474 Y54.120 Z0.000 F1500
G1 X66.327 Y54.124 Z0.000 F1500
G1 X66.180 Y54.120 Z0.000 F1500
G0 Z3.5 F1500
G0 X63.991 Y54.180 Z3.500
G1 Z0 F1500
; --- FIX Y Backlash: -1.500mm ---
G0 X63.991 Y52.680 F1200
G1 X63.728 Y52.441 Z0.000 F1500
G1 X63.489 Y52.178 Z0.000 F1500
G1 X63.222 Y51.822 Z0.000 F1500
G1 X63.172 Y51.743 Z0.000 F1500
G1 X63.087 Y51.595 Z0.000 F1500
G1 X63.005 Y51.435 Z0.000 F1500
G1 X62.932 Y51.274 Z0.000 F1500
G1 X62.867 Y51.108 Z0.000 F1500
G1 X62.810 Y50.940 Z0.000 F1500
G1 X62.759 Y50.762 Z0.000 F1500
G1 X62.720 Y50.590 Z0.000 F1500
G1 X62.688 Y50.415 Z0.000 F1500
G1 X62.664 Y50.220 Z0.000 F1500
G1 X62.650 Y50.039 Z0.000 F1500
G1 X62.645 Y49.842 Z0.000 F1500
G1 X62.650 Y49.646 Z0.000 F1500
G1 X62.664 Y49.456 Z0.000 F1500
G1 X62.687 Y49.275 Z0.000 F1500
G1 X62.721 Y49.090 Z0.000 F1500
G1 X62.760 Y48.919 Z0.000 F1500
; --- FIX X Backlash: 1.400mm ---
G0 X64.160 Y48.919 F1200
G1 X64.211 Y48.741 Z0.000 F1500
G1 X64.269 Y48.570 Z0.000 F1500
G1 X64.335 Y48.403 Z0.000 F1500
G1 X64.401 Y48.257 Z0.000 F1500
G1 X64.489 Y48.084 Z0.000 F1500
G1 X64.572 Y47.941 Z0.000 F1500
G1 X64.622 Y47.862 Z0.000 F1500
G1 X64.889 Y47.506 Z0.000 F1500
G1 X65.126 Y47.245 Z0.000 F1500
G1 X65.395 Y47.001 Z0.000 F1500
G1 X65.743 Y46.740 Z0.000 F1500
G1 X65.822 Y46.689 Z0.000 F1500
G1 X65.977 Y46.601 Z0.000 F1500
G1 X66.137 Y46.519 Z0.000 F1500
G1 X66.291 Y46.449 Z0.000 F1500
G1 X66.457 Y46.384 Z0.000 F1500
G1 X66.633 Y46.324 Z0.000 F1500
G1 X66.807 Y46.274 Z0.000 F1500
G1 X66.977 Y46.235 Z0.000 F1500
G1 X67.155 Y46.203 Z0.000 F1500
G1 X67.337 Y46.180 Z0.000 F1500
G1 X67.527 Y46.166 Z0.000 F1500
G1 X67.727 Y46.161 Z0.000 F1500
G1 X67.927 Y46.166 Z0.000 F1500
G1 X68.114 Y46.180 Z0.000 F1500
G1 X68.300 Y46.204 Z0.000 F1500
G1 X68.477 Y46.235 Z0.000 F1500
G1 X68.646 Y46.274 Z0.000 F1500
; --- FIX Y Backlash: 1.500mm ---
G0 X68.646 Y47.774 F1200
G1 X68.825 Y47.825 Z0.000 F1500
G1 X68.995 Y47.882 Z0.000 F1500
G1 X69.162 Y47.949 Z0.000 F1500
G1 X69.319 Y48.020 Z0.000 F1500
G1 X69.471 Y48.097 Z0.000 F1500
G1 X69.633 Y48.190 Z0.000 F1500
G1 X69.710 Y48.240 Z0.000 F1500
G1 X70.059 Y48.501 Z0.000 F1500
G1 X70.328 Y48.745 Z0.000 F1500
G1 X70.564 Y49.006 Z0.000 F1500
G1 X70.832 Y49.362 Z0.000 F1500
G1 X70.882 Y49.441 Z0.000 F1500
G1 X70.967 Y49.588 Z0.000 F1500
G1 X71.046 Y49.743 Z0.000 F1500
G1 X71.119 Y49.903 Z0.000 F1500
G1 X71.189 Y50.083 Z0.000 F1500
G1 X71.244 Y50.244 Z0.000 F1500
G1 X71.292 Y50.412 Z0.000 F1500
G1 X71.333 Y50.590 Z0.000 F1500
G1 X71.366 Y50.773 Z0.000 F1500
G1 X71.390 Y50.962 Z0.000 F1500
G1 X71.403 Y51.138 Z0.000 F1500
G1 X71.409 Y51.342 Z0.000 F1500
G1 X71.403 Y51.542 Z0.000 F1500
G1 X71.389 Y51.729 Z0.000 F1500
G1 X71.367 Y51.903 Z0.000 F1500
G1 X71.334 Y52.090 Z0.000 F1500
G1 X71.293 Y52.268 Z0.000 F1500
G1 X71.246 Y52.436 Z0.000 F1500
; --- FIX X Backlash: -1.400mm ---
G0 X69.846 Y52.436 F1200
G1 X69.788 Y52.607 Z0.000 F1500
G1 X69.722 Y52.774 Z0.000 F1500
G1 X69.645 Y52.943 Z0.000 F1500
G1 X69.572 Y53.087 Z0.000 F1500
G1 X69.482 Y53.243 Z0.000 F1500
G1 X69.432 Y53.322 Z0.000 F1500
G1 X69.164 Y53.678 Z0.000 F1500
G1 X68.926 Y53.941 Z0.000 F1500
G1 X68.663 Y54.180 Z0.000 F1500
G1 X68.307 Y54.447 Z0.000 F1500
G1 X68.227 Y54.497 Z0.000 F1500
G1 X68.073 Y54.586 Z0.000 F1500
G1 X67.922 Y54.664 Z0.000 F1500
G1 X67.765 Y54.734 Z0.000 F1500
G1 X67.592 Y54.803 Z0.000 F1500
G1 X67.420 Y54.861 Z0.000 F1500
G1 X67.253 Y54.908 Z0.000 F1500
G1 X67.077 Y54.949 Z0.000 F1500
G1 X66.893 Y54.981 Z0.000 F1500
G1 X66.714 Y55.004 Z0.000 F1500
G1 X66.527 Y55.019 Z0.000 F1500
G1 X66.327 Y55.024 Z0.000 F1500
G1 X66.127 Y55.019 Z0.000 F1500
G1 X65.947 Y55.005 Z0.000 F1500
G1 X65.752 Y54.980 Z0.000 F1500
G1 X65.577 Y54.949 Z0.000 F1500
G1 X65.400 Y54.908 Z0.000 F1500
G1 X65.228 Y54.859 Z0.000 F1500
; --- FIX Y Backlash: -1.500mm ---
G0 X65.228 Y53.359 F1200
G1 X65.068 Y53.305 Z0.000 F1500
G1 X64.888 Y53.234 Z0.000 F1500
G1 X64.734 Y53.165 Z0.000 F1500
G1 X64.577 Y53.084 Z0.000 F1500
G1 X64.428 Y52.999 Z0.000 F1500
G1 X64.347 Y52.947 Z0.000 F1500
G1 X63.991 Y52.680 Z0.000 F1500
G0 Z3.5 F1500
G0 X61.950 Y51.205 Z3.500
G1 Z0 F1500
G1 X61.887 Y50.985 Z0.000 F1500
G1 X61.839 Y50.779 Z0.000 F1500
G1 X61.797 Y50.543 Z0.000 F1500
G1 X61.769 Y50.318 Z0.000 F1500
G1 X61.751 Y50.083 Z0.000 F1500
G1 X61.745 Y49.842 Z0.000 F1500
G1 X61.751 Y49.602 Z0.000 F1500
G1 X61.768 Y49.374 Z0.000 F1500
G1 X61.799 Y49.128 Z0.000 F1500
G1 X61.837 Y48.915 Z0.000 F1500
; --- FIX X Backlash: 1.400mm ---
G0 X63.237 Y48.915 F1200
G1 X63.288 Y48.695 Z0.000 F1500
G1 X63.352 Y48.471 Z0.000 F1500
G1 X63.420 Y48.271 Z0.000 F1500
G1 X63.502 Y48.060 Z0.000 F1500
G1 X63.594 Y47.857 Z0.000 F1500
G1 X63.693 Y47.665 Z0.000 F1500
G1 X63.810 Y47.461 Z0.000 F1500
G1 X63.881 Y47.350 Z0.000 F1500
G1 X64.192 Y46.935 Z0.000 F1500
G1 X64.491 Y46.605 Z0.000 F1500
G1 X64.814 Y46.312 Z0.000 F1500
G1 X65.234 Y45.998 Z0.000 F1500
G1 X65.358 Y45.918 Z0.000 F1500
G1 X65.541 Y45.813 Z0.000 F1500
G1 X65.750 Y45.706 Z0.000 F1500
G1 X65.943 Y45.618 Z0.000 F1500
G1 X66.155 Y45.535 Z0.000 F1500
G1 X66.356 Y45.467 Z0.000 F1500
G1 X66.583 Y45.402 Z0.000 F1500
G1 X66.790 Y45.354 Z0.000 F1500
G1 X67.018 Y45.314 Z0.000 F1500
G1 X67.255 Y45.284 Z0.000 F1500
G1 X67.485 Y45.267 Z0.000 F1500
G1 X67.727 Y45.260 Z0.000 F1500
G1 X67.969 Y45.267 Z0.000 F1500
G1 X68.206 Y45.285 Z0.000 F1500
G1 X68.428 Y45.313 Z0.000 F1500
G1 X68.664 Y45.354 Z0.000 F1500
G1 X68.870 Y45.402 Z0.000 F1500
; --- FIX Y Backlash: 1.500mm ---
G0 X68.870 Y46.902 F1200
G1 X69.089 Y46.965 Z0.000 F1500
G1 X69.311 Y47.040 Z0.000 F1500
G1 X69.506 Y47.116 Z0.000 F1500
G1 X69.710 Y47.209 Z0.000 F1500
G1 X69.910 Y47.311 Z0.000 F1500
G1 X70.093 Y47.417 Z0.000 F1500
G1 X70.220 Y47.498 Z0.000 F1500
G1 X70.639 Y47.812 Z0.000 F1500
G1 X70.962 Y48.105 Z0.000 F1500
G1 X71.262 Y48.435 Z0.000 F1500
G1 X71.572 Y48.850 Z0.000 F1500
G1 X71.649 Y48.969 Z0.000 F1500
G1 X71.756 Y49.156 Z0.000 F1500
G1 X71.860 Y49.358 Z0.000 F1500
G1 X71.951 Y49.560 Z0.000 F1500
G1 X72.032 Y49.767 Z0.000 F1500
G1 X72.104 Y49.979 Z0.000 F1500
G1 X72.165 Y50.191 Z0.000 F1500
G1 X72.216 Y50.415 Z0.000 F1500
G1 X72.255 Y50.635 Z0.000 F1500
G1 X72.285 Y50.868 Z0.000 F1500
G1 X72.303 Y51.100 Z0.000 F1500
G1 X72.309 Y51.342 Z0.000 F1500
G1 X72.303 Y51.584 Z0.000 F1500
G1 X72.285 Y51.815 Z0.000 F1500
G1 X72.256 Y52.044 Z0.000 F1500
G1 X72.214 Y52.279 Z0.000 F1500
G1 X72.166 Y52.489 Z0.000 F1500
; --- FIX X Backlash: -1.400mm ---
G0 X70.766 Y52.489 F1200
G1 X70.704 Y52.709 Z0.000 F1500
G1 X70.632 Y52.918 Z0.000 F1500
G1 X70.554 Y53.119 Z0.000 F1500
G1 X70.458 Y53.329 Z0.000 F1500
G1 X70.356 Y53.528 Z0.000 F1500
G1 X70.250 Y53.712 Z0.000 F1500
G1 X70.172 Y53.834 Z0.000 F1500
G1 X69.862 Y54.250 Z0.000 F1500
G1 X69.563 Y54.578 Z0.000 F1500
G1 X69.234 Y54.877 Z0.000 F1500
G1 X68.819 Y55.188 Z0.000 F1500
G1 X68.697 Y55.266 Z0.000 F1500
G1 X68.510 Y55.374 Z0.000 F1500
G1 X68.316 Y55.473 Z0.000 F1500
G1 X68.104 Y55.568 Z0.000 F1500
G1 X67.903 Y55.647 Z0.000 F1500
G1 X67.694 Y55.719 Z0.000 F1500
G1 X67.474 Y55.781 Z0.000 F1500
G1 X67.264 Y55.830 Z0.000 F1500
G1 X67.029 Y55.872 Z0.000 F1500
G1 X66.800 Y55.900 Z0.000 F1500
G1 X66.569 Y55.918 Z0.000 F1500
G1 X66.327 Y55.924 Z0.000 F1500
G1 X66.085 Y55.918 Z0.000 F1500
G1 X65.853 Y55.900 Z0.000 F1500
G1 X65.625 Y55.872 Z0.000 F1500
G1 X65.390 Y55.830 Z0.000 F1500
G1 X65.180 Y55.781 Z0.000 F1500
; --- FIX Y Backlash: -1.500mm ---
G0 X65.180 Y54.281 F1200
G1 X64.964 Y54.220 Z0.000 F1500
G1 X64.751 Y54.147 Z0.000 F1500
G1 X64.545 Y54.066 Z0.000 F1500
G1 X64.343 Y53.975 Z0.000 F1500
G1 X64.141 Y53.872 Z0.000 F1500
G1 X63.954 Y53.764 Z0.000 F1500
G1 X63.834 Y53.688 Z0.000 F1500
G1 X63.419 Y53.377 Z0.000 F1500
G1 X63.091 Y53.078 Z0.000 F1500
G1 X62.792 Y52.750 Z0.000 F1500
G1 X62.481 Y52.334 Z0.000 F1500
G1 X62.409 Y52.221 Z0.000 F1500
G1 X62.293 Y52.019 Z0.000 F1500
G1 X62.195 Y51.830 Z0.000 F1500
G1 X62.100 Y51.619 Z0.000 F1500
G1 X62.024 Y51.426 Z0.000 F1500
G1 X61.950 Y51.205 Z0.000 F1500
G0 Z3.5 F1500
G0 X60.956 Y48.729 Z3.500
G1 Z0 F1500
; --- FIX X Backlash: 1.400mm ---
G0 X62.356 Y48.729 F1200
G1 X62.417 Y48.467 Z0.000 F1500
G1 X62.491 Y48.209 Z0.000 F1500
G1 X62.575 Y47.960 Z0.000 F1500
G1 X62.675 Y47.706 Z0.000 F1500
G1 X62.781 Y47.470 Z0.000 F1500
G1 X62.903 Y47.233 Z0.000 F1500
G1 X63.038 Y46.999 Z0.000 F1500
G1 X63.143 Y46.834 Z0.000 F1500
G1 X63.498 Y46.360 Z0.000 F1500
G1 X63.852 Y45.970 Z0.000 F1500
G1 X64.243 Y45.615 Z0.000 F1500
G1 X64.720 Y45.258 Z0.000 F1500
G1 X64.887 Y45.151 Z0.000 F1500
G1 X65.119 Y45.018 Z0.000 F1500
G1 X65.357 Y44.896 Z0.000 F1500
G1 X65.589 Y44.791 Z0.000 F1500
G1 X65.845 Y44.690 Z0.000 F1500
G1 X66.094 Y44.606 Z0.000 F1500
G1 X66.357 Y44.531 Z0.000 F1500
G1 X66.613 Y44.472 Z0.000 F1500
G1 X66.881 Y44.424 Z0.000 F1500
G1 X67.162 Y44.389 Z0.000 F1500
G1 X67.433 Y44.368 Z0.000 F1500
G1 X67.727 Y44.360 Z0.000 F1500
G1 X68.021 Y44.368 Z0.000 F1500
G1 X68.291 Y44.388 Z0.000 F1500
G1 X68.573 Y44.424 Z0.000 F1500
G1 X68.840 Y44.472 Z0.000 F1500
; --- FIX Y Backlash: 1.500mm ---
G0 X68.840 Y45.972 F1200
G1 X69.097 Y46.031 Z0.000 F1500
G1 X69.361 Y46.106 Z0.000 F1500
G1 X69.616 Y46.192 Z0.000 F1500
G1 X69.856 Y46.287 Z0.000 F1500
G1 X70.098 Y46.396 Z0.000 F1500
G1 X70.335 Y46.518 Z0.000 F1500
G1 X70.564 Y46.650 Z0.000 F1500
G1 X70.733 Y46.758 Z0.000 F1500
G1 X71.211 Y47.115 Z0.000 F1500
G1 X71.602 Y47.470 Z0.000 F1500
G1 X71.956 Y47.860 Z0.000 F1500
G1 X72.311 Y48.334 Z0.000 F1500
G1 X72.417 Y48.500 Z0.000 F1500
G1 X72.552 Y48.734 Z0.000 F1500
G1 X72.671 Y48.968 Z0.000 F1500
G1 X72.779 Y49.206 Z0.000 F1500
G1 X72.880 Y49.462 Z0.000 F1500
G1 X72.962 Y49.706 Z0.000 F1500
G1 X73.037 Y49.969 Z0.000 F1500
G1 X73.097 Y50.229 Z0.000 F1500
G1 X73.146 Y50.500 Z0.000 F1500
G1 X73.181 Y50.782 Z0.000 F1500
G1 X73.202 Y51.048 Z0.000 F1500
G1 X73.209 Y51.342 Z0.000 F1500
G1 X73.202 Y51.637 Z0.000 F1500
G1 X73.181 Y51.901 Z0.000 F1500
G1 X73.145 Y52.189 Z0.000 F1500
G1 X73.097 Y52.455 Z0.000 F1500
; --- FIX X Backlash: -1.400mm ---
G0 X71.697 Y52.455 F1200
G1 X71.639 Y52.710 Z0.000 F1500
G1 X71.562 Y52.979 Z0.000 F1500
G1 X71.477 Y53.229 Z0.000 F1500
G1 X71.382 Y53.470 Z0.000 F1500
G1 X71.270 Y53.720 Z0.000 F1500
G1 X71.152 Y53.950 Z0.000 F1500
G1 X71.018 Y54.182 Z0.000 F1500
G1 X70.911 Y54.350 Z0.000 F1500
G1 X70.556 Y54.824 Z0.000 F1500
G1 X70.200 Y55.215 Z0.000 F1500
G1 X69.808 Y55.571 Z0.000 F1500
G1 X69.335 Y55.926 Z0.000 F1500
G1 X69.166 Y56.034 Z0.000 F1500
G1 X68.935 Y56.167 Z0.000 F1500
G1 X68.703 Y56.286 Z0.000 F1500
G1 X68.455 Y56.397 Z0.000 F1500
G1 X68.214 Y56.493 Z0.000 F1500
G1 X67.964 Y56.577 Z0.000 F1500
G1 X67.695 Y56.654 Z0.000 F1500
G1 X67.440 Y56.712 Z0.000 F1500
G1 X67.174 Y56.760 Z0.000 F1500
G1 X66.886 Y56.796 Z0.000 F1500
G1 X66.621 Y56.817 Z0.000 F1500
G1 X66.327 Y56.824 Z0.000 F1500
G1 X66.033 Y56.817 Z0.000 F1500
G1 X65.767 Y56.796 Z0.000 F1500
G1 X65.481 Y56.760 Z0.000 F1500
G1 X65.213 Y56.712 Z0.000 F1500
; --- FIX Y Backlash: -1.500mm ---
G0 X65.213 Y55.212 F1200
G1 X64.959 Y55.154 Z0.000 F1500
G1 X64.690 Y55.078 Z0.000 F1500
G1 X64.447 Y54.995 Z0.000 F1500
G1 X64.190 Y54.894 Z0.000 F1500
G1 X63.953 Y54.786 Z0.000 F1500
G1 X63.719 Y54.667 Z0.000 F1500
G1 X63.485 Y54.533 Z0.000 F1500
G1 X63.319 Y54.426 Z0.000 F1500
G1 X62.845 Y54.071 Z0.000 F1500
G1 X62.454 Y53.715 Z0.000 F1500
G1 X62.098 Y53.324 Z0.000 F1500
G1 X61.743 Y52.850 Z0.000 F1500
G1 X61.634 Y52.679 Z0.000 F1500
G1 X61.505 Y52.456 Z0.000 F1500
G1 X61.383 Y52.217 Z0.000 F1500
G1 X61.271 Y51.970 Z0.000 F1500
G1 X61.177 Y51.731 Z0.000 F1500
G1 X61.091 Y51.476 Z0.000 F1500
G1 X61.016 Y51.212 Z0.000 F1500
G1 X60.956 Y50.955 Z0.000 F1500
G1 X60.909 Y50.688 Z0.000 F1500
G1 X60.873 Y50.411 Z0.000 F1500
G1 X60.852 Y50.127 Z0.000 F1500
G1 X60.845 Y49.842 Z0.000 F1500
G1 X60.852 Y49.557 Z0.000 F1500
G1 X60.874 Y49.272 Z0.000 F1500
G1 X60.908 Y49.000 Z0.000 F1500
G1 X60.956 Y48.729 Z0.000 F1500
G0 Z3.5 F1500
; --- FIX X Backlash: 1.400mm ---
G0 X62.356 Y48.729 F1200
G0 X62.805 Y45.784 Z3.500
G1 Z0 F1500
G1 X63.213 Y45.335 Z0.000 F1500
G1 X63.673 Y44.917 Z0.000 F1500
G1 X64.203 Y44.521 Z0.000 F1500
G1 X64.419 Y44.382 Z0.000 F1500
G1 X64.695 Y44.224 Z0.000 F1500
G1 X64.962 Y44.087 Z0.000 F1500
G1 X65.242 Y43.960 Z0.000 F1500
G1 X65.535 Y43.845 Z0.000 F1500
G1 X65.826 Y43.747 Z0.000 F1500
G1 X66.124 Y43.662 Z0.000 F1500
G1 X66.435 Y43.590 Z0.000 F1500
G1 X66.755 Y43.532 Z0.000 F1500
G1 X67.059 Y43.494 Z0.000 F1500
G1 X67.399 Y43.468 Z0.000 F1500
G1 X67.727 Y43.460 Z0.000 F1500
G1 X68.055 Y43.468 Z0.000 F1500
G1 X68.394 Y43.494 Z0.000 F1500
G1 X68.700 Y43.533 Z0.000 F1500
; --- FIX Y Backlash: 1.500mm ---
G0 X68.700 Y45.033 F1200
G1 X69.019 Y45.090 Z0.000 F1500
G1 X69.330 Y45.162 Z0.000 F1500
G1 X69.626 Y45.246 Z0.000 F1500
G1 X69.920 Y45.345 Z0.000 F1500
G1 X70.212 Y45.460 Z0.000 F1500
G1 X70.493 Y45.587 Z0.000 F1500
G1 X70.769 Y45.729 Z0.000 F1500
G1 X71.024 Y45.875 Z0.000 F1500
G1 X71.251 Y46.021 Z0.000 F1500
G1 X71.780 Y46.417 Z0.000 F1500
G1 X72.241 Y46.835 Z0.000 F1500
G1 X72.648 Y47.284 Z0.000 F1500
G1 X73.051 Y47.822 Z0.000 F1500
G1 X73.188 Y48.035 Z0.000 F1500
G1 X73.346 Y48.310 Z0.000 F1500
G1 X73.482 Y48.577 Z0.000 F1500
G1 X73.608 Y48.854 Z0.000 F1500
G1 X73.723 Y49.146 Z0.000 F1500
G1 X73.826 Y49.449 Z0.000 F1500
G1 X73.908 Y49.739 Z0.000 F1500
G1 X73.980 Y50.054 Z0.000 F1500
G1 X74.036 Y50.365 Z0.000 F1500
G1 X74.076 Y50.677 Z0.000 F1500
G1 X74.101 Y51.015 Z0.000 F1500
G1 X74.109 Y51.342 Z0.000 F1500
G1 X74.101 Y51.670 Z0.000 F1500
G1 X74.076 Y52.006 Z0.000 F1500
G1 X74.037 Y52.313 Z0.000 F1500
; --- FIX X Backlash: -1.400mm ---
G0 X72.637 Y52.313 F1200
G1 X72.579 Y52.634 Z0.000 F1500
G1 X72.506 Y52.949 Z0.000 F1500
G1 X72.425 Y53.235 Z0.000 F1500
G1 X72.324 Y53.536 Z0.000 F1500
G1 X72.209 Y53.826 Z0.000 F1500
G1 X72.079 Y54.114 Z0.000 F1500
G1 X71.941 Y54.383 Z0.000 F1500
G1 X71.794 Y54.639 Z0.000 F1500
G1 X71.651 Y54.862 Z0.000 F1500
G1 X71.248 Y55.400 Z0.000 F1500
G1 X70.837 Y55.853 Z0.000 F1500
G1 X70.385 Y56.264 Z0.000 F1500
G1 X69.847 Y56.666 Z0.000 F1500
G1 X69.624 Y56.809 Z0.000 F1500
G1 X69.369 Y56.956 Z0.000 F1500
G1 X69.093 Y57.097 Z0.000 F1500
G1 X68.815 Y57.223 Z0.000 F1500
G1 X68.522 Y57.338 Z0.000 F1500
G1 X68.220 Y57.440 Z0.000 F1500
G1 X67.934 Y57.521 Z0.000 F1500
G1 X67.619 Y57.594 Z0.000 F1500
G1 X67.298 Y57.652 Z0.000 F1500
G1 X66.991 Y57.691 Z0.000 F1500
G1 X66.655 Y57.716 Z0.000 F1500
G1 X66.327 Y57.725 Z0.000 F1500
G1 X65.999 Y57.716 Z0.000 F1500
G1 X65.662 Y57.691 Z0.000 F1500
G1 X65.357 Y57.652 Z0.000 F1500
; --- FIX Y Backlash: -1.500mm ---
G0 X65.357 Y56.152 F1200
G1 X65.035 Y56.094 Z0.000 F1500
G1 X64.720 Y56.021 Z0.000 F1500
G1 X64.434 Y55.941 Z0.000 F1500
G1 X64.130 Y55.838 Z0.000 F1500
G1 X63.839 Y55.723 Z0.000 F1500
G1 X63.561 Y55.598 Z0.000 F1500
G1 X63.295 Y55.461 Z0.000 F1500
G1 X63.019 Y55.303 Z0.000 F1500
G1 X62.807 Y55.166 Z0.000 F1500
G1 X62.268 Y54.764 Z0.000 F1500
G1 X61.816 Y54.353 Z0.000 F1500
G1 X61.405 Y53.900 Z0.000 F1500
G1 X61.003 Y53.362 Z0.000 F1500
G1 X60.863 Y53.145 Z0.000 F1500
G1 X60.713 Y52.884 Z0.000 F1500
G1 X60.571 Y52.607 Z0.000 F1500
G1 X60.444 Y52.326 Z0.000 F1500
G1 X60.330 Y52.036 Z0.000 F1500
G1 X60.230 Y51.741 Z0.000 F1500
G1 X60.146 Y51.445 Z0.000 F1500
G1 X60.075 Y51.134 Z0.000 F1500
G1 X60.017 Y50.815 Z0.000 F1500
G1 X59.978 Y50.503 Z0.000 F1500
G1 X59.953 Y50.171 Z0.000 F1500
G1 X59.944 Y49.842 Z0.000 F1500
G1 X59.953 Y49.513 Z0.000 F1500
G1 X59.978 Y49.180 Z0.000 F1500
G1 X60.018 Y48.863 Z0.000 F1500
; --- FIX X Backlash: 1.400mm ---
G0 X61.418 Y48.863 F1200
G1 X61.474 Y48.554 Z0.000 F1500
G1 X61.545 Y48.243 Z0.000 F1500
G1 X61.631 Y47.941 Z0.000 F1500
G1 X61.730 Y47.649 Z0.000 F1500
G1 X61.846 Y47.354 Z0.000 F1500
G1 X61.968 Y47.083 Z0.000 F1500
G1 X62.115 Y46.797 Z0.000 F1500
G1 X62.262 Y46.541 Z0.000 F1500
G1 X62.403 Y46.322 Z0.000 F1500
G1 X62.805 Y45.784 Z0.000 F1500
G0 Z3.5 F1500
G0 X64.575 Y43.274 Z3.500
G1 Z0 F1500
G1 X64.892 Y43.130 Z0.000 F1500
G1 X65.225 Y43.000 Z0.000 F1500
G1 X65.563 Y42.885 Z0.000 F1500
G1 X65.897 Y42.790 Z0.000 F1500
G1 X66.258 Y42.707 Z0.000 F1500
G1 X66.608 Y42.644 Z0.000 F1500
G1 X66.976 Y42.598 Z0.000 F1500
G1 X67.357 Y42.569 Z0.000 F1500
G1 X67.727 Y42.560 Z0.000 F1500
G1 X68.097 Y42.569 Z0.000 F1500
G1 X68.477 Y42.598 Z0.000 F1500
G1 X68.846 Y42.645 Z0.000 F1500
; --- FIX Y Backlash: 1.500mm ---
G0 X68.846 Y44.145 F1200
G1 X69.196 Y44.207 Z0.000 F1500
G1 X69.556 Y44.290 Z0.000 F1500
G1 X69.888 Y44.384 Z0.000 F1500
G1 X70.233 Y44.501 Z0.000 F1500
G1 X70.559 Y44.629 Z0.000 F1500
G1 X70.884 Y44.777 Z0.000 F1500
G1 X71.194 Y44.935 Z0.000 F1500
G1 X71.500 Y45.112 Z0.000 F1500
G1 X71.762 Y45.279 Z0.000 F1500
G1 X72.357 Y45.725 Z0.000 F1500
G1 X72.873 Y46.193 Z0.000 F1500
G1 X73.345 Y46.712 Z0.000 F1500
G1 X73.794 Y47.313 Z0.000 F1500
G1 X73.953 Y47.561 Z0.000 F1500
G1 X74.133 Y47.873 Z0.000 F1500
G1 X74.293 Y48.186 Z0.000 F1500
G1 X74.438 Y48.508 Z0.000 F1500
G1 X74.570 Y48.842 Z0.000 F1500
G1 X74.683 Y49.176 Z0.000 F1500
G1 X74.780 Y49.516 Z0.000 F1500
G1 X74.861 Y49.870 Z0.000 F1500
G1 X74.925 Y50.229 Z0.000 F1500
G1 X74.972 Y50.591 Z0.000 F1500
G1 X75.000 Y50.973 Z0.000 F1500
G1 X75.010 Y51.342 Z0.000 F1500
G1 X75.000 Y51.712 Z0.000 F1500
G1 X74.972 Y52.093 Z0.000 F1500
G1 X74.925 Y52.458 Z0.000 F1500
; --- FIX X Backlash: -1.400mm ---
G0 X73.525 Y52.458 F1200
G1 X73.462 Y52.811 Z0.000 F1500
G1 X73.379 Y53.170 Z0.000 F1500
G1 X73.284 Y53.506 Z0.000 F1500
G1 X73.168 Y53.848 Z0.000 F1500
G1 X73.038 Y54.177 Z0.000 F1500
G1 X72.894 Y54.496 Z0.000 F1500
G1 X72.732 Y54.813 Z0.000 F1500
G1 X72.555 Y55.121 Z0.000 F1500
G1 X72.394 Y55.371 Z0.000 F1500
G1 X71.945 Y55.972 Z0.000 F1500
G1 X71.475 Y56.490 Z0.000 F1500
G1 X70.956 Y56.960 Z0.000 F1500
G1 X70.355 Y57.410 Z0.000 F1500
G1 X70.105 Y57.570 Z0.000 F1500
G1 X69.794 Y57.750 Z0.000 F1500
G1 X69.488 Y57.906 Z0.000 F1500
G1 X69.158 Y58.055 Z0.000 F1500
G1 X68.832 Y58.184 Z0.000 F1500
G1 X68.491 Y58.299 Z0.000 F1500
G1 X68.155 Y58.395 Z0.000 F1500
G1 X67.796 Y58.477 Z0.000 F1500
G1 X67.442 Y58.541 Z0.000 F1500
G1 X67.078 Y58.587 Z0.000 F1500
G1 X66.697 Y58.616 Z0.000 F1500
G1 X66.327 Y58.625 Z0.000 F1500
G1 X65.957 Y58.616 Z0.000 F1500
G1 X65.576 Y58.587 Z0.000 F1500
G1 X65.211 Y58.541 Z0.000 F1500
; --- FIX Y Backlash: -1.500mm ---
G0 X65.211 Y57.041 F1200
G1 X64.858 Y56.977 Z0.000 F1500
G1 X64.499 Y56.895 Z0.000 F1500
G1 X64.161 Y56.798 Z0.000 F1500
G1 X63.827 Y56.685 Z0.000 F1500
G1 X63.493 Y56.554 Z0.000 F1500
G1 X63.171 Y56.408 Z0.000 F1500
G1 X62.858 Y56.248 Z0.000 F1500
G1 X62.546 Y56.068 Z0.000 F1500
G1 X62.298 Y55.910 Z0.000 F1500
G1 X61.697 Y55.460 Z0.000 F1500
G1 X61.179 Y54.990 Z0.000 F1500
G1 X60.708 Y54.472 Z0.000 F1500
G1 X60.259 Y53.871 Z0.000 F1500
G1 X60.100 Y53.623 Z0.000 F1500
G1 X59.919 Y53.308 Z0.000 F1500
G1 X59.760 Y52.998 Z0.000 F1500
G1 X59.615 Y52.677 Z0.000 F1500
G1 X59.486 Y52.349 Z0.000 F1500
G1 X59.369 Y52.003 Z0.000 F1500
G1 X59.275 Y51.671 Z0.000 F1500
G1 X59.192 Y51.311 Z0.000 F1500
G1 X59.129 Y50.961 Z0.000 F1500
G1 X59.081 Y50.585 Z0.000 F1500
G1 X59.053 Y50.216 Z0.000 F1500
G1 X59.044 Y49.842 Z0.000 F1500
G1 X59.053 Y49.469 Z0.000 F1500
G1 X59.081 Y49.098 Z0.000 F1500
G1 X59.129 Y48.726 Z0.000 F1500
; --- FIX X Backlash: 1.400mm ---
G0 X60.529 Y48.726 F1200
G1 X60.592 Y48.370 Z0.000 F1500
G1 X60.674 Y48.015 Z0.000 F1500
G1 X60.770 Y47.678 Z0.000 F1500
G1 X60.884 Y47.340 Z0.000 F1500
G1 X61.015 Y47.008 Z0.000 F1500
G1 X61.162 Y46.684 Z0.000 F1500
G1 X61.318 Y46.378 Z0.000 F1500
G1 X61.501 Y46.059 Z0.000 F1500
G1 X61.659 Y45.813 Z0.000 F1500
G1 X62.108 Y45.212 Z0.000 F1500
G1 X62.581 Y44.693 Z0.000 F1500
G1 X63.096 Y44.225 Z0.000 F1500
G1 X63.692 Y43.779 Z0.000 F1500
G1 X63.950 Y43.613 Z0.000 F1500
G1 X64.258 Y43.437 Z0.000 F1500
G1 X64.575 Y43.274 Z0.000 F1500
G0 Z3.5 F1500
G0 X67.305 Y41.670 Z3.500
G1 Z0 F1500
G1 X67.727 Y41.660 Z0.000 F1500
G1 X68.149 Y41.670 Z0.000 F1500
G1 X68.570 Y41.702 Z0.000 F1500
; --- FIX Y Backlash: 1.500mm ---
G0 X68.570 Y43.202 F1200
G1 X68.974 Y43.253 Z0.000 F1500
G1 X69.382 Y43.326 Z0.000 F1500
G1 X69.771 Y43.416 Z0.000 F1500
G1 X70.162 Y43.527 Z0.000 F1500
G1 X70.547 Y43.657 Z0.000 F1500
G1 X70.910 Y43.800 Z0.000 F1500
G1 X71.271 Y43.964 Z0.000 F1500
G1 X71.631 Y44.148 Z0.000 F1500
G1 X71.968 Y44.342 Z0.000 F1500
G1 X72.271 Y44.536 Z0.000 F1500
G1 X72.929 Y45.028 Z0.000 F1500
G1 X73.512 Y45.558 Z0.000 F1500
G1 X74.040 Y46.138 Z0.000 F1500
G1 X74.533 Y46.798 Z0.000 F1500
G1 X74.726 Y47.100 Z0.000 F1500
G1 X74.924 Y47.444 Z0.000 F1500
G1 X75.104 Y47.795 Z0.000 F1500
G1 X75.268 Y48.157 Z0.000 F1500
G1 X75.413 Y48.525 Z0.000 F1500
G1 X75.543 Y48.911 Z0.000 F1500
G1 X75.652 Y49.295 Z0.000 F1500
G1 X75.744 Y49.692 Z0.000 F1500
G1 X75.816 Y50.093 Z0.000 F1500
G1 X75.867 Y50.496 Z0.000 F1500
G1 X75.899 Y50.920 Z0.000 F1500
G1 X75.910 Y51.342 Z0.000 F1500
G1 X75.899 Y51.765 Z0.000 F1500
G1 X75.867 Y52.187 Z0.000 F1500
; --- FIX X Backlash: -1.400mm ---
G0 X74.467 Y52.187 F1200
G1 X74.416 Y52.584 Z0.000 F1500
G1 X74.343 Y52.998 Z0.000 F1500
G1 X74.252 Y53.391 Z0.000 F1500
G1 X74.142 Y53.779 Z0.000 F1500
G1 X74.015 Y54.155 Z0.000 F1500
G1 X73.869 Y54.524 Z0.000 F1500
G1 X73.704 Y54.890 Z0.000 F1500
G1 X73.521 Y55.246 Z0.000 F1500
G1 X73.330 Y55.578 Z0.000 F1500
G1 X73.133 Y55.886 Z0.000 F1500
G1 X72.640 Y56.546 Z0.000 F1500
G1 X72.112 Y57.127 Z0.000 F1500
G1 X71.531 Y57.655 Z0.000 F1500
G1 X70.871 Y58.148 Z0.000 F1500
G1 X70.563 Y58.346 Z0.000 F1500
G1 X70.231 Y58.537 Z0.000 F1500
G1 X69.874 Y58.719 Z0.000 F1500
G1 X69.510 Y58.884 Z0.000 F1500
G1 X69.140 Y59.030 Z0.000 F1500
G1 X68.764 Y59.157 Z0.000 F1500
G1 X68.376 Y59.267 Z0.000 F1500
G1 X67.982 Y59.358 Z0.000 F1500
G1 X67.569 Y59.432 Z0.000 F1500
G1 X67.172 Y59.482 Z0.000 F1500
G1 X66.749 Y59.515 Z0.000 F1500
G1 X66.327 Y59.525 Z0.000 F1500
G1 X65.905 Y59.515 Z0.000 F1500
G1 X65.481 Y59.482 Z0.000 F1500
G1 X65.085 Y59.432 Z0.000 F1500
; --- FIX Y Backlash: -1.500mm ---
G0 X65.085 Y57.932 F1200
G1 X64.671 Y57.858 Z0.000 F1500
G1 X64.278 Y57.767 Z0.000 F1500
G1 X63.896 Y57.659 Z0.000 F1500
G1 X63.510 Y57.528 Z0.000 F1500
G1 X63.142 Y57.383 Z0.000 F1500
G1 X62.780 Y57.220 Z0.000 F1500
G1 X62.429 Y57.040 Z0.000 F1500
G1 X62.084 Y56.841 Z0.000 F1500
G1 X61.783 Y56.648 Z0.000 F1500
G1 X61.123 Y56.155 Z0.000 F1500
G1 X60.542 Y55.627 Z0.000 F1500
G1 X60.014 Y55.046 Z0.000 F1500
G1 X59.521 Y54.386 Z0.000 F1500
G1 X59.329 Y54.088 Z0.000 F1500
G1 X59.128 Y53.737 Z0.000 F1500
G1 X58.949 Y53.389 Z0.000 F1500
G1 X58.785 Y53.024 Z0.000 F1500
G1 X58.642 Y52.662 Z0.000 F1500
G1 X58.512 Y52.277 Z0.000 F1500
G1 X58.400 Y51.886 Z0.000 F1500
G1 X58.311 Y51.498 Z0.000 F1500
G1 X58.238 Y51.089 Z0.000 F1500
G1 X58.186 Y50.678 Z0.000 F1500
G1 X58.155 Y50.270 Z0.000 F1500
G1 X58.144 Y49.842 Z0.000 F1500
G1 X58.155 Y49.415 Z0.000 F1500
G1 X58.186 Y49.005 Z0.000 F1500
; --- FIX X Backlash: 1.400mm ---
G0 X59.586 Y49.005 F1200
G1 X59.639 Y48.588 Z0.000 F1500
G1 X59.709 Y48.192 Z0.000 F1500
G1 X59.800 Y47.800 Z0.000 F1500
G1 X59.914 Y47.401 Z0.000 F1500
G1 X60.039 Y47.030 Z0.000 F1500
G1 X60.186 Y46.657 Z0.000 F1500
G1 X60.349 Y46.297 Z0.000 F1500
G1 X60.531 Y45.941 Z0.000 F1500
G1 X60.727 Y45.601 Z0.000 F1500
G1 X60.921 Y45.298 Z0.000 F1500
G1 X61.414 Y44.638 Z0.000 F1500
G1 X61.941 Y44.058 Z0.000 F1500
G1 X62.525 Y43.528 Z0.000 F1500
G1 X63.182 Y43.036 Z0.000 F1500
G1 X63.479 Y42.846 Z0.000 F1500
G1 X63.829 Y42.645 Z0.000 F1500
G1 X64.183 Y42.464 Z0.000 F1500
G1 X64.542 Y42.301 Z0.000 F1500
G1 X64.915 Y42.154 Z0.000 F1500
G1 X65.286 Y42.029 Z0.000 F1500
G1 X65.683 Y41.916 Z0.000 F1500
G1 X66.071 Y41.826 Z0.000 F1500
G1 X66.481 Y41.753 Z0.000 F1500
G1 X66.883 Y41.702 Z0.000 F1500
G1 X67.305 Y41.670 Z0.000 F1500
G0 Z3.5 F1500
G0 X70.436 Y41.169 Z3.500
G1 Z0 F1500
; --- FIX Y Backlash: 1.500mm ---
G0 X70.436 Y42.669 F1200
G1 X70.852 Y42.810 Z0.000 F1500
G1 X71.257 Y42.970 Z0.000 F1500
G1 X71.663 Y43.153 Z0.000 F1500
G1 X72.057 Y43.354 Z0.000 F1500
G1 X72.439 Y43.575 Z0.000 F1500
G1 X72.781 Y43.794 Z0.000 F1500
G1 X73.503 Y44.334 Z0.000 F1500
G1 X74.149 Y44.921 Z0.000 F1500
G1 X74.739 Y45.570 Z0.000 F1500
G1 X75.268 Y46.277 Z0.000 F1500
G1 X75.499 Y46.638 Z0.000 F1500
G1 X75.716 Y47.016 Z0.000 F1500
G1 X75.916 Y47.405 Z0.000 F1500
G1 X76.095 Y47.803 Z0.000 F1500
G1 X76.260 Y48.221 Z0.000 F1500
G1 X76.400 Y48.635 Z0.000 F1500
G1 X76.525 Y49.075 Z0.000 F1500
G1 X76.625 Y49.510 Z0.000 F1500
G1 X76.706 Y49.956 Z0.000 F1500
G1 X76.763 Y50.410 Z0.000 F1500
G1 X76.799 Y50.877 Z0.000 F1500
G1 X76.811 Y51.342 Z0.000 F1500
G1 X76.799 Y51.808 Z0.000 F1500
G1 X76.763 Y52.273 Z0.000 F1500
; --- FIX X Backlash: -1.400mm ---
G0 X75.363 Y52.273 F1200
G1 X75.305 Y52.729 Z0.000 F1500
G1 X75.226 Y53.172 Z0.000 F1500
G1 X75.125 Y53.611 Z0.000 F1500
G1 X74.999 Y54.052 Z0.000 F1500
G1 X74.859 Y54.466 Z0.000 F1500
G1 X74.700 Y54.872 Z0.000 F1500
G1 X74.513 Y55.284 Z0.000 F1500
G1 X74.317 Y55.667 Z0.000 F1500
G1 X74.099 Y56.047 Z0.000 F1500
G1 X73.868 Y56.407 Z0.000 F1500
G1 X73.339 Y57.114 Z0.000 F1500
G1 X72.748 Y57.764 Z0.000 F1500
G1 X72.099 Y58.354 Z0.000 F1500
G1 X71.392 Y58.883 Z0.000 F1500
G1 X71.032 Y59.114 Z0.000 F1500
G1 X70.657 Y59.330 Z0.000 F1500
G1 X70.260 Y59.533 Z0.000 F1500
G1 X69.861 Y59.713 Z0.000 F1500
G1 X69.451 Y59.875 Z0.000 F1500
G1 X69.037 Y60.015 Z0.000 F1500
G1 X68.596 Y60.140 Z0.000 F1500
G1 X68.157 Y60.241 Z0.000 F1500
G1 X67.714 Y60.320 Z0.000 F1500
G1 X67.258 Y60.378 Z0.000 F1500
G1 X66.792 Y60.414 Z0.000 F1500
G1 X66.327 Y60.426 Z0.000 F1500
G1 X65.862 Y60.414 Z0.000 F1500
G1 X65.395 Y60.378 Z0.000 F1500
; --- FIX Y Backlash: -1.500mm ---
G0 X65.395 Y58.878 F1200
G1 X64.941 Y58.821 Z0.000 F1500
G1 X64.496 Y58.741 Z0.000 F1500
G1 X64.058 Y58.640 Z0.000 F1500
G1 X63.620 Y58.516 Z0.000 F1500
G1 X63.205 Y58.375 Z0.000 F1500
G1 X62.788 Y58.210 Z0.000 F1500
G1 X62.390 Y58.031 Z0.000 F1500
G1 X62.000 Y57.832 Z0.000 F1500
G1 X61.622 Y57.614 Z0.000 F1500
G1 X61.262 Y57.383 Z0.000 F1500
G1 X60.555 Y56.854 Z0.000 F1500
G1 X59.905 Y56.264 Z0.000 F1500
G1 X59.315 Y55.614 Z0.000 F1500
G1 X58.786 Y54.907 Z0.000 F1500
G1 X58.552 Y54.542 Z0.000 F1500
G1 X58.342 Y54.178 Z0.000 F1500
G1 X58.138 Y53.779 Z0.000 F1500
G1 X57.954 Y53.372 Z0.000 F1500
G1 X57.794 Y52.967 Z0.000 F1500
G1 X57.654 Y52.551 Z0.000 F1500
G1 X57.529 Y52.112 Z0.000 F1500
G1 X57.428 Y51.672 Z0.000 F1500
G1 X57.348 Y51.225 Z0.000 F1500
G1 X57.291 Y50.780 Z0.000 F1500
G1 X57.255 Y50.305 Z0.000 F1500
G1 X57.243 Y49.842 Z0.000 F1500
G1 X57.255 Y49.380 Z0.000 F1500
G1 X57.291 Y48.904 Z0.000 F1500
; --- FIX X Backlash: 1.400mm ---
G0 X58.691 Y48.904 F1200
G1 X58.748 Y48.459 Z0.000 F1500
G1 X58.828 Y48.010 Z0.000 F1500
G1 X58.929 Y47.574 Z0.000 F1500
G1 X59.053 Y47.136 Z0.000 F1500
G1 X59.194 Y46.720 Z0.000 F1500
G1 X59.358 Y46.303 Z0.000 F1500
G1 X59.536 Y45.910 Z0.000 F1500
G1 X59.741 Y45.510 Z0.000 F1500
G1 X59.954 Y45.138 Z0.000 F1500
G1 X60.186 Y44.777 Z0.000 F1500
G1 X60.715 Y44.070 Z0.000 F1500
G1 X61.305 Y43.421 Z0.000 F1500
G1 X61.950 Y42.834 Z0.000 F1500
G1 X62.673 Y42.294 Z0.000 F1500
G1 X63.015 Y42.075 Z0.000 F1500
G1 X63.400 Y41.853 Z0.000 F1500
G1 X63.788 Y41.655 Z0.000 F1500
G1 X64.191 Y41.472 Z0.000 F1500
G1 X64.605 Y41.309 Z0.000 F1500
G1 X65.021 Y41.168 Z0.000 F1500
G1 X65.457 Y41.044 Z0.000 F1500
G1 X65.896 Y40.943 Z0.000 F1500
G1 X66.344 Y40.863 Z0.000 F1500
G1 X66.791 Y40.807 Z0.000 F1500
G1 X67.262 Y40.771 Z0.000 F1500
G1 X67.727 Y40.759 Z0.000 F1500
G1 X68.192 Y40.771 Z0.000 F1500
G1 X68.664 Y40.807 Z0.000 F1500
; --- FIX Y Backlash: 1.500mm ---
G0 X68.664 Y42.307 F1200
G1 X69.110 Y42.363 Z0.000 F1500
G1 X69.557 Y42.443 Z0.000 F1500
G1 X69.997 Y42.544 Z0.000 F1500
G1 X70.436 Y42.669 Z0.000 F1500
G0 Z3.5 F1500
G0 X74.079 Y43.640 Z3.500
G1 Z0 F1500
G1 X74.784 Y44.281 Z0.000 F1500
G1 X75.431 Y44.993 Z0.000 F1500
G1 X76.014 Y45.772 Z0.000 F1500
G1 X76.262 Y46.160 Z0.000 F1500
G1 X76.506 Y46.583 Z0.000 F1500
G1 X76.727 Y47.014 Z0.000 F1500
G1 X76.928 Y47.460 Z0.000 F1500
G1 X77.103 Y47.904 Z0.000 F1500
G1 X77.264 Y48.379 Z0.000 F1500
G1 X77.396 Y48.845 Z0.000 F1500
G1 X77.508 Y49.333 Z0.000 F1500
G1 X77.596 Y49.820 Z0.000 F1500
G1 X77.659 Y50.315 Z0.000 F1500
G1 X77.697 Y50.825 Z0.000 F1500
G1 X77.710 Y51.342 Z0.000 F1500
G1 X77.697 Y51.859 Z0.000 F1500
G1 X77.659 Y52.369 Z0.000 F1500
; --- FIX X Backlash: -1.400mm ---
G0 X76.259 Y52.369 F1200
G1 X76.197 Y52.855 Z0.000 F1500
G1 X76.107 Y53.359 Z0.000 F1500
G1 X75.996 Y53.841 Z0.000 F1500
G1 X75.863 Y54.308 Z0.000 F1500
G1 X75.705 Y54.774 Z0.000 F1500
G1 X75.525 Y55.231 Z0.000 F1500
G1 X75.328 Y55.667 Z0.000 F1500
G1 X75.102 Y56.109 Z0.000 F1500
G1 X74.867 Y56.517 Z0.000 F1500
G1 X74.614 Y56.912 Z0.000 F1500
G1 X74.031 Y57.691 Z0.000 F1500
G1 X73.386 Y58.401 Z0.000 F1500
G1 X72.676 Y59.046 Z0.000 F1500
G1 X71.896 Y59.629 Z0.000 F1500
G1 X71.501 Y59.882 Z0.000 F1500
G1 X71.090 Y60.119 Z0.000 F1500
G1 X70.659 Y60.340 Z0.000 F1500
G1 X70.212 Y60.542 Z0.000 F1500
G1 X69.759 Y60.720 Z0.000 F1500
G1 X69.293 Y60.878 Z0.000 F1500
G1 X68.826 Y61.011 Z0.000 F1500
G1 X68.344 Y61.122 Z0.000 F1500
G1 X67.840 Y61.212 Z0.000 F1500
G1 X67.354 Y61.274 Z0.000 F1500
G1 X66.844 Y61.313 Z0.000 F1500
G1 X66.327 Y61.326 Z0.000 F1500
G1 X65.810 Y61.313 Z0.000 F1500
G1 X65.300 Y61.274 Z0.000 F1500
; --- FIX Y Backlash: -1.500mm ---
G0 X65.300 Y59.774 F1200
G1 X64.814 Y59.712 Z0.000 F1500
G1 X64.310 Y59.622 Z0.000 F1500
G1 X63.828 Y59.511 Z0.000 F1500
G1 X63.364 Y59.379 Z0.000 F1500
G1 X62.889 Y59.218 Z0.000 F1500
G1 X62.445 Y59.043 Z0.000 F1500
G1 X61.999 Y58.842 Z0.000 F1500
G1 X61.568 Y58.621 Z0.000 F1500
G1 X61.144 Y58.377 Z0.000 F1500
G1 X60.757 Y58.129 Z0.000 F1500
G1 X59.978 Y57.546 Z0.000 F1500
G1 X59.268 Y56.901 Z0.000 F1500
G1 X58.622 Y56.191 Z0.000 F1500
G1 X58.040 Y55.412 Z0.000 F1500
G1 X57.788 Y55.020 Z0.000 F1500
G1 X57.548 Y54.602 Z0.000 F1500
G1 X57.327 Y54.170 Z0.000 F1500
G1 X57.129 Y53.731 Z0.000 F1500
G1 X56.948 Y53.271 Z0.000 F1500
G1 X56.793 Y52.813 Z0.000 F1500
G1 X56.658 Y52.338 Z0.000 F1500
G1 X56.547 Y51.859 Z0.000 F1500
G1 X56.458 Y51.362 Z0.000 F1500
G1 X56.395 Y50.863 Z0.000 F1500
G1 X56.356 Y50.358 Z0.000 F1500
G1 X56.343 Y49.842 Z0.000 F1500
G1 X56.356 Y49.326 Z0.000 F1500
G1 X56.395 Y48.822 Z0.000 F1500
; --- FIX X Backlash: 1.400mm ---
G0 X57.795 Y48.822 F1200
G1 X57.859 Y48.313 Z0.000 F1500
G1 X57.945 Y47.833 Z0.000 F1500
G1 X58.057 Y47.348 Z0.000 F1500
G1 X58.193 Y46.871 Z0.000 F1500
G1 X58.349 Y46.410 Z0.000 F1500
G1 X58.526 Y45.960 Z0.000 F1500
G1 X58.729 Y45.511 Z0.000 F1500
G1 X58.947 Y45.086 Z0.000 F1500
G1 X59.191 Y44.661 Z0.000 F1500
G1 X59.440 Y44.272 Z0.000 F1500
G1 X60.022 Y43.493 Z0.000 F1500
G1 X60.670 Y42.781 Z0.000 F1500
G1 X61.375 Y42.140 Z0.000 F1500
G1 X62.156 Y41.557 Z0.000 F1500
G1 X62.547 Y41.306 Z0.000 F1500
G1 X62.968 Y41.063 Z0.000 F1500
G1 X63.404 Y40.840 Z0.000 F1500
G1 X63.840 Y40.643 Z0.000 F1500
G1 X64.295 Y40.464 Z0.000 F1500
G1 X64.755 Y40.308 Z0.000 F1500
G1 X65.230 Y40.173 Z0.000 F1500
G1 X65.710 Y40.062 Z0.000 F1500
G1 X66.207 Y39.974 Z0.000 F1500
G1 X66.707 Y39.910 Z0.000 F1500
G1 X67.210 Y39.872 Z0.000 F1500
G1 X67.727 Y39.859 Z0.000 F1500
G1 X68.244 Y39.872 Z0.000 F1500
G1 X68.747 Y39.910 Z0.000 F1500
; --- FIX Y Backlash: 1.500mm ---
G0 X68.747 Y41.410 F1200
G1 X69.247 Y41.474 Z0.000 F1500
G1 X69.744 Y41.562 Z0.000 F1500
G1 X70.223 Y41.673 Z0.000 F1500
G1 X70.698 Y41.808 Z0.000 F1500
G1 X71.156 Y41.963 Z0.000 F1500
G1 X71.616 Y42.144 Z0.000 F1500
G1 X72.054 Y42.342 Z0.000 F1500
G1 X72.490 Y42.565 Z0.000 F1500
G1 X72.899 Y42.801 Z0.000 F1500
G1 X73.298 Y43.057 Z0.000 F1500
G1 X74.079 Y43.640 Z0.000 F1500
G0 Z3.5 F1500
G0 X77.035 Y45.698 Z3.500
G1 Z0 F1500
G1 X77.297 Y46.154 Z0.000 F1500
G1 X77.538 Y46.624 Z0.000 F1500
G1 X77.755 Y47.105 Z0.000 F1500
G1 X77.950 Y47.600 Z0.000 F1500
G1 X78.122 Y48.105 Z0.000 F1500
G1 X78.268 Y48.622 Z0.000 F1500
G1 X78.390 Y49.149 Z0.000 F1500
G1 X78.485 Y49.685 Z0.000 F1500
G1 X78.555 Y50.229 Z0.000 F1500
G1 X78.597 Y50.782 Z0.000 F1500
G1 X78.611 Y51.342 Z0.000 F1500
G1 X78.597 Y51.902 Z0.000 F1500
G1 X78.555 Y52.455 Z0.000 F1500
; --- FIX X Backlash: -1.400mm ---
G0 X77.155 Y52.455 F1200
G1 X77.085 Y53.000 Z0.000 F1500
G1 X76.990 Y53.536 Z0.000 F1500
G1 X76.868 Y54.062 Z0.000 F1500
G1 X76.722 Y54.579 Z0.000 F1500
G1 X76.550 Y55.084 Z0.000 F1500
G1 X76.355 Y55.579 Z0.000 F1500
G1 X76.138 Y56.061 Z0.000 F1500
G1 X75.897 Y56.530 Z0.000 F1500
G1 X75.635 Y56.986 Z0.000 F1500
G1 X75.352 Y57.427 Z0.000 F1500
G1 X74.725 Y58.265 Z0.000 F1500
G1 X74.023 Y59.038 Z0.000 F1500
G1 X73.250 Y59.741 Z0.000 F1500
G1 X72.412 Y60.367 Z0.000 F1500
G1 X71.971 Y60.650 Z0.000 F1500
G1 X71.515 Y60.913 Z0.000 F1500
G1 X71.045 Y61.153 Z0.000 F1500
G1 X70.563 Y61.371 Z0.000 F1500
G1 X70.069 Y61.565 Z0.000 F1500
G1 X69.563 Y61.737 Z0.000 F1500
G1 X69.047 Y61.883 Z0.000 F1500
G1 X68.520 Y62.005 Z0.000 F1500
G1 X67.984 Y62.101 Z0.000 F1500
G1 X67.440 Y62.170 Z0.000 F1500
G1 X66.887 Y62.212 Z0.000 F1500
G1 X66.327 Y62.226 Z0.000 F1500
G1 X65.767 Y62.212 Z0.000 F1500
G1 X65.214 Y62.170 Z0.000 F1500
; --- FIX Y Backlash: -1.500mm ---
G0 X65.214 Y60.670 F1200
G1 X64.669 Y60.601 Z0.000 F1500
G1 X64.133 Y60.505 Z0.000 F1500
G1 X63.607 Y60.383 Z0.000 F1500
G1 X63.090 Y60.237 Z0.000 F1500
G1 X62.585 Y60.065 Z0.000 F1500
G1 X62.090 Y59.871 Z0.000 F1500
G1 X61.608 Y59.653 Z0.000 F1500
G1 X61.139 Y59.413 Z0.000 F1500
G1 X60.683 Y59.150 Z0.000 F1500
G1 X60.242 Y58.867 Z0.000 F1500
G1 X59.404 Y58.241 Z0.000 F1500
G1 X58.631 Y57.538 Z0.000 F1500
G1 X57.928 Y56.765 Z0.000 F1500
G1 X57.302 Y55.927 Z0.000 F1500
G1 X57.018 Y55.486 Z0.000 F1500
G1 X56.757 Y55.030 Z0.000 F1500
G1 X56.516 Y54.561 Z0.000 F1500
G1 X56.298 Y54.079 Z0.000 F1500
G1 X56.103 Y53.584 Z0.000 F1500
G1 X55.933 Y53.079 Z0.000 F1500
G1 X55.786 Y52.562 Z0.000 F1500
G1 X55.664 Y52.036 Z0.000 F1500
G1 X55.568 Y51.500 Z0.000 F1500
G1 X55.499 Y50.955 Z0.000 F1500
G1 X55.457 Y50.402 Z0.000 F1500
G1 X55.443 Y49.842 Z0.000 F1500
G1 X55.457 Y49.282 Z0.000 F1500
G1 X55.499 Y48.729 Z0.000 F1500
; --- FIX X Backlash: 1.400mm ---
G0 X56.899 Y48.729 F1200
G1 X56.968 Y48.185 Z0.000 F1500
G1 X57.064 Y47.649 Z0.000 F1500
G1 X57.186 Y47.122 Z0.000 F1500
G1 X57.333 Y46.605 Z0.000 F1500
G1 X57.503 Y46.100 Z0.000 F1500
G1 X57.698 Y45.605 Z0.000 F1500
G1 X57.916 Y45.124 Z0.000 F1500
G1 X58.157 Y44.654 Z0.000 F1500
G1 X58.418 Y44.198 Z0.000 F1500
G1 X58.702 Y43.757 Z0.000 F1500
G1 X59.328 Y42.919 Z0.000 F1500
G1 X60.031 Y42.146 Z0.000 F1500
G1 X60.804 Y41.444 Z0.000 F1500
G1 X61.642 Y40.817 Z0.000 F1500
G1 X62.083 Y40.534 Z0.000 F1500
G1 X62.539 Y40.272 Z0.000 F1500
G1 X63.008 Y40.032 Z0.000 F1500
G1 X63.490 Y39.813 Z0.000 F1500
G1 X63.985 Y39.619 Z0.000 F1500
G1 X64.490 Y39.448 Z0.000 F1500
G1 X65.007 Y39.301 Z0.000 F1500
G1 X65.533 Y39.179 Z0.000 F1500
G1 X66.069 Y39.083 Z0.000 F1500
G1 X66.614 Y39.015 Z0.000 F1500
G1 X67.167 Y38.973 Z0.000 F1500
G1 X67.727 Y38.958 Z0.000 F1500
G1 X68.287 Y38.973 Z0.000 F1500
G1 X68.840 Y39.015 Z0.000 F1500
; --- FIX Y Backlash: 1.500mm ---
G0 X68.840 Y40.515 F1200
G1 X69.384 Y40.583 Z0.000 F1500
G1 X69.920 Y40.679 Z0.000 F1500
G1 X70.447 Y40.801 Z0.000 F1500
G1 X70.963 Y40.948 Z0.000 F1500
G1 X71.469 Y41.119 Z0.000 F1500
G1 X71.963 Y41.313 Z0.000 F1500
G1 X72.445 Y41.532 Z0.000 F1500
G1 X72.915 Y41.772 Z0.000 F1500
G1 X73.371 Y42.034 Z0.000 F1500
G1 X73.812 Y42.317 Z0.000 F1500
G1 X74.650 Y42.944 Z0.000 F1500
G1 X75.423 Y43.646 Z0.000 F1500
G1 X76.125 Y44.419 Z0.000 F1500
G1 X76.752 Y45.257 Z0.000 F1500
G1 X77.035 Y45.698 Z0.000 F1500
;Cut @ 1500 mm/min, 80% power

M8
G0 Z3.5 F1500
G0 X88.680 Y50.442 Z3.500
G1 Z0 F1500
;Layer Red
; --- FIX X Backlash: -1.400mm ---
G0 X87.280 Y50.442 F1200
G1 X86.927 Y50.850 Z0.000 F1500
G1 X86.593 Y51.275 Z0.000 F1500
G1 X86.280 Y51.716 Z0.000 F1500
G1 X85.987 Y52.172 Z0.000 F1500
G1 X85.717 Y52.642 Z0.000 F1500
G1 X85.468 Y53.127 Z0.000 F1500
G1 X85.243 Y53.625 Z0.000 F1500
G1 X85.042 Y54.135 Z0.000 F1500
G1 X84.865 Y54.658 Z0.000 F1500
G1 X84.714 Y55.191 Z0.000 F1500
G1 X84.588 Y55.735 Z0.000 F1500
G1 X84.489 Y56.288 Z0.000 F1500
G1 X84.418 Y56.851 Z0.000 F1500
G1 X84.375 Y57.422 Z0.000 F1500
G1 X84.360 Y58.000 Z0.000 F1500
G1 X84.375 Y58.578 Z0.000 F1500
G1 X84.418 Y59.149 Z0.000 F1500
; --- FIX X Backlash: 1.400mm ---
G0 X85.818 Y59.149 F1200
G1 X85.889 Y59.712 Z0.000 F1500
G1 X85.988 Y60.265 Z0.000 F1500
G1 X86.114 Y60.809 Z0.000 F1500
G1 X86.265 Y61.342 Z0.000 F1500
G1 X86.442 Y61.865 Z0.000 F1500
G1 X86.643 Y62.375 Z0.000 F1500
G1 X86.868 Y62.873 Z0.000 F1500
G1 X87.117 Y63.358 Z0.000 F1500
G1 X87.387 Y63.828 Z0.000 F1500
G1 X87.680 Y64.284 Z0.000 F1500
G1 X87.993 Y64.725 Z0.000 F1500
G1 X88.327 Y65.150 Z0.000 F1500
G1 X88.680 Y65.558 Z0.000 F1500
G1 X89.052 Y65.948 Z0.000 F1500
G1 X89.442 Y66.320 Z0.000 F1500
G1 X89.850 Y66.673 Z0.000 F1500
G1 X90.275 Y67.007 Z0.000 F1500
G1 X90.716 Y67.320 Z0.000 F1500
G1 X91.172 Y67.613 Z0.000 F1500
G1 X91.642 Y67.883 Z0.000 F1500
G1 X92.127 Y68.132 Z0.000 F1500
G1 X92.625 Y68.357 Z0.000 F1500
G1 X93.135 Y68.558 Z0.000 F1500
G1 X93.658 Y68.735 Z0.000 F1500
G1 X94.191 Y68.886 Z0.000 F1500
G1 X94.735 Y69.012 Z0.000 F1500
G1 X95.288 Y69.111 Z0.000 F1500
G1 X95.851 Y69.182 Z0.000 F1500
G1 X96.422 Y69.225 Z0.000 F1500
G1 X97.000 Y69.240 Z0.000 F1500
G1 X97.578 Y69.225 Z0.000 F1500
G1 X98.149 Y69.182 Z0.000 F1500
; --- FIX Y Backlash: -1.500mm ---
G0 X98.149 Y67.682 F1200
G1 X98.712 Y67.611 Z0.000 F1500
G1 X99.265 Y67.512 Z0.000 F1500
G1 X99.809 Y67.386 Z0.000 F1500
G1 X100.342 Y67.235 Z0.000 F1500
G1 X100.865 Y67.058 Z0.000 F1500
G1 X101.375 Y66.857 Z0.000 F1500
G1 X101.873 Y66.632 Z0.000 F1500
G1 X102.358 Y66.383 Z0.000 F1500
G1 X102.828 Y66.113 Z0.000 F1500
G1 X103.284 Y65.820 Z0.000 F1500
G1 X103.725 Y65.507 Z0.000 F1500
G1 X104.150 Y65.173 Z0.000 F1500
G1 X104.558 Y64.820 Z0.000 F1500
G1 X104.948 Y64.448 Z0.000 F1500
G1 X105.320 Y64.058 Z0.000 F1500
G1 X105.673 Y63.650 Z0.000 F1500
G1 X106.007 Y63.225 Z0.000 F1500
G1 X106.320 Y62.784 Z0.000 F1500
G1 X106.613 Y62.328 Z0.000 F1500
G1 X106.883 Y61.858 Z0.000 F1500
G1 X107.132 Y61.373 Z0.000 F1500
G1 X107.357 Y60.875 Z0.000 F1500
G1 X107.558 Y60.365 Z0.000 F1500
G1 X107.735 Y59.842 Z0.000 F1500
G1 X107.886 Y59.309 Z0.000 F1500
G1 X108.012 Y58.765 Z0.000 F1500
G1 X108.111 Y58.212 Z0.000 F1500
G1 X108.182 Y57.649 Z0.000 F1500
G1 X108.225 Y57.078 Z0.000 F1500
G1 X108.240 Y56.500 Z0.000 F1500
G1 X108.225 Y55.922 Z0.000 F1500
G1 X108.182 Y55.351 Z0.000 F1500
; --- FIX X Backlash: -1.400mm ---
G0 X106.782 Y55.351 F1200
G1 X106.711 Y54.788 Z0.000 F1500
G1 X106.612 Y54.235 Z0.000 F1500
G1 X106.486 Y53.691 Z0.000 F1500
G1 X106.335 Y53.158 Z0.000 F1500
G1 X106.158 Y52.635 Z0.000 F1500
G1 X105.957 Y52.125 Z0.000 F1500
G1 X105.732 Y51.627 Z0.000 F1500
G1 X105.483 Y51.142 Z0.000 F1500
G1 X105.213 Y50.672 Z0.000 F1500
G1 X104.920 Y50.216 Z0.000 F1500
G1 X104.607 Y49.775 Z0.000 F1500
G1 X104.273 Y49.350 Z0.000 F1500
G1 X103.920 Y48.942 Z0.000 F1500
G1 X103.548 Y48.552 Z0.000 F1500
G1 X103.158 Y48.180 Z0.000 F1500
G1 X102.750 Y47.827 Z0.000 F1500
G1 X102.325 Y47.493 Z0.000 F1500
G1 X101.884 Y47.180 Z0.000 F1500
G1 X101.428 Y46.887 Z0.000 F1500
G1 X100.958 Y46.617 Z0.000 F1500
G1 X100.473 Y46.368 Z0.000 F1500
G1 X99.975 Y46.143 Z0.000 F1500
G1 X99.465 Y45.942 Z0.000 F1500
G1 X98.942 Y45.765 Z0.000 F1500
G1 X98.409 Y45.614 Z0.000 F1500
G1 X97.865 Y45.488 Z0.000 F1500
G1 X97.312 Y45.389 Z0.000 F1500
G1 X96.749 Y45.318 Z0.000 F1500
G1 X96.178 Y45.275 Z0.000 F1500
G1 X95.600 Y45.260 Z0.000 F1500
G1 X95.022 Y45.275 Z0.000 F1500
G1 X94.451 Y45.318 Z0.000 F1500
; --- FIX Y Backlash: 1.500mm ---
G0 X94.451 Y46.818 F1200
G1 X93.888 Y46.889 Z0.000 F1500
G1 X93.335 Y46.988 Z0.000 F1500
G1 X92.791 Y47.114 Z0.000 F1500
G1 X92.258 Y47.265 Z0.000 F1500
G1 X91.735 Y47.442 Z0.000 F1500
G1 X91.225 Y47.643 Z0.000 F1500
G1 X90.727 Y47.868 Z0.000 F1500
G1 X90.242 Y48.117 Z0.000 F1500
G1 X89.772 Y48.387 Z0.000 F1500
G1 X89.316 Y48.680 Z0.000 F1500
G1 X88.875 Y48.993 Z0.000 F1500
G1 X88.450 Y49.327 Z0.000 F1500
G1 X88.042 Y49.680 Z0.000 F1500
G1 X87.652 Y50.052 Z0.000 F1500
G1 X87.280 Y50.442 Z0.000 F1500
M9
M5
G1 Z10 F1500
G90
G1 Z10 F1500

