;LightBurn 1.6.04
;Custom GCode device profile, absolute coords
;Bounds: X64.57 Y41.36 to X113.44 Y74.19
G00 G17 G40 G21 G54
G90
M3
G1 Z10 F1500
;Scan @ 1500 mm/min, 80% power

M8
G0 Z3.5 F1500
G0 X69.071 Y48.086 Z3.500
G1 Z0 F1500
;Layer Red
G91
G1 X3.134 Z0 S800 F1500
G0 Z5 F500
G1 X1.089 Y0.9 Z0 S0 F1500
G0 Z-5 F500
; --- FIX X Backlash (relative): -1.400mm ---
G0 X-1.400 F1200
G1 X-5.312 Z0 S800 F1500
G0 Z5 F500
G1 X-0.706 Y0.9 Z0 S0 F1500
G0 Z-5 F500
; --- FIX X Backlash (relative): 1.400mm ---
G0 X1.400 F1200
G1 X6.724 Z0 S800 F1500
G0 Z5 F500
G1 X0.541 Y0.9 Z0 S0 F1500
G0 Z-5 F500
; --- FIX X Backlash (relative): -1.400mm ---
G0 X-1.400 F1200
G1 X-7.806 Z0 S800 F1500
G0 Z5 F500
G1 X-0.435 Y0.9 Z0 S0 F1500
G0 Z-5 F500
; --- FIX X Backlash (relative): 1.400mm ---
G0 X1.400 F1200
G1 X8.676 Z0 S800 F1500
G0 Z5 F500
G1 X0.366 Y0.9 Z0 S0 F1500
G0 Z-5 F500
; --- FIX X Backlash (relative): -1.400mm ---
G0 X-1.400 F1200
G1 X-9.407 Z0 S800 F1500
G0 Z5 F500
G1 X-0.303 Y0.9 Z0 S0 F1500
G0 Z-5 F500
; --- FIX X Backlash (relative): 1.400mm ---
G0 X1.400 F1200
G1 X10.012 Z0 S800 F1500
G0 Z5 F500
G1 X0.253 Y0.9 Z0 S0 F1500
G0 Z-5 F500
; --- FIX X Backlash (relative): -1.400mm ---
G0 X-1.400 F1200
G1 X-10.518 Z0 S800 F1500
G0 Z5 F500
G1 X-0.212 Y0.9 Z0 S0 F1500
G0 Z-5 F500
; --- FIX X Backlash (relative): 1.400mm ---
G0 X1.400 F1200
G1 X10.942 Z0 S800 F1500
G0 Z5 F500
G1 X0.18 Y0.9 Z0 S0 F1500
G0 Z-5 F500
; --- FIX X Backlash (relative): -1.400mm ---
G0 X-1.400 F1200
G1 X-11.301 Z0 S800 F1500
G0 Z5 F500
G1 X-0.149 Y0.9 Z0 S0 F1500
G0 Z-5 F500
; --- FIX X Backlash (relative): 1.400mm ---
G0 X1.400 F1200
G1 X11.598 Z0 S800 F1500
G0 Z5 F500
G1 X0.106 Y0.9 Z0 S0 F1500
G0 Z-5 F500
; --- FIX X Backlash (relative): -1.400mm ---
G0 X-1.400 F1200
G1 X-11.809 Z0 S800 F1500
G0 Z5 F500
G1 X-0.082 Y0.9 Z0 S0 F1500
G0 Z-5 F500
; --- FIX X Backlash (relative): 1.400mm ---
G0 X1.400 F1200
G1 X11.973 Z0 S800 F1500
G0 Z5 F500
G1 X0.06 Y0.9 Z0 S0 F1500
G0 Z-5 F500
; --- FIX X Backlash (relative): -1.400mm ---
G0 X-1.400 F1200
G1 X-12.094 Z0 S800 F1500
G0 Z5 F500
G1 X-0.02 Y0.9 Z0 S0 F1500
G0 Z-5 F500
; --- FIX X Backlash (relative): 1.400mm ---
G0 X1.400 F1200
G1 X12.134 Z0 S800 F1500
G0 Z5 F500
G1 Y0.9 Z0 S0 F1500
G0 Z-5 F500
; --- FIX X Backlash (relative): -1.400mm ---
G0 X-1.400 F1200
G1 X-12.134 Z0 S800 F1500
G0 Z5 F500
G1 X0.02 Y0.9 Z0 S0 F1500
G0 Z-5 F500
; --- FIX X Backlash (relative): 1.400mm ---
G0 X1.400 F1200
G1 X12.094 Z0 S800 F1500
G0 Z5 F500
; --- FIX X Backlash (relative): -1.400mm ---
G0 X-1.400 F1200
G1 X-0.06 Y0.9 Z0 S0 F1500
G0 Z-5 F500
G1 X-11.973 Z0 S800 F1500
G0 Z5 F500
; --- FIX X Backlash (relative): 1.400mm ---
G0 X1.400 F1200
G1 X0.082 Y0.9 Z0 S0 F1500
G0 Z-5 F500
G1 X11.809 Z0 S800 F1500
G0 Z5 F500
; --- FIX X Backlash (relative): -1.400mm ---
G0 X-1.400 F1200
G1 X-0.106 Y0.9 Z0 S0 F1500
G0 Z-5 F500
G1 X-11.598 Z0 S800 F1500
G0 Z5 F500
; --- FIX X Backlash (relative): 1.400mm ---
G0 X1.400 F1200
G1 X0.149 Y0.9 Z0 S0 F1500
G0 Z-5 F500
G1 X11.301 Z0 S800 F1500
G0 Z5 F500
; --- FIX X Backlash (relative): -1.400mm ---
G0 X-1.400 F1200
G1 X-0.18 Y0.9 Z0 S0 F1500
G0 Z-5 F500
G1 X-10.942 Z0 S800 F1500
G0 Z5 F500
; --- FIX X Backlash (relative): 1.400mm ---
G0 X1.400 F1200
G1 X0.212 Y0.9 Z0 S0 F1500
G0 Z-5 F500
G1 X10.518 Z0 S800 F1500
G0 Z5 F500
; --- FIX X Backlash (relative): -1.400mm ---
G0 X-1.400 F1200
G1 X-0.253 Y0.9 Z0 S0 F1500
G0 Z-5 F500
G1 X-10.012 Z0 S800 F1500
G0 Z5 F500
; --- FIX X Backlash (relative): 1.400mm ---
G0 X1.400 F1200
G1 X0.303 Y0.9 Z0 S0 F1500
G0 Z-5 F500
G1 X9.407 Z0 S800 F1500
G0 Z5 F500
; --- FIX X Backlash (relative): -1.400mm ---
G0 X-1.400 F1200
G1 X-0.366 Y0.9 Z0 S0 F1500
G0 Z-5 F500
G1 X-8.676 Z0 S800 F1500
G0 Z5 F500
; --- FIX X Backlash (relative): 1.400mm ---
G0 X1.400 F1200
G1 X0.435 Y0.9 Z0 S0 F1500
G0 Z-5 F500
G1 X7.806 Z0 S800 F1500
G0 Z5 F500
; --- FIX X Backlash (relative): -1.400mm ---
G0 X-1.400 F1200
G1 X-0.541 Y0.9 Z0 S0 F1500
G0 Z-5 F500
G1 X-6.724 Z0 S800 F1500
G0 Z5 F500
; --- FIX X Backlash (relative): 1.400mm ---
G0 X1.400 F1200
G1 X0.706 Y0.9 Z0 S0 F1500
G0 Z-5 F500
G1 X5.312 Z0 S800 F1500
G0 Z5 F500
; --- FIX X Backlash (relative): -1.400mm ---
G0 X-1.400 F1200
G1 X-1.089 Y0.9 Z0 S0 F1500
G0 Z-5 F500
G1 X-3.134 Z0 S800 F1500
G90
;Cut @ 1800 mm/min, 90% power

M8
G0 Z3.5 F1500
; --- FIX X Backlash: 1.400mm ---
G0 X69.071 Y74.186 F1200
; --- FIX Y Backlash: -1.500mm ---
G0 X69.071 Y72.686 F1200
G0 X87.532 Y57.682 Z3.500
G1 Z0 F1500
;Layer Blue
; --- FIX Y Backlash: 1.500mm ---
G0 X87.532 Y59.182 F1200
G1 X88.114 Y59.407 Z0.000 F1500
G1 X88.718 Y59.545 Z0.000 F1500
G1 X89.339 Y59.592 Z0.000 F1500
G1 X89.960 Y59.545 Z0.000 F1500
; --- FIX Y Backlash: -1.500mm ---
G0 X89.960 Y58.045 F1200
G1 X90.564 Y57.907 Z0.000 F1500
G1 X91.146 Y57.682 Z0.000 F1500
G1 X91.705 Y57.376 Z0.000 F1500
G1 X92.236 Y56.992 Z0.000 F1500
G1 X92.737 Y56.535 Z0.000 F1500
G1 X93.205 Y56.010 Z0.000 F1500
G1 X93.636 Y55.422 Z0.000 F1500
G1 X94.029 Y54.774 Z0.000 F1500
G1 X94.379 Y54.073 Z0.000 F1500
G1 X94.683 Y53.321 Z0.000 F1500
G1 X94.939 Y52.524 Z0.000 F1500
G1 X95.143 Y51.686 Z0.000 F1500
G1 X95.293 Y50.813 Z0.000 F1500
G1 X95.385 Y49.907 Z0.000 F1500
G1 X95.416 Y48.975 Z0.000 F1500
G1 X95.385 Y48.043 Z0.000 F1500
; --- FIX X Backlash: -1.400mm ---
G0 X93.985 Y48.043 F1200
G1 X93.893 Y47.138 Z0.000 F1500
G1 X93.743 Y46.264 Z0.000 F1500
G1 X93.539 Y45.427 Z0.000 F1500
G1 X93.283 Y44.630 Z0.000 F1500
G1 X92.979 Y43.878 Z0.000 F1500
G1 X92.629 Y43.176 Z0.000 F1500
G1 X92.236 Y42.529 Z0.000 F1500
G1 X91.805 Y41.940 Z0.000 F1500
G1 X91.337 Y41.416 Z0.000 F1500
G1 X90.836 Y40.959 Z0.000 F1500
G1 X90.305 Y40.575 Z0.000 F1500
G1 X89.746 Y40.268 Z0.000 F1500
G1 X89.164 Y40.044 Z0.000 F1500
G1 X88.560 Y39.906 Z0.000 F1500
G1 X87.939 Y39.859 Z0.000 F1500
G1 X87.318 Y39.906 Z0.000 F1500
; --- FIX Y Backlash: 1.500mm ---
G0 X87.318 Y41.406 F1200
G1 X86.714 Y41.544 Z0.000 F1500
G1 X86.132 Y41.768 Z0.000 F1500
G1 X85.573 Y42.075 Z0.000 F1500
G1 X85.042 Y42.459 Z0.000 F1500
G1 X84.541 Y42.916 Z0.000 F1500
G1 X84.073 Y43.440 Z0.000 F1500
G1 X83.641 Y44.029 Z0.000 F1500
G1 X83.249 Y44.676 Z0.000 F1500
G1 X82.899 Y45.378 Z0.000 F1500
G1 X82.595 Y46.130 Z0.000 F1500
G1 X82.339 Y46.927 Z0.000 F1500
G1 X82.135 Y47.764 Z0.000 F1500
G1 X81.985 Y48.638 Z0.000 F1500
G1 X81.893 Y49.543 Z0.000 F1500
G1 X81.861 Y50.475 Z0.000 F1500
G1 X81.893 Y51.407 Z0.000 F1500
; --- FIX X Backlash: 1.400mm ---
G0 X83.293 Y51.407 F1200
G1 X83.385 Y52.313 Z0.000 F1500
G1 X83.535 Y53.186 Z0.000 F1500
G1 X83.739 Y54.024 Z0.000 F1500
G1 X83.995 Y54.821 Z0.000 F1500
G1 X84.299 Y55.573 Z0.000 F1500
G1 X84.649 Y56.274 Z0.000 F1500
G1 X85.041 Y56.922 Z0.000 F1500
G1 X85.473 Y57.510 Z0.000 F1500
G1 X85.941 Y58.035 Z0.000 F1500
G1 X86.442 Y58.492 Z0.000 F1500
G1 X86.973 Y58.876 Z0.000 F1500
G1 X87.532 Y59.182 Z0.000 F1500
;Offset @ 1500 mm/min, 90% power

M8
G0 Z3.5 F1500
G0 X105.120 Y60.311 Z3.500
G1 Z0 F1500
;Layer Green
G1 X105.171 Y60.404 Z0.000 F1500
G1 X105.222 Y60.518 Z0.000 F1500
G1 X105.266 Y60.649 Z0.000 F1500
G1 X105.300 Y60.796 Z0.000 F1500
G1 X105.323 Y60.955 Z0.000 F1500
G1 X105.331 Y61.136 Z0.000 F1500
G1 X105.323 Y61.316 Z0.000 F1500
G1 X105.300 Y61.479 Z0.000 F1500
G1 X105.267 Y61.621 Z0.000 F1500
G1 X105.222 Y61.754 Z0.000 F1500
; --- FIX X Backlash: -1.400mm ---
G0 X103.822 Y61.754 F1200
G1 X103.771 Y61.868 Z0.000 F1500
G1 X103.720 Y61.961 Z0.000 F1500
G1 X103.677 Y62.022 Z0.000 F1500
; --- FIX Y Backlash: -1.500mm ---
G0 X103.677 Y60.522 F1200
G1 X103.636 Y60.462 Z0.000 F1500
G1 X103.584 Y60.368 Z0.000 F1500
G1 X103.533 Y60.254 Z0.000 F1500
G1 X103.488 Y60.121 Z0.000 F1500
G1 X103.455 Y59.979 Z0.000 F1500
G1 X103.432 Y59.816 Z0.000 F1500
G1 X103.424 Y59.636 Z0.000 F1500
G1 X103.432 Y59.455 Z0.000 F1500
G1 X103.454 Y59.296 Z0.000 F1500
G1 X103.489 Y59.149 Z0.000 F1500
G1 X103.533 Y59.018 Z0.000 F1500
; --- FIX X Backlash: 1.400mm ---
G0 X104.933 Y59.018 F1200
G1 X104.984 Y58.904 Z0.000 F1500
G1 X105.036 Y58.810 Z0.000 F1500
G1 X105.077 Y58.750 Z0.000 F1500
; --- FIX Y Backlash: 1.500mm ---
G0 X105.077 Y60.250 F1200
G1 X105.120 Y60.311 Z0.000 F1500
G0 Z3.5 F1500
G0 X106.185 Y61.646 Z3.500
G1 Z0 F1500
; --- FIX X Backlash: -1.400mm ---
G0 X104.785 Y61.646 F1200
G1 X104.732 Y61.872 Z0.000 F1500
G1 X104.663 Y62.077 Z0.000 F1500
G1 X104.578 Y62.269 Z0.000 F1500
G1 X104.486 Y62.434 Z0.000 F1500
G1 X104.382 Y62.585 Z0.000 F1500
G1 X104.278 Y62.711 Z0.000 F1500
G1 X104.177 Y62.811 Z0.000 F1500
G1 X104.077 Y62.892 Z0.000 F1500
G1 X103.995 Y62.947 Z0.000 F1500
G1 X103.919 Y62.986 Z0.000 F1500
G1 X103.849 Y63.015 Z0.000 F1500
G1 X103.798 Y63.028 Z0.000 F1500
G1 X103.738 Y63.039 Z0.000 F1500
G1 X103.677 Y63.042 Z0.000 F1500
G1 X103.613 Y63.039 Z0.000 F1500
G1 X103.560 Y63.030 Z0.000 F1500
G1 X103.505 Y63.014 Z0.000 F1500
G1 X103.436 Y62.987 Z0.000 F1500
G1 X103.361 Y62.947 Z0.000 F1500
; --- FIX Y Backlash: -1.500mm ---
G0 X103.361 Y61.447 F1200
G1 X103.278 Y61.392 Z0.000 F1500
G1 X103.178 Y61.311 Z0.000 F1500
G1 X103.077 Y61.210 Z0.000 F1500
G1 X102.972 Y61.084 Z0.000 F1500
G1 X102.870 Y60.936 Z0.000 F1500
G1 X102.777 Y60.769 Z0.000 F1500
G1 X102.692 Y60.577 Z0.000 F1500
G1 X102.623 Y60.372 Z0.000 F1500
G1 X102.570 Y60.146 Z0.000 F1500
G1 X102.535 Y59.899 Z0.000 F1500
G1 X102.523 Y59.636 Z0.000 F1500
G1 X102.535 Y59.372 Z0.000 F1500
G1 X102.570 Y59.127 Z0.000 F1500
; --- FIX X Backlash: 1.400mm ---
G0 X103.970 Y59.127 F1200
G1 X104.023 Y58.900 Z0.000 F1500
G1 X104.092 Y58.695 Z0.000 F1500
G1 X104.177 Y58.503 Z0.000 F1500
G1 X104.270 Y58.336 Z0.000 F1500
G1 X104.372 Y58.188 Z0.000 F1500
G1 X104.477 Y58.062 Z0.000 F1500
G1 X104.578 Y57.961 Z0.000 F1500
G1 X104.678 Y57.880 Z0.000 F1500
G1 X104.760 Y57.825 Z0.000 F1500
G1 X104.838 Y57.784 Z0.000 F1500
G1 X104.904 Y57.758 Z0.000 F1500
G1 X104.960 Y57.742 Z0.000 F1500
G1 X105.013 Y57.734 Z0.000 F1500
G1 X105.077 Y57.730 Z0.000 F1500
G1 X105.138 Y57.733 Z0.000 F1500
G1 X105.198 Y57.744 Z0.000 F1500
G1 X105.250 Y57.758 Z0.000 F1500
G1 X105.317 Y57.785 Z0.000 F1500
G1 X105.395 Y57.826 Z0.000 F1500
; --- FIX Y Backlash: 1.500mm ---
G0 X105.395 Y59.326 F1200
G1 X105.477 Y59.380 Z0.000 F1500
G1 X105.577 Y59.461 Z0.000 F1500
G1 X105.678 Y59.561 Z0.000 F1500
G1 X105.782 Y59.687 Z0.000 F1500
G1 X105.886 Y59.838 Z0.000 F1500
G1 X105.978 Y60.003 Z0.000 F1500
G1 X106.063 Y60.195 Z0.000 F1500
G1 X106.132 Y60.400 Z0.000 F1500
G1 X106.185 Y60.627 Z0.000 F1500
G1 X106.220 Y60.872 Z0.000 F1500
G1 X106.232 Y61.136 Z0.000 F1500
G1 X106.220 Y61.399 Z0.000 F1500
G1 X106.185 Y61.646 Z0.000 F1500
G0 Z3.5 F1500
; --- FIX X Backlash: -1.400mm ---
G0 X104.785 Y61.646 F1200
G0 X104.617 Y63.613 Z3.500
G1 Z0 F1500
G1 X104.450 Y63.724 Z0.000 F1500
G1 X104.295 Y63.805 Z0.000 F1500
G1 X104.142 Y63.867 Z0.000 F1500
G1 X103.987 Y63.910 Z0.000 F1500
G1 X103.842 Y63.934 Z0.000 F1500
G1 X103.677 Y63.943 Z0.000 F1500
G1 X103.514 Y63.934 Z0.000 F1500
G1 X103.367 Y63.910 Z0.000 F1500
G1 X103.212 Y63.866 Z0.000 F1500
; --- FIX Y Backlash: -1.500mm ---
G0 X103.212 Y62.366 F1200
G1 X103.063 Y62.307 Z0.000 F1500
G1 X102.904 Y62.223 Z0.000 F1500
G1 X102.738 Y62.113 Z0.000 F1500
G1 X102.579 Y61.983 Z0.000 F1500
G1 X102.409 Y61.815 Z0.000 F1500
G1 X102.254 Y61.629 Z0.000 F1500
G1 X102.105 Y61.413 Z0.000 F1500
G1 X101.970 Y61.169 Z0.000 F1500
G1 X101.851 Y60.901 Z0.000 F1500
G1 X101.756 Y60.617 Z0.000 F1500
G1 X101.683 Y60.309 Z0.000 F1500
G1 X101.639 Y59.987 Z0.000 F1500
G1 X101.622 Y59.636 Z0.000 F1500
G1 X101.639 Y59.284 Z0.000 F1500
G1 X101.683 Y58.964 Z0.000 F1500
; --- FIX X Backlash: 1.400mm ---
G0 X103.083 Y58.964 F1200
G1 X103.156 Y58.654 Z0.000 F1500
G1 X103.252 Y58.368 Z0.000 F1500
G1 X103.370 Y58.103 Z0.000 F1500
G1 X103.505 Y57.859 Z0.000 F1500
G1 X103.654 Y57.643 Z0.000 F1500
G1 X103.809 Y57.457 Z0.000 F1500
G1 X103.979 Y57.289 Z0.000 F1500
G1 X104.138 Y57.159 Z0.000 F1500
G1 X104.308 Y57.046 Z0.000 F1500
G1 X104.461 Y56.965 Z0.000 F1500
G1 X104.609 Y56.907 Z0.000 F1500
G1 X104.767 Y56.862 Z0.000 F1500
G1 X104.913 Y56.838 Z0.000 F1500
G1 X105.077 Y56.829 Z0.000 F1500
G1 X105.242 Y56.838 Z0.000 F1500
G1 X105.387 Y56.862 Z0.000 F1500
G1 X105.546 Y56.907 Z0.000 F1500
; --- FIX Y Backlash: 1.500mm ---
G0 X105.546 Y58.407 F1200
G1 X105.691 Y58.464 Z0.000 F1500
G1 X105.849 Y58.547 Z0.000 F1500
G1 X106.017 Y58.659 Z0.000 F1500
G1 X106.176 Y58.789 Z0.000 F1500
G1 X106.343 Y58.954 Z0.000 F1500
G1 X106.501 Y59.144 Z0.000 F1500
G1 X106.651 Y59.362 Z0.000 F1500
G1 X106.785 Y59.603 Z0.000 F1500
G1 X106.902 Y59.868 Z0.000 F1500
G1 X106.999 Y60.154 Z0.000 F1500
G1 X107.072 Y60.464 Z0.000 F1500
G1 X107.116 Y60.784 Z0.000 F1500
G1 X107.133 Y61.136 Z0.000 F1500
G1 X107.116 Y61.487 Z0.000 F1500
G1 X107.071 Y61.809 Z0.000 F1500
; --- FIX X Backlash: -1.400mm ---
G0 X105.671 Y61.809 F1200
G1 X105.599 Y62.117 Z0.000 F1500
G1 X105.503 Y62.401 Z0.000 F1500
G1 X105.385 Y62.669 Z0.000 F1500
G1 X105.251 Y62.910 Z0.000 F1500
G1 X105.101 Y63.128 Z0.000 F1500
G1 X104.943 Y63.318 Z0.000 F1500
G1 X104.776 Y63.483 Z0.000 F1500
G1 X104.617 Y63.613 Z0.000 F1500
G0 Z3.5 F1500
G0 X103.169 Y64.789 Z3.500
G1 Z0 F1500
; --- FIX Y Backlash: -1.500mm ---
G0 X103.169 Y63.289 F1200
G1 X102.924 Y63.220 Z0.000 F1500
G1 X102.685 Y63.125 Z0.000 F1500
G1 X102.444 Y62.998 Z0.000 F1500
G1 X102.206 Y62.841 Z0.000 F1500
G1 X101.972 Y62.649 Z0.000 F1500
G1 X101.751 Y62.431 Z0.000 F1500
G1 X101.534 Y62.171 Z0.000 F1500
G1 X101.339 Y61.887 Z0.000 F1500
G1 X101.163 Y61.570 Z0.000 F1500
G1 X101.013 Y61.231 Z0.000 F1500
G1 X100.890 Y60.863 Z0.000 F1500
G1 X100.798 Y60.477 Z0.000 F1500
G1 X100.741 Y60.065 Z0.000 F1500
G1 X100.721 Y59.636 Z0.000 F1500
G1 X100.741 Y59.207 Z0.000 F1500
; --- FIX X Backlash: 1.400mm ---
G0 X102.141 Y59.207 F1200
G1 X102.198 Y58.796 Z0.000 F1500
G1 X102.290 Y58.408 Z0.000 F1500
G1 X102.413 Y58.041 Z0.000 F1500
G1 X102.563 Y57.702 Z0.000 F1500
G1 X102.739 Y57.385 Z0.000 F1500
G1 X102.934 Y57.101 Z0.000 F1500
G1 X103.151 Y56.841 Z0.000 F1500
G1 X103.372 Y56.623 Z0.000 F1500
G1 X103.606 Y56.431 Z0.000 F1500
G1 X103.846 Y56.272 Z0.000 F1500
G1 X104.083 Y56.147 Z0.000 F1500
G1 X104.323 Y56.052 Z0.000 F1500
G1 X104.569 Y55.983 Z0.000 F1500
G1 X104.817 Y55.941 Z0.000 F1500
G1 X105.077 Y55.927 Z0.000 F1500
G1 X105.338 Y55.941 Z0.000 F1500
G1 X105.585 Y55.983 Z0.000 F1500
; --- FIX Y Backlash: 1.500mm ---
G0 X105.585 Y57.483 F1200
G1 X105.832 Y57.552 Z0.000 F1500
G1 X106.070 Y57.647 Z0.000 F1500
G1 X106.309 Y57.772 Z0.000 F1500
G1 X106.549 Y57.931 Z0.000 F1500
G1 X106.783 Y58.123 Z0.000 F1500
G1 X107.004 Y58.341 Z0.000 F1500
G1 X107.220 Y58.601 Z0.000 F1500
G1 X107.416 Y58.885 Z0.000 F1500
G1 X107.592 Y59.202 Z0.000 F1500
G1 X107.742 Y59.541 Z0.000 F1500
G1 X107.865 Y59.908 Z0.000 F1500
G1 X107.957 Y60.296 Z0.000 F1500
G1 X108.014 Y60.707 Z0.000 F1500
G1 X108.034 Y61.136 Z0.000 F1500
G1 X108.014 Y61.565 Z0.000 F1500
; --- FIX X Backlash: -1.400mm ---
G0 X106.614 Y61.565 F1200
G1 X106.557 Y61.977 Z0.000 F1500
G1 X106.465 Y62.363 Z0.000 F1500
G1 X106.342 Y62.731 Z0.000 F1500
G1 X106.192 Y63.070 Z0.000 F1500
G1 X106.016 Y63.387 Z0.000 F1500
G1 X105.820 Y63.671 Z0.000 F1500
G1 X105.604 Y63.931 Z0.000 F1500
G1 X105.383 Y64.149 Z0.000 F1500
G1 X105.149 Y64.341 Z0.000 F1500
G1 X104.910 Y64.499 Z0.000 F1500
G1 X104.672 Y64.624 Z0.000 F1500
G1 X104.429 Y64.721 Z0.000 F1500
G1 X104.185 Y64.789 Z0.000 F1500
G1 X103.942 Y64.830 Z0.000 F1500
G1 X103.677 Y64.844 Z0.000 F1500
G1 X103.413 Y64.830 Z0.000 F1500
G1 X103.169 Y64.789 Z0.000 F1500
G0 Z3.5 F1500
; --- FIX Y Backlash: -1.500mm ---
G0 X103.169 Y63.289 F1200
G0 X101.083 Y63.036 Z3.500
G1 Z0 F1500
G1 X100.819 Y62.719 Z0.000 F1500
G1 X100.572 Y62.358 Z0.000 F1500
G1 X100.357 Y61.973 Z0.000 F1500
G1 X100.172 Y61.554 Z0.000 F1500
G1 X100.024 Y61.114 Z0.000 F1500
G1 X99.913 Y60.645 Z0.000 F1500
G1 X99.844 Y60.148 Z0.000 F1500
G1 X99.820 Y59.636 Z0.000 F1500
G1 X99.844 Y59.124 Z0.000 F1500
; --- FIX X Backlash: 1.400mm ---
G0 X101.244 Y59.124 F1200
G1 X101.313 Y58.628 Z0.000 F1500
G1 X101.424 Y58.157 Z0.000 F1500
G1 X101.572 Y57.718 Z0.000 F1500
G1 X101.757 Y57.299 Z0.000 F1500
G1 X101.972 Y56.914 Z0.000 F1500
G1 X102.219 Y56.553 Z0.000 F1500
G1 X102.483 Y56.236 Z0.000 F1500
G1 X102.770 Y55.952 Z0.000 F1500
G1 X103.074 Y55.704 Z0.000 F1500
G1 X103.386 Y55.497 Z0.000 F1500
G1 X103.705 Y55.330 Z0.000 F1500
G1 X104.036 Y55.198 Z0.000 F1500
G1 X104.373 Y55.104 Z0.000 F1500
G1 X104.717 Y55.046 Z0.000 F1500
G1 X105.077 Y55.026 Z0.000 F1500
G1 X105.438 Y55.046 Z0.000 F1500
; --- FIX Y Backlash: 1.500mm ---
G0 X105.438 Y56.546 F1200
G1 X105.783 Y56.604 Z0.000 F1500
G1 X106.121 Y56.698 Z0.000 F1500
G1 X106.446 Y56.828 Z0.000 F1500
G1 X106.771 Y56.999 Z0.000 F1500
G1 X107.081 Y57.204 Z0.000 F1500
G1 X107.385 Y57.452 Z0.000 F1500
G1 X107.669 Y57.734 Z0.000 F1500
G1 X107.939 Y58.058 Z0.000 F1500
G1 X108.182 Y58.411 Z0.000 F1500
G1 X108.398 Y58.799 Z0.000 F1500
G1 X108.583 Y59.218 Z0.000 F1500
G1 X108.730 Y59.657 Z0.000 F1500
G1 X108.842 Y60.128 Z0.000 F1500
G1 X108.911 Y60.624 Z0.000 F1500
G1 X108.935 Y61.136 Z0.000 F1500
G1 X108.911 Y61.648 Z0.000 F1500
; --- FIX X Backlash: -1.400mm ---
G0 X107.511 Y61.648 F1200
G1 X107.442 Y62.145 Z0.000 F1500
G1 X107.331 Y62.614 Z0.000 F1500
G1 X107.183 Y63.054 Z0.000 F1500
G1 X106.998 Y63.473 Z0.000 F1500
G1 X106.782 Y63.861 Z0.000 F1500
G1 X106.539 Y64.214 Z0.000 F1500
G1 X106.269 Y64.538 Z0.000 F1500
G1 X105.985 Y64.820 Z0.000 F1500
G1 X105.681 Y65.068 Z0.000 F1500
G1 X105.371 Y65.273 Z0.000 F1500
G1 X105.046 Y65.444 Z0.000 F1500
G1 X104.720 Y65.574 Z0.000 F1500
G1 X104.383 Y65.668 Z0.000 F1500
G1 X104.038 Y65.726 Z0.000 F1500
G1 X103.677 Y65.746 Z0.000 F1500
G1 X103.317 Y65.726 Z0.000 F1500
; --- FIX Y Backlash: -1.500mm ---
G0 X103.317 Y64.226 F1200
G1 X102.973 Y64.168 Z0.000 F1500
G1 X102.636 Y64.074 Z0.000 F1500
G1 X102.308 Y63.943 Z0.000 F1500
G1 X101.984 Y63.773 Z0.000 F1500
G1 X101.674 Y63.568 Z0.000 F1500
G1 X101.370 Y63.320 Z0.000 F1500
G1 X101.083 Y63.036 Z0.000 F1500
G0 Z3.5 F1500
G0 X99.157 Y61.360 Z3.500
G1 Z0 F1500
G1 X99.027 Y60.807 Z0.000 F1500
G1 X98.947 Y60.236 Z0.000 F1500
G1 X98.919 Y59.636 Z0.000 F1500
G1 X98.947 Y59.035 Z0.000 F1500
; --- FIX X Backlash: 1.400mm ---
G0 X100.347 Y59.035 F1200
G1 X100.427 Y58.466 Z0.000 F1500
G1 X100.558 Y57.911 Z0.000 F1500
G1 X100.732 Y57.391 Z0.000 F1500
G1 X100.950 Y56.899 Z0.000 F1500
G1 X101.209 Y56.434 Z0.000 F1500
G1 X101.497 Y56.014 Z0.000 F1500
G1 X101.818 Y55.628 Z0.000 F1500
G1 X102.171 Y55.279 Z0.000 F1500
G1 X102.537 Y54.980 Z0.000 F1500
G1 X102.927 Y54.722 Z0.000 F1500
G1 X103.333 Y54.508 Z0.000 F1500
G1 X103.745 Y54.345 Z0.000 F1500
G1 X104.174 Y54.224 Z0.000 F1500
G1 X104.618 Y54.150 Z0.000 F1500
G1 X105.077 Y54.125 Z0.000 F1500
G1 X105.538 Y54.150 Z0.000 F1500
; --- FIX Y Backlash: 1.500mm ---
G0 X105.538 Y55.650 F1200
G1 X105.980 Y55.724 Z0.000 F1500
G1 X106.407 Y55.843 Z0.000 F1500
G1 X106.825 Y56.010 Z0.000 F1500
G1 X107.228 Y56.222 Z0.000 F1500
G1 X107.618 Y56.480 Z0.000 F1500
G1 X107.984 Y56.779 Z0.000 F1500
G1 X108.335 Y57.126 Z0.000 F1500
G1 X108.658 Y57.515 Z0.000 F1500
G1 X108.946 Y57.935 Z0.000 F1500
G1 X109.205 Y58.399 Z0.000 F1500
G1 X109.422 Y58.891 Z0.000 F1500
G1 X109.597 Y59.411 Z0.000 F1500
G1 X109.728 Y59.966 Z0.000 F1500
G1 X109.808 Y60.535 Z0.000 F1500
G1 X109.835 Y61.136 Z0.000 F1500
G1 X109.808 Y61.736 Z0.000 F1500
; --- FIX X Backlash: -1.400mm ---
G0 X108.408 Y61.736 F1200
G1 X108.328 Y62.307 Z0.000 F1500
G1 X108.198 Y62.860 Z0.000 F1500
G1 X108.022 Y63.381 Z0.000 F1500
G1 X107.805 Y63.873 Z0.000 F1500
G1 X107.546 Y64.337 Z0.000 F1500
G1 X107.258 Y64.757 Z0.000 F1500
G1 X106.935 Y65.146 Z0.000 F1500
G1 X106.584 Y65.493 Z0.000 F1500
G1 X106.218 Y65.792 Z0.000 F1500
G1 X105.830 Y66.048 Z0.000 F1500
G1 X105.422 Y66.263 Z0.000 F1500
G1 X105.007 Y66.428 Z0.000 F1500
G1 X104.580 Y66.548 Z0.000 F1500
G1 X104.138 Y66.622 Z0.000 F1500
G1 X103.677 Y66.647 Z0.000 F1500
G1 X103.218 Y66.622 Z0.000 F1500
; --- FIX Y Backlash: -1.500mm ---
G0 X103.218 Y65.122 F1200
G1 X102.774 Y65.048 Z0.000 F1500
G1 X102.348 Y64.928 Z0.000 F1500
G1 X101.930 Y64.762 Z0.000 F1500
G1 X101.526 Y64.550 Z0.000 F1500
G1 X101.137 Y64.292 Z0.000 F1500
G1 X100.771 Y63.993 Z0.000 F1500
G1 X100.418 Y63.644 Z0.000 F1500
G1 X100.097 Y63.258 Z0.000 F1500
G1 X99.809 Y62.838 Z0.000 F1500
G1 X99.550 Y62.373 Z0.000 F1500
G1 X99.332 Y61.881 Z0.000 F1500
G1 X99.157 Y61.360 Z0.000 F1500
G0 Z3.5 F1500
G0 X98.142 Y58.298 Z3.500
G1 Z0 F1500
; --- FIX X Backlash: 1.400mm ---
G0 X99.542 Y58.298 F1200
G1 X99.690 Y57.667 Z0.000 F1500
G1 X99.893 Y57.064 Z0.000 F1500
G1 X100.146 Y56.492 Z0.000 F1500
G1 X100.440 Y55.963 Z0.000 F1500
G1 X100.780 Y55.468 Z0.000 F1500
G1 X101.155 Y55.018 Z0.000 F1500
G1 X101.566 Y54.611 Z0.000 F1500
G1 X102.005 Y54.252 Z0.000 F1500
G1 X102.469 Y53.946 Z0.000 F1500
G1 X102.952 Y53.691 Z0.000 F1500
G1 X103.458 Y53.490 Z0.000 F1500
G1 X103.977 Y53.345 Z0.000 F1500
G1 X104.522 Y53.254 Z0.000 F1500
G1 X105.077 Y53.223 Z0.000 F1500
G1 X105.632 Y53.254 Z0.000 F1500
; --- FIX Y Backlash: 1.500mm ---
G0 X105.632 Y54.754 F1200
G1 X106.178 Y54.845 Z0.000 F1500
G1 X106.695 Y54.990 Z0.000 F1500
G1 X107.202 Y55.192 Z0.000 F1500
G1 X107.688 Y55.447 Z0.000 F1500
G1 X108.149 Y55.752 Z0.000 F1500
G1 X108.588 Y56.111 Z0.000 F1500
G1 X108.998 Y56.517 Z0.000 F1500
G1 X109.375 Y56.969 Z0.000 F1500
G1 X109.715 Y57.464 Z0.000 F1500
G1 X110.009 Y57.992 Z0.000 F1500
G1 X110.262 Y58.564 Z0.000 F1500
G1 X110.464 Y59.167 Z0.000 F1500
G1 X110.613 Y59.798 Z0.000 F1500
G1 X110.705 Y60.452 Z0.000 F1500
G1 X110.736 Y61.136 Z0.000 F1500
G1 X110.705 Y61.819 Z0.000 F1500
; --- FIX X Backlash: -1.400mm ---
G0 X109.305 Y61.819 F1200
G1 X109.213 Y62.475 Z0.000 F1500
G1 X109.064 Y63.104 Z0.000 F1500
G1 X108.862 Y63.708 Z0.000 F1500
G1 X108.609 Y64.280 Z0.000 F1500
G1 X108.315 Y64.808 Z0.000 F1500
G1 X107.975 Y65.303 Z0.000 F1500
G1 X107.598 Y65.755 Z0.000 F1500
G1 X107.188 Y66.161 Z0.000 F1500
G1 X106.749 Y66.520 Z0.000 F1500
G1 X106.290 Y66.824 Z0.000 F1500
G1 X105.797 Y67.082 Z0.000 F1500
G1 X105.298 Y67.282 Z0.000 F1500
G1 X104.778 Y67.427 Z0.000 F1500
G1 X104.232 Y67.518 Z0.000 F1500
G1 X103.677 Y67.548 Z0.000 F1500
G1 X103.122 Y67.518 Z0.000 F1500
; --- FIX Y Backlash: -1.500mm ---
G0 X103.122 Y66.018 F1200
G1 X102.577 Y65.927 Z0.000 F1500
G1 X102.059 Y65.782 Z0.000 F1500
G1 X101.555 Y65.581 Z0.000 F1500
G1 X101.065 Y65.324 Z0.000 F1500
G1 X100.605 Y65.020 Z0.000 F1500
G1 X100.166 Y64.661 Z0.000 F1500
G1 X99.755 Y64.254 Z0.000 F1500
G1 X99.380 Y63.804 Z0.000 F1500
G1 X99.040 Y63.309 Z0.000 F1500
G1 X98.746 Y62.780 Z0.000 F1500
G1 X98.493 Y62.208 Z0.000 F1500
G1 X98.290 Y61.604 Z0.000 F1500
G1 X98.142 Y60.975 Z0.000 F1500
G1 X98.050 Y60.319 Z0.000 F1500
G1 X98.018 Y59.636 Z0.000 F1500
G1 X98.050 Y58.952 Z0.000 F1500
; --- FIX X Backlash: 1.400mm ---
G0 X99.450 Y58.952 F1200
G1 X99.542 Y58.298 Z0.000 F1500
G0 Z3.5 F1500
G0 X99.674 Y55.490 Z3.500
G1 Z0 F1500
G1 X100.062 Y54.924 Z0.000 F1500
G1 X100.493 Y54.407 Z0.000 F1500
G1 X100.962 Y53.942 Z0.000 F1500
G1 X101.471 Y53.527 Z0.000 F1500
G1 X102.011 Y53.170 Z0.000 F1500
G1 X102.575 Y52.874 Z0.000 F1500
G1 X103.167 Y52.637 Z0.000 F1500
G1 X103.788 Y52.463 Z0.000 F1500
G1 X104.417 Y52.358 Z0.000 F1500
G1 X105.077 Y52.322 Z0.000 F1500
G1 X105.737 Y52.358 Z0.000 F1500
; --- FIX Y Backlash: 1.500mm ---
G0 X105.737 Y53.858 F1200
G1 X106.367 Y53.963 Z0.000 F1500
G1 X106.989 Y54.138 Z0.000 F1500
G1 X107.578 Y54.372 Z0.000 F1500
G1 X108.145 Y54.670 Z0.000 F1500
G1 X108.684 Y55.027 Z0.000 F1500
G1 X109.193 Y55.442 Z0.000 F1500
G1 X109.662 Y55.907 Z0.000 F1500
G1 X110.092 Y56.423 Z0.000 F1500
G1 X110.482 Y56.992 Z0.000 F1500
G1 X110.816 Y57.592 Z0.000 F1500
G1 X111.102 Y58.237 Z0.000 F1500
G1 X111.331 Y58.922 Z0.000 F1500
G1 X111.498 Y59.629 Z0.000 F1500
G1 X111.603 Y60.375 Z0.000 F1500
G1 X111.638 Y61.136 Z0.000 F1500
G1 X111.603 Y61.897 Z0.000 F1500
; --- FIX X Backlash: -1.400mm ---
G0 X110.203 Y61.897 F1200
G1 X110.098 Y62.643 Z0.000 F1500
G1 X109.931 Y63.351 Z0.000 F1500
G1 X109.702 Y64.035 Z0.000 F1500
G1 X109.416 Y64.680 Z0.000 F1500
G1 X109.082 Y65.280 Z0.000 F1500
G1 X108.692 Y65.849 Z0.000 F1500
G1 X108.262 Y66.365 Z0.000 F1500
G1 X107.793 Y66.830 Z0.000 F1500
G1 X107.284 Y67.245 Z0.000 F1500
G1 X106.745 Y67.602 Z0.000 F1500
G1 X106.181 Y67.898 Z0.000 F1500
G1 X105.586 Y68.135 Z0.000 F1500
G1 X104.967 Y68.309 Z0.000 F1500
G1 X104.337 Y68.414 Z0.000 F1500
G1 X103.677 Y68.450 Z0.000 F1500
G1 X103.017 Y68.414 Z0.000 F1500
; --- FIX Y Backlash: -1.500mm ---
G0 X103.017 Y66.914 F1200
G1 X102.388 Y66.809 Z0.000 F1500
G1 X101.767 Y66.635 Z0.000 F1500
G1 X101.177 Y66.399 Z0.000 F1500
G1 X100.609 Y66.101 Z0.000 F1500
G1 X100.071 Y65.745 Z0.000 F1500
G1 X99.562 Y65.330 Z0.000 F1500
G1 X99.093 Y64.865 Z0.000 F1500
G1 X98.662 Y64.348 Z0.000 F1500
G1 X98.274 Y63.782 Z0.000 F1500
G1 X97.938 Y63.180 Z0.000 F1500
G1 X97.653 Y62.535 Z0.000 F1500
G1 X97.424 Y61.851 Z0.000 F1500
G1 X97.257 Y61.143 Z0.000 F1500
G1 X97.152 Y60.397 Z0.000 F1500
G1 X97.117 Y59.636 Z0.000 F1500
G1 X97.152 Y58.875 Z0.000 F1500
; --- FIX X Backlash: 1.400mm ---
G0 X98.552 Y58.875 F1200
G1 X98.657 Y58.129 Z0.000 F1500
G1 X98.824 Y57.422 Z0.000 F1500
G1 X99.053 Y56.737 Z0.000 F1500
G1 X99.338 Y56.092 Z0.000 F1500
G1 X99.674 Y55.490 Z0.000 F1500
G0 Z3.5 F1500
G0 X100.934 Y52.804 Z3.500
G1 Z0 F1500
G1 X101.553 Y52.394 Z0.000 F1500
G1 X102.199 Y52.054 Z0.000 F1500
G1 X102.876 Y51.784 Z0.000 F1500
G1 X103.590 Y51.584 Z0.000 F1500
G1 X104.322 Y51.462 Z0.000 F1500
G1 X105.077 Y51.420 Z0.000 F1500
G1 X105.832 Y51.462 Z0.000 F1500
; --- FIX Y Backlash: 1.500mm ---
G0 X105.832 Y52.962 F1200
G1 X106.565 Y53.084 Z0.000 F1500
G1 X107.278 Y53.284 Z0.000 F1500
G1 X107.953 Y53.553 Z0.000 F1500
G1 X108.604 Y53.895 Z0.000 F1500
G1 X109.221 Y54.304 Z0.000 F1500
G1 X109.795 Y54.771 Z0.000 F1500
G1 X110.325 Y55.297 Z0.000 F1500
G1 X110.811 Y55.880 Z0.000 F1500
G1 X111.247 Y56.515 Z0.000 F1500
G1 X111.623 Y57.191 Z0.000 F1500
G1 X111.943 Y57.915 Z0.000 F1500
G1 X112.197 Y58.671 Z0.000 F1500
G1 X112.384 Y59.466 Z0.000 F1500
G1 X112.500 Y60.287 Z0.000 F1500
G1 X112.539 Y61.136 Z0.000 F1500
G1 X112.500 Y61.985 Z0.000 F1500
; --- FIX X Backlash: -1.400mm ---
G0 X111.100 Y61.985 F1200
G1 X110.984 Y62.805 Z0.000 F1500
G1 X110.797 Y63.601 Z0.000 F1500
G1 X110.543 Y64.357 Z0.000 F1500
G1 X110.223 Y65.081 Z0.000 F1500
G1 X109.847 Y65.757 Z0.000 F1500
G1 X109.411 Y66.392 Z0.000 F1500
G1 X108.925 Y66.975 Z0.000 F1500
G1 X108.395 Y67.500 Z0.000 F1500
G1 X107.821 Y67.968 Z0.000 F1500
G1 X107.202 Y68.378 Z0.000 F1500
G1 X106.557 Y68.717 Z0.000 F1500
G1 X105.876 Y68.989 Z0.000 F1500
G1 X105.165 Y69.188 Z0.000 F1500
G1 X104.432 Y69.310 Z0.000 F1500
G1 X103.677 Y69.351 Z0.000 F1500
G1 X102.922 Y69.310 Z0.000 F1500
; --- FIX Y Backlash: -1.500mm ---
G0 X102.922 Y67.810 F1200
G1 X102.190 Y67.688 Z0.000 F1500
G1 X101.478 Y67.489 Z0.000 F1500
G1 X100.800 Y67.218 Z0.000 F1500
G1 X100.151 Y66.877 Z0.000 F1500
G1 X99.534 Y66.468 Z0.000 F1500
G1 X98.960 Y66.000 Z0.000 F1500
G1 X98.430 Y65.475 Z0.000 F1500
G1 X97.942 Y64.890 Z0.000 F1500
G1 X97.510 Y64.260 Z0.000 F1500
G1 X97.132 Y63.581 Z0.000 F1500
G1 X96.812 Y62.857 Z0.000 F1500
G1 X96.558 Y62.101 Z0.000 F1500
G1 X96.371 Y61.305 Z0.000 F1500
G1 X96.255 Y60.485 Z0.000 F1500
G1 X96.216 Y59.636 Z0.000 F1500
G1 X96.255 Y58.787 Z0.000 F1500
; --- FIX X Backlash: 1.400mm ---
G0 X97.655 Y58.787 F1200
G1 X97.771 Y57.966 Z0.000 F1500
G1 X97.958 Y57.171 Z0.000 F1500
G1 X98.212 Y56.415 Z0.000 F1500
G1 X98.532 Y55.691 Z0.000 F1500
G1 X98.910 Y55.012 Z0.000 F1500
G1 X99.342 Y54.382 Z0.000 F1500
G1 X99.830 Y53.797 Z0.000 F1500
G1 X100.360 Y53.271 Z0.000 F1500
G1 X100.934 Y52.804 Z0.000 F1500
G0 Z3.5 F1500
G0 X103.392 Y50.705 Z3.500
G1 Z0 F1500
G1 X104.222 Y50.566 Z0.000 F1500
G1 X105.077 Y50.519 Z0.000 F1500
G1 X105.932 Y50.566 Z0.000 F1500
; --- FIX Y Backlash: 1.500mm ---
G0 X105.932 Y52.066 F1200
G1 X106.763 Y52.205 Z0.000 F1500
G1 X107.564 Y52.429 Z0.000 F1500
G1 X108.332 Y52.735 Z0.000 F1500
G1 X109.063 Y53.120 Z0.000 F1500
G1 X109.753 Y53.576 Z0.000 F1500
G1 X110.396 Y54.101 Z0.000 F1500
G1 X110.990 Y54.689 Z0.000 F1500
G1 X111.530 Y55.337 Z0.000 F1500
G1 X112.011 Y56.039 Z0.000 F1500
G1 X112.430 Y56.791 Z0.000 F1500
G1 X112.782 Y57.587 Z0.000 F1500
G1 X113.063 Y58.425 Z0.000 F1500
G1 X113.270 Y59.298 Z0.000 F1500
G1 X113.396 Y60.204 Z0.000 F1500
G1 X113.439 Y61.136 Z0.000 F1500
G1 X113.396 Y62.068 Z0.000 F1500
; --- FIX X Backlash: -1.400mm ---
G0 X111.996 Y62.068 F1200
G1 X111.870 Y62.973 Z0.000 F1500
G1 X111.663 Y63.847 Z0.000 F1500
G1 X111.382 Y64.685 Z0.000 F1500
G1 X111.030 Y65.481 Z0.000 F1500
G1 X110.611 Y66.233 Z0.000 F1500
G1 X110.130 Y66.935 Z0.000 F1500
G1 X109.590 Y67.583 Z0.000 F1500
G1 X108.996 Y68.171 Z0.000 F1500
G1 X108.353 Y68.696 Z0.000 F1500
G1 X107.663 Y69.152 Z0.000 F1500
G1 X106.932 Y69.536 Z0.000 F1500
G1 X106.164 Y69.843 Z0.000 F1500
G1 X105.363 Y70.067 Z0.000 F1500
G1 X104.532 Y70.206 Z0.000 F1500
G1 X103.677 Y70.252 Z0.000 F1500
G1 X102.822 Y70.206 Z0.000 F1500
; --- FIX Y Backlash: -1.500mm ---
G0 X102.822 Y68.706 F1200
G1 X101.992 Y68.567 Z0.000 F1500
G1 X101.191 Y68.343 Z0.000 F1500
G1 X100.422 Y68.036 Z0.000 F1500
G1 X99.691 Y67.652 Z0.000 F1500
G1 X99.002 Y67.196 Z0.000 F1500
G1 X98.358 Y66.671 Z0.000 F1500
G1 X97.765 Y66.083 Z0.000 F1500
G1 X97.225 Y65.435 Z0.000 F1500
G1 X96.744 Y64.733 Z0.000 F1500
G1 X96.325 Y63.981 Z0.000 F1500
G1 X95.973 Y63.185 Z0.000 F1500
G1 X95.691 Y62.347 Z0.000 F1500
G1 X95.485 Y61.473 Z0.000 F1500
G1 X95.358 Y60.568 Z0.000 F1500
G1 X95.315 Y59.636 Z0.000 F1500
G1 X95.358 Y58.704 Z0.000 F1500
; --- FIX X Backlash: 1.400mm ---
G0 X96.758 Y58.704 F1200
G1 X96.885 Y57.798 Z0.000 F1500
G1 X97.091 Y56.925 Z0.000 F1500
G1 X97.373 Y56.087 Z0.000 F1500
G1 X97.725 Y55.291 Z0.000 F1500
G1 X98.144 Y54.539 Z0.000 F1500
G1 X98.625 Y53.837 Z0.000 F1500
G1 X99.165 Y53.189 Z0.000 F1500
G1 X99.758 Y52.601 Z0.000 F1500
G1 X100.402 Y52.076 Z0.000 F1500
G1 X101.091 Y51.620 Z0.000 F1500
G1 X101.822 Y51.235 Z0.000 F1500
G1 X102.591 Y50.929 Z0.000 F1500
G1 X103.392 Y50.705 Z0.000 F1500
M9
M5
G1 Z10 F1500
G90
G1 Z10 F1500

