;LightBurn 1.6.04
;Custom GCode device profile, absolute coords
;Bounds: X72.96 Y69.27 to X129.02 Y132.67
G00 G17 G40 G21 G54
G90
G1 Z10 F1200
;Scan @ 1200 mm/min, 90% power

M8
G0 Z1.8F1200
G0 X97.885Y89.972Z1.8
G1 Z0F1200
;Layer Green
G91
G0 Z2 F1200
G0 Z5 F500
G1 X0.5Z0S0F1200
G0 Z-2 F1200
G0 Z-5 F500
G1 X0.294Z0S900F1200
G0 Z2 F1200
G0 Z5 F500
G1 X4.7Z0S0F1200
G0 Z-2 F1200
G0 Z-5 F500
G1 X0.233Z0S900F1200
G0 Z2 F1200
G0 Z5 F500
G1 X0.5Z0S0F1200
G1 X1.189Y0.7Z0F1200
G1 X-0.5Z0F1200
G0 Z-2 F1200
G0 Z-5 F500
G1 X-2.211Z0S900F1200
G0 Z2 F1200
G0 Z5 F500
G1 X-3.215Z0S0F1200
G0 Z-2 F1200
G0 Z-5 F500
G1 X-2.216Z0S900F1200
G0 Z2 F1200
G0 Z5 F500
G1 X-0.5Z0S0F1200
G1 X-1.147Y0.7Z0F1200
G1 X0.5Z0F1200
G0 Z-2 F1200
G0 Z-5 F500
G1 X4.009Z0S900F1200
G0 Z2 F1200
G0 Z5 F500
G1 X1.901Z0S0F1200
G0 Z-2 F1200
G0 Z-5 F500
G1 X4.029Z0S900F1200
G0 Z2 F1200
G0 Z5 F500
G1 X0.5Z0S0F1200
G1 X1.155Y0.7Z0F1200
G1 X-0.5Z0F1200
G0 Z-2 F1200
G0 Z-5 F500
G1 X-4.989Z0S900F1200
G0 Z2 F1200
G0 Z5 F500
G1 X-1.474Z0S0F1200
G0 Z-2 F1200
G0 Z-5 F500
G1 X-5.788Z0S900F1200
G0 Z2 F1200
G0 Z5 F500
G1 X-0.5Z0S0F1200
G1 X-1.176Y0.7Z0F1200
G1 X0.5Z0F1200
G0 Z-2 F1200
G0 Z-5 F500
G1 X7.533Z0S900F1200
G0 Z2 F1200
G0 Z5 F500
G1 X1.436Z0S0F1200
G0 Z-2 F1200
G0 Z-5 F500
G1 X5.595Z0S900F1200
G0 Z2 F1200
G0 Z5 F500
G1 X0.5Z0S0F1200
G1 X0.75Y0.7Z0F1200
G1 X-0.5Z0F1200
G0 Z-2 F1200
G0 Z-5 F500
G1 X-5.85Z0S900F1200
G0 Z2 F1200
G0 Z5 F500
G1 X-1.394Z0S0F1200
G0 Z-2 F1200
G0 Z-5 F500
G1 X-8.689Z0S900F1200
G0 Z2 F1200
G0 Z5 F500
G1 X-0.5Z0S0F1200
G1 X0.187Y0.7Z0F1200
G1 X0.5Z0F1200
G0 Z-2 F1200
G0 Z-5 F500
G1 X8.994Z0S900F1200
G0 Z2 F1200
G0 Z5 F500
G1 X1.375Z0S0F1200
G0 Z-2 F1200
G0 Z-5 F500
G1 X5.159Z0S900F1200
G0 Z2 F1200
G0 Z5 F500
G1 X0.5Z0S0F1200
G1 X-0.232Y0.7Z0F1200
G1 X-0.5Z0F1200
G0 Z-2 F1200
G0 Z-5 F500
G1 X-4.473Z0S900F1200
G0 Z2 F1200
G0 Z5 F500
G1 X-1.37Z0S0F1200
G0 Z-2 F1200
G0 Z-5 F500
G1 X-9.231Z0S900F1200
G0 Z2 F1200
G0 Z5 F500
G1 X-0.5Z0S0F1200
G1 X0.23Y0.7Z0F1200
G1 X0.5Z0F1200
G0 Z-2 F1200
G0 Z-5 F500
G1 X9.431Z0S900F1200
G0 Z2 F1200
G0 Z5 F500
G1 X1.365Z0S0F1200
G0 Z-2 F1200
G0 Z-5 F500
G1 X3.806Z0S900F1200
G0 Z2 F1200
G0 Z5 F500
G1 X0.5Z0S0F1200
G1 X-0.257Y0.7Z0F1200
G1 X-0.5Z0F1200
G0 Z-2 F1200
G0 Z-5 F500
G1 X-3.172Z0S900F1200
G0 Z2 F1200
G0 Z5 F500
G1 X-1.335Z0S0F1200
G0 Z-2 F1200
G0 Z-5 F500
G1 X-9.582Z0S900F1200
G0 Z2 F1200
G0 Z5 F500
G1 X-0.5Z0S0F1200
G1 X0.272Y0.7Z0F1200
G1 X0.5Z0F1200
G0 Z-2 F1200
G0 Z-5 F500
G1 X9.698Z0S900F1200
G0 Z2 F1200
G0 Z5 F500
G1 X1.316Z0S0F1200
G0 Z-2 F1200
G0 Z-5 F500
G1 X2.531Z0S900F1200
G0 Z2 F1200
G0 Z5 F500
G1 X0.5Z0S0F1200
G1 X-0.283Y0.7Z0F1200
G1 X-0.5Z0F1200
G0 Z-2 F1200
G0 Z-5 F500
G1 X-1.88Z0S900F1200
G0 Z2 F1200
G0 Z5 F500
G1 X-1.311Z0S0F1200
G0 Z-2 F1200
G0 Z-5 F500
G1 X-9.772Z0S900F1200
G0 Z2 F1200
G0 Z5 F500
G1 X-0.5Z0S0F1200
G1 X0.325Y0.7Z0F1200
G1 X0.5Z0F1200
G0 Z-2 F1200
G0 Z-5 F500
G1 X9.807Z0S900F1200
G0 Z2 F1200
G0 Z5 F500
G1 X1.312Z0S0F1200
G0 Z-2 F1200
G0 Z-5 F500
G1 X1.234Z0S900F1200
G0 Z2 F1200
G0 Z5 F500
G1 X0.5Z0S0F1200
G1 X-0.285Y0.7Z0F1200
G1 X-0.5Z0F1200
G0 Z-2 F1200
G0 Z-5 F500
G1 X-0.593Z0S900F1200
G0 Z2 F1200
G0 Z5 F500
G1 X-1.318Z0S0F1200
G0 Z-2 F1200
G0 Z-5 F500
G1 X-9.801Z0S900F1200
G0 Z2 F1200
G0 Z5 F500
G1 X-0.5Z0S0F1200
G1 X0.387Y0.7Z0F1200
G1 X0.5Z0F1200
G0 Z-2 F1200
G0 Z-5 F500
G1 X9.752Z0S900F1200
G0 Z2 F1200
G0 Z5 F500
G1 X0.5Z0S0F1200
G1 X0.334Y0.7Z0F1200
G1 X-0.5Z0F1200
G0 Z-2 F1200
G0 Z-5 F500
G1 X-9.678Z0S900F1200
G0 Z2 F1200
G0 Z5 F500
G1 X-0.5Z0S0F1200
G1 X0.434Y0.7Z0F1200
G1 X0.5Z0F1200
G0 Z-2 F1200
G0 Z-5 F500
G1 X9.57Z0S900F1200
G0 Z2 F1200
G0 Z5 F500
G1 X0.5Z0S0F1200
G1 X0.323Y0.7Z0F1200
G1 X-0.5Z0F1200
G0 Z-2 F1200
G0 Z-5 F500
G1 X-9.443Z0S900F1200
G0 Z2 F1200
G0 Z5 F500
G1 X-0.5Z0S0F1200
G1 X-1.503Y0.7Z0F1200
G1 X0.5Z0F1200
G0 Z-2 F1200
G0 Z-5 F500
G1 X0.594Z0S900F1200
G0 Z2 F1200
G0 Z5 F500
G1 X1.375Z0S0F1200
G0 Z-2 F1200
G0 Z-5 F500
G1 X9.294Z0S900F1200
G0 Z2 F1200
G0 Z5 F500
G1 X0.5Z0S0F1200
G1 X0.313Y0.7Z0F1200
G1 X-0.5Z0F1200
G0 Z-2 F1200
G0 Z-5 F500
G1 X-9.13Z0S900F1200
G0 Z2 F1200
G0 Z5 F500
G1 X-1.417Z0S0F1200
G0 Z-2 F1200
G0 Z-5 F500
G1 X-1.354Z0S900F1200
G0 Z2 F1200
G0 Z5 F500
G1 X-0.5Z0S0F1200
G1 X-0.315Y0.7Z0F1200
G1 X0.5Z0F1200
G0 Z-2 F1200
G0 Z-5 F500
G1 X2.134Z0S900F1200
G0 Z2 F1200
G0 Z5 F500
G1 X1.439Z0S0F1200
G0 Z-2 F1200
G0 Z-5 F500
G1 X8.953Z0S900F1200
G0 Z2 F1200
G0 Z5 F500
G1 X0.5Z0S0F1200
G1 X0.311Y0.7Z0F1200
G1 X-0.5Z0F1200
G0 Z-2 F1200
G0 Z-5 F500
G1 X-8.773Z0S900F1200
G0 Z2 F1200
G0 Z5 F500
G1 X-1.451Z0S0F1200
G0 Z-2 F1200
G0 Z-5 F500
G1 X-2.927Z0S900F1200
G0 Z2 F1200
G0 Z5 F500
G1 X-0.5Z0S0F1200
G1 X-0.31Y0.7Z0F1200
G1 X0.5Z0F1200
G0 Z-2 F1200
G0 Z-5 F500
G1 X3.723Z0S900F1200
G0 Z2 F1200
G0 Z5 F500
G1 X1.456Z0S0F1200
G0 Z-2 F1200
G0 Z-5 F500
G1 X8.592Z0S900F1200
G0 Z2 F1200
G0 Z5 F500
G1 X0.5Z0S0F1200
G1 X0.31Y0.7Z0F1200
G1 X-0.5Z0F1200
G0 Z-2 F1200
G0 Z-5 F500
G1 X-8.411Z0S900F1200
G0 Z2 F1200
G0 Z5 F500
G1 X-1.456Z0S0F1200
G0 Z-2 F1200
G0 Z-5 F500
G1 X-4.526Z0S900F1200
G0 Z2 F1200
G0 Z5 F500
G1 X-0.5Z0S0F1200
G1 X-0.297Y0.7Z0F1200
G1 X0.5Z0F1200
G0 Z-2 F1200
G0 Z-5 F500
G1 X5.316Z0S900F1200
G0 Z2 F1200
G0 Z5 F500
G1 X1.454Z0S0F1200
G0 Z-2 F1200
G0 Z-5 F500
G1 X8.231Z0S900F1200
G0 Z2 F1200
G0 Z5 F500
G1 X0.5Z0S0F1200
G1 X0.311Y0.7Z0F1200
G1 X-0.5Z0F1200
G0 Z-2 F1200
G0 Z-5 F500
G1 X-8.051Z0S900F1200
G0 Z2 F1200
G0 Z5 F500
G1 X-1.453Z0S0F1200
G0 Z-2 F1200
G0 Z-5 F500
G1 X-6.116Z0S900F1200
G0 Z2 F1200
G0 Z5 F500
G1 X-0.5Z0S0F1200
G1 X-0.315Y0.7Z0F1200
G1 X0.5Z0F1200
G0 Z-2 F1200
G0 Z-5 F500
G1 X6.916Z0S900F1200
G0 Z2 F1200
G0 Z5 F500
G1 X1.463Z0S0F1200
G0 Z-2 F1200
G0 Z-5 F500
G1 X7.865Z0S900F1200
G0 Z2 F1200
G0 Z5 F500
G1 X0.5Z0S0F1200
G1 X0.307Y0.7Z0F1200
G1 X-0.5Z0F1200
G0 Z-2 F1200
G0 Z-5 F500
G1 X-7.677Z0S900F1200
G0 Z2 F1200
G0 Z5 F500
G1 X-1.62Z0S0F1200
G0 Z-2 F1200
G0 Z-5 F500
G1 X-7.562Z0S900F1200
G0 Z2 F1200
G0 Z5 F500
G1 X-0.5Z0S0F1200
G1 X-0.309Y0.7Z0F1200
G1 X0.5Z0F1200
G0 Z-2 F1200
G0 Z-5 F500
G1 X7.418Z0S900F1200
G0 Z2 F1200
G0 Z5 F500
G1 X2.571Z0S0F1200
G0 Z-2 F1200
G0 Z-5 F500
G1 X7.486Z0S900F1200
G0 Z2 F1200
G0 Z5 F500
G1 X0.5Z0S0F1200
G1 X0.307Y0.7Z0F1200
G1 X-0.5Z0F1200
G0 Z-2 F1200
G0 Z-5 F500
G1 X-7.293Z0S900F1200
G0 Z2 F1200
G0 Z5 F500
G1 X-3.574Z0S0F1200
G0 Z-2 F1200
G0 Z-5 F500
G1 X-7.223Z0S900F1200
G0 Z2 F1200
G0 Z5 F500
G1 X-0.5Z0S0F1200
G1 X-0.309Y0.7Z0F1200
G1 X0.5Z0F1200
G0 Z-2 F1200
G0 Z-5 F500
G1 X7.026Z0S900F1200
G0 Z2 F1200
G0 Z5 F500
G1 X4.587Z0S0F1200
G0 Z-2 F1200
G0 Z-5 F500
G1 X7.093Z0S900F1200
G0 Z2 F1200
G0 Z5 F500
G1 X0.5Z0S0F1200
G1 X0.307Y0.7Z0F1200
G1 X-0.5Z0F1200
G0 Z-2 F1200
G0 Z-5 F500
G1 X-6.888Z0S900F1200
G0 Z2 F1200
G0 Z5 F500
G1 X-5.597Z0S0F1200
G0 Z-2 F1200
G0 Z-5 F500
G1 X-6.836Z0S900F1200
G0 Z2 F1200
G0 Z5 F500
G1 X-0.5Z0S0F1200
G1 X-0.31Y0.7Z0F1200
G1 X0.5Z0F1200
G0 Z-2 F1200
G0 Z-5 F500
G1 X6.649Z0S900F1200
G0 Z2 F1200
G0 Z5 F500
G1 X6.597Z0S0F1200
G0 Z-2 F1200
G0 Z-5 F500
G1 X6.691Z0S900F1200
G0 Z2 F1200
G0 Z5 F500
G1 X0.5Z0S0F1200
G1 X0.307Y0.7Z0F1200
G1 X-0.5Z0F1200
G0 Z-2 F1200
G0 Z-5 F500
G1 X-6.495Z0S900F1200
G0 Z2 F1200
G0 Z5 F500
G1 X-7.598Z0S0F1200
G0 Z-2 F1200
G0 Z-5 F500
G1 X-6.462Z0S900F1200
G0 Z2 F1200
G0 Z5 F500
G1 X-0.5Z0S0F1200
G1 X-0.31Y0.7Z0F1200
G1 X0.5Z0F1200
G0 Z-2 F1200
G0 Z-5 F500
G1 X6.273Z0S900F1200
G0 Z2 F1200
G0 Z5 F500
G1 X8.599Z0S0F1200
G0 Z-2 F1200
G0 Z-5 F500
G1 X6.3Z0S900F1200
G0 Z2 F1200
G0 Z5 F500
G1 X0.5Z0S0F1200
G1 X0.306Y0.7Z0F1200
G1 X-0.5Z0F1200
G0 Z-2 F1200
G0 Z-5 F500
G1 X-6.104Z0S900F1200
G0 Z2 F1200
G0 Z5 F500
G1 X-9.6Z0S0F1200
G0 Z-2 F1200
G0 Z-5 F500
G1 X-6.082Z0S900F1200
G0 Z2 F1200
G0 Z5 F500
G1 X-0.5Z0S0F1200
G1 X-0.308Y0.7Z0F1200
G1 X0.5Z0F1200
G0 Z-2 F1200
G0 Z-5 F500
G1 X5.891Z0S900F1200
G0 Z2 F1200
G0 Z5 F500
G1 X10.6Z0S0F1200
G0 Z-2 F1200
G0 Z-5 F500
G1 X5.909Z0S900F1200
G0 Z2 F1200
G0 Z5 F500
G1 X0.5Z0S0F1200
G1 X0.307Y0.7Z0F1200
G1 X-0.5Z0F1200
G0 Z-2 F1200
G0 Z-5 F500
G1 X-5.714Z0S900F1200
G0 Z2 F1200
G0 Z5 F500
G1 X-11.601Z0S0F1200
G0 Z-2 F1200
G0 Z-5 F500
G1 X-5.7Z0S900F1200
G0 Z2 F1200
G0 Z5 F500
G1 X-0.5Z0S0F1200
G1 X-0.306Y0.7Z0F1200
G1 X0.5Z0F1200
G0 Z-2 F1200
G0 Z-5 F500
G1 X5.507Z0S900F1200
G0 Z2 F1200
G0 Z5 F500
G1 X12.601Z0S0F1200
G0 Z-2 F1200
G0 Z-5 F500
G1 X5.519Z0S900F1200
G0 Z2 F1200
G0 Z5 F500
G1 X0.5Z0S0F1200
G1 X0.306Y0.7Z0F1200
G1 X-0.5Z0F1200
G0 Z-2 F1200
G0 Z-5 F500
G1 X-5.324Z0S900F1200
G0 Z2 F1200
G0 Z5 F500
G1 X-13.597Z0S0F1200
G0 Z-2 F1200
G0 Z-5 F500
G1 X-5.317Z0S900F1200
G0 Z2 F1200
G0 Z5 F500
G1 X-0.5Z0S0F1200
G1 X-0.309Y0.7Z0F1200
G1 X0.5Z0F1200
G0 Z-2 F1200
G0 Z-5 F500
G1 X5.133Z0S900F1200
G0 Z2 F1200
G0 Z5 F500
G1 X14.591Z0S0F1200
G0 Z-2 F1200
G0 Z-5 F500
G1 X5.13Z0S900F1200
G0 Z2 F1200
G0 Z5 F500
G1 X0.5Z0S0F1200
G1 X0.307Y0.7Z0F1200
G1 X-0.5Z0F1200
G0 Z-2 F1200
G0 Z-5 F500
G1 X-4.936Z0S900F1200
G0 Z2 F1200
G0 Z5 F500
G1 X-15.587Z0S0F1200
G0 Z-2 F1200
G0 Z-5 F500
G1 X-4.951Z0S900F1200
G0 Z2 F1200
G0 Z5 F500
G1 X-0.5Z0S0F1200
G1 X-0.308Y0.7Z0F1200
G1 X0.5Z0F1200
G0 Z-2 F1200
G0 Z-5 F500
G1 X4.764Z0S900F1200
G0 Z2 F1200
G0 Z5 F500
G1 X16.583Z0S0F1200
G0 Z-2 F1200
G0 Z-5 F500
G1 X4.741Z0S900F1200
G0 Z2 F1200
G0 Z5 F500
G1 X0.5Z0S0F1200
G1 X0.307Y0.7Z0F1200
G1 X-0.5Z0F1200
G0 Z-2 F1200
G0 Z-5 F500
G1 X-4.548Z0S900F1200
G0 Z2 F1200
G0 Z5 F500
G1 X-17.578Z0S0F1200
G0 Z-2 F1200
G0 Z-5 F500
G1 X-4.575Z0S900F1200
G0 Z2 F1200
G0 Z5 F500
G1 X-0.5Z0S0F1200
G1 X-0.306Y0.7Z0F1200
G1 X0.5Z0F1200
G0 Z-2 F1200
G0 Z-5 F500
G1 X4.386Z0S900F1200
G0 Z2 F1200
G0 Z5 F500
G1 X18.573Z0S0F1200
G0 Z-2 F1200
G0 Z-5 F500
G1 X4.355Z0S900F1200
G0 Z2 F1200
G0 Z5 F500
G1 X0.5Z0S0F1200
G1 X0.307Y0.7Z0F1200
G1 X-0.5Z0F1200
G0 Z-2 F1200
G0 Z-5 F500
G1 X-4.162Z0S900F1200
G0 Z2 F1200
G0 Z5 F500
G1 X-19.569Z0S0F1200
G0 Z-2 F1200
G0 Z-5 F500
G1 X-4.195Z0S900F1200
G0 Z2 F1200
G0 Z5 F500
G1 X-0.5Z0S0F1200
G1 X-0.307Y0.7Z0F1200
G1 X0.5Z0F1200
G0 Z-2 F1200
G0 Z-5 F500
G1 X4.008Z0S900F1200
G0 Z2 F1200
G0 Z5 F500
G1 X20.554Z0S0F1200
G0 Z-2 F1200
G0 Z-5 F500
G1 X3.981Z0S900F1200
G0 Z2 F1200
G0 Z5 F500
G1 X0.5Z0S0F1200
G1 X0.31Y0.7Z0F1200
G1 X-0.5Z0F1200
G0 Z-2 F1200
G0 Z-5 F500
G1 X-3.801Z0S900F1200
G0 Z2 F1200
G0 Z5 F500
G1 X-21.535Z0S0F1200
G0 Z-2 F1200
G0 Z-5 F500
G1 X-3.825Z0S900F1200
G0 Z2 F1200
G0 Z5 F500
G1 X-0.5Z0S0F1200
G1 X-0.29Y0.7Z0F1200
G1 X0.5Z0F1200
G0 Z-2 F1200
G0 Z-5 F500
G1 X3.626Z0S900F1200
G0 Z2 F1200
G0 Z5 F500
G1 X22.517Z0S0F1200
G0 Z-2 F1200
G0 Z-5 F500
G1 X3.609Z0S900F1200
G0 Z2 F1200
G0 Z5 F500
G1 X0.5Z0S0F1200
G1 X0.307Y0.7Z0F1200
G1 X-0.5Z0F1200
G0 Z-2 F1200
G0 Z-5 F500
G1 X-3.424Z0S900F1200
G0 Z2 F1200
G0 Z5 F500
G1 X-23.494Z0S0F1200
G0 Z-2 F1200
G0 Z-5 F500
G1 X-3.449Z0S900F1200
G0 Z2 F1200
G0 Z5 F500
G1 X-0.5Z0S0F1200
G1 X-0.291Y0.7Z0F1200
G1 X0.5Z0F1200
G0 Z-2 F1200
G0 Z-5 F500
G1 X3.253Z0S900F1200
G0 Z2 F1200
G0 Z5 F500
G1 X24.473Z0S0F1200
G0 Z-2 F1200
G0 Z-5 F500
G1 X3.239Z0S900F1200
G0 Z2 F1200
G0 Z5 F500
G1 X0.5Z0S0F1200
G1 X0.301Y0.701Z0F1200
G1 X-0.5Z0F1200
G0 Z-2 F1200
G0 Z-5 F500
G1 X-3.052Z0S900F1200
G0 Z2 F1200
G0 Z5 F500
G1 X-25.454Z0S0F1200
G0 Z-2 F1200
G0 Z-5 F500
G1 X-3.067Z0S900F1200
G0 Z2 F1200
G0 Z5 F500
G1 X-0.5Z0S0F1200
G1 X-0.301Y0.7Z0F1200
G1 X0.5Z0F1200
G0 Z-2 F1200
G0 Z-5 F500
G1 X2.876Z0S900F1200
G0 Z2 F1200
G0 Z5 F500
G1 X26.432Z0S0F1200
G0 Z-2 F1200
G0 Z-5 F500
G1 X2.865Z0S900F1200
G0 Z2 F1200
G0 Z5 F500
G1 X0.5Z0S0F1200
G1 X0.3Y0.7Z0F1200
G1 X-0.5Z0F1200
G0 Z-2 F1200
G0 Z-5 F500
G1 X-2.68Z0S900F1200
G0 Z2 F1200
G0 Z5 F500
G1 X-27.409Z0S0F1200
G0 Z-2 F1200
G0 Z-5 F500
G1 X-2.685Z0S900F1200
G0 Z2 F1200
G0 Z5 F500
G1 X-0.5Z0S0F1200
G1 X-0.299Y0.7Z0F1200
G1 X0.5Z0F1200
G0 Z-2 F1200
G0 Z-5 F500
G1 X2.497Z0S900F1200
G0 Z2 F1200
G0 Z5 F500
G1 X28.383Z0S0F1200
G0 Z-2 F1200
G0 Z-5 F500
G1 X2.492Z0S900F1200
G0 Z2 F1200
G0 Z5 F500
G1 X0.5Z0S0F1200
G1 X0.3Y0.7Z0F1200
G1 X-0.5Z0F1200
G0 Z-2 F1200
G0 Z-5 F500
G1 X-2.305Z0S900F1200
G0 Z2 F1200
G0 Z5 F500
G1 X-29.357Z0S0F1200
G0 Z-2 F1200
G0 Z-5 F500
G1 X-2.308Z0S900F1200
G0 Z2 F1200
G0 Z5 F500
G1 X-0.5Z0S0F1200
G1 X-0.299Y0.7Z0F1200
G1 X0.5Z0F1200
G0 Z-2 F1200
G0 Z-5 F500
G1 X2.122Z0S900F1200
G0 Z2 F1200
G0 Z5 F500
G1 X30.325Z0S0F1200
G0 Z-2 F1200
G0 Z-5 F500
G1 X2.12Z0S900F1200
G0 Z2 F1200
G0 Z5 F500
G1 X0.5Z0S0F1200
G1 X0.296Y0.7Z0F1200
G1 X-0.5Z0F1200
G0 Z-2 F1200
G0 Z-5 F500
G1 X-1.92Z0S900F1200
G0 Z2 F1200
G0 Z5 F500
G1 X-31.306Z0S0F1200
G0 Z-2 F1200
G0 Z-5 F500
G1 X-1.934Z0S900F1200
G0 Z2 F1200
G0 Z5 F500
G1 X-0.5Z0S0F1200
G1 X-0.297Y0.7Z0F1200
G1 X0.5Z0F1200
G0 Z-2 F1200
G0 Z-5 F500
G1 X1.744Z0S900F1200
G0 Z2 F1200
G0 Z5 F500
G1 X32.275Z0S0F1200
G0 Z-2 F1200
G0 Z-5 F500
G1 X1.73Z0S900F1200
G0 Z2 F1200
G0 Z5 F500
G1 X0.5Z0S0F1200
G1 X0.283Y0.7Z0F1200
G1 X-0.5Z0F1200
G0 Z-2 F1200
G0 Z-5 F500
G1 X-1.534Z0S900F1200
G0 Z2 F1200
G0 Z5 F500
G1 X-33.245Z0S0F1200
G0 Z-2 F1200
G0 Z-5 F500
G1 X-1.55Z0S900F1200
G0 Z2 F1200
G0 Z5 F500
G1 X-0.5Z0S0F1200
G1 X-0.258Y0.7Z0F1200
G1 X0.5Z0F1200
G0 Z-2 F1200
G0 Z-5 F500
G1 X1.3Z0S900F1200
G0 Z2 F1200
G0 Z5 F500
G1 X34.237Z0S0F1200
G0 Z-2 F1200
G0 Z-5 F500
G1 X1.315Z0S900F1200
G0 Z2 F1200
G0 Z5 F500
G1 X0.5Z0S0F1200
G1 X-0.275Y0.7Z0F1200
G1 X-0.5Z0F1200
G0 Z-2 F1200
G0 Z-5 F500
G1 X-0.505Z0S900F1200
G0 Z2 F1200
G0 Z5 F500
G1 X-35.435Z0S0F1200
G0 Z-2 F1200
G0 Z-5 F500
G1 X-0.468Z0S900F1200
G0 Z2 F1200
G0 Z5 F500
G1 X-0.5Z0S0F1200
G90
;Scan @ 1200 mm/min, 90% power

M8
G0 Z1.8F1200
G0 X98.02Y77.324Z1.8F1200
G1 Z0F1200
;Layer C3
G91
G1 X0.5Z0F1200
G1 X5.763Z0S900F1200
G0 Z2 F1200
G0 Z5 F500
G1 X0.5Z0S0F1200
G1 X0.204Y1Z0F1200
G1 X-0.5Z0F1200
G0 Z-2 F1200
G0 Z-5 F500
G1 X-6.171Z0S900F1200
G0 Z2 F1200
G0 Z5 F500
G1 X-3.944Z0S0F1200
G0 Z-2 F1200
G0 Z-5 F500
G1 X-0.435Z0S900F1200
G0 Z2 F1200
G0 Z5 F500
G1 X-0.5Z0S0F1200
G1 X-0.016Y1Z0F1200
G1 X0.5Z0F1200
G0 Z-2 F1200
G0 Z-5 F500
G1 X1.101Z0S900F1200
G0 Z2 F1200
G0 Z5 F500
G1 X3.087Z0S0F1200
G0 Z-2 F1200
G0 Z-5 F500
G1 X6.576Z0S900F1200
G0 Z2 F1200
G0 Z5 F500
G1 X0.5Z0S0F1200
G1 X0.197Y1Z0F1200
G1 X-0.5Z0F1200
G0 Z-2 F1200
G0 Z-5 F500
G1 X-6.968Z0S900F1200
G0 Z2 F1200
G0 Z5 F500
G1 X-2.226Z0S0F1200
G0 Z-2 F1200
G0 Z-5 F500
G1 X-1.98Z0S900F1200
G0 Z2 F1200
G0 Z5 F500
G1 X-0.5Z0S0F1200
G1 X0.079Y1Z0F1200
G1 X0.5Z0F1200
G0 Z-2 F1200
G0 Z-5 F500
G1 X13.737Z0S900F1200
G0 Z2 F1200
G0 Z5 F500
G1 X0.5Z0S0F1200
G1 X2.615Y1Z0F1200
G1 X-0.5Z0F1200
G0 Z-2 F1200
G0 Z-5 F500
G1 X-1.157Z0S900F1200
G0 Z2 F1200
G0 Z5 F500
G1 X-1.391Z0S0F1200
G0 Z-2 F1200
G0 Z-5 F500
G1 X-13.135Z0S900F1200
G0 Z2 F1200
G0 Z5 F500
G1 X-1.406Z0S0F1200
G0 Z-2 F1200
G0 Z-5 F500
G1 X-1.215Z0S900F1200
G0 Z2 F1200
G0 Z5 F500
G1 X-0.5Z0S0F1200
G1 X-1.44Y1Z0F1200
G1 X0.5Z0F1200
G0 Z-2 F1200
G0 Z-5 F500
G1 X3.302Z0S900F1200
G0 Z2 F1200
G0 Z5 F500
G1 X1.428Z0S0F1200
G0 Z-2 F1200
G0 Z-5 F500
G1 X11.777Z0S900F1200
G0 Z2 F1200
G0 Z5 F500
G1 X1.423Z0S0F1200
G0 Z-2 F1200
G0 Z-5 F500
G1 X3.235Z0S900F1200
G0 Z2 F1200
G0 Z5 F500
G1 X0.5Z0S0F1200
G1 X8.338Y1Z0F1200
G1 X-0.5Z0F1200
G0 Z-2 F1200
G0 Z-5 F500
G1 X-2.103Z0S900F1200
G0 Z2 F1200
G0 Z5 F500
G1 X-4.309Z0S0F1200
G0 Z-2 F1200
G0 Z-5 F500
G1 X-5.825Z0S900F1200
G0 Z2 F1200
G0 Z5 F500
G1 X-1.443Z0S0F1200
G0 Z-2 F1200
G0 Z-5 F500
G1 X-10.418Z0S900F1200
G0 Z2 F1200
G0 Z5 F500
G1 X-1.449Z0S0F1200
G0 Z-2 F1200
G0 Z-5 F500
G1 X-5.856Z0S900F1200
G0 Z2 F1200
G0 Z5 F500
G1 X-4.332Z0S0F1200
G0 Z-2 F1200
G0 Z-5 F500
G1 X-2.071Z0S900F1200
G0 Z2 F1200
G0 Z5 F500
G1 X-0.5Z0S0F1200
G1 X-0.978Y1Z0F1200
G1 X0.5Z0F1200
G0 Z-2 F1200
G0 Z-5 F500
G1 X4.569Z0S900F1200
G0 Z2 F1200
G0 Z5 F500
G1 X1.501Z0S0F1200
G0 Z-2 F1200
G0 Z-5 F500
G1 X0.441Z0S900F1200
G0 Z2 F1200
G0 Z5 F500
G1 X1.46Z0S0F1200
G0 Z-2 F1200
G0 Z-5 F500
G1 X5.925Z0S900F1200
G0 Z2 F1200
G0 Z5 F500
G1 X11.986Z0S0F1200
G0 Z-2 F1200
G0 Z-5 F500
G1 X5.932Z0S900F1200
G0 Z2 F1200
G0 Z5 F500
G1 X1.411Z0S0F1200
G0 Z-2 F1200
G0 Z-5 F500
G1 X0.405Z0S900F1200
G0 Z2 F1200
G0 Z5 F500
G1 X1.545Z0S0F1200
G0 Z-2 F1200
G0 Z-5 F500
G1 X4.592Z0S900F1200
G0 Z2 F1200
G0 Z5 F500
G1 X0.5Z0S0F1200
G1 X0.968Y1Z0F1200
G1 X-0.5Z0F1200
G0 Z-2 F1200
G0 Z-5 F500
G1 X-8.019Z0S900F1200
G0 Z2 F1200
G0 Z5 F500
G1 X-1.471Z0S0F1200
G0 Z-2 F1200
G0 Z-5 F500
G1 X-6.043Z0S900F1200
G0 Z2 F1200
G0 Z5 F500
G1 X-10.631Z0S0F1200
G0 Z-2 F1200
G0 Z-5 F500
G1 X-6.05Z0S900F1200
G0 Z2 F1200
G0 Z5 F500
G1 X-1.485Z0S0F1200
G0 Z-2 F1200
G0 Z-5 F500
G1 X-7.996Z0S900F1200
G0 Z2 F1200
G0 Z5 F500
G1 X-0.5Z0S0F1200
G1 X-0.886Y1Z0F1200
G1 X0.5Z0F1200
G0 Z-2 F1200
G0 Z-5 F500
G1 X9.411Z0S900F1200
G0 Z2 F1200
G0 Z5 F500
G1 X1.514Z0S0F1200
G0 Z-2 F1200
G0 Z-5 F500
G1 X6.186Z0S900F1200
G0 Z2 F1200
G0 Z5 F500
G1 X9.241Z0S0F1200
G0 Z-2 F1200
G0 Z-5 F500
G1 X6.185Z0S900F1200
G0 Z2 F1200
G0 Z5 F500
G1 X1.515Z0S0F1200
G0 Z-2 F1200
G0 Z-5 F500
G1 X9.404Z0S900F1200
G0 Z2 F1200
G0 Z5 F500
G1 X0.5Z0S0F1200
G1 X-0.392Y1Z0F1200
G1 X-0.5Z0F1200
G0 Z-2 F1200
G0 Z-5 F500
G1 X-9.535Z0S900F1200
G0 Z2 F1200
G0 Z5 F500
G1 X-1.527Z0S0F1200
G0 Z-2 F1200
G0 Z-5 F500
G1 X-6.374Z0S900F1200
G0 Z2 F1200
G0 Z5 F500
G1 X-7.809Z0S0F1200
G0 Z-2 F1200
G0 Z-5 F500
G1 X-6.369Z0S900F1200
G0 Z2 F1200
G0 Z5 F500
G1 X-1.502Z0S0F1200
G0 Z-2 F1200
G0 Z-5 F500
G1 X-9.58Z0S900F1200
G0 Z2 F1200
G0 Z5 F500
G1 X-0.5Z0S0F1200
G1 X0.643Y1Z0F1200
G1 X0.5Z0F1200
G0 Z-2 F1200
G0 Z-5 F500
G1 X8.168Z0S900F1200
G0 Z2 F1200
G0 Z5 F500
G1 X2.787Z0S0F1200
G0 Z-2 F1200
G0 Z-5 F500
G1 X5.788Z0S900F1200
G0 Z2 F1200
G0 Z5 F500
G1 X7.892Z0S0F1200
G0 Z-2 F1200
G0 Z-5 F500
G1 X5.851Z0S900F1200
G0 Z2 F1200
G0 Z5 F500
G1 X2.761Z0S0F1200
G0 Z-2 F1200
G0 Z-5 F500
G1 X8.161Z0S900F1200
G0 Z2 F1200
G0 Z5 F500
G1 X0.5Z0S0F1200
G1 X-0.654Y1Z0F1200
G1 X-0.5Z0F1200
G0 Z-2 F1200
G0 Z-5 F500
G1 X-6.468Z0S900F1200
G0 Z2 F1200
G0 Z5 F500
G1 X-4.287Z0S0F1200
G0 Z-2 F1200
G0 Z-5 F500
G1 X-3.744Z0S900F1200
G0 Z2 F1200
G0 Z5 F500
G1 X-11.152Z0S0F1200
G0 Z-2 F1200
G0 Z-5 F500
G1 X-3.667Z0S900F1200
G0 Z2 F1200
G0 Z5 F500
G1 X-4.273Z0S0F1200
G0 Z-2 F1200
G0 Z-5 F500
G1 X-6.502Z0S900F1200
G0 Z2 F1200
G0 Z5 F500
G1 X-0.5Z0S0F1200
G1 X0.311Y1Z0F1200
G1 X0.5Z0F1200
G0 Z-2 F1200
G0 Z-5 F500
G1 X5.253Z0S900F1200
G0 Z2 F1200
G0 Z5 F500
G1 X5.687Z0S0F1200
G0 Z-2 F1200
G0 Z-5 F500
G1 X1.543Z0S900F1200
G0 Z2 F1200
G0 Z5 F500
G1 X14.457Z0S0F1200
G0 Z-2 F1200
G0 Z-5 F500
G1 X1.617Z0S900F1200
G0 Z2 F1200
G0 Z5 F500
G1 X5.695Z0S0F1200
G0 Z-2 F1200
G0 Z-5 F500
G1 X5.194Z0S900F1200
G0 Z2 F1200
G0 Z5 F500
G1 X0.5Z0S0F1200
G1 X0.585Y1Z0F1200
G1 X-0.5Z0F1200
G0 Z-2 F1200
G0 Z-5 F500
G1 X-4.941Z0S900F1200
G0 Z2 F1200
G0 Z5 F500
G1 X-30.701Z0S0F1200
G0 Z-2 F1200
G0 Z-5 F500
G1 X-4.998Z0S900F1200
G0 Z2 F1200
G0 Z5 F500
G1 X-0.5Z0S0F1200
G1 X-0.555Y1Z0F1200
G1 X0.5Z0F1200
G0 Z-2 F1200
G0 Z-5 F500
G1 X4.835Z0S900F1200
G0 Z2 F1200
G0 Z5 F500
G1 X32.152Z0S0F1200
G0 Z-2 F1200
G0 Z-5 F500
G1 X4.76Z0S900F1200
G0 Z2 F1200
G0 Z5 F500
G1 X0.5Z0S0F1200
G1 X4.814Y1Z0F1200
G1 X-0.5Z0F1200
G0 Z-2 F1200
G0 Z-5 F500
G1 X-8.939Z0S900F1200
G0 Z2 F1200
G0 Z5 F500
G1 X-33.423Z0S0F1200
G0 Z-2 F1200
G0 Z-5 F500
G1 X-8.975Z0S900F1200
G0 Z2 F1200
G0 Z5 F500
G1 X-0.5Z0S0F1200
G1 X-0.32Y1Z0F1200
G1 X0.5Z0F1200
G0 Z-2 F1200
G0 Z-5 F500
G1 X8.741Z0S900F1200
G0 Z2 F1200
G0 Z5 F500
G1 X34.527Z0S0F1200
G0 Z-2 F1200
G0 Z-5 F500
G1 X8.714Z0S900F1200
G0 Z2 F1200
G0 Z5 F500
G1 X0.5Z0S0F1200
G1 X0.311Y1Z0F1200
G1 X-0.5Z0F1200
G0 Z-2 F1200
G0 Z-5 F500
G1 X-8.553Z0S900F1200
G0 Z2 F1200
G0 Z5 F500
G1 X-35.475Z0S0F1200
G0 Z-2 F1200
G0 Z-5 F500
G1 X-8.568Z0S900F1200
G0 Z2 F1200
G0 Z5 F500
G1 X-0.5Z0S0F1200
G1 X-0.313Y1Z0F1200
G1 X0.5Z0F1200
G0 Z-2 F1200
G0 Z-5 F500
G1 X8.478Z0S900F1200
G0 Z2 F1200
G0 Z5 F500
G1 X36.262Z0S0F1200
G0 Z-2 F1200
G0 Z-5 F500
G1 X8.481Z0S900F1200
G0 Z2 F1200
G0 Z5 F500
G1 X0.5Z0S0F1200
G1 X0.283Y1Z0F1200
G1 X-0.5Z0F1200
G0 Z-2 F1200
G0 Z-5 F500
G1 X-8.427Z0S900F1200
G0 Z2 F1200
G0 Z5 F500
G1 X-36.937Z0S0F1200
G0 Z-2 F1200
G0 Z-5 F500
G1 X-8.425Z0S900F1200
G0 Z2 F1200
G0 Z5 F500
G1 X-0.5Z0S0F1200
G1 X0.772Y1Z0F1200
G1 X0.5Z0F1200
G0 Z-2 F1200
G0 Z-5 F500
G1 X7.375Z0S900F1200
G0 Z2 F1200
G0 Z5 F500
G1 X37.506Z0S0F1200
G0 Z-2 F1200
G0 Z-5 F500
G1 X7.312Z0S900F1200
G0 Z2 F1200
G0 Z5 F500
G1 X0.5Z0S0F1200
G1 X-1.82Y1Z0F1200
G1 X-0.5Z0F1200
G0 Z-2 F1200
G0 Z-5 F500
G1 X-5.277Z0S900F1200
G0 Z2 F1200
G0 Z5 F500
G1 X-37.947Z0S0F1200
G0 Z-2 F1200
G0 Z-5 F500
G1 X-5.287Z0S900F1200
G0 Z2 F1200
G0 Z5 F500
G1 X-0.5Z0S0F1200
G1 X0.879Y1Z0F1200
G1 X0.5Z0F1200
G0 Z-2 F1200
G0 Z-5 F500
G1 X4.23Z0S900F1200
G0 Z2 F1200
G0 Z5 F500
G1 X38.287Z0S0F1200
G0 Z-2 F1200
G0 Z-5 F500
G1 X4.272Z0S900F1200
G0 Z2 F1200
G0 Z5 F500
G1 X0.5Z0S0F1200
G1 X0.06Y1Z0F1200
G1 X-0.5Z0F1200
G0 Z-2 F1200
G0 Z-5 F500
G1 X-4.223Z0S900F1200
G0 Z2 F1200
G0 Z5 F500
G1 X-38.486Z0S0F1200
G0 Z-2 F1200
G0 Z-5 F500
G1 X-4.2Z0S900F1200
G0 Z2 F1200
G0 Z5 F500
G1 X-0.5Z0S0F1200
G1 X-0.063Y1Z0F1200
G1 X0.5Z0F1200
G0 Z-2 F1200
G0 Z-5 F500
G1 X4.211Z0S900F1200
G0 Z2 F1200
G0 Z5 F500
G1 X38.599Z0S0F1200
G0 Z-2 F1200
G0 Z-5 F500
G1 X4.219Z0S900F1200
G0 Z2 F1200
G0 Z5 F500
G1 X0.5Z0S0F1200
G1 X0.334Y1Z0F1200
G1 X-0.5Z0F1200
G0 Z-2 F1200
G0 Z-5 F500
G1 X-4.539Z0S900F1200
G0 Z2 F1200
G0 Z5 F500
G1 X-38.635Z0S0F1200
G0 Z-2 F1200
G0 Z-5 F500
G1 X-4.502Z0S900F1200
G0 Z2 F1200
G0 Z5 F500
G1 X-0.5Z0S0F1200
G1 X-2.749Y1Z0F1200
G1 X0.5Z0F1200
G0 Z-2 F1200
G0 Z-5 F500
G1 X7.264Z0S900F1200
G0 Z2 F1200
G0 Z5 F500
G1 X38.589Z0S0F1200
G0 Z-2 F1200
G0 Z-5 F500
G1 X7.29Z0S900F1200
G0 Z2 F1200
G0 Z5 F500
G1 X0.5Z0S0F1200
G1 X0.958Y1Z0F1200
G1 X-0.5Z0F1200
G0 Z-2 F1200
G0 Z-5 F500
G1 X-8.331Z0S900F1200
G0 Z2 F1200
G0 Z5 F500
G1 X-38.42Z0S0F1200
G0 Z-2 F1200
G0 Z-5 F500
G1 X-8.312Z0S900F1200
G0 Z2 F1200
G0 Z5 F500
G1 X-0.5Z0S0F1200
G1 X0.159Y1Z0F1200
G1 X0.5Z0F1200
G0 Z-2 F1200
G0 Z-5 F500
G1 X8.307Z0S900F1200
G0 Z2 F1200
G0 Z5 F500
G1 X38.128Z0S0F1200
G0 Z-2 F1200
G0 Z-5 F500
G1 X8.293Z0S900F1200
G0 Z2 F1200
G0 Z5 F500
G1 X0.5Z0S0F1200
G1 X-0.191Y1Z0F1200
G1 X-0.5Z0F1200
G0 Z-2 F1200
G0 Z-5 F500
G1 X-8.301Z0S900F1200
G0 Z2 F1200
G0 Z5 F500
G1 X-37.73Z0S0F1200
G0 Z-2 F1200
G0 Z-5 F500
G1 X-8.33Z0S900F1200
G0 Z2 F1200
G0 Z5 F500
G1 X-0.5Z0S0F1200
G1 X0.178Y1Z0F1200
G1 X0.5Z0F1200
G0 Z-2 F1200
G0 Z-5 F500
G1 X8.409Z0S900F1200
G0 Z2 F1200
G0 Z5 F500
G1 X37.206Z0S0F1200
G0 Z-2 F1200
G0 Z-5 F500
G1 X8.379Z0S900F1200
G0 Z2 F1200
G0 Z5 F500
G1 X0.5Z0S0F1200
G1 X-0.185Y1Z0F1200
G1 X-0.5Z0F1200
G0 Z-2 F1200
G0 Z-5 F500
G1 X-8.499Z0S900F1200
G0 Z2 F1200
G0 Z5 F500
G1 X-36.585Z0S0F1200
G0 Z-2 F1200
G0 Z-5 F500
G1 X-8.54Z0S900F1200
G0 Z2 F1200
G0 Z5 F500
G1 X-0.5Z0S0F1200
G1 X4.314Y1Z0F1200
G1 X0.5Z0F1200
G0 Z-2 F1200
G0 Z-5 F500
G1 X4.605Z0S900F1200
G0 Z2 F1200
G0 Z5 F500
G1 X35.827Z0S0F1200
G0 Z-2 F1200
G0 Z-5 F500
G1 X4.935Z0S900F1200
G0 Z2 F1200
G0 Z5 F500
G1 X0.5Z0S0F1200
G1 X-0.877Y1Z0F1200
G1 X-0.5Z0F1200
G0 Z-2 F1200
G0 Z-5 F500
G1 X-4.525Z0S900F1200
G0 Z2 F1200
G0 Z5 F500
G1 X-34.906Z0S0F1200
G0 Z-2 F1200
G0 Z-5 F500
G1 X-4.543Z0S900F1200
G0 Z2 F1200
G0 Z5 F500
G1 X-0.5Z0S0F1200
G1 X0.426Y1Z0F1200
G1 X0.5Z0F1200
G0 Z-2 F1200
G0 Z-5 F500
G1 X4.645Z0S900F1200
G0 Z2 F1200
G0 Z5 F500
G1 X33.864Z0S0F1200
G0 Z-2 F1200
G0 Z-5 F500
G1 X4.627Z0S900F1200
G0 Z2 F1200
G0 Z5 F500
G1 X0.5Z0S0F1200
G1 X-0.4Y1Z0F1200
G1 X-0.5Z0F1200
G0 Z-2 F1200
G0 Z-5 F500
G1 X-4.826Z0S900F1200
G0 Z2 F1200
G0 Z5 F500
G1 X-32.652Z0S0F1200
G0 Z-2 F1200
G0 Z-5 F500
G1 X-4.836Z0S900F1200
G0 Z2 F1200
G0 Z5 F500
G1 X-0.5Z0S0F1200
G1 X-0.658Y1Z0F1200
G1 X0.5Z0F1200
G0 Z-2 F1200
G0 Z-5 F500
G1 X6.193Z0S900F1200
G0 Z2 F1200
G0 Z5 F500
G1 X31.257Z0S0F1200
G0 Z-2 F1200
G0 Z-5 F500
G1 X6.188Z0S900F1200
G0 Z2 F1200
G0 Z5 F500
G1 X0.5Z0S0F1200
G1 X0.941Y1Z0F1200
G1 X-0.5Z0F1200
G0 Z-2 F1200
G0 Z-5 F500
G1 X-7.901Z0S900F1200
G0 Z2 F1200
G0 Z5 F500
G1 X-29.7Z0S0F1200
G0 Z-2 F1200
G0 Z-5 F500
G1 X-7.914Z0S900F1200
G0 Z2 F1200
G0 Z5 F500
G1 X-0.5Z0S0F1200
G1 X-0.912Y1Z0F1200
G1 X0.5Z0F1200
G0 Z-2 F1200
G0 Z-5 F500
G1 X9.697Z0S900F1200
G0 Z2 F1200
G0 Z5 F500
G1 X27.961Z0S0F1200
G0 Z-2 F1200
G0 Z-5 F500
G1 X9.683Z0S900F1200
G0 Z2 F1200
G0 Z5 F500
G1 X0.5Z0S0F1200
G1 X-0.209Y1Z0F1200
G1 X-0.5Z0F1200
G0 Z-2 F1200
G0 Z-5 F500
G1 X-9.576Z0S900F1200
G0 Z2 F1200
G0 Z5 F500
G1 X-27.726Z0S0F1200
G0 Z-2 F1200
G0 Z-5 F500
G1 X-9.628Z0S900F1200
G0 Z2 F1200
G0 Z5 F500
G1 X-0.5Z0S0F1200
G1 X0.696Y1Z0F1200
G1 X0.5Z0F1200
G0 Z-2 F1200
G0 Z-5 F500
G1 X8.483Z0S900F1200
G0 Z2 F1200
G0 Z5 F500
G1 X28.614Z0S0F1200
G0 Z-2 F1200
G0 Z-5 F500
G1 X8.411Z0S900F1200
G0 Z2 F1200
G0 Z5 F500
G1 X0.5Z0S0F1200
G1 X-0.719Y1Z0F1200
G1 X-0.5Z0F1200
G0 Z-2 F1200
G0 Z-5 F500
G1 X-7.253Z0S900F1200
G0 Z2 F1200
G0 Z5 F500
G1 X-29.509Z0S0F1200
G0 Z-2 F1200
G0 Z-5 F500
G1 X-7.321Z0S900F1200
G0 Z2 F1200
G0 Z5 F500
G1 X-0.5Z0S0F1200
G1 X0.702Y1Z0F1200
G1 X0.5Z0F1200
G0 Z-2 F1200
G0 Z-5 F500
G1 X2.953Z0S900F1200
G0 Z2 F1200
G0 Z5 F500
G1 X2.536Z0S0F1200
G0 Z-2 F1200
G0 Z-5 F500
G1 X0.676Z0S900F1200
G0 Z2 F1200
G0 Z5 F500
G1 X30.409Z0S0F1200
G0 Z-2 F1200
G0 Z-5 F500
G1 X0.714Z0S900F1200
G0 Z2 F1200
G0 Z5 F500
G1 X2.453Z0S0F1200
G0 Z-2 F1200
G0 Z-5 F500
G1 X2.927Z0S900F1200
G0 Z2 F1200
G0 Z5 F500
G1 X0.5Z0S0F1200
G1 X-12.429Y1Z0F1200
G1 X-0.5Z0F1200
G0 Z-2 F1200
G0 Z-5 F500
G1 X-3.265Z0S900F1200
G0 Z2 F1200
G0 Z5 F500
G1 X-11.266Z0S0F1200
G0 Z-2 F1200
G0 Z-5 F500
G1 X-3.257Z0S900F1200
G0 Z2 F1200
G0 Z5 F500
G1 X-0.5Z0S0F1200
G1 X-0.693Y1Z0F1200
G1 X0.5Z0F1200
G0 Z-2 F1200
G0 Z-5 F500
G1 X19.159Z0S900F1200
G0 Z2 F1200
G0 Z5 F500
G1 X0.5Z0S0F1200
G1 X0.685Y1Z0F1200
G1 X-0.5Z0F1200
G0 Z-2 F1200
G0 Z-5 F500
G1 X-20.53Z0S900F1200
G0 Z2 F1200
G0 Z5 F500
G1 X-0.5Z0S0F1200
G1 X-0.683Y1Z0F1200
G1 X0.5Z0F1200
G0 Z-2 F1200
G0 Z-5 F500
G1 X21.903Z0S900F1200
G0 Z2 F1200
G0 Z5 F500
G1 X0.5Z0S0F1200
G1 X0.689Y1Z0F1200
G1 X-0.5Z0F1200
G0 Z-2 F1200
G0 Z-5 F500
G1 X-4.538Z0S900F1200
G0 Z2 F1200
G0 Z5 F500
G1 X-0.022Z0S0F1200
G0 Z-2 F1200
G0 Z-5 F500
G1 X-14.065Z0S900F1200
G0 Z2 F1200
G0 Z5 F500
G1 X-0.088Z0S0F1200
G0 Z-2 F1200
G0 Z-5 F500
G1 X-4.566Z0S900F1200
G0 Z2 F1200
G0 Z5 F500
G1 X-0.5Z0S0F1200
G1 X-0.693Y1Z0F1200
G1 X0.5Z0F1200
G0 Z-2 F1200
G0 Z-5 F500
G1 X4.423Z0S900F1200
G0 Z2 F1200
G0 Z5 F500
G1 X4.175Z0S0F1200
G0 Z-2 F1200
G0 Z-5 F500
G1 X7.426Z0S900F1200
G0 Z2 F1200
G0 Z5 F500
G1 X4.199Z0S0F1200
G0 Z-2 F1200
G0 Z-5 F500
G1 X4.454Z0S900F1200
G0 Z2 F1200
G0 Z5 F500
G1 X0.5Z0S0F1200
G1 X0.197Y1Z0F1200
G1 X-0.5Z0F1200
G0 Z-2 F1200
G0 Z-5 F500
G1 X-3.87Z0S900F1200
G0 Z2 F1200
G0 Z5 F500
G1 X-5.179Z0S0F1200
G0 Z-2 F1200
G0 Z-5 F500
G1 X-7.004Z0S900F1200
G0 Z2 F1200
G0 Z5 F500
G1 X-5.19Z0S0F1200
G0 Z-2 F1200
G0 Z-5 F500
G1 X-3.903Z0S900F1200
G0 Z2 F1200
G0 Z5 F500
G1 X-0.5Z0S0F1200
G1 X2.075Y1Z0F1200
G1 X0.5Z0F1200
G0 Z-2 F1200
G0 Z-5 F500
G1 X1.036Z0S900F1200
G0 Z2 F1200
G0 Z5 F500
G1 X6.187Z0S0F1200
G0 Z-2 F1200
G0 Z-5 F500
G1 X6.603Z0S900F1200
G0 Z2 F1200
G0 Z5 F500
G1 X6.168Z0S0F1200
G0 Z-2 F1200
G0 Z-5 F500
G1 X1.074Z0S900F1200
G0 Z2 F1200
G0 Z5 F500
G1 X0.5Z0S0F1200
G1 X-7.439Y1Z0F1200
G1 X-0.5Z0F1200
G0 Z-2 F1200
G0 Z-5 F500
G1 X-6.192Z0S900F1200
G0 Z2 F1200
G0 Z5 F500
G1 X-0.5Z0S0F1200
G90
;Offset @ 1200 mm/min, 80% power

M8
G0 Z1.8F1200
G0 X86.396Y75.993Z1.8
G1 Z0F1200
;Layer C3
G1 X87.143Y76.934Z0S800F1200
G1 X87.786Y77.843Z0F1200
G1 X88.361Y78.77Z0F1200
G1 X88.876Y79.724Z0F1200
G1 X89.161Y80.33Z0F1200
G1 X89.348Y80.771Z0F1200
G1 X89.275Y80.676Z0F1200
G1 X88.877Y80.132Z0F1200
G1 X88.492Y79.585Z0F1200
G1 X88.098Y79.007Z0F1200
G1 X87.72Y78.428Z0F1200
G1 X87.407Y77.925Z0F1200
G1 X87.142Y77.471Z0F1200
G1 X86.665Y76.58Z0F1200
G1 X86.335Y75.92Z0F1200
G1 X86.396Y75.993Z0F1200
G0 Z1.8F1200
G0 X88.879Y78.468Z1.8
G1 Z0F1200
G1 X89.413Y79.454Z0F1200
G1 X89.709Y80.085Z0F1200
G1 X89.993Y80.758Z0F1200
G1 X90.099Y81.032Z0F1200
G1 X90.18Y81.261Z0F1200
G1 X90.157Y81.282Z0F1200
G1 X89.994Y81.407Z0F1200
G1 X89.59Y81.675Z0F1200
G1 X89.385Y81.782Z0F1200
G1 X89.304Y81.686Z0F1200
G1 X89.143Y81.487Z0F1200
G1 X88.969Y81.265Z0F1200
G1 X88.785Y81.022Z0F1200
G1 X88.399Y80.496Z0F1200
G1 X87.99Y79.914Z0F1200
G1 X87.598Y79.337Z0F1200
G1 X87.218Y78.756Z0F1200
G1 X86.886Y78.223Z0F1200
G1 X86.62Y77.768Z0F1200
G1 X86.125Y76.842Z0F1200
G1 X85.624Y75.839Z0F1200
G1 X85.139Y74.808Z0F1200
G1 X84.701Y73.811Z0F1200
G1 X84.497Y73.33Z0F1200
G1 X84.254Y72.773Z0F1200
G1 X84.411Y72.961Z0F1200
G1 X84.613Y73.178Z0F1200
G1 X85.404Y73.986Z0F1200
G1 X85.785Y74.382Z0F1200
G1 X85.99Y74.602Z0F1200
G1 X86.181Y74.814Z0F1200
G1 X86.378Y75.041Z0F1200
G1 X86.604Y75.307Z0F1200
G1 X86.865Y75.618Z0F1200
G1 X87.622Y76.573Z0F1200
G1 X88.288Y77.515Z0F1200
G1 X88.879Y78.468Z0F1200
G0 Z1.8F1200
G0 X84.123Y71.304Z1.8
G1 Z0F1200
G1 X83.646Y71.584Z0F1200
G1 X83.093Y71.534Z0F1200
G1 X83.099Y71.344Z0F1200
G1 X83.109Y71.161Z0F1200
G1 X83.117Y71.071Z0F1200
G1 X83.14Y70.895Z0F1200
G1 X83.706Y71.123Z0F1200
G1 X84.123Y71.304Z0F1200
G0 Z1.8F1200
G0 X84.674Y71.676Z1.8
G1 Z0F1200
G1 X83.901Y72.13Z0F1200
G1 X83.947Y72.213Z0F1200
G1 X83.146Y72.141Z0F1200
G1 X82.973Y72.71Z0F1200
G1 X82.964Y72.866Z0F1200
G1 X82.967Y72.997Z0F1200
G1 X82.99Y73.27Z0F1200
G1 X83.03Y73.605Z0F1200
G1 X83.148Y74.355Z0F1200
G1 X83.297Y75.075Z0F1200
G1 X83.534Y75.954Z0F1200
G1 X83.8Y76.794Z0F1200
G1 X84.101Y77.607Z0F1200
G1 X84.436Y78.396Z0F1200
G1 X84.809Y79.164Z0F1200
G1 X85.22Y79.916Z0F1200
G1 X85.673Y80.656Z0F1200
G1 X86.167Y81.386Z0F1200
G1 X86.6Y81.978Z0F1200
G1 X86.936Y82.417Z0F1200
G1 X86.904Z0F1200
G1 X86.459Y82.357Z0F1200
G1 X86.292Y82.31Z0F1200
G1 X86.107Y82.231Z0F1200
G1 X85.908Y82.12Z0F1200
G1 X85.682Y81.962Z0F1200
G1 X85.44Y81.766Z0F1200
G1 X85.17Y81.517Z0F1200
G1 X84.887Y81.229Z0F1200
G1 X84.572Y80.88Z0F1200
G1 X84.487Y80.774Z0F1200
G1 X84.371Y80.609Z0F1200
G1 X84.238Y80.406Z0F1200
G1 X84.086Y80.162Z0F1200
G1 X83.776Y79.628Z0F1200
G1 X83.515Y79.131Z0F1200
G1 X83.358Y78.787Z0F1200
G1 X83.211Y78.414Z0F1200
G1 X83.081Y78.026Z0F1200
G1 X82.96Y77.602Z0F1200
G1 X82.846Y77.126Z0F1200
G1 X82.746Y76.632Z0F1200
G1 X82.651Y76.077Z0F1200
G1 X82.562Y75.457Z0F1200
G1 X82.55Y75.341Z0F1200
G1 X82.536Y75.133Z0F1200
G1 X82.523Y74.891Z0F1200
G1 X82.513Y74.603Z0F1200
G1 X82.495Y73.943Z0F1200
G1 X82.484Y73.208Z0F1200
G1 X82.481Y72.489Z0F1200
G1 X82.487Y71.83Z0F1200
G1 X82.493Y71.541Z0F1200
G1 X82.5Y71.312Z0F1200
G1 X82.51Y71.12Z0F1200
G1 X82.521Y71.002Z0F1200
G1 X82.641Y70.067Z0F1200
G1 X83.203Y70.273Z0F1200
G1 X83.929Y70.566Z0F1200
G1 X84.679Y70.892Z0F1200
G1 X85.403Y71.229Z0F1200
G1 X86.125Y71.589Z0F1200
G1 X86.805Y71.951Z0F1200
G1 X87.398Y72.292Z0F1200
G1 X87.941Y72.633Z0F1200
G1 X88.414Y72.961Z0F1200
G1 X88.883Y73.314Z0F1200
G1 X89.302Y73.659Z0F1200
G1 X89.699Y74.014Z0F1200
G1 X90.065Y74.374Z0F1200
G1 X90.407Y74.745Z0F1200
G1 X90.704Y75.103Z0F1200
G1 X90.977Y75.471Z0F1200
G1 X91.217Y75.839Z0F1200
G1 X91.424Y76.204Z0F1200
G1 X91.601Y76.572Z0F1200
G1 X91.743Y76.932Z0F1200
G1 X91.855Y77.293Z0F1200
G1 X91.933Y77.642Z0F1200
G1 X91.98Y77.994Z0F1200
G1 X91.996Y78.352Z0F1200
G1 X91.988Y78.619Z0F1200
G1 X91.965Y78.85Z0F1200
G1 X91.925Y79.058Z0F1200
G1 X91.868Y79.252Z0F1200
G1 X91.787Y79.06Z0F1200
G1 X91.539Y78.541Z0F1200
G1 X91.263Y78.011Z0F1200
G1 X90.964Y77.483Z0F1200
G1 X90.647Y76.967Z0F1200
G1 X90.32Y76.473Z0F1200
G1 X89.987Y76.014Z0F1200
G1 X89.507Y75.415Z0F1200
G1 X89Y74.841Z0F1200
G1 X88.469Y74.295Z0F1200
G1 X87.917Y73.779Z0F1200
G1 X87.346Y73.295Z0F1200
G1 X86.76Y72.848Z0F1200
G1 X86.162Y72.439Z0F1200
G1 X85.558Y72.074Z0F1200
G1 X85.293Y71.928Z0F1200
G1 X85.076Y71.818Z0F1200
G1 X84.674Y71.676Z0F1200
G0 Z1.8F1200
G0 X81.924Y70.934Z1.8
G1 Z0F1200
G1 X82.052Y69.937Z0F1200
G1 X82.087Y69.677Z0F1200
G1 X82.119Y69.464Z0F1200
G1 X82.143Y69.32Z0F1200
G1 X82.156Y69.268Z0F1200
G1 X82.205Y69.282Z0F1200
G1 X82.702Y69.451Z0F1200
G1 X83.417Y69.712Z0F1200
G1 X84.161Y70.012Z0F1200
G1 X84.918Y70.342Z0F1200
G1 X85.67Y70.692Z0F1200
G1 X86.399Y71.055Z0F1200
G1 X87.087Y71.421Z0F1200
G1 X87.716Y71.782Z0F1200
G1 X88.268Y72.13Z0F1200
G1 X88.772Y72.48Z0F1200
G1 X89.249Y72.838Z0F1200
G1 X89.695Y73.205Z0F1200
G1 X90.112Y73.579Z0F1200
G1 X90.498Y73.958Z0F1200
G1 X90.854Y74.344Z0F1200
G1 X91.178Y74.734Z0F1200
G1 X91.47Y75.129Z0F1200
G1 X91.73Y75.527Z0F1200
G1 X91.957Y75.927Z0F1200
G1 X92.15Y76.33Z0F1200
G1 X92.31Y76.733Z0F1200
G1 X92.435Y77.137Z0F1200
G1 X92.524Y77.54Z0F1200
G1 X92.579Y77.942Z0F1200
G1 X92.597Y78.342Z0F1200
G1 X92.587Y78.657Z0F1200
G1 X92.559Y78.939Z0F1200
G1 X92.508Y79.202Z0F1200
G1 X92.435Y79.454Z0F1200
G1 X92.283Y79.834Z0F1200
G1 X92.086Y80.254Z0F1200
G1 X91.989Y80.442Z0F1200
G1 X91.903Y80.595Z0F1200
G1 X91.836Y80.698Z0F1200
G1 X91.795Y80.735Z0F1200
G1 X91.771Y80.694Z0F1200
G1 X91.727Y80.583Z0F1200
G1 X91.667Y80.419Z0F1200
G1 X91.6Y80.219Z0F1200
G1 X91.441Y79.781Z0F1200
G1 X91.239Y79.307Z0F1200
G1 X91.002Y78.808Z0F1200
G1 X90.736Y78.298Z0F1200
G1 X90.447Y77.788Z0F1200
G1 X90.142Y77.29Z0F1200
G1 X89.827Y76.815Z0F1200
G1 X89.509Y76.377Z0F1200
G1 X89.048Y75.801Z0F1200
G1 X88.56Y75.249Z0F1200
G1 X88.049Y74.723Z0F1200
G1 X87.518Y74.227Z0F1200
G1 X86.97Y73.763Z0F1200
G1 X86.409Y73.334Z0F1200
G1 X85.837Y72.944Z0F1200
G1 X85.258Y72.594Z0F1200
G1 X85.013Y72.458Z0F1200
G1 X84.84Y72.371Z0F1200
G1 X84.737Y72.335Z0F1200
G1 X84.707Y72.353Z0F1200
G1 X84.748Y72.428Z0F1200
G1 X84.861Y72.564Z0F1200
G1 X85.047Y72.763Z0F1200
G1 X85.836Y73.57Z0F1200
G1 X86.224Y73.973Z0F1200
G1 X86.436Y74.201Z0F1200
G1 X86.633Y74.42Z0F1200
G1 X86.836Y74.653Z0F1200
G1 X87.063Y74.921Z0F1200
G1 X87.335Y75.245Z0F1200
G1 X88.102Y76.212Z0F1200
G1 X88.787Y77.181Z0F1200
G1 X89.398Y78.166Z0F1200
G1 X89.948Y79.183Z0F1200
G1 X90.259Y79.845Z0F1200
G1 X90.546Y80.525Z0F1200
G1 X90.664Y80.831Z0F1200
G1 X90.757Y81.092Z0F1200
G1 X90.817Y81.293Z0F1200
G1 X90.838Y81.416Z0F1200
G1 X90.8Y81.495Z0F1200
G1 X90.695Y81.608Z0F1200
G1 X90.538Y81.746Z0F1200
G1 X90.342Y81.896Z0F1200
G1 X89.897Y82.191Z0F1200
G1 X89.477Y82.411Z0F1200
G1 X89.33Y82.465Z0F1200
G1 X89.228Z0F1200
G1 X89.132Y82.401Z0F1200
G1 X88.999Y82.256Z0F1200
G1 X88.845Y82.073Z0F1200
G1 X88.676Y81.865Z0F1200
G1 X88.496Y81.634Z0F1200
G1 X88.307Y81.385Z0F1200
G1 X87.909Y80.841Z0F1200
G1 X87.499Y80.26Z0F1200
G1 X87.095Y79.666Z0F1200
G1 X86.715Y79.084Z0F1200
G1 X86.376Y78.54Z0F1200
G1 X86.096Y78.06Z0F1200
G1 X85.596Y77.125Z0F1200
G1 X85.087Y76.108Z0F1200
G1 X84.596Y75.063Z0F1200
G1 X84.149Y74.046Z0F1200
G1 X83.946Y73.568Z0F1200
G1 X83.705Y73.015Z0F1200
G1 X83.613Y72.817Z0F1200
G1 X83.594Y72.784Z0F1200
G1 X83.578Z0F1200
G1 X83.568Y72.815Z0F1200
G1 X83.565Y72.876Z0F1200
G1 Y72.965Z0F1200
G1 X83.587Y73.209Z0F1200
G1 X83.625Y73.522Z0F1200
G1 X83.738Y74.248Z0F1200
G1 X83.881Y74.936Z0F1200
G1 X84.11Y75.785Z0F1200
G1 X84.368Y76.6Z0F1200
G1 X84.658Y77.386Z0F1200
G1 X84.982Y78.147Z0F1200
G1 X85.342Y78.889Z0F1200
G1 X85.74Y79.615Z0F1200
G1 X86.178Y80.331Z0F1200
G1 X86.658Y81.041Z0F1200
G1 X87.081Y81.619Z0F1200
G1 X87.507Y82.175Z0F1200
G1 X87.695Y82.411Z0F1200
G1 X87.852Y82.601Z0F1200
G1 X87.967Y82.73Z0F1200
G1 X88.029Y82.787Z0F1200
G1 X88.069Y82.836Z0F1200
G1 X88.086Y82.92Z0F1200
G1 X88.035Y82.965Z0F1200
G1 X87.896Y82.999Z0F1200
G1 X87.688Y83.021Z0F1200
G1 X87.432Y83.031Z0F1200
G1 X86.857Y83.015Z0F1200
G1 X86.335Y82.946Z0F1200
G1 X86.092Y82.877Z0F1200
G1 X85.844Y82.771Z0F1200
G1 X85.588Y82.628Z0F1200
G1 X85.324Y82.444Z0F1200
G1 X85.046Y82.219Z0F1200
G1 X84.754Y81.949Z0F1200
G1 X84.444Y81.634Z0F1200
G1 X84.115Y81.27Z0F1200
G1 X84.007Y81.135Z0F1200
G1 X83.876Y80.949Z0F1200
G1 X83.729Y80.723Z0F1200
G1 X83.571Y80.469Z0F1200
G1 X83.253Y79.922Z0F1200
G1 X82.978Y79.397Z0F1200
G1 X82.805Y79.018Z0F1200
G1 X82.648Y78.622Z0F1200
G1 X82.507Y78.202Z0F1200
G1 X82.379Y77.752Z0F1200
G1 X82.262Y77.267Z0F1200
G1 X82.156Y76.74Z0F1200
G1 X82.058Y76.165Z0F1200
G1 X81.967Y75.537Z0F1200
G1 X81.952Y75.383Z0F1200
G1 X81.937Y75.175Z0F1200
G1 X81.924Y74.92Z0F1200
G1 X81.913Y74.626Z0F1200
G1 X81.895Y73.952Z0F1200
G1 X81.884Y73.217Z0F1200
G1 X81.881Y72.484Z0F1200
G1 X81.887Y71.817Z0F1200
G1 X81.893Y71.528Z0F1200
G1 X81.901Y71.28Z0F1200
G1 X81.912Y71.079Z0F1200
G1 X81.924Y70.934Z0F1200
G0 Z1.8F1200
G0 X115.278Y76.692Z1.8
G1 Z0F1200
G1 X114.776Y77.592Z0F1200
G1 X114.25Y78.462Z0F1200
G1 X113.691Y79.312Z0F1200
G1 X113.1Y80.145Z0F1200
G1 X112.553Y80.863Z0F1200
G1 X112.621Y80.705Z0F1200
G1 X112.767Y80.385Z0F1200
G1 X112.948Y80.003Z0F1200
G1 X113.122Y79.653Z0F1200
G1 X113.521Y78.909Z0F1200
G1 X113.942Y78.203Z0F1200
G1 X114.403Y77.508Z0F1200
G1 X114.918Y76.802Z0F1200
G1 X115.489Y76.086Z0F1200
G1 X115.731Y75.806Z0F1200
G1 X115.278Y76.692Z0F1200
G0 Z1.8F1200
G0 X117.971Y71.249Z1.8
G1 Z0F1200
G1 X118.556Y71.001Z0F1200
G1 X118.821Y70.894Z0F1200
G1 X118.833Y71.12Z0F1200
G1 X118.846Y71.454Z0F1200
G1 X118.747Y71.306Z0F1200
G1 X118.621Y71.384Z0F1200
G1 X118.625Y71.351Z0F1200
G1 X117.971Y71.249Z0F1200
G0 Z1.8F1200
G0 X116.901Y71.062Z1.8
G1 Z0F1200
G1 X117.625Y70.743Z0F1200
G1 X118.337Y70.442Z0F1200
G1 X118.655Y70.313Z0F1200
G1 X118.959Y70.193Z0F1200
G1 X119.208Y70.1Z0F1200
G1 X119.364Y70.045Z0F1200
G1 X119.383Y70.265Z0F1200
G1 X119.401Y70.527Z0F1200
G1 X119.433Y71.097Z0F1200
G1 X119.458Y71.756Z0F1200
G1 X119.474Y72.443Z0F1200
G1 X119.479Y73.164Z0F1200
G1 Y73.561Z0F1200
G1 X119.474Y73.927Z0F1200
G1 X119.468Y74.272Z0F1200
G1 X119.46Y74.577Z0F1200
G1 X119.433Y75.162Z0F1200
G1 X119.396Y75.646Z0F1200
G1 X119.27Y76.543Z0F1200
G1 X119.069Y77.437Z0F1200
G1 X118.83Y78.216Z0F1200
G1 X118.522Y78.976Z0F1200
G1 X118.155Y79.702Z0F1200
G1 X117.744Y80.371Z0F1200
G1 X117.301Y80.968Z0F1200
G1 X116.829Y81.487Z0F1200
G1 X116.605Y81.693Z0F1200
G1 X116.373Y81.881Z0F1200
G1 X116.145Y82.039Z0F1200
G1 X115.922Y82.167Z0F1200
G1 X115.648Y82.299Z0F1200
G1 X115.456Y82.362Z0F1200
G1 X115.376Y82.376Z0F1200
G1 X115.235Y82.392Z0F1200
G1 X115.055Y82.403Z0F1200
G1 X115.22Y82.187Z0F1200
G1 X115.497Y81.815Z0F1200
G1 X115.774Y81.435Z0F1200
G1 X116.038Y81.066Z0F1200
G1 X116.271Y80.73Z0F1200
G1 X116.459Y80.446Z0F1200
G1 X116.755Y79.962Z0F1200
G1 X117.042Y79.45Z0F1200
G1 X117.317Y78.915Z0F1200
G1 X117.582Y78.354Z0F1200
G1 X118.061Y77.207Z0F1200
G1 X118.468Y76.026Z0F1200
G1 X118.678Y75.237Z0F1200
G1 X118.86Y74.375Z0F1200
G1 X118.933Y73.961Z0F1200
G1 X118.987Y73.589Z0F1200
G1 X119.02Y73.266Z0F1200
G1 Y72.995Z0F1200
G1 X118.985Y72.744Z0F1200
G1 X118.569Y72.121Z0F1200
G1 X117.928Y72.517Z0F1200
G1 X117.787Y72.735Z0F1200
G1 X117.693Y72.92Z0F1200
G1 X117.585Y73.155Z0F1200
G1 X117.451Y73.463Z0F1200
G1 X117.285Y73.851Z0F1200
G1 X116.795Y74.966Z0F1200
G1 X116.312Y75.988Z0F1200
G1 X115.811Y76.967Z0F1200
G1 X115.293Y77.897Z0F1200
G1 X114.763Y78.775Z0F1200
G1 X114.185Y79.653Z0F1200
G1 X113.582Y80.503Z0F1200
G1 X112.93Y81.358Z0F1200
G1 X112.597Y81.782Z0F1200
G1 X112.509Y81.736Z0F1200
G1 X112.231Y81.568Z0F1200
G1 X111.96Y81.387Z0F1200
G1 X111.758Y81.235Z0F1200
G1 X111.817Y81.073Z0F1200
G1 X111.934Y80.783Z0F1200
G1 X112.065Y80.478Z0F1200
G1 X112.225Y80.127Z0F1200
G1 X112.401Y79.755Z0F1200
G1 X112.589Y79.377Z0F1200
G1 X112.998Y78.616Z0F1200
G1 X113.434Y77.884Z0F1200
G1 X113.912Y77.163Z0F1200
G1 X114.439Y76.441Z0F1200
G1 X115.026Y75.705Z0F1200
G1 X115.663Y74.966Z0F1200
G1 X116.389Y74.181Z0F1200
G1 X117.398Y73.148Z0F1200
G1 X117.585Y72.941Z0F1200
G1 X117.664Y72.846Z0F1200
G1 X117.738Y72.749Z0F1200
G1 X117.84Y72.576Z0F1200
G1 X117.946Y71.852Z0F1200
G1 X117.21Y71.736Z0F1200
G1 X117.007Y71.79Z0F1200
G1 X116.888Y71.836Z0F1200
G1 X116.77Y71.891Z0F1200
G1 X116.526Y72.019Z0F1200
G1 X116.239Y72.184Z0F1200
G1 X115.616Y72.571Z0F1200
G1 X115.028Y72.979Z0F1200
G1 X114.679Y73.257Z0F1200
G1 X114.297Y73.586Z0F1200
G1 X113.903Y73.943Z0F1200
G1 X113.522Y74.304Z0F1200
G1 X113.177Y74.647Z0F1200
G1 X112.896Y74.946Z0F1200
G1 X112.779Y75.081Z0F1200
G1 X112.677Y75.21Z0F1200
G1 X112.598Y75.337Z0F1200
G1 X112.489Y75.431Z0F1200
G1 X112.321Y75.605Z0F1200
G1 X112.148Y75.807Z0F1200
G1 X111.804Y76.248Z0F1200
G1 X111.473Y76.716Z0F1200
G1 X111.156Y77.205Z0F1200
G1 X110.856Y77.71Z0F1200
G1 X110.576Y78.227Z0F1200
G1 X110.319Y78.75Z0F1200
G1 X110.104Y79.239Z0F1200
G1 X110.078Y79.134Z0F1200
G1 X110.067Y79.04Z0F1200
G1 X110.06Y78.885Z0F1200
G1 X110.055Y78.65Z0F1200
G1 Y78.369Z0F1200
G1 Y78.092Z0F1200
G1 X110.06Y77.887Z0F1200
G1 X110.07Y77.699Z0F1200
G1 X110.082Y77.571Z0F1200
G1 X110.126Y77.326Z0F1200
G1 X110.205Y77.066Z0F1200
G1 X110.378Y76.611Z0F1200
G1 X110.589Y76.166Z0F1200
G1 X110.833Y75.739Z0F1200
G1 X111.125Y75.308Z0F1200
G1 X111.462Y74.876Z0F1200
G1 X111.853Y74.438Z0F1200
G1 X112.3Y73.987Z0F1200
G1 X112.797Y73.531Z0F1200
G1 X113.066Y73.301Z0F1200
G1 X113.3Y73.121Z0F1200
G1 X113.45Y73.015Z0F1200
G1 X113.615Y72.903Z0F1200
G1 X113.834Y72.759Z0F1200
G1 X114.417Y72.381Z0F1200
G1 X114.806Y72.126Z0F1200
G1 X115.066Y71.949Z0F1200
G1 X115.191Y71.877Z0F1200
G1 X115.377Y71.779Z0F1200
G1 X115.627Y71.654Z0F1200
G1 X116.221Y71.371Z0F1200
G1 X116.901Y71.062Z0F1200
G0 Z1.8F1200
G0 X119.94Y69.778Z1.8
G1 Z0F1200
G1 X119.961Y69.985Z0F1200
G1 X119.981Y70.222Z0F1200
G1 X120Y70.484Z0F1200
G1 X120.033Y71.075Z0F1200
G1 X120.058Y71.734Z0F1200
G1 X120.074Y72.439Z0F1200
G1 X120.079Y73.167Z0F1200
G1 Y73.566Z0F1200
G1 X120.074Y73.937Z0F1200
G1 X120.068Y74.282Z0F1200
G1 X120.06Y74.604Z0F1200
G1 X120.033Y75.189Z0F1200
G1 X119.992Y75.712Z0F1200
G1 X119.861Y76.652Z0F1200
G1 X119.65Y77.588Z0F1200
G1 X119.395Y78.418Z0F1200
G1 X119.068Y79.225Z0F1200
G1 X118.68Y79.994Z0F1200
G1 X118.242Y80.707Z0F1200
G1 X117.764Y81.351Z0F1200
G1 X117.257Y81.908Z0F1200
G1 X116.996Y82.149Z0F1200
G1 X116.732Y82.362Z0F1200
G1 X116.466Y82.546Z0F1200
G1 X116.2Y82.699Z0F1200
G1 X115.875Y82.856Z0F1200
G1 X115.605Y82.945Z0F1200
G1 X115.459Y82.971Z0F1200
G1 X115.288Y82.989Z0F1200
G1 X115.079Y83.003Z0F1200
G1 X114.818Y83.014Z0F1200
G1 X114.491Y83.021Z0F1200
G1 X114.213Y83.017Z0F1200
G1 X114.102Y83.011Z0F1200
G1 X114.015Y83.003Z0F1200
G1 X113.954Y82.992Z0F1200
G1 X113.923Y82.979Z0F1200
G1 X113.916Y82.933Z0F1200
G1 X113.944Y82.855Z0F1200
G1 X114.005Y82.756Z0F1200
G1 X114.092Y82.646Z0F1200
G1 X114.264Y82.441Z0F1200
G1 X114.486Y82.16Z0F1200
G1 X114.741Y81.825Z0F1200
G1 X115.014Y81.459Z0F1200
G1 X115.288Y81.083Z0F1200
G1 X115.547Y80.721Z0F1200
G1 X115.774Y80.394Z0F1200
G1 X115.954Y80.124Z0F1200
G1 X116.237Y79.66Z0F1200
G1 X116.513Y79.167Z0F1200
G1 X116.779Y78.649Z0F1200
G1 X117.034Y78.111Z0F1200
G1 X117.5Y76.993Z0F1200
G1 X117.894Y75.851Z0F1200
G1 X118.094Y75.098Z0F1200
G1 X118.271Y74.261Z0F1200
G1 X118.34Y73.866Z0F1200
G1 X118.391Y73.516Z0F1200
G1 X118.42Y73.232Z0F1200
G1 Y73.037Z0F1200
G1 X118.411Y72.965Z0F1200
G1 X118.392Y72.936Z0F1200
G1 X118.358Y72.956Z0F1200
G1 X118.307Y73.035Z0F1200
G1 X118.233Y73.18Z0F1200
G1 X118.133Y73.4Z0F1200
G1 X118.001Y73.701Z0F1200
G1 X117.834Y74.093Z0F1200
G1 X117.342Y75.212Z0F1200
G1 X116.846Y76.262Z0F1200
G1 X116.339Y77.253Z0F1200
G1 X115.813Y78.196Z0F1200
G1 X115.264Y79.104Z0F1200
G1 X114.683Y79.988Z0F1200
G1 X114.065Y80.859Z0F1200
G1 X113.402Y81.729Z0F1200
G1 X112.807Y82.485Z0F1200
G1 X112.769Y82.499Z0F1200
G1 X112.702Y82.488Z0F1200
G1 X112.608Y82.456Z0F1200
G1 X112.493Y82.405Z0F1200
G1 X112.217Y82.26Z0F1200
G1 X111.911Y82.075Z0F1200
G1 X111.609Y81.874Z0F1200
G1 X111.349Y81.679Z0F1200
G1 X111.246Y81.591Z0F1200
G1 X111.167Y81.513Z0F1200
G1 X111.116Y81.448Z0F1200
G1 X111.098Y81.399Z0F1200
G1 X111.117Y81.278Z0F1200
G1 X111.172Y81.092Z0F1200
G1 X111.26Y80.849Z0F1200
G1 X111.377Y80.559Z0F1200
G1 X111.519Y80.229Z0F1200
G1 X111.683Y79.87Z0F1200
G1 X111.864Y79.488Z0F1200
G1 X112.06Y79.094Z0F1200
G1 X112.474Y78.322Z0F1200
G1 X112.925Y77.566Z0F1200
G1 X113.42Y76.82Z0F1200
G1 X113.964Y76.075Z0F1200
G1 X114.563Y75.324Z0F1200
G1 X115.222Y74.559Z0F1200
G1 X115.948Y73.773Z0F1200
G1 X116.961Y72.737Z0F1200
G1 X117.131Y72.549Z0F1200
G1 X117.194Y72.473Z0F1200
G1 X117.239Y72.414Z0F1200
G1 X117.263Y72.373Z0F1200
G1 X117.266Y72.353Z0F1200
G1 X117.241Y72.349Z0F1200
G1 X117.193Y72.361Z0F1200
G1 X117.124Y72.388Z0F1200
G1 X117.036Y72.429Z0F1200
G1 X116.814Y72.545Z0F1200
G1 X116.546Y72.699Z0F1200
G1 X115.946Y73.072Z0F1200
G1 X115.387Y73.461Z0F1200
G1 X115.062Y73.719Z0F1200
G1 X114.694Y74.036Z0F1200
G1 X114.311Y74.383Z0F1200
G1 X113.94Y74.735Z0F1200
G1 X113.607Y75.065Z0F1200
G1 X113.341Y75.348Z0F1200
G1 X113.242Y75.463Z0F1200
G1 X113.169Y75.556Z0F1200
G1 X113.126Y75.624Z0F1200
G1 X113.117Y75.662Z0F1200
G1 X113.12Y75.729Z0F1200
G1 X113.072Y75.746Z0F1200
G1 X113.009Y75.775Z0F1200
G1 X112.902Y75.868Z0F1200
G1 X112.765Y76.01Z0F1200
G1 X112.613Y76.187Z0F1200
G1 X112.286Y76.606Z0F1200
G1 X111.97Y77.053Z0F1200
G1 X111.666Y77.521Z0F1200
G1 X111.378Y78.007Z0F1200
G1 X111.109Y78.502Z0F1200
G1 X110.863Y79.003Z0F1200
G1 X110.642Y79.504Z0F1200
G1 X110.45Y79.999Z0F1200
G1 X110.204Y80.678Z0F1200
G1 X110.037Y80.443Z0F1200
G1 X109.858Y80.146Z0F1200
G1 X109.662Y79.764Z0F1200
G1 X109.549Y79.497Z0F1200
G1 X109.486Y79.242Z0F1200
G1 X109.469Y79.087Z0F1200
G1 X109.459Y78.897Z0F1200
G1 X109.455Y78.661Z0F1200
G1 Y78.365Z0F1200
G1 Y78.088Z0F1200
G1 X109.461Y77.856Z0F1200
G1 X109.471Y77.659Z0F1200
G1 X109.487Y77.487Z0F1200
G1 X109.542Y77.184Z0F1200
G1 X109.636Y76.875Z0F1200
G1 X109.826Y76.375Z0F1200
G1 X110.055Y75.892Z0F1200
G1 X110.325Y75.419Z0F1200
G1 X110.64Y74.954Z0F1200
G1 X111.002Y74.491Z0F1200
G1 X111.416Y74.026Z0F1200
G1 X111.882Y73.556Z0F1200
G1 X112.407Y73.075Z0F1200
G1 X112.684Y72.838Z0F1200
G1 X112.95Y72.633Z0F1200
G1 X113.104Y72.524Z0F1200
G1 X113.286Y72.402Z0F1200
G1 X113.505Y72.258Z0F1200
G1 X114.09Y71.879Z0F1200
G1 X114.472Y71.628Z0F1200
G1 X114.749Y71.439Z0F1200
G1 X114.903Y71.351Z0F1200
G1 X115.108Y71.243Z0F1200
G1 X115.358Y71.118Z0F1200
G1 X115.963Y70.83Z0F1200
G1 X116.66Y70.512Z0F1200
G1 X117.392Y70.19Z0F1200
G1 X118.104Y69.89Z0F1200
G1 X118.435Y69.755Z0F1200
G1 X118.739Y69.635Z0F1200
G1 X119.009Y69.534Z0F1200
G1 X119.24Y69.453Z0F1200
G1 X119.632Y69.326Z0F1200
G1 X119.762Y69.287Z0F1200
G1 X119.823Y69.271Z0F1200
G1 X119.847Y69.292Z0F1200
G1 X119.871Y69.356Z0F1200
G1 X119.895Y69.46Z0F1200
G1 X119.917Y69.602Z0F1200
G1 X119.94Y69.778Z0F1200
M9
G1 Z10 F1200
G90
G1 Z10 F1200

