;LightBurn 1.6.04
;Custom GCode device profile, absolute coords
;Bounds: X26.3 Y27.83 to X123.72 Y62.17
G00 G17 G40 G21 G54
G90
M3
G1 Z10 F1555
;Scan @ 1555 mm/min, 80% power

M8
G0 Z4.8F1555
G0 X26.303 Y37.389 Z4.800
G1 Z0F1555
;Layer C1
G91
G1 Z2.5 F777
G1 X0.648Z0F1555
G1 Z-2.5 F777
G1 X0.175Z0S800F1555
G1 Z2.5 F777
G1 X1.406Z0F1555
G1 Z-2.5 F777
G1 X1.289Z0S800F1555
G1 Z2.5 F777
G1 X9.395Z0F1555
G1 Z-2.5 F777
G1 X0.725Z0S800F1555
G1 Z2.5 F777
G1 X6.278Z0F1555
G1 Z-2.5 F777
G1 X2.861Z0S800F1555
G1 Z2.5 F777
G1 X2.519Z0F1555
G1 Z-2.5 F777
G1 X2.221Z0S800F1555
G1 Z2.5 F777
G1 X2.772Z0F1555
G1 Z-2.5 F777
G1 X2.924Z0S800F1555
G1 Z2.5 F777
G1 X4.885Z0F1555
G1 Z-2.5 F777
G1 X3.186Z0S800F1555
G1 Z2.5 F777
G1 X2.246Z0F1555
G1 Z-2.5 F777
G1 X2.537Z0S800F1555
G1 Z2.5 F777
G1 X21.862Z0F1555
G1 Z-2.5 F777
G1 X1.384Z0S800F1555
G1 Z2.5 F777
G1 X7.636Z0F1555
G1 Z-2.5 F777
G1 X1.995Z0S800F1555
G1 Z2.5 F777
G1 X8.445Z0F1555
G1 Z-2.5 F777
G1 X3.213Z0S800F1555
G1 Z2.5 F777
G1 X0.648Z0F1555
G1 X2.111Y0.9Z0F1555
; --- FIX X Backlash (relative): -0.900mm ---
G0 X-0.900 F1200
G1 X-0.648Z0F1555
G1 Z-2.5 F777
G1 X-7.756Z0S800F1555
G1 Z2.5 F777
G1 X-5.179Z0F1555
G1 Z-2.5 F777
G1 X-3.479Z0S800F1555
G1 Z2.5 F777
G1 X-5.759Z0F1555
G1 Z-2.5 F777
G1 X-3.305Z0S800F1555
G1 Z2.5 F777
G1 X-20.35Z0F1555
G1 Z-2.5 F777
G1 X-3.673Z0S800F1555
G1 Z2.5 F777
G1 X-0.773Z0F1555
G1 Z-2.5 F777
G1 X-5.409Z0S800F1555
G1 Z2.5 F777
G1 X-3.239Z0F1555
G1 Z-2.5 F777
G1 X-3.355Z0S800F1555
G1 Z2.5 F777
G1 X-2.041Z0F1555
G1 Z-2.5 F777
G1 X-3.287Z0S800F1555
G1 Z2.5 F777
G1 X-0.826Z0F1555
G1 Z-2.5 F777
G1 X-5.563Z0S800F1555
G1 Z2.5 F777
G1 X-3.044Z0F1555
G1 Z-2.5 F777
G1 X-3.285Z0S800F1555
G1 Z2.5 F777
G1 X-8.353Z0F1555
G1 Z-2.5 F777
G1 X-3.298Z0S800F1555
G1 Z2.5 F777
G1 X-0.648Z0F1555
; --- FIX X Backlash (relative): 0.900mm ---
G0 X0.900 F1200
G1 X0.142Y0.9Z0F1555
G1 X0.648Z0F1555
G1 Z-2.5 F777
G1 X3.251Z0S800F1555
G1 Z2.5 F777
G1 X8.399Z0F1555
G1 Z-2.5 F777
G1 X3.274Z0S800F1555
G1 Z2.5 F777
G1 X2.517Z0F1555
G1 Z-2.5 F777
G1 X10.39Z0S800F1555
G1 Z2.5 F777
G1 X1.871Z0F1555
G1 Z-2.5 F777
G1 X3.489Z0S800F1555
G1 Z2.5 F777
G1 X2.376Z0F1555
G1 Z-2.5 F777
G1 X10.522Z0S800F1555
G1 Z2.5 F777
G1 X20.269Z0F1555
G1 Z-2.5 F777
G1 X3.697Z0S800F1555
G1 Z2.5 F777
G1 X4.894Z0F1555
G1 Z-2.5 F777
G1 X4.223Z0S800F1555
G1 Z2.5 F777
G1 X3.957Z0F1555
G1 Z-2.5 F777
G1 X9.891Z0S800F1555
G1 Z2.5 F777
G1 X0.648Z0F1555
G1 X0.86Y0.9Z0F1555
; --- FIX X Backlash (relative): -0.900mm ---
G0 X-0.900 F1200
G1 X-0.648Z0F1555
G1 Z-2.5 F777
G1 X-11.351Z0S800F1555
G1 Z2.5 F777
G1 X-3.215Z0F1555
G1 Z-2.5 F777
G1 X-4.831Z0S800F1555
G1 Z2.5 F777
G1 X-4.229Z0F1555
G1 Z-2.5 F777
G1 X-3.732Z0S800F1555
G1 Z2.5 F777
G1 X-20.421Z0F1555
G1 Z-2.5 F777
G1 X-4.372Z0S800F1555
G1 Z2.5 F777
G1 X-2.102Z0F1555
G1 Z-2.5 F777
G1 X-4.397Z0S800F1555
G1 Z2.5 F777
G1 X-1.869Z0F1555
G1 Z-2.5 F777
G1 X-3.512Z0S800F1555
G1 Z2.5 F777
G1 X-1.869Z0F1555
G1 Z-2.5 F777
G1 X-4.722Z0S800F1555
G1 Z2.5 F777
G1 X-1.481Z0F1555
G1 Z-2.5 F777
G1 X-4.454Z0S800F1555
G1 Z2.5 F777
G1 X-2.269Z0F1555
G1 Z-2.5 F777
G1 X-3.263Z0S800F1555
G1 Z2.5 F777
G1 X-8.448Z0F1555
G1 Z-2.5 F777
G1 X-3.201Z0S800F1555
G1 Z2.5 F777
G1 X-0.648Z0F1555
; --- FIX X Backlash (relative): 0.900mm ---
G0 X0.900 F1200
G1 X0.142Y0.9Z0F1555
G1 X0.648Z0F1555
G1 Z-2.5 F777
G1 X3.196Z0S800F1555
G1 Z2.5 F777
G1 X8.452Z0F1555
G1 Z-2.5 F777
G1 X3.262Z0S800F1555
G1 Z2.5 F777
G1 X2.11Z0F1555
G1 Z-2.5 F777
G1 X3.58Z0S800F1555
G1 Z2.5 F777
G1 X3.515Z0F1555
G1 Z-2.5 F777
G1 X3.657Z0S800F1555
G1 Z2.5 F777
G1 X1.941Z0F1555
G1 Z-2.5 F777
G1 X3.489Z0S800F1555
G1 Z2.5 F777
G1 X1.644Z0F1555
G1 Z-2.5 F777
G1 X3.688Z0S800F1555
G1 Z2.5 F777
G1 X3.643Z0F1555
G1 Z-2.5 F777
G1 X3.762Z0S800F1555
G1 Z2.5 F777
G1 X20.502Z0F1555
G1 Z-2.5 F777
G1 X3.641Z0S800F1555
G1 Z2.5 F777
G1 X3.659Z0F1555
G1 Z-2.5 F777
G1 X5.431Z0S800F1555
G1 Z2.5 F777
G1 X2.686Z0F1555
G1 Z-2.5 F777
G1 X4.033Z0S800F1555
G1 Z2.5 F777
G1 X4.128Z0F1555
G1 Z-2.5 F777
G1 X4.204Z0S800F1555
G1 Z2.5 F777
G1 X0.648Z0F1555
G1 X0.349Y0.9Z0F1555
; --- FIX X Backlash (relative): -0.900mm ---
G0 X-0.900 F1200
G1 X-0.648Z0F1555
G1 Z-2.5 F777
G1 X-3.443Z0S800F1555
G1 Z2.5 F777
G1 X-5.837Z0F1555
G1 Z-2.5 F777
G1 X-3.657Z0S800F1555
G1 Z2.5 F777
G1 X-2.338Z0F1555
G1 Z-2.5 F777
G1 X-5.994Z0S800F1555
G1 Z2.5 F777
G1 X-3.149Z0F1555
G1 Z-2.5 F777
G1 X-3.489Z0S800F1555
G1 Z2.5 F777
G1 X-20.599Z0F1555
G1 Z-2.5 F777
G1 X-3.432Z0S800F1555
G1 Z2.5 F777
G1 X-4.238Z0F1555
G1 Z-2.5 F777
G1 X-3.52Z0S800F1555
G1 Z2.5 F777
G1 X-1.552Z0F1555
G1 Z-2.5 F777
G1 X-3.464Z0S800F1555
G1 Z2.5 F777
G1 X-2.022Z0F1555
G1 Z-2.5 F777
G1 X-3.457Z0S800F1555
G1 Z2.5 F777
G1 X-3.769Z0F1555
G1 Z-2.5 F777
G1 X-3.525Z0S800F1555
G1 Z2.5 F777
G1 X-2.031Z0F1555
G1 Z-2.5 F777
G1 X-3.263Z0S800F1555
G1 Z2.5 F777
G1 X-8.372Z0F1555
G1 Z-2.5 F777
G1 X-3.279Z0S800F1555
G1 Z2.5 F777
G1 X-0.648Z0F1555
; --- FIX X Backlash (relative): 0.900mm ---
G0 X0.900 F1200
G1 X0.142Y0.9Z0F1555
G1 X0.648Z0F1555
G1 Z-2.5 F777
G1 X3.562Z0S800F1555
G1 Z2.5 F777
G1 X8.096Z0F1555
G1 Z-2.5 F777
G1 X3.259Z0S800F1555
G1 Z2.5 F777
G1 X2Z0F1555
G1 Z-2.5 F777
G1 X3.461Z0S800F1555
G1 Z2.5 F777
G1 X3.966Z0F1555
G1 Z-2.5 F777
G1 X3.279Z0S800F1555
G1 Z2.5 F777
G1 X2.1Z0F1555
G1 Z-2.5 F777
G1 X3.301Z0S800F1555
G1 Z2.5 F777
G1 X1.672Z0F1555
G1 Z-2.5 F777
G1 X3.636Z0S800F1555
G1 Z2.5 F777
G1 X4.261Z0F1555
G1 Z-2.5 F777
G1 X3.35Z0S800F1555
G1 Z2.5 F777
G1 X20.62Z0F1555
G1 Z-2.5 F777
G1 X3.376Z0S800F1555
G1 Z2.5 F777
G1 X2.496Z0F1555
G1 Z-2.5 F777
G1 X6.702Z0S800F1555
G1 Z2.5 F777
G1 X2.124Z0F1555
G1 Z-2.5 F777
G1 X3.455Z0S800F1555
G1 Z2.5 F777
G1 X7.684Z0F1555
G1 Z-2.5 F777
G1 X1.15Z0S800F1555
G1 Z2.5 F777
G1 X0.648Z0F1555
; --- FIX X Backlash (relative): -0.900mm ---
G0 X-0.900 F1200
G1 X-8.895Y0.9Z0F1555
G1 X-0.647Z0F1555
G1 Z-2.5 F777
G1 X-3.41Z0S800F1555
G1 Z2.5 F777
G1 X-1.966Z0F1555
G1 Z-2.5 F777
G1 X-7.263Z0S800F1555
G1 Z2.5 F777
G1 X-1.993Z0F1555
G1 Z-2.5 F777
G1 X-3.387Z0S800F1555
G1 Z2.5 F777
G1 X-20.533Z0F1555
G1 Z-2.5 F777
G1 X-3.433Z0S800F1555
G1 Z2.5 F777
G1 X-4.202Z0F1555
G1 Z-2.5 F777
G1 X-3.583Z0S800F1555
G1 Z2.5 F777
G1 X-1.711Z0F1555
G1 Z-2.5 F777
G1 X-3.3Z0S800F1555
G1 Z2.5 F777
G1 X-2.128Z0F1555
G1 Z-2.5 F777
G1 X-3.276Z0S800F1555
G1 Z2.5 F777
G1 X-3.956Z0F1555
G1 Z-2.5 F777
G1 X-3.442Z0S800F1555
G1 Z2.5 F777
G1 X-2.008Z0F1555
G1 Z-2.5 F777
G1 X-3.258Z0S800F1555
G1 Z2.5 F777
G1 X-2.503Z0F1555
G1 Z-2.5 F777
G1 X-3.579Z0S800F1555
G1 Z2.5 F777
G1 X-0.738Z0F1555
G1 Z-2.5 F777
G1 X-4.845Z0S800F1555
G1 Z2.5 F777
G1 X-0.648Z0F1555
; --- FIX X Backlash (relative): 0.900mm ---
G0 X0.900 F1200
G1 X0.142Y0.9Z0F1555
G1 X0.648Z0F1555
G1 Z-2.5 F777
G1 X9.474Z0S800F1555
G1 Z2.5 F777
G1 X2.198Z0F1555
G1 Z-2.5 F777
G1 X3.26Z0S800F1555
G1 Z2.5 F777
G1 X2.048Z0F1555
G1 Z-2.5 F777
G1 X3.464Z0S800F1555
G1 Z2.5 F777
G1 X3.828Z0F1555
G1 Z-2.5 F777
G1 X3.45Z0S800F1555
G1 Z2.5 F777
G1 X2.021Z0F1555
G1 Z-2.5 F777
G1 X3.395Z0S800F1555
G1 Z2.5 F777
G1 X1.753Z0F1555
G1 Z-2.5 F777
G1 X3.677Z0S800F1555
G1 Z2.5 F777
G1 X3.693Z0F1555
G1 Z-2.5 F777
G1 X3.721Z0S800F1555
G1 Z2.5 F777
G1 X20.456Z0F1555
G1 Z-2.5 F777
G1 X3.458Z0S800F1555
G1 Z2.5 F777
G1 X1.443Z0F1555
G1 Z-2.5 F777
G1 X3.392Z0S800F1555
G1 Z2.5 F777
G1 X0.95Z0F1555
G1 Z-2.5 F777
G1 X3.475Z0S800F1555
G1 Z2.5 F777
G1 X1.872Z0F1555
G1 Z-2.5 F777
G1 X3.525Z0S800F1555
G1 Z2.5 F777
G1 X0.648Z0F1555
G1 X0.194Y0.9Z0F1555
; --- FIX X Backlash (relative): -0.900mm ---
G0 X-0.900 F1200
G1 X-0.648Z0F1555
G1 Z-2.5 F777
G1 X-3.572Z0S800F1555
G1 Z2.5 F777
G1 X-1.858Z0F1555
G1 Z-2.5 F777
G1 X-3.417Z0S800F1555
G1 Z2.5 F777
G1 X-1.526Z0F1555
G1 Z-2.5 F777
G1 X-3.51Z0S800F1555
G1 Z2.5 F777
G1 X-0.682Z0F1555
G1 Z-2.5 F777
G1 X-3.567Z0S800F1555
G1 Z2.5 F777
G1 X-20.471Z0F1555
G1 Z-2.5 F777
G1 X-4.427Z0S800F1555
G1 Z2.5 F777
G1 X-2.394Z0F1555
G1 Z-2.5 F777
G1 X-4.026Z0S800F1555
G1 Z2.5 F777
G1 X-1.899Z0F1555
G1 Z-2.5 F777
G1 X-3.504Z0S800F1555
G1 Z2.5 F777
G1 X-1.885Z0F1555
G1 Z-2.5 F777
G1 X-3.661Z0S800F1555
G1 Z2.5 F777
G1 X-3.678Z0F1555
G1 Z-2.5 F777
G1 X-3.491Z0S800F1555
G1 Z2.5 F777
G1 X-2.096Z0F1555
G1 Z-2.5 F777
G1 X-3.264Z0S800F1555
G1 Z2.5 F777
G1 X-2.44Z0F1555
G1 Z-2.5 F777
G1 X-9.233Z0S800F1555
G1 Z2.5 F777
G1 X-0.648Z0F1555
; --- FIX X Backlash (relative): 0.900mm ---
G0 X0.900 F1200
G1 X0.149Y0.9Z0F1555
G1 X0.648Z0F1555
G1 Z-2.5 F777
G1 X3.616Z0S800F1555
G1 Z2.5 F777
G1 X8.054Z0F1555
G1 Z-2.5 F777
G1 X3.268Z0S800F1555
G1 Z2.5 F777
G1 X2.139Z0F1555
G1 Z-2.5 F777
G1 X3.485Z0S800F1555
G1 Z2.5 F777
G1 X3.608Z0F1555
G1 Z-2.5 F777
G1 X3.742Z0S800F1555
G1 Z2.5 F777
G1 X1.839Z0F1555
G1 Z-2.5 F777
G1 X3.584Z0S800F1555
G1 Z2.5 F777
G1 X2.236Z0F1555
G1 Z-2.5 F777
G1 X10.431Z0S800F1555
G1 Z2.5 F777
G1 X20.486Z0F1555
G1 Z-2.5 F777
G1 X7.124Z0S800F1555
G1 Z2.5 F777
G1 X2.133Z0F1555
G1 Z-2.5 F777
G1 X3.438Z0S800F1555
G1 Z2.5 F777
G1 X1.925Z0F1555
G1 Z-2.5 F777
G1 X3.62Z0S800F1555
G1 Z2.5 F777
G1 X0.648Z0F1555
G1 X9.686Y0.9Z0F1555
; --- FIX X Backlash (relative): -0.900mm ---
G0 X-0.900 F1200
G1 X-0.648Z0F1555
G1 Z-2.5 F777
G1 X-2.716Z0S800F1555
G1 Z2.5 F777
G1 X-6.516Z0F1555
G1 Z-2.5 F777
G1 X-3.754Z0S800F1555
G1 Z2.5 F777
G1 X-2.084Z0F1555
G1 Z-2.5 F777
G1 X-3.486Z0S800F1555
G1 Z2.5 F777
G1 X-2.75Z0F1555
G1 Z-2.5 F777
G1 X-6.466Z0S800F1555
G1 Z2.5 F777
G1 X-20.509Z0F1555
G1 Z-2.5 F777
G1 X-3.472Z0S800F1555
G1 Z2.5 F777
G1 X-0.628Z0F1555
G1 Z-2.5 F777
G1 X-5.63Z0S800F1555
G1 Z2.5 F777
G1 X-2.971Z0F1555
G1 Z-2.5 F777
G1 X-3.529Z0S800F1555
G1 Z2.5 F777
G1 X-1.952Z0F1555
G1 Z-2.5 F777
G1 X-3.55Z0S800F1555
G1 Z2.5 F777
G1 X-3.749Z0F1555
G1 Z-2.5 F777
G1 X-3.4Z0S800F1555
G1 Z2.5 F777
G1 X-2.169Z0F1555
G1 Z-2.5 F777
G1 X-3.267Z0S800F1555
G1 Z2.5 F777
G1 X-8.346Z0F1555
G1 Z-2.5 F777
G1 X-3.321Z0S800F1555
G1 Z2.5 F777
G1 X-0.648Z0F1555
; --- FIX X Backlash (relative): 0.900mm ---
G0 X0.900 F1200
G1 X0.149Y0.9Z0F1555
G1 X0.648Z0F1555
G1 Z-2.5 F777
G1 X3.249Z0S800F1555
G1 Z2.5 F777
G1 X8.415Z0F1555
G1 Z-2.5 F777
G1 X3.267Z0S800F1555
G1 Z2.5 F777
G1 X2.157Z0F1555
G1 Z-2.5 F777
G1 X3.026Z0S800F1555
G1 Z2.5 F777
G1 X4.529Z0F1555
G1 Z-2.5 F777
G1 X2.69Z0S800F1555
G1 Z2.5 F777
G1 X2.424Z0F1555
G1 Z-2.5 F777
G1 X2.982Z0S800F1555
G1 Z2.5 F777
G1 X4.719Z0F1555
G1 Z-2.5 F777
G1 X3.338Z0S800F1555
G1 Z2.5 F777
G1 X1.775Z0F1555
G1 Z-2.5 F777
G1 X3.373Z0S800F1555
G1 Z2.5 F777
G1 X20.552Z0F1555
G1 Z-2.5 F777
G1 X5.86Z0S800F1555
G1 Z2.5 F777
G1 X3.303Z0F1555
G1 Z-2.5 F777
G1 X3.546Z0S800F1555
G1 Z2.5 F777
G1 X2.357Z0F1555
G1 Z-2.5 F777
G1 X4.008Z0S800F1555
G1 Z2.5 F777
G1 X5.191Z0F1555
G1 Z-2.5 F777
G1 X3.685Z0S800F1555
G1 Z2.5 F777
G1 X0.648Z0F1555
; --- FIX X Backlash (relative): -0.900mm ---
G0 X-0.900 F1200
G1 X-0.138Y0.9Z0F1555
G1 X-0.648Z0F1555
G1 Z-2.5 F777
G1 X-4.287Z0S800F1555
G1 Z2.5 F777
G1 X-3.305Z0F1555
G1 Z-2.5 F777
G1 X-4.64Z0S800F1555
G1 Z2.5 F777
G1 X-2.713Z0F1555
G1 Z-2.5 F777
G1 X-3.593Z0S800F1555
G1 Z2.5 F777
G1 X-3.866Z0F1555
G1 Z-2.5 F777
G1 X-5.273Z0S800F1555
G1 Z2.5 F777
G1 X-20.51Z0F1555
G1 Z-2.5 F777
G1 X-3.44Z0S800F1555
G1 Z2.5 F777
G1 X-27.604Z0F1555
G1 Z-2.5 F777
G1 X-3.279Z0S800F1555
G1 Z2.5 F777
G1 X-8Z0F1555
G1 Z-2.5 F777
G1 X-3.639Z0S800F1555
G1 Z2.5 F777
G1 X-0.648Z0F1555
; --- FIX X Backlash (relative): 0.900mm ---
G0 X0.900 F1200
G1 X0.164Y0.9Z0F1555
G1 X0.648Z0F1555
G1 Z-2.5 F777
G1 X9.929Z0S800F1555
G1 Z2.5 F777
G1 X1.679Z0F1555
G1 Z-2.5 F777
G1 X3.522Z0S800F1555
G1 Z2.5 F777
G1 X15.894Z0F1555
G1 Z-2.5 F777
G1 X1.196Z0S800F1555
G1 Z2.5 F777
G1 X10.231Z0F1555
G1 Z-2.5 F777
G1 X3.594Z0S800F1555
G1 Z2.5 F777
G1 X20.397Z0F1555
G1 Z-2.5 F777
G1 X4.691Z0S800F1555
G1 Z2.5 F777
G1 X4.277Z0F1555
G1 Z-2.5 F777
G1 X3.789Z0S800F1555
G1 Z2.5 F777
G1 X3.225Z0F1555
G1 Z-2.5 F777
G1 X11.168Z0S800F1555
G1 Z2.5 F777
G1 X0.648Z0F1555
; --- FIX X Backlash (relative): -0.900mm ---
G0 X-0.900 F1200
G1 X-0.644Y0.9Z0F1555
G1 X-0.648Z0F1555
G1 Z-2.5 F777
G1 X-9.565Z0S800F1555
G1 Z2.5 F777
G1 X-4.026Z0F1555
G1 Z-2.5 F777
G1 X-3.757Z0S800F1555
G1 Z2.5 F777
G1 X-4.929Z0F1555
G1 Z-2.5 F777
G1 X-4.107Z0S800F1555
G1 Z2.5 F777
G1 X-20.376Z0F1555
G1 Z-2.5 F777
G1 X-3.628Z0S800F1555
G1 Z2.5 F777
G1 X-9.355Z0F1555
G1 Z-2.5 F777
G1 X-2.971Z0S800F1555
G1 Z2.5 F777
G1 X-14.971Z0F1555
G1 Z-2.5 F777
G1 X-3.522Z0S800F1555
G1 Z2.5 F777
G1 X-1.446Z0F1555
G1 Z-2.5 F777
G1 X-10.131Z0S800F1555
G1 Z2.5 F777
G1 X-0.648Z0F1555
; --- FIX X Backlash (relative): 0.900mm ---
G0 X0.900 F1200
G1 X0.164Y0.9Z0F1555
G1 X0.647Z0F1555
G1 Z-2.5 F777
G1 X9.951Z0S800F1555
G1 Z2.5 F777
G1 X1.78Z0F1555
G1 Z-2.5 F777
G1 X2.887Z0S800F1555
G1 Z2.5 F777
G1 X15.133Z0F1555
G1 Z-2.5 F777
G1 X3.355Z0S800F1555
G1 Z2.5 F777
G1 X9.305Z0F1555
G1 Z-2.5 F777
G1 X3.321Z0S800F1555
G1 Z2.5 F777
G1 X20.624Z0F1555
G1 Z-2.5 F777
G1 X3.5Z0S800F1555
G1 Z2.5 F777
G1 X5.978Z0F1555
G1 Z-2.5 F777
G1 X3.355Z0S800F1555
G1 Z2.5 F777
G1 X5.316Z0F1555
G1 Z-2.5 F777
G1 X7.025Z0S800F1555
G1 Z2.5 F777
G1 X0.648Z0F1555
; --- FIX X Backlash (relative): -0.900mm ---
G0 X-0.900 F1200
G1 X-58.744Y0.9Z0F1555
G1 X-0.648Z0F1555
G1 Z-2.5 F777
G1 X-2.666Z0S800F1555
G1 Z2.5 F777
G1 X-0.648Z0F1555
G90
;Cut @ 1432 mm/min, 80% power

M8
G0 Z4.8F1555
; --- FIX X Backlash: 0.900mm ---
G0 X58.751 Y52.689 F1200
; --- FIX Y Backlash: -0.900mm ---
G0 X58.751 Y51.789 F1200
G0 X79.343 Y50.851 Z4.800
G1 Z0F1555
;Layer C3
G1 X79.343 Y49.863 Z0.000 F1555
G1 X79.534 Y48.612 Z0.000 F1555
G1 X79.807 Y47.384 Z0.000 F1555
G1 X80.162 Y46.182 Z0.000 F1555
G1 X80.596 Y45.008 Z0.000 F1555
G1 X81.106 Y43.865 Z0.000 F1555
G1 X81.690 Y42.758 Z0.000 F1555
G1 X82.346 Y41.687 Z0.000 F1555
G1 X83.071 Y40.657 Z0.000 F1555
G1 X84.124 Y38.873 Z0.000 F1555
G1 X85.109 Y37.027 Z0.000 F1555
G1 X85.521 Y36.074 Z0.000 F1555
G1 X85.851 Y35.097 Z0.000 F1555
G1 X85.977 Y34.598 Z0.000 F1555
G1 X86.075 Y34.093 Z0.000 F1555
G1 X86.141 Y33.580 Z0.000 F1555
G1 X86.173 Y33.059 Z0.000 F1555
G1 X86.200 Y32.357 Z0.000 F1555
G1 X86.283 Y31.631 Z0.000 F1555
G1 X86.346 Y31.285 Z0.000 F1555
G1 X86.423 Y30.963 Z0.000 F1555
G1 X86.515 Y30.676 Z0.000 F1555
G1 X86.622 Y30.435 Z0.000 F1555
G1 X86.744 Y30.250 Z0.000 F1555
G1 X86.881 Y30.130 Z0.000 F1555
G1 X87.033 Y30.086 Z0.000 F1555
G1 X87.201 Y30.129 Z0.000 F1555
; --- FIX Y Backlash: 0.900mm ---
G0 X87.201 Y31.029 F1200
G1 X87.291 Y31.086 Z0.000 F1555
G1 X87.384 Y31.168 Z0.000 F1555
G1 X87.481 Y31.277 Z0.000 F1555
G1 X87.583 Y31.414 Z0.000 F1555
G1 X87.688 Y31.580 Z0.000 F1555
G1 X87.797 Y31.777 Z0.000 F1555
G1 X87.910 Y32.006 Z0.000 F1555
G1 X88.027 Y32.268 Z0.000 F1555
G1 X88.370 Y33.113 Z0.000 F1555
G1 X88.650 Y33.981 Z0.000 F1555
G1 X88.867 Y34.867 Z0.000 F1555
G1 X89.021 Y35.766 Z0.000 F1555
G1 X89.112 Y36.675 Z0.000 F1555
G1 X89.142 Y37.589 Z0.000 F1555
G1 X89.111 Y38.504 Z0.000 F1555
; --- FIX X Backlash: -0.900mm ---
G0 X88.211 Y38.504 F1200
G1 X88.118 Y39.415 Z0.000 F1555
G1 X87.965 Y40.317 Z0.000 F1555
G1 X87.751 Y41.207 Z0.000 F1555
G1 X87.478 Y42.081 Z0.000 F1555
G1 X87.145 Y42.932 Z0.000 F1555
G1 X86.752 Y43.758 Z0.000 F1555
G1 X86.301 Y44.554 Z0.000 F1555
G1 X85.792 Y45.316 Z0.000 F1555
G1 X85.224 Y46.038 Z0.000 F1555
G1 X84.787 Y46.655 Z0.000 F1555
G1 X84.371 Y47.285 Z0.000 F1555
G1 X83.979 Y47.929 Z0.000 F1555
G1 X83.610 Y48.584 Z0.000 F1555
G1 X83.268 Y49.252 Z0.000 F1555
G1 X82.953 Y49.932 Z0.000 F1555
G1 X82.667 Y50.623 Z0.000 F1555
G1 X82.411 Y51.324 Z0.000 F1555
G1 X82.187 Y52.036 Z0.000 F1555
G1 X81.995 Y52.758 Z0.000 F1555
G1 X81.838 Y53.489 Z0.000 F1555
G1 X81.717 Y54.229 Z0.000 F1555
G1 X81.633 Y54.978 Z0.000 F1555
G1 X81.587 Y55.734 Z0.000 F1555
G1 X81.582 Y56.498 Z0.000 F1555
G1 X81.618 Y57.269 Z0.000 F1555
G1 X81.558 Y58.027 Z0.000 F1555
G1 X81.203 Y58.061 Z0.000 F1555
; --- FIX Y Backlash: -0.900mm ---
G0 X81.203 Y57.161 F1200
G1 X80.799 Y56.866 Z0.000 F1555
G1 X80.432 Y56.532 Z0.000 F1555
G1 X80.102 Y56.163 Z0.000 F1555
G1 X79.806 Y55.763 Z0.000 F1555
G1 X79.543 Y55.335 Z0.000 F1555
G1 X79.313 Y54.884 Z0.000 F1555
G1 X79.112 Y54.412 Z0.000 F1555
G1 X78.941 Y53.923 Z0.000 F1555
G1 X78.797 Y53.422 Z0.000 F1555
G1 X78.680 Y52.911 Z0.000 F1555
G1 X78.587 Y52.395 Z0.000 F1555
G1 X78.517 Y51.878 Z0.000 F1555
G1 X78.443 Y50.851 Z0.000 F1555
G0 Z4.8F1555
; --- FIX X Backlash: 0.900mm ---
G0 X79.343 Y50.851 F1200
; --- FIX Y Backlash: 0.900mm ---
G0 X79.343 Y51.751 F1200
G0 X87.556 Y52.900 Z4.800
G1 Z0F1555
; --- FIX Y Backlash: -0.900mm ---
G0 X87.556 Y52.000 F1200
G1 X88.408 Y50.293 Z0.000 F1555
G1 X88.768 Y49.416 Z0.000 F1555
G1 X89.057 Y48.515 Z0.000 F1555
G1 X89.169 Y48.054 Z0.000 F1555
G1 X89.256 Y47.585 Z0.000 F1555
G1 X89.315 Y47.107 Z0.000 F1555
G1 X89.344 Y46.619 Z0.000 F1555
G1 X89.546 Y46.548 Z0.000 F1555
G1 X89.739 Y46.509 Z0.000 F1555
G1 X89.924 Y46.499 Z0.000 F1555
G1 X90.101 Y46.517 Z0.000 F1555
; --- FIX Y Backlash: 0.900mm ---
G0 X90.101 Y47.417 F1200
G1 X90.431 Y47.531 Z0.000 F1555
G1 X90.726 Y47.739 Z0.000 F1555
G1 X90.986 Y48.027 Z0.000 F1555
G1 X91.210 Y48.383 Z0.000 F1555
G1 X91.397 Y48.796 Z0.000 F1555
G1 X91.546 Y49.252 Z0.000 F1555
G1 X91.656 Y49.738 Z0.000 F1555
G1 X91.726 Y50.243 Z0.000 F1555
G1 X91.756 Y50.754 Z0.000 F1555
G1 X91.743 Y51.258 Z0.000 F1555
; --- FIX X Backlash: -0.900mm ---
G0 X90.843 Y51.258 F1200
G1 X90.787 Y51.743 Z0.000 F1555
G1 X90.687 Y52.196 Z0.000 F1555
G1 X90.542 Y52.605 Z0.000 F1555
G1 X90.352 Y52.958 Z0.000 F1555
G1 X89.339 Y55.208 Z0.000 F1555
G1 X88.295 Y57.439 Z0.000 F1555
G1 X87.803 Y58.561 Z0.000 F1555
G1 X87.352 Y59.693 Z0.000 F1555
G1 X86.958 Y60.841 Z0.000 F1555
G1 X86.638 Y62.011 Z0.000 F1555
G1 X86.482 Y62.117 Z0.000 F1555
G1 X86.091 Y62.172 Z0.000 F1555
; --- FIX Y Backlash: -0.900mm ---
G0 X86.091 Y61.272 F1200
G1 X85.700 Y60.924 Z0.000 F1555
G1 X85.366 Y60.534 Z0.000 F1555
G1 X85.087 Y60.108 Z0.000 F1555
G1 X84.863 Y59.652 Z0.000 F1555
G1 X84.690 Y59.171 Z0.000 F1555
G1 X84.568 Y58.669 Z0.000 F1555
G1 X84.495 Y58.152 Z0.000 F1555
G1 X84.469 Y57.626 Z0.000 F1555
G1 X84.488 Y57.095 Z0.000 F1555
; --- FIX X Backlash: 0.900mm ---
G0 X85.388 Y57.095 F1200
G1 X85.452 Y56.564 Z0.000 F1555
G1 X85.557 Y56.040 Z0.000 F1555
G1 X85.703 Y55.526 Z0.000 F1555
G1 X85.888 Y55.029 Z0.000 F1555
G1 X86.110 Y54.553 Z0.000 F1555
G1 X86.368 Y54.103 Z0.000 F1555
G1 X86.660 Y53.686 Z0.000 F1555
G1 X87.556 Y52.000 Z0.000 F1555
G0 Z4.8F1555
; --- FIX X Backlash: -0.900mm ---
G0 X86.656 Y52.000 F1200
G0 X77.865 Y41.840 Z4.800
G1 Z0F1555
G1 X77.549 Y41.873 Z0.000 F1555
G1 X77.124 Y41.511 Z0.000 F1555
G1 X76.771 Y41.106 Z0.000 F1555
G1 X76.485 Y40.664 Z0.000 F1555
G1 X76.264 Y40.191 Z0.000 F1555
G1 X76.104 Y39.691 Z0.000 F1555
G1 X76.002 Y39.171 Z0.000 F1555
G1 X75.955 Y38.635 Z0.000 F1555
G1 X75.960 Y38.090 Z0.000 F1555
; --- FIX X Backlash: 0.900mm ---
G0 X76.860 Y38.090 F1200
G1 X76.914 Y37.540 Z0.000 F1555
G1 X77.013 Y36.991 Z0.000 F1555
G1 X77.155 Y36.448 Z0.000 F1555
G1 X77.336 Y35.917 Z0.000 F1555
G1 X77.554 Y35.404 Z0.000 F1555
G1 X77.804 Y34.913 Z0.000 F1555
G1 X78.084 Y34.450 Z0.000 F1555
G1 X78.391 Y34.021 Z0.000 F1555
G1 X78.715 Y33.630 Z0.000 F1555
G1 X79.010 Y33.214 Z0.000 F1555
G1 X79.281 Y32.777 Z0.000 F1555
G1 X79.530 Y32.321 Z0.000 F1555
G1 X79.974 Y31.374 Z0.000 F1555
G1 X80.366 Y30.404 Z0.000 F1555
G1 X80.731 Y29.443 Z0.000 F1555
G1 X81.094 Y28.522 Z0.000 F1555
G1 X81.281 Y28.087 Z0.000 F1555
G1 X81.477 Y27.673 Z0.000 F1555
G1 X81.685 Y27.285 Z0.000 F1555
G1 X81.907 Y26.928 Z0.000 F1555
; --- FIX Y Backlash: 0.900mm ---
G0 X81.907 Y27.828 F1200
G1 X82.187 Y28.024 Z0.000 F1555
G1 X82.439 Y28.232 Z0.000 F1555
G1 X82.663 Y28.451 Z0.000 F1555
G1 X82.862 Y28.680 Z0.000 F1555
G1 X83.183 Y29.165 Z0.000 F1555
G1 X83.410 Y29.683 Z0.000 F1555
G1 X83.552 Y30.229 Z0.000 F1555
G1 X83.616 Y30.796 Z0.000 F1555
G1 X83.611 Y31.380 Z0.000 F1555
; --- FIX X Backlash: -0.900mm ---
G0 X82.711 Y31.380 F1200
G1 X82.643 Y31.976 Z0.000 F1555
G1 X82.521 Y32.577 Z0.000 F1555
G1 X82.353 Y33.179 Z0.000 F1555
G1 X82.146 Y33.776 Z0.000 F1555
G1 X81.909 Y34.364 Z0.000 F1555
G1 X81.650 Y34.936 Z0.000 F1555
G1 X81.376 Y35.487 Z0.000 F1555
G1 X81.094 Y36.013 Z0.000 F1555
G1 X80.814 Y36.507 Z0.000 F1555
G1 X80.346 Y37.237 Z0.000 F1555
G1 X79.920 Y37.994 Z0.000 F1555
G1 X79.529 Y38.773 Z0.000 F1555
G1 X79.167 Y39.566 Z0.000 F1555
G1 X78.501 Y41.166 Z0.000 F1555
G1 X77.865 Y42.740 Z0.000 F1555
M9
M5
G1 Z10 F1555
G90
G1 Z10 F1555
; --- FIX X Backlash: 0.900mm ---
G0 X78.765 Y42.740 F1200
G1 X120.000 Y42.740 F1555

