;LightBurn 1.6.04
;Custom GCode device profile, absolute coords
;Bounds: X24.74 Y34.95 to X65.3 Y51.05
G00 G17 G40 G21 G54
G90
G1 Z10 F1500
;Scan @ 1500 mm/min, 90% power

M8
G0 Z4.8F1500
G0 X29.619Y34.95Z4.8
G1 Z0F1500
;Layer C3
G91
G0 Z5 F500
G1 X0.625Z0S0F1500
G0 Z-5 F500
G1 X10.012Z0S900F1500
G0 Z5 F500
G1 X13.031Z0S0F1500
G0 Z-5 F500
G1 X7.926Z0S900F1500
G0 Z5 F500
G1 X0.625Z0S0F1500
G1 X0.433Y0.7Z0F1500
G1 X-0.625Z0F1500
G0 Z-5 F500
G1 X-8.792Z0S900F1500
G0 Z5 F500
G1 X-12.173Z0S0F1500
G0 Z-5 F500
G1 X-10.862Z0S900F1500
G0 Z5 F500
G1 X-0.625Z0S0F1500
G1 X-0.426Y0.7Z0F1500
G1 X0.625Z0F1500
G0 Z-5 F500
G1 X11.714Z0S900F1500
G0 Z5 F500
G1 X11.314Z0S0F1500
G0 Z-5 F500
G1 X9.658Z0S900F1500
G0 Z5 F500
G1 X0.625Z0S0F1500
G1 X0.433Y0.7Z0F1500
G1 X-0.625Z0F1500
G0 Z-5 F500
G1 X-10.524Z0S900F1500
G0 Z5 F500
G1 X-10.456Z0S0F1500
G0 Z-5 F500
G1 X-12.564Z0S900F1500
G0 Z5 F500
G1 X-0.625Z0S0F1500
G1 X-0.426Y0.7Z0F1500
G1 X0.625Z0F1500
G0 Z-5 F500
G1 X13.416Z0S900F1500
G0 Z5 F500
G1 X9.597Z0S0F1500
G0 Z-5 F500
G1 X11.39Z0S900F1500
G0 Z5 F500
G1 X0.625Z0S0F1500
G1 X0.433Y0.7Z0F1500
G1 X-0.625Z0F1500
G0 Z-5 F500
G1 X-12.256Z0S900F1500
G0 Z5 F500
G1 X-8.739Z0S0F1500
G0 Z-5 F500
G1 X-14.266Z0S900F1500
G0 Z5 F500
G1 X-0.625Z0S0F1500
G1 X-0.425Y0.7Z0F1500
G1 X0.625Z0F1500
G0 Z-5 F500
G1 X15.116Z0S900F1500
G0 Z5 F500
G1 X7.881Z0S0F1500
G0 Z-5 F500
G1 X13.122Z0S900F1500
G0 Z5 F500
G1 X0.625Z0S0F1500
G1 X0.433Y0.7Z0F1500
G1 X-0.625Z0F1500
G0 Z-5 F500
G1 X-13.988Z0S900F1500
G0 Z5 F500
G1 X-7.022Z0S0F1500
G0 Z-5 F500
G1 X-15.968Z0S900F1500
G0 Z5 F500
G1 X-0.625Z0S0F1500
G1 X-0.425Y0.7Z0F1500
G1 X0.625Z0F1500
G0 Z-5 F500
G1 X16.818Z0S900F1500
G0 Z5 F500
G1 X6.164Z0S0F1500
G0 Z-5 F500
G1 X14.854Z0S900F1500
G0 Z5 F500
G1 X0.625Z0S0F1500
G1 X-0.287Y0.7Z0F1500
G1 X-0.625Z0F1500
G0 Z-5 F500
G1 X-14.28Z0S900F1500
G0 Z5 F500
G1 X-6.025Z0S0F1500
G0 Z-5 F500
G1 X-17.67Z0S900F1500
G0 Z5 F500
G1 X-0.625Z0S0F1500
G1 X-0.425Y0.7Z0F1500
G1 X0.625Z0F1500
G0 Z-5 F500
G1 X18.52Z0S900F1500
G0 Z5 F500
G1 X6.033Z0S0F1500
G0 Z-5 F500
G1 X13.414Z0S900F1500
G0 Z5 F500
G1 X0.625Z0S0F1500
G1 X-0.433Y0.7Z0F1500
G1 X-0.625Z0F1500
G0 Z-5 F500
G1 X-12.548Z0S900F1500
G0 Z5 F500
G1 X-6.04Z0S0F1500
G0 Z-5 F500
G1 X-19.372Z0S900F1500
G0 Z5 F500
G1 X-0.625Z0S0F1500
G1 X-0.203Y0.7Z0F1500
G1 X0.625Z0F1500
G0 Z-5 F500
G1 X19.778Z0S900F1500
G0 Z5 F500
G1 X6.27Z0S0F1500
G0 Z-5 F500
G1 X11.682Z0S900F1500
G0 Z5 F500
G1 X0.625Z0S0F1500
G1 X-0.433Y0.7Z0F1500
G1 X-0.625Z0F1500
G0 Z-5 F500
G1 X-10.816Z0S900F1500
G0 Z5 F500
G1 X-7.128Z0S0F1500
G0 Z-5 F500
G1 X-18.928Z0S900F1500
G0 Z5 F500
G1 X-0.625Z0S0F1500
G1 X0.426Y0.7Z0F1500
G1 X0.625Z0F1500
G0 Z-5 F500
G1 X18.076Z0S900F1500
G0 Z5 F500
G1 X7.987Z0S0F1500
G0 Z-5 F500
G1 X9.95Z0S900F1500
G0 Z5 F500
G1 X0.625Z0S0F1500
G1 X-0.433Y0.7Z0F1500
G1 X-0.625Z0F1500
G0 Z-5 F500
G1 X-9.084Z0S900F1500
G0 Z5 F500
G1 X-8.845Z0S0F1500
G0 Z-5 F500
G1 X-17.226Z0S900F1500
G0 Z5 F500
G1 X-0.625Z0S0F1500
G1 X0.426Y0.7Z0F1500
G1 X0.625Z0F1500
G0 Z-5 F500
G1 X16.374Z0S900F1500
G0 Z5 F500
G1 X9.704Z0S0F1500
G0 Z-5 F500
G1 X8.218Z0S900F1500
G0 Z5 F500
G1 X0.625Z0S0F1500
G1 X-18.347Y0.7Z0F1500
G1 X-0.625Z0F1500
G0 Z-5 F500
G1 X-15.524Z0S900F1500
G0 Z5 F500
G1 X-0.625Z0S0F1500
G1 X0.425Y0.7Z0F1500
G1 X0.625Z0F1500
G0 Z-5 F500
G1 X14.674Z0S900F1500
G0 Z5 F500
G1 X0.625Z0S0F1500
G1 X-0.426Y0.7Z0F1500
G1 X-0.625Z0F1500
G0 Z-5 F500
G1 X-13.822Z0S900F1500
G0 Z5 F500
G1 X-0.625Z0S0F1500
G1 X0.425Y0.7Z0F1500
G1 X0.625Z0F1500
G0 Z-5 F500
G1 X12.972Z0S900F1500
G0 Z5 F500
G1 X0.625Z0S0F1500
G1 X-0.426Y0.7Z0F1500
G1 X-0.625Z0F1500
G0 Z-5 F500
G1 X-12.12Z0S900F1500
G0 Z5 F500
G1 X-0.625Z0S0F1500
G1 X0.425Y0.7Z0F1500
G1 X0.625Z0F1500
G0 Z-5 F500
G1 X11.27Z0S900F1500
G0 Z5 F500
G1 X0.625Z0S0F1500
G1 X-0.426Y0.7Z0F1500
G1 X-0.625Z0F1500
G0 Z-5 F500
G1 X-10.419Z0S900F1500
G0 Z5 F500
G1 X-0.625Z0S0F1500
G90
M9
G1 Z10 F1500
G90
G1 Z10 F1500
