;LightBurn 1.6.04
;Custom GCode device profile, absolute coords
;Bounds: X23.37 Y39.2 to X108.24 Y70.7
G00 G17 G40 G21 G54
G90
M3
G1 Z10 F1500
;Scan @ 1500 mm/min, 90% power

M8
G0 Z3.5 F1500
G0 X31.947 Y39.197 Z3.5 
G1 Z0 F1500
;Layer Blue
G91
G0 Z5 F500
G1 X2.5 Z0 S0 F1500
G0 Z-5 F500
G1 X4.07 Z0 S900 F1500
G0 Z5 F500
G1 X2.5 Z0 S0 F1500
G1 X1.992 Y0.9 Z0 F1500
G1 X-2.5 Z0 F1500
G0 Z-5 F500
G1 X-8.054 Z0 S900 F1500
G0 Z5 F500
G1 X-2.5 Z0 S0 F1500
G1 X-1.22 Y0.9 Z0 F1500
G1 X2.5 Z0 F1500
G0 Z-5 F500
G1 X10.493 Z0 S900 F1500
G0 Z5 F500
G1 X2.5 Z0 S0 F1500
G1 X0.93 Y0.9 Z0 F1500
G1 X-2.5 Z0 F1500
G0 Z-5 F500
G1 X-12.352 Z0 S900 F1500
G0 Z5 F500
G1 X-2.5 Z0 S0 F1500
G1 X-0.757 Y0.9 Z0 F1500
G1 X2.5 Z0 F1500
G0 Z-5 F500
G1 X13.865 Z0 S900 F1500
G0 Z5 F500
G1 X2.5 Z0 S0 F1500
G1 X0.638 Y0.9 Z0 F1500
G1 X-2.5 Z0 F1500
G0 Z-5 F500
G1 X-15.14 Z0 S900 F1500
G0 Z5 F500
G1 X-2.5 Z0 S0 F1500
G1 X-0.542 Y0.9 Z0 F1500
G1 X2.5 Z0 F1500
G0 Z-5 F500
G1 X16.224 Z0 S900 F1500
G0 Z5 F500
G1 X2.5 Z0 S0 F1500
G1 X0.468 Y0.9 Z0 F1500
G1 X-2.5 Z0 F1500
G0 Z-5 F500
G1 X-17.16 Z0 S900 F1500
G0 Z5 F500
G1 X-2.5 Z0 S0 F1500
G1 X-0.404 Y0.9 Z0 F1500
G1 X2.5 Z0 F1500
G0 Z-5 F500
G1 X17.968 Z0 S900 F1500
G0 Z5 F500
G1 X2.5 Z0 S0 F1500
G1 X0.353 Y0.9 Z0 F1500
G1 X-2.5 Z0 F1500
G0 Z-5 F500
G1 X-18.674 Z0 S900 F1500
G0 Z5 F500
G1 X-2.5 Z0 S0 F1500
G1 X-0.297 Y0.9 Z0 F1500
G1 X2.5 Z0 F1500
G0 Z-5 F500
G1 X19.267 Z0 S900 F1500
G0 Z5 F500
G1 X2.5 Z0 S0 F1500
G1 X0.254 Y0.9 Z0 F1500
G1 X-2.5 Z0 F1500
G0 Z-5 F500
G1 X-19.775 Z0 S900 F1500
G0 Z5 F500
G1 X-2.5 Z0 S0 F1500
G1 X-0.213 Y0.9 Z0 F1500
G1 X2.5 Z0 F1500
G0 Z-5 F500
G1 X20.202 Z0 S900 F1500
G0 Z5 F500
G1 X2.5 Z0 S0 F1500
G1 X0.176 Y0.9 Z0 F1500
G1 X-2.5 Z0 F1500
G0 Z-5 F500
G1 X-20.554 Z0 S900 F1500
G0 Z5 F500
G1 X-2.5 Z0 S0 F1500
G1 X-0.136 Y0.9 Z0 F1500
G1 X2.5 Z0 F1500
G0 Z-5 F500
G1 X20.826 Z0 S900 F1500
G0 Z5 F500
G1 X2.5 Z0 S0 F1500
G1 X0.099 Y0.9 Z0 F1500
G1 X-2.5 Z0 F1500
G0 Z-5 F500
G1 X-21.025 Z0 S900 F1500
G0 Z5 F500
G1 X-2.5 Z0 S0 F1500
G1 X-0.066 Y0.9 Z0 F1500
G1 X2.5 Z0 F1500
G0 Z-5 F500
G1 X21.157 Z0 S900 F1500
G0 Z5 F500
G1 X2.5 Z0 S0 F1500
G1 X0.033 Y0.9 Z0 F1500
G1 X-2.5 Z0 F1500
G0 Z-5 F500
G1 X-21.222 Z0 S900 F1500
G0 Z5 F500
G1 X-2.5 Z0 S0 F1500
G1 Y0.9 Z0 F1500
G1 X2.5 Z0 F1500
G0 Z-5 F500
G1 X21.222 Z0 S900 F1500
G0 Z5 F500
G1 X2.5 Z0 S0 F1500
G1 X-0.033 Y0.9 Z0 F1500
G1 X-2.5 Z0 F1500
G0 Z-5 F500
G1 X-21.157 Z0 S900 F1500
G0 Z5 F500
G1 X-2.5 Z0 S0 F1500
G1 X0.066 Y0.9 Z0 F1500
G1 X2.5 Z0 F1500
G0 Z-5 F500
G1 X21.025 Z0 S900 F1500
G0 Z5 F500
G1 X2.5 Z0 S0 F1500
G1 X-0.099 Y0.9 Z0 F1500
G1 X-2.5 Z0 F1500
G0 Z-5 F500
G1 X-20.826 Z0 S900 F1500
G0 Z5 F500
G1 X-2.5 Z0 S0 F1500
G1 X0.136 Y0.9 Z0 F1500
G1 X2.5 Z0 F1500
G0 Z-5 F500
G1 X20.554 Z0 S900 F1500
G0 Z5 F500
G1 X2.5 Z0 S0 F1500
G1 X-0.176 Y0.9 Z0 F1500
G1 X-2.5 Z0 F1500
G0 Z-5 F500
G1 X-20.202 Z0 S900 F1500
G0 Z5 F500
G1 X-2.5 Z0 S0 F1500
G1 X0.213 Y0.9 Z0 F1500
G1 X2.5 Z0 F1500
G0 Z-5 F500
G1 X19.775 Z0 S900 F1500
G0 Z5 F500
G1 X2.5 Z0 S0 F1500
G1 X-0.254 Y0.9 Z0 F1500
G1 X-2.5 Z0 F1500
G0 Z-5 F500
G1 X-19.267 Z0 S900 F1500
G0 Z5 F500
G1 X-2.5 Z0 S0 F1500
G1 X0.297 Y0.9 Z0 F1500
G1 X2.5 Z0 F1500
G0 Z-5 F500
G1 X18.674 Z0 S900 F1500
G0 Z5 F500
G1 X2.5 Z0 S0 F1500
G1 X-0.353 Y0.9 Z0 F1500
G1 X-2.5 Z0 F1500
G0 Z-5 F500
G1 X-17.968 Z0 S900 F1500
G0 Z5 F500
G1 X-2.5 Z0 S0 F1500
G1 X0.404 Y0.9 Z0 F1500
G1 X2.5 Z0 F1500
G0 Z-5 F500
G1 X17.16 Z0 S900 F1500
G0 Z5 F500
G1 X2.5 Z0 S0 F1500
G1 X-0.468 Y0.9 Z0 F1500
G1 X-2.5 Z0 F1500
G0 Z-5 F500
G1 X-16.224 Z0 S900 F1500
G0 Z5 F500
G1 X-2.5 Z0 S0 F1500
G1 X0.542 Y0.9 Z0 F1500
G1 X2.5 Z0 F1500
G0 Z-5 F500
G1 X15.14 Z0 S900 F1500
G0 Z5 F500
G1 X2.5 Z0 S0 F1500
G1 X-0.638 Y0.9 Z0 F1500
G1 X-2.5 Z0 F1500
G0 Z-5 F500
G1 X-13.865 Z0 S900 F1500
G0 Z5 F500
G1 X-2.5 Z0 S0 F1500
G1 X0.757 Y0.9 Z0 F1500
G1 X2.5 Z0 F1500
G0 Z-5 F500
G1 X12.352 Z0 S900 F1500
G0 Z5 F500
G1 X2.5 Z0 S0 F1500
G1 X-0.93 Y0.9 Z0 F1500
G1 X-2.5 Z0 F1500
G0 Z-5 F500
G1 X-10.493 Z0 S900 F1500
G0 Z5 F500
G1 X-2.5 Z0 S0 F1500
G1 X1.22 Y0.9 Z0 F1500
G1 X2.5 Z0 F1500
G0 Z-5 F500
G1 X8.054 Z0 S900 F1500
G0 Z5 F500
G1 X2.5 Z0 S0 F1500
G1 X-1.992 Y0.9 Z0 F1500
G1 X-2.5 Z0 F1500
G0 Z-5 F500
G1 X-4.07 Z0 S900 F1500
G0 Z5 F500
G1 X-2.5 Z0 S0 F1500
G90
;Offset @ 1500 mm/min, 90% power

M8
G0 Z3.5 F1500
G0 X67.74 Y51.262 Z3.5 F1500
G1 Z0 F1500
;Layer Green
G1 X67.769 Y51.284 Z0 S900 F1500
G1 X67.776 Y51.29 Z0 F1500
G1 X67.784 Y51.298 Z0 F1500
G1 X67.807 Y51.33 Z0 F1500
G1 Y51.333 Z0 F1500
G1 Y51.352 Z0 F1500
G1 X67.784 Y51.385 Z0 F1500
G1 X67.777 Y51.393 Z0 F1500
G1 X67.77 Y51.399 Z0 F1500
G1 X67.739 Y51.422 Z0 F1500
G1 X67.736 Z0 F1500
G1 X67.727 Z0 F1500
G1 X67.718 Z0 F1500
G1 X67.714 Z0 F1500
G1 X67.684 Y51.399 Z0 F1500
G1 X67.676 Y51.393 Z0 F1500
G1 X67.669 Y51.385 Z0 F1500
G1 X67.646 Y51.354 Z0 F1500
G1 Y51.335 Z0 F1500
G1 Y51.33 Z0 F1500
G1 X67.67 Y51.298 Z0 F1500
G1 X67.678 Y51.29 Z0 F1500
G1 X67.685 Y51.284 Z0 F1500
G1 X67.714 Y51.262 Z0 F1500
G1 X67.727 Z0 F1500
G1 X67.74 Z0 F1500
G0 Z3.5 F1500
G0 X68.706 Y51.281 Z3.5 
G1 Z0 F1500
G1 Y51.342 Z0 F1500
G1 Y51.402 Z0 F1500
G1 X68.702 Y51.453 Z0 F1500
G1 X68.696 Y51.502 Z0 F1500
G1 X68.687 Y51.554 Z0 F1500
G1 X68.677 Y51.597 Z0 F1500
G1 X68.666 Y51.636 Z0 F1500
G1 X68.651 Y51.678 Z0 F1500
G1 X68.635 Y51.721 Z0 F1500
G1 X68.611 Y51.772 Z0 F1500
G1 X68.596 Y51.803 Z0 F1500
G1 X68.481 Y51.956 Z0 F1500
G1 X68.415 Y52.03 Z0 F1500
G1 X68.341 Y52.097 Z0 F1500
G1 X68.189 Y52.21 Z0 F1500
G1 X68.15 Y52.23 Z0 F1500
G1 X68.111 Y52.248 Z0 F1500
G1 X68.063 Y52.267 Z0 F1500
G1 X68.021 Y52.281 Z0 F1500
G1 X67.982 Y52.292 Z0 F1500
G1 X67.939 Y52.302 Z0 F1500
G1 X67.887 Y52.311 Z0 F1500
G1 X67.838 Y52.317 Z0 F1500
G1 X67.789 Y52.321 Z0 F1500
G1 X67.727 Z0 F1500
G1 X67.666 Z0 F1500
G1 X67.613 Y52.317 Z0 F1500
G1 X67.568 Y52.312 Z0 F1500
G1 X67.515 Y52.302 Z0 F1500
G1 X67.472 Y52.292 Z0 F1500
G1 X67.434 Y52.281 Z0 F1500
G1 X67.393 Y52.267 Z0 F1500
G1 X67.339 Y52.246 Z0 F1500
G1 X67.306 Y52.231 Z0 F1500
G1 X67.267 Y52.211 Z0 F1500
G1 X67.262 Y52.208 Z0 F1500
G1 X67.113 Y52.097 Z0 F1500
G1 X67.039 Y52.03 Z0 F1500
G1 X66.972 Y51.956 Z0 F1500
G1 X66.862 Y51.809 Z0 F1500
G1 X66.857 Y51.801 Z0 F1500
G1 X66.838 Y51.763 Z0 F1500
G1 X66.819 Y51.721 Z0 F1500
G1 X66.805 Y51.685 Z0 F1500
G1 X66.787 Y51.632 Z0 F1500
G1 X66.776 Y51.595 Z0 F1500
G1 X66.767 Y51.554 Z0 F1500
G1 X66.758 Y51.505 Z0 F1500
G1 X66.752 Y51.458 Z0 F1500
G1 X66.748 Y51.396 Z0 F1500
G1 Y51.342 Z0 F1500
G1 Y51.285 Z0 F1500
G1 X66.752 Y51.222 Z0 F1500
G1 X66.758 Y51.179 Z0 F1500
G1 X66.766 Y51.135 Z0 F1500
G1 X66.777 Y51.088 Z0 F1500
G1 X66.787 Y51.053 Z0 F1500
G1 X66.804 Y51.002 Z0 F1500
G1 X66.823 Y50.955 Z0 F1500
G1 X66.836 Y50.925 Z0 F1500
G1 X66.861 Y50.876 Z0 F1500
G1 X66.972 Y50.728 Z0 F1500
G1 X67.037 Y50.657 Z0 F1500
G1 X67.113 Y50.588 Z0 F1500
G1 X67.262 Y50.476 Z0 F1500
G1 X67.267 Y50.473 Z0 F1500
G1 X67.308 Y50.453 Z0 F1500
G1 X67.345 Y50.436 Z0 F1500
G1 X67.387 Y50.419 Z0 F1500
G1 X67.438 Y50.402 Z0 F1500
G1 X67.474 Y50.392 Z0 F1500
G1 X67.515 Y50.382 Z0 F1500
G1 X67.567 Y50.373 Z0 F1500
G1 X67.606 Y50.368 Z0 F1500
G1 X67.666 Y50.363 Z0 F1500
G1 X67.727 Z0 F1500
G1 X67.789 Z0 F1500
G1 X67.844 Y50.368 Z0 F1500
G1 X67.89 Y50.374 Z0 F1500
G1 X67.939 Y50.382 Z0 F1500
G1 X67.979 Y50.392 Z0 F1500
G1 X68.017 Y50.402 Z0 F1500
G1 X68.069 Y50.42 Z0 F1500
G1 X68.105 Y50.434 Z0 F1500
G1 X68.149 Y50.454 Z0 F1500
G1 X68.189 Y50.475 Z0 F1500
G1 X68.341 Y50.588 Z0 F1500
G1 X68.417 Y50.657 Z0 F1500
G1 X68.481 Y50.728 Z0 F1500
G1 X68.593 Y50.877 Z0 F1500
G1 X68.596 Y50.882 Z0 F1500
G1 X68.616 Y50.921 Z0 F1500
G1 X68.631 Y50.955 Z0 F1500
G1 X68.652 Y51.008 Z0 F1500
G1 X68.665 Y51.044 Z0 F1500
G1 X68.676 Y51.085 Z0 F1500
G1 X68.688 Y51.135 Z0 F1500
G1 X68.696 Y51.18 Z0 F1500
G1 X68.702 Y51.228 Z0 F1500
G1 X68.706 Y51.281 Z0 F1500
G0 Z3.5 F1500
G0 X68.915 Y52.791 Z3.5 
G1 Z0 F1500
G1 X68.687 Y52.961 Z0 F1500
G1 X68.614 Y53.003 Z0 F1500
G1 X68.545 Y53.039 Z0 F1500
G1 X68.454 Y53.08 Z0 F1500
G1 X68.374 Y53.112 Z0 F1500
G1 X68.292 Y53.14 Z0 F1500
G1 X68.203 Y53.165 Z0 F1500
G1 X68.116 Y53.185 Z0 F1500
G1 X68.023 Y53.201 Z0 F1500
G1 X67.932 Y53.213 Z0 F1500
G1 X67.832 Y53.221 Z0 F1500
G1 X67.727 Z0 F1500
G1 X67.623 Z0 F1500
G1 X67.529 Y53.213 Z0 F1500
G1 X67.423 Y53.2 Z0 F1500
G1 X67.338 Y53.185 Z0 F1500
G1 X67.251 Y53.165 Z0 F1500
G1 X67.169 Y53.142 Z0 F1500
G1 X67.08 Y53.111 Z0 F1500
G1 X66.993 Y53.077 Z0 F1500
G1 X66.915 Y53.042 Z0 F1500
G1 X66.83 Y52.998 Z0 F1500
G1 X66.768 Y52.962 Z0 F1500
G1 X66.539 Y52.791 Z0 F1500
G1 X66.402 Y52.667 Z0 F1500
G1 X66.278 Y52.53 Z0 F1500
G1 X66.107 Y52.302 Z0 F1500
G1 X66.068 Y52.233 Z0 F1500
G1 X66.029 Y52.157 Z0 F1500
G1 X65.988 Y52.068 Z0 F1500
G1 X65.957 Y51.989 Z0 F1500
G1 X65.929 Y51.907 Z0 F1500
G1 X65.904 Y51.818 Z0 F1500
G1 X65.884 Y51.731 Z0 F1500
G1 X65.868 Y51.641 Z0 F1500
G1 X65.856 Y51.551 Z0 F1500
G1 X65.848 Y51.441 Z0 F1500
G1 Y51.342 Z0 F1500
G1 Y51.244 Z0 F1500
G1 X65.856 Y51.141 Z0 F1500
G1 X65.869 Y51.042 Z0 F1500
G1 X65.885 Y50.951 Z0 F1500
G1 X65.905 Y50.862 Z0 F1500
G1 X65.926 Y50.788 Z0 F1500
G1 X65.959 Y50.692 Z0 F1500
G1 X65.992 Y50.608 Z0 F1500
G1 X66.027 Y50.531 Z0 F1500
G1 X66.067 Y50.453 Z0 F1500
G1 X66.108 Y50.38 Z0 F1500
G1 X66.278 Y50.154 Z0 F1500
G1 X66.4 Y50.02 Z0 F1500
G1 X66.538 Y49.894 Z0 F1500
G1 X66.767 Y49.723 Z0 F1500
G1 X66.831 Y49.686 Z0 F1500
G1 X66.924 Y49.638 Z0 F1500
G1 X66.991 Y49.607 Z0 F1500
G1 X67.077 Y49.574 Z0 F1500
G1 X67.173 Y49.542 Z0 F1500
G1 X67.25 Y49.52 Z0 F1500
G1 X67.338 Y49.499 Z0 F1500
G1 X67.42 Y49.484 Z0 F1500
G1 X67.523 Y49.472 Z0 F1500
G1 X67.623 Y49.464 Z0 F1500
G1 X67.727 Y49.461 Z0 F1500
G1 X67.832 Y49.464 Z0 F1500
G1 X67.938 Y49.472 Z0 F1500
G1 X68.026 Y49.483 Z0 F1500
G1 X68.116 Y49.499 Z0 F1500
G1 X68.203 Y49.52 Z0 F1500
G1 X68.292 Y49.544 Z0 F1500
G1 X68.374 Y49.572 Z0 F1500
G1 X68.454 Y49.604 Z0 F1500
G1 X68.536 Y49.641 Z0 F1500
G1 X68.614 Y49.681 Z0 F1500
G1 X68.688 Y49.723 Z0 F1500
G1 X68.916 Y49.894 Z0 F1500
G1 X69.054 Y50.02 Z0 F1500
G1 X69.176 Y50.154 Z0 F1500
G1 X69.347 Y50.383 Z0 F1500
G1 X69.383 Y50.446 Z0 F1500
G1 X69.427 Y50.53 Z0 F1500
G1 X69.462 Y50.608 Z0 F1500
G1 X69.496 Y50.695 Z0 F1500
G1 X69.526 Y50.785 Z0 F1500
G1 X69.548 Y50.862 Z0 F1500
G1 X69.569 Y50.951 Z0 F1500
G1 X69.585 Y51.044 Z0 F1500
G1 X69.598 Y51.144 Z0 F1500
G1 X69.605 Y51.238 Z0 F1500
G1 X69.608 Y51.342 Z0 F1500
G1 X69.605 Y51.447 Z0 F1500
G1 X69.598 Y51.547 Z0 F1500
G1 X69.586 Y51.639 Z0 F1500
G1 X69.57 Y51.731 Z0 F1500
G1 X69.549 Y51.818 Z0 F1500
G1 X69.524 Y51.907 Z0 F1500
G1 X69.497 Y51.989 Z0 F1500
G1 X69.465 Y52.068 Z0 F1500
G1 X69.425 Y52.158 Z0 F1500
G1 X69.387 Y52.232 Z0 F1500
G1 X69.346 Y52.302 Z0 F1500
G1 X69.176 Y52.53 Z0 F1500
G1 X69.052 Y52.667 Z0 F1500
G1 X68.915 Y52.791 Z0 F1500
G0 Z3.5 F1500
G0 X67.58 Y54.12 Z3.5 
G1 Z0 F1500
G1 X67.433 Y54.109 Z0 F1500
G1 X67.297 Y54.091 Z0 F1500
G1 X67.151 Y54.065 Z0 F1500
G1 X67.03 Y54.038 Z0 F1500
G1 X66.896 Y54 Z0 F1500
G1 X66.772 Y53.958 Z0 F1500
G1 X66.642 Y53.906 Z0 F1500
G1 X66.524 Y53.853 Z0 F1500
G1 X66.401 Y53.79 Z0 F1500
G1 X66.294 Y53.728 Z0 F1500
G1 X66.259 Y53.706 Z0 F1500
G1 X65.964 Y53.485 Z0 F1500
G1 X65.765 Y53.304 Z0 F1500
G1 X65.583 Y53.104 Z0 F1500
G1 X65.363 Y52.81 Z0 F1500
G1 X65.345 Y52.781 Z0 F1500
G1 X65.276 Y52.662 Z0 F1500
G1 X65.216 Y52.544 Z0 F1500
G1 X65.163 Y52.428 Z0 F1500
G1 X65.111 Y52.296 Z0 F1500
G1 X65.07 Y52.175 Z0 F1500
G1 X65.031 Y52.036 Z0 F1500
G1 X65.003 Y51.917 Z0 F1500
G1 X64.979 Y51.778 Z0 F1500
G1 X64.96 Y51.633 Z0 F1500
G1 X64.949 Y51.485 Z0 F1500
G1 X64.945 Y51.342 Z0 F1500
G1 X64.949 Y51.2 Z0 F1500
G1 X64.96 Y51.048 Z0 F1500
G1 X64.979 Y50.904 Z0 F1500
G1 X65.002 Y50.774 Z0 F1500
G1 X65.032 Y50.645 Z0 F1500
G1 X65.069 Y50.514 Z0 F1500
G1 X65.114 Y50.382 Z0 F1500
G1 X65.163 Y50.257 Z0 F1500
G1 X65.214 Y50.144 Z0 F1500
G1 X65.277 Y50.021 Z0 F1500
G1 X65.346 Y49.901 Z0 F1500
G1 X65.363 Y49.875 Z0 F1500
G1 X65.583 Y49.58 Z0 F1500
G1 X65.763 Y49.382 Z0 F1500
G1 X65.966 Y49.197 Z0 F1500
G1 X66.257 Y48.979 Z0 F1500
G1 X66.291 Y48.958 Z0 F1500
G1 X66.401 Y48.895 Z0 F1500
G1 X66.528 Y48.83 Z0 F1500
G1 X66.645 Y48.777 Z0 F1500
G1 X66.767 Y48.729 Z0 F1500
G1 X66.898 Y48.684 Z0 F1500
G1 X67.033 Y48.646 Z0 F1500
G1 X67.151 Y48.619 Z0 F1500
G1 X67.292 Y48.593 Z0 F1500
G1 X67.43 Y48.576 Z0 F1500
G1 X67.58 Y48.564 Z0 F1500
G1 X67.727 Y48.561 Z0 F1500
G1 X67.874 Y48.564 Z0 F1500
G1 X68.021 Y48.576 Z0 F1500
G1 X68.163 Y48.594 Z0 F1500
G1 X68.302 Y48.619 Z0 F1500
G1 X68.42 Y48.646 Z0 F1500
G1 X68.56 Y48.686 Z0 F1500
G1 X68.681 Y48.727 Z0 F1500
G1 X68.811 Y48.778 Z0 F1500
G1 X68.927 Y48.831 Z0 F1500
G1 X69.052 Y48.894 Z0 F1500
G1 X69.162 Y48.957 Z0 F1500
G1 X69.196 Y48.979 Z0 F1500
G1 X69.487 Y49.197 Z0 F1500
G1 X69.691 Y49.382 Z0 F1500
G1 X69.87 Y49.58 Z0 F1500
G1 X70.091 Y49.875 Z0 F1500
G1 X70.113 Y49.909 Z0 F1500
G1 X70.175 Y50.017 Z0 F1500
G1 X70.238 Y50.14 Z0 F1500
G1 X70.291 Y50.257 Z0 F1500
G1 X70.342 Y50.387 Z0 F1500
G1 X70.384 Y50.511 Z0 F1500
G1 X70.421 Y50.642 Z0 F1500
G1 X70.452 Y50.774 Z0 F1500
G1 X70.476 Y50.909 Z0 F1500
G1 X70.494 Y51.048 Z0 F1500
G1 X70.505 Y51.195 Z0 F1500
G1 X70.508 Y51.342 Z0 F1500
G1 X70.505 Y51.489 Z0 F1500
G1 X70.494 Y51.634 Z0 F1500
G1 X70.476 Y51.774 Z0 F1500
G1 X70.45 Y51.917 Z0 F1500
G1 X70.422 Y52.039 Z0 F1500
G1 X70.385 Y52.171 Z0 F1500
G1 X70.342 Y52.297 Z0 F1500
G1 X70.291 Y52.428 Z0 F1500
G1 X70.236 Y52.549 Z0 F1500
G1 X70.176 Y52.666 Z0 F1500
G1 X70.114 Y52.774 Z0 F1500
G1 X70.091 Y52.81 Z0 F1500
G1 X69.87 Y53.104 Z0 F1500
G1 X69.689 Y53.304 Z0 F1500
G1 X69.489 Y53.485 Z0 F1500
G1 X69.194 Y53.706 Z0 F1500
G1 X69.159 Y53.729 Z0 F1500
G1 X69.052 Y53.791 Z0 F1500
G1 X68.932 Y53.852 Z0 F1500
G1 X68.813 Y53.905 Z0 F1500
G1 X68.682 Y53.958 Z0 F1500
G1 X68.556 Y54 Z0 F1500
G1 X68.424 Y54.038 Z0 F1500
G1 X68.302 Y54.065 Z0 F1500
G1 X68.159 Y54.091 Z0 F1500
G1 X68.019 Y54.109 Z0 F1500
G1 X67.874 Y54.12 Z0 F1500
G1 X67.727 Y54.124 Z0 F1500
G1 X67.58 Y54.12 Z0 F1500
G0 Z3.5 F1500
G0 X65.391 Y54.18 Z3.5 
G1 Z0 F1500
G1 X65.128 Y53.941 Z0 F1500
G1 X64.889 Y53.678 Z0 F1500
G1 X64.622 Y53.322 Z0 F1500
G1 X64.572 Y53.243 Z0 F1500
G1 X64.487 Y53.095 Z0 F1500
G1 X64.405 Y52.935 Z0 F1500
G1 X64.332 Y52.774 Z0 F1500
G1 X64.267 Y52.608 Z0 F1500
G1 X64.21 Y52.44 Z0 F1500
G1 X64.159 Y52.262 Z0 F1500
G1 X64.12 Y52.09 Z0 F1500
G1 X64.088 Y51.915 Z0 F1500
G1 X64.064 Y51.72 Z0 F1500
G1 X64.05 Y51.539 Z0 F1500
G1 X64.045 Y51.342 Z0 F1500
G1 X64.05 Y51.146 Z0 F1500
G1 X64.064 Y50.956 Z0 F1500
G1 X64.087 Y50.775 Z0 F1500
G1 X64.121 Y50.59 Z0 F1500
G1 X64.16 Y50.419 Z0 F1500
G1 X64.211 Y50.241 Z0 F1500
G1 X64.269 Y50.07 Z0 F1500
G1 X64.335 Y49.903 Z0 F1500
G1 X64.401 Y49.757 Z0 F1500
G1 X64.489 Y49.584 Z0 F1500
G1 X64.572 Y49.441 Z0 F1500
G1 X64.622 Y49.362 Z0 F1500
G1 X64.889 Y49.006 Z0 F1500
G1 X65.126 Y48.745 Z0 F1500
G1 X65.395 Y48.501 Z0 F1500
G1 X65.743 Y48.24 Z0 F1500
G1 X65.822 Y48.189 Z0 F1500
G1 X65.977 Y48.101 Z0 F1500
G1 X66.137 Y48.019 Z0 F1500
G1 X66.291 Y47.949 Z0 F1500
G1 X66.457 Y47.884 Z0 F1500
G1 X66.633 Y47.824 Z0 F1500
G1 X66.807 Y47.774 Z0 F1500
G1 X66.977 Y47.735 Z0 F1500
G1 X67.155 Y47.703 Z0 F1500
G1 X67.337 Y47.68 Z0 F1500
G1 X67.527 Y47.666 Z0 F1500
G1 X67.727 Y47.661 Z0 F1500
G1 X67.927 Y47.666 Z0 F1500
G1 X68.114 Y47.68 Z0 F1500
G1 X68.3 Y47.704 Z0 F1500
G1 X68.477 Y47.735 Z0 F1500
G1 X68.646 Y47.774 Z0 F1500
G1 X68.825 Y47.825 Z0 F1500
G1 X68.995 Y47.882 Z0 F1500
G1 X69.162 Y47.949 Z0 F1500
G1 X69.319 Y48.02 Z0 F1500
G1 X69.471 Y48.097 Z0 F1500
G1 X69.633 Y48.19 Z0 F1500
G1 X69.71 Y48.24 Z0 F1500
G1 X70.059 Y48.501 Z0 F1500
G1 X70.328 Y48.745 Z0 F1500
G1 X70.564 Y49.006 Z0 F1500
G1 X70.832 Y49.362 Z0 F1500
G1 X70.882 Y49.441 Z0 F1500
G1 X70.967 Y49.588 Z0 F1500
G1 X71.046 Y49.743 Z0 F1500
G1 X71.119 Y49.903 Z0 F1500
G1 X71.189 Y50.083 Z0 F1500
G1 X71.244 Y50.244 Z0 F1500
G1 X71.292 Y50.412 Z0 F1500
G1 X71.333 Y50.59 Z0 F1500
G1 X71.366 Y50.773 Z0 F1500
G1 X71.39 Y50.962 Z0 F1500
G1 X71.403 Y51.138 Z0 F1500
G1 X71.409 Y51.342 Z0 F1500
G1 X71.403 Y51.542 Z0 F1500
G1 X71.389 Y51.729 Z0 F1500
G1 X71.367 Y51.903 Z0 F1500
G1 X71.334 Y52.09 Z0 F1500
G1 X71.293 Y52.268 Z0 F1500
G1 X71.246 Y52.436 Z0 F1500
G1 X71.188 Y52.607 Z0 F1500
G1 X71.122 Y52.774 Z0 F1500
G1 X71.045 Y52.943 Z0 F1500
G1 X70.972 Y53.087 Z0 F1500
G1 X70.882 Y53.243 Z0 F1500
G1 X70.832 Y53.322 Z0 F1500
G1 X70.564 Y53.678 Z0 F1500
G1 X70.326 Y53.941 Z0 F1500
G1 X70.063 Y54.18 Z0 F1500
G1 X69.707 Y54.447 Z0 F1500
G1 X69.627 Y54.497 Z0 F1500
G1 X69.473 Y54.586 Z0 F1500
G1 X69.322 Y54.664 Z0 F1500
G1 X69.165 Y54.734 Z0 F1500
G1 X68.992 Y54.803 Z0 F1500
G1 X68.82 Y54.861 Z0 F1500
G1 X68.653 Y54.908 Z0 F1500
G1 X68.477 Y54.949 Z0 F1500
G1 X68.293 Y54.981 Z0 F1500
G1 X68.114 Y55.004 Z0 F1500
G1 X67.927 Y55.019 Z0 F1500
G1 X67.727 Y55.024 Z0 F1500
G1 X67.527 Y55.019 Z0 F1500
G1 X67.347 Y55.005 Z0 F1500
G1 X67.152 Y54.98 Z0 F1500
G1 X66.977 Y54.949 Z0 F1500
G1 X66.8 Y54.908 Z0 F1500
G1 X66.628 Y54.859 Z0 F1500
G1 X66.468 Y54.805 Z0 F1500
G1 X66.288 Y54.734 Z0 F1500
G1 X66.134 Y54.665 Z0 F1500
G1 X65.977 Y54.584 Z0 F1500
G1 X65.828 Y54.499 Z0 F1500
G1 X65.747 Y54.447 Z0 F1500
G1 X65.391 Y54.18 Z0 F1500
G0 Z3.5 F1500
G0 X63.35 Y52.705 Z3.5 
G1 Z0 F1500
G1 X63.287 Y52.485 Z0 F1500
G1 X63.239 Y52.279 Z0 F1500
G1 X63.197 Y52.043 Z0 F1500
G1 X63.169 Y51.818 Z0 F1500
G1 X63.151 Y51.583 Z0 F1500
G1 X63.145 Y51.342 Z0 F1500
G1 X63.151 Y51.102 Z0 F1500
G1 X63.168 Y50.874 Z0 F1500
G1 X63.199 Y50.628 Z0 F1500
G1 X63.237 Y50.415 Z0 F1500
G1 X63.288 Y50.195 Z0 F1500
G1 X63.352 Y49.971 Z0 F1500
G1 X63.42 Y49.771 Z0 F1500
G1 X63.502 Y49.56 Z0 F1500
G1 X63.594 Y49.357 Z0 F1500
G1 X63.693 Y49.165 Z0 F1500
G1 X63.81 Y48.961 Z0 F1500
G1 X63.881 Y48.85 Z0 F1500
G1 X64.192 Y48.435 Z0 F1500
G1 X64.491 Y48.105 Z0 F1500
G1 X64.814 Y47.812 Z0 F1500
G1 X65.234 Y47.498 Z0 F1500
G1 X65.358 Y47.418 Z0 F1500
G1 X65.541 Y47.313 Z0 F1500
G1 X65.75 Y47.206 Z0 F1500
G1 X65.943 Y47.118 Z0 F1500
G1 X66.155 Y47.035 Z0 F1500
G1 X66.356 Y46.967 Z0 F1500
G1 X66.583 Y46.902 Z0 F1500
G1 X66.79 Y46.854 Z0 F1500
G1 X67.018 Y46.814 Z0 F1500
G1 X67.255 Y46.784 Z0 F1500
G1 X67.485 Y46.767 Z0 F1500
G1 X67.727 Y46.76 Z0 F1500
G1 X67.969 Y46.767 Z0 F1500
G1 X68.206 Y46.785 Z0 F1500
G1 X68.428 Y46.813 Z0 F1500
G1 X68.664 Y46.854 Z0 F1500
G1 X68.87 Y46.902 Z0 F1500
G1 X69.089 Y46.965 Z0 F1500
G1 X69.311 Y47.04 Z0 F1500
G1 X69.506 Y47.116 Z0 F1500
G1 X69.71 Y47.209 Z0 F1500
G1 X69.91 Y47.311 Z0 F1500
G1 X70.093 Y47.417 Z0 F1500
G1 X70.22 Y47.498 Z0 F1500
G1 X70.639 Y47.812 Z0 F1500
G1 X70.962 Y48.105 Z0 F1500
G1 X71.262 Y48.435 Z0 F1500
G1 X71.572 Y48.85 Z0 F1500
G1 X71.649 Y48.969 Z0 F1500
G1 X71.756 Y49.156 Z0 F1500
G1 X71.86 Y49.358 Z0 F1500
G1 X71.951 Y49.56 Z0 F1500
G1 X72.032 Y49.767 Z0 F1500
G1 X72.104 Y49.979 Z0 F1500
G1 X72.165 Y50.191 Z0 F1500
G1 X72.216 Y50.415 Z0 F1500
G1 X72.255 Y50.635 Z0 F1500
G1 X72.285 Y50.868 Z0 F1500
G1 X72.303 Y51.1 Z0 F1500
G1 X72.309 Y51.342 Z0 F1500
G1 X72.303 Y51.584 Z0 F1500
G1 X72.285 Y51.815 Z0 F1500
G1 X72.256 Y52.044 Z0 F1500
G1 X72.214 Y52.279 Z0 F1500
G1 X72.166 Y52.489 Z0 F1500
G1 X72.104 Y52.709 Z0 F1500
G1 X72.032 Y52.918 Z0 F1500
G1 X71.954 Y53.119 Z0 F1500
G1 X71.858 Y53.329 Z0 F1500
G1 X71.756 Y53.528 Z0 F1500
G1 X71.65 Y53.712 Z0 F1500
G1 X71.572 Y53.834 Z0 F1500
G1 X71.262 Y54.25 Z0 F1500
G1 X70.963 Y54.578 Z0 F1500
G1 X70.634 Y54.877 Z0 F1500
G1 X70.219 Y55.188 Z0 F1500
G1 X70.097 Y55.266 Z0 F1500
G1 X69.91 Y55.374 Z0 F1500
G1 X69.716 Y55.473 Z0 F1500
G1 X69.504 Y55.568 Z0 F1500
G1 X69.303 Y55.647 Z0 F1500
G1 X69.094 Y55.719 Z0 F1500
G1 X68.874 Y55.781 Z0 F1500
G1 X68.664 Y55.83 Z0 F1500
G1 X68.429 Y55.872 Z0 F1500
G1 X68.2 Y55.9 Z0 F1500
G1 X67.969 Y55.918 Z0 F1500
G1 X67.727 Y55.924 Z0 F1500
G1 X67.485 Y55.918 Z0 F1500
G1 X67.253 Y55.9 Z0 F1500
G1 X67.025 Y55.872 Z0 F1500
G1 X66.79 Y55.83 Z0 F1500
G1 X66.58 Y55.781 Z0 F1500
G1 X66.364 Y55.72 Z0 F1500
G1 X66.151 Y55.647 Z0 F1500
G1 X65.945 Y55.566 Z0 F1500
G1 X65.743 Y55.475 Z0 F1500
G1 X65.541 Y55.372 Z0 F1500
G1 X65.354 Y55.264 Z0 F1500
G1 X65.234 Y55.188 Z0 F1500
G1 X64.819 Y54.877 Z0 F1500
G1 X64.491 Y54.578 Z0 F1500
G1 X64.192 Y54.25 Z0 F1500
G1 X63.881 Y53.834 Z0 F1500
G1 X63.809 Y53.721 Z0 F1500
G1 X63.693 Y53.519 Z0 F1500
G1 X63.595 Y53.33 Z0 F1500
G1 X63.5 Y53.119 Z0 F1500
G1 X63.424 Y52.926 Z0 F1500
G1 X63.35 Y52.705 Z0 F1500
G0 Z3.5 F1500
G0 X62.356 Y50.229 Z3.5 
G1 Z0 F1500
G1 X62.417 Y49.967 Z0 F1500
G1 X62.491 Y49.709 Z0 F1500
G1 X62.575 Y49.46 Z0 F1500
G1 X62.675 Y49.206 Z0 F1500
G1 X62.781 Y48.97 Z0 F1500
G1 X62.903 Y48.733 Z0 F1500
G1 X63.038 Y48.499 Z0 F1500
G1 X63.143 Y48.334 Z0 F1500
G1 X63.498 Y47.86 Z0 F1500
G1 X63.852 Y47.47 Z0 F1500
G1 X64.243 Y47.115 Z0 F1500
G1 X64.72 Y46.758 Z0 F1500
G1 X64.887 Y46.651 Z0 F1500
G1 X65.119 Y46.518 Z0 F1500
G1 X65.357 Y46.396 Z0 F1500
G1 X65.589 Y46.291 Z0 F1500
G1 X65.845 Y46.19 Z0 F1500
G1 X66.094 Y46.106 Z0 F1500
G1 X66.357 Y46.031 Z0 F1500
G1 X66.613 Y45.972 Z0 F1500
G1 X66.881 Y45.924 Z0 F1500
G1 X67.162 Y45.889 Z0 F1500
G1 X67.433 Y45.868 Z0 F1500
G1 X67.727 Y45.86 Z0 F1500
G1 X68.021 Y45.868 Z0 F1500
G1 X68.291 Y45.888 Z0 F1500
G1 X68.573 Y45.924 Z0 F1500
G1 X68.84 Y45.972 Z0 F1500
G1 X69.097 Y46.031 Z0 F1500
G1 X69.361 Y46.106 Z0 F1500
G1 X69.616 Y46.192 Z0 F1500
G1 X69.856 Y46.287 Z0 F1500
G1 X70.098 Y46.396 Z0 F1500
G1 X70.335 Y46.518 Z0 F1500
G1 X70.564 Y46.65 Z0 F1500
G1 X70.733 Y46.758 Z0 F1500
G1 X71.211 Y47.115 Z0 F1500
G1 X71.602 Y47.47 Z0 F1500
G1 X71.956 Y47.86 Z0 F1500
G1 X72.311 Y48.334 Z0 F1500
G1 X72.417 Y48.5 Z0 F1500
G1 X72.552 Y48.734 Z0 F1500
G1 X72.671 Y48.968 Z0 F1500
G1 X72.779 Y49.206 Z0 F1500
G1 X72.88 Y49.462 Z0 F1500
G1 X72.962 Y49.706 Z0 F1500
G1 X73.037 Y49.969 Z0 F1500
G1 X73.097 Y50.229 Z0 F1500
G1 X73.146 Y50.5 Z0 F1500
G1 X73.181 Y50.782 Z0 F1500
G1 X73.202 Y51.048 Z0 F1500
G1 X73.209 Y51.342 Z0 F1500
G1 X73.202 Y51.637 Z0 F1500
G1 X73.181 Y51.901 Z0 F1500
G1 X73.145 Y52.189 Z0 F1500
G1 X73.097 Y52.455 Z0 F1500
G1 X73.039 Y52.71 Z0 F1500
G1 X72.962 Y52.979 Z0 F1500
G1 X72.877 Y53.229 Z0 F1500
G1 X72.782 Y53.47 Z0 F1500
G1 X72.67 Y53.72 Z0 F1500
G1 X72.552 Y53.95 Z0 F1500
G1 X72.418 Y54.182 Z0 F1500
G1 X72.311 Y54.35 Z0 F1500
G1 X71.956 Y54.824 Z0 F1500
G1 X71.6 Y55.215 Z0 F1500
G1 X71.208 Y55.571 Z0 F1500
G1 X70.735 Y55.926 Z0 F1500
G1 X70.566 Y56.034 Z0 F1500
G1 X70.335 Y56.167 Z0 F1500
G1 X70.103 Y56.286 Z0 F1500
G1 X69.855 Y56.397 Z0 F1500
G1 X69.614 Y56.493 Z0 F1500
G1 X69.364 Y56.577 Z0 F1500
G1 X69.095 Y56.654 Z0 F1500
G1 X68.84 Y56.712 Z0 F1500
G1 X68.574 Y56.76 Z0 F1500
G1 X68.286 Y56.796 Z0 F1500
G1 X68.021 Y56.817 Z0 F1500
G1 X67.727 Y56.824 Z0 F1500
G1 X67.433 Y56.817 Z0 F1500
G1 X67.167 Y56.796 Z0 F1500
G1 X66.881 Y56.76 Z0 F1500
G1 X66.613 Y56.712 Z0 F1500
G1 X66.359 Y56.654 Z0 F1500
G1 X66.09 Y56.578 Z0 F1500
G1 X65.847 Y56.495 Z0 F1500
G1 X65.59 Y56.394 Z0 F1500
G1 X65.353 Y56.286 Z0 F1500
G1 X65.119 Y56.167 Z0 F1500
G1 X64.885 Y56.033 Z0 F1500
G1 X64.719 Y55.926 Z0 F1500
G1 X64.245 Y55.571 Z0 F1500
G1 X63.854 Y55.215 Z0 F1500
G1 X63.498 Y54.824 Z0 F1500
G1 X63.143 Y54.35 Z0 F1500
G1 X63.034 Y54.179 Z0 F1500
G1 X62.905 Y53.956 Z0 F1500
G1 X62.783 Y53.717 Z0 F1500
G1 X62.671 Y53.47 Z0 F1500
G1 X62.577 Y53.231 Z0 F1500
G1 X62.491 Y52.976 Z0 F1500
G1 X62.416 Y52.712 Z0 F1500
G1 X62.356 Y52.455 Z0 F1500
G1 X62.309 Y52.188 Z0 F1500
G1 X62.273 Y51.911 Z0 F1500
G1 X62.252 Y51.627 Z0 F1500
G1 X62.245 Y51.342 Z0 F1500
G1 X62.252 Y51.057 Z0 F1500
G1 X62.274 Y50.772 Z0 F1500
G1 X62.308 Y50.5 Z0 F1500
G1 X62.356 Y50.229 Z0 F1500
G0 Z3.5 F1500
G0 X62.805 Y47.284 Z3.5 
G1 Z0 F1500
G1 X63.213 Y46.835 Z0 F1500
G1 X63.673 Y46.417 Z0 F1500
G1 X64.203 Y46.021 Z0 F1500
G1 X64.419 Y45.882 Z0 F1500
G1 X64.695 Y45.724 Z0 F1500
G1 X64.962 Y45.587 Z0 F1500
G1 X65.242 Y45.46 Z0 F1500
G1 X65.535 Y45.345 Z0 F1500
G1 X65.826 Y45.247 Z0 F1500
G1 X66.124 Y45.162 Z0 F1500
G1 X66.435 Y45.09 Z0 F1500
G1 X66.755 Y45.032 Z0 F1500
G1 X67.059 Y44.994 Z0 F1500
G1 X67.399 Y44.968 Z0 F1500
G1 X67.727 Y44.96 Z0 F1500
G1 X68.055 Y44.968 Z0 F1500
G1 X68.394 Y44.994 Z0 F1500
G1 X68.7 Y45.033 Z0 F1500
G1 X69.019 Y45.09 Z0 F1500
G1 X69.33 Y45.162 Z0 F1500
G1 X69.626 Y45.246 Z0 F1500
G1 X69.92 Y45.345 Z0 F1500
G1 X70.212 Y45.46 Z0 F1500
G1 X70.493 Y45.587 Z0 F1500
G1 X70.769 Y45.729 Z0 F1500
G1 X71.024 Y45.875 Z0 F1500
G1 X71.251 Y46.021 Z0 F1500
G1 X71.78 Y46.417 Z0 F1500
G1 X72.241 Y46.835 Z0 F1500
G1 X72.648 Y47.284 Z0 F1500
G1 X73.051 Y47.822 Z0 F1500
G1 X73.188 Y48.035 Z0 F1500
G1 X73.346 Y48.31 Z0 F1500
G1 X73.482 Y48.577 Z0 F1500
G1 X73.608 Y48.854 Z0 F1500
G1 X73.723 Y49.146 Z0 F1500
G1 X73.826 Y49.449 Z0 F1500
G1 X73.908 Y49.739 Z0 F1500
G1 X73.98 Y50.054 Z0 F1500
G1 X74.036 Y50.365 Z0 F1500
G1 X74.076 Y50.677 Z0 F1500
G1 X74.101 Y51.015 Z0 F1500
G1 X74.109 Y51.342 Z0 F1500
G1 X74.101 Y51.67 Z0 F1500
G1 X74.076 Y52.006 Z0 F1500
G1 X74.037 Y52.313 Z0 F1500
G1 X73.979 Y52.634 Z0 F1500
G1 X73.906 Y52.949 Z0 F1500
G1 X73.825 Y53.235 Z0 F1500
G1 X73.724 Y53.536 Z0 F1500
G1 X73.609 Y53.826 Z0 F1500
G1 X73.479 Y54.114 Z0 F1500
G1 X73.341 Y54.383 Z0 F1500
G1 X73.194 Y54.639 Z0 F1500
G1 X73.051 Y54.862 Z0 F1500
G1 X72.648 Y55.4 Z0 F1500
G1 X72.237 Y55.853 Z0 F1500
G1 X71.785 Y56.264 Z0 F1500
G1 X71.247 Y56.666 Z0 F1500
G1 X71.024 Y56.809 Z0 F1500
G1 X70.769 Y56.956 Z0 F1500
G1 X70.493 Y57.097 Z0 F1500
G1 X70.215 Y57.223 Z0 F1500
G1 X69.922 Y57.338 Z0 F1500
G1 X69.62 Y57.44 Z0 F1500
G1 X69.334 Y57.521 Z0 F1500
G1 X69.019 Y57.594 Z0 F1500
G1 X68.698 Y57.652 Z0 F1500
G1 X68.391 Y57.691 Z0 F1500
G1 X68.055 Y57.716 Z0 F1500
G1 X67.727 Y57.725 Z0 F1500
G1 X67.399 Y57.716 Z0 F1500
G1 X67.062 Y57.691 Z0 F1500
G1 X66.757 Y57.652 Z0 F1500
G1 X66.435 Y57.594 Z0 F1500
G1 X66.12 Y57.521 Z0 F1500
G1 X65.834 Y57.441 Z0 F1500
G1 X65.53 Y57.338 Z0 F1500
G1 X65.239 Y57.223 Z0 F1500
G1 X64.961 Y57.098 Z0 F1500
G1 X64.695 Y56.961 Z0 F1500
G1 X64.419 Y56.803 Z0 F1500
G1 X64.207 Y56.666 Z0 F1500
G1 X63.668 Y56.264 Z0 F1500
G1 X63.216 Y55.853 Z0 F1500
G1 X62.805 Y55.4 Z0 F1500
G1 X62.403 Y54.862 Z0 F1500
G1 X62.263 Y54.645 Z0 F1500
G1 X62.113 Y54.384 Z0 F1500
G1 X61.971 Y54.107 Z0 F1500
G1 X61.844 Y53.826 Z0 F1500
G1 X61.73 Y53.536 Z0 F1500
G1 X61.63 Y53.241 Z0 F1500
G1 X61.546 Y52.945 Z0 F1500
G1 X61.475 Y52.634 Z0 F1500
G1 X61.417 Y52.315 Z0 F1500
G1 X61.378 Y52.003 Z0 F1500
G1 X61.353 Y51.671 Z0 F1500
G1 X61.344 Y51.342 Z0 F1500
G1 X61.353 Y51.013 Z0 F1500
G1 X61.378 Y50.68 Z0 F1500
G1 X61.418 Y50.363 Z0 F1500
G1 X61.474 Y50.054 Z0 F1500
G1 X61.545 Y49.743 Z0 F1500
G1 X61.631 Y49.441 Z0 F1500
G1 X61.73 Y49.149 Z0 F1500
G1 X61.846 Y48.854 Z0 F1500
G1 X61.968 Y48.583 Z0 F1500
G1 X62.115 Y48.297 Z0 F1500
G1 X62.262 Y48.041 Z0 F1500
G1 X62.403 Y47.822 Z0 F1500
G1 X62.805 Y47.284 Z0 F1500
G0 Z3.5 F1500
G0 X64.575 Y44.774 Z3.5 
G1 Z0 F1500
G1 X64.892 Y44.63 Z0 F1500
G1 X65.225 Y44.5 Z0 F1500
G1 X65.563 Y44.385 Z0 F1500
G1 X65.897 Y44.29 Z0 F1500
G1 X66.258 Y44.207 Z0 F1500
G1 X66.608 Y44.144 Z0 F1500
G1 X66.976 Y44.098 Z0 F1500
G1 X67.357 Y44.069 Z0 F1500
G1 X67.727 Y44.06 Z0 F1500
G1 X68.097 Y44.069 Z0 F1500
G1 X68.477 Y44.098 Z0 F1500
G1 X68.846 Y44.145 Z0 F1500
G1 X69.196 Y44.207 Z0 F1500
G1 X69.556 Y44.29 Z0 F1500
G1 X69.888 Y44.384 Z0 F1500
G1 X70.233 Y44.501 Z0 F1500
G1 X70.559 Y44.629 Z0 F1500
G1 X70.884 Y44.777 Z0 F1500
G1 X71.194 Y44.935 Z0 F1500
G1 X71.5 Y45.112 Z0 F1500
G1 X71.762 Y45.279 Z0 F1500
G1 X72.357 Y45.725 Z0 F1500
G1 X72.873 Y46.193 Z0 F1500
G1 X73.345 Y46.712 Z0 F1500
G1 X73.794 Y47.313 Z0 F1500
G1 X73.953 Y47.561 Z0 F1500
G1 X74.133 Y47.873 Z0 F1500
G1 X74.293 Y48.186 Z0 F1500
G1 X74.438 Y48.508 Z0 F1500
G1 X74.57 Y48.842 Z0 F1500
G1 X74.683 Y49.176 Z0 F1500
G1 X74.78 Y49.516 Z0 F1500
G1 X74.861 Y49.87 Z0 F1500
G1 X74.925 Y50.229 Z0 F1500
G1 X74.972 Y50.591 Z0 F1500
G1 X75 Y50.973 Z0 F1500
G1 X75.01 Y51.342 Z0 F1500
G1 X75 Y51.712 Z0 F1500
G1 X74.972 Y52.093 Z0 F1500
G1 X74.925 Y52.458 Z0 F1500
G1 X74.862 Y52.811 Z0 F1500
G1 X74.779 Y53.17 Z0 F1500
G1 X74.684 Y53.506 Z0 F1500
G1 X74.568 Y53.848 Z0 F1500
G1 X74.438 Y54.177 Z0 F1500
G1 X74.294 Y54.496 Z0 F1500
G1 X74.132 Y54.813 Z0 F1500
G1 X73.955 Y55.121 Z0 F1500
G1 X73.794 Y55.371 Z0 F1500
G1 X73.345 Y55.972 Z0 F1500
G1 X72.875 Y56.49 Z0 F1500
G1 X72.356 Y56.96 Z0 F1500
G1 X71.755 Y57.41 Z0 F1500
G1 X71.505 Y57.57 Z0 F1500
G1 X71.194 Y57.75 Z0 F1500
G1 X70.888 Y57.906 Z0 F1500
G1 X70.558 Y58.055 Z0 F1500
G1 X70.232 Y58.184 Z0 F1500
G1 X69.891 Y58.299 Z0 F1500
G1 X69.555 Y58.395 Z0 F1500
G1 X69.196 Y58.477 Z0 F1500
G1 X68.842 Y58.541 Z0 F1500
G1 X68.478 Y58.587 Z0 F1500
G1 X68.097 Y58.616 Z0 F1500
G1 X67.727 Y58.625 Z0 F1500
G1 X67.357 Y58.616 Z0 F1500
G1 X66.976 Y58.587 Z0 F1500
G1 X66.611 Y58.541 Z0 F1500
G1 X66.258 Y58.477 Z0 F1500
G1 X65.899 Y58.395 Z0 F1500
G1 X65.561 Y58.298 Z0 F1500
G1 X65.227 Y58.185 Z0 F1500
G1 X64.893 Y58.054 Z0 F1500
G1 X64.571 Y57.908 Z0 F1500
G1 X64.258 Y57.748 Z0 F1500
G1 X63.946 Y57.568 Z0 F1500
G1 X63.698 Y57.41 Z0 F1500
G1 X63.097 Y56.96 Z0 F1500
G1 X62.579 Y56.49 Z0 F1500
G1 X62.108 Y55.972 Z0 F1500
G1 X61.659 Y55.371 Z0 F1500
G1 X61.5 Y55.123 Z0 F1500
G1 X61.319 Y54.808 Z0 F1500
G1 X61.16 Y54.498 Z0 F1500
G1 X61.015 Y54.177 Z0 F1500
G1 X60.886 Y53.849 Z0 F1500
G1 X60.769 Y53.503 Z0 F1500
G1 X60.675 Y53.171 Z0 F1500
G1 X60.592 Y52.811 Z0 F1500
G1 X60.529 Y52.461 Z0 F1500
G1 X60.481 Y52.085 Z0 F1500
G1 X60.453 Y51.716 Z0 F1500
G1 X60.444 Y51.342 Z0 F1500
G1 X60.453 Y50.969 Z0 F1500
G1 X60.481 Y50.598 Z0 F1500
G1 X60.529 Y50.226 Z0 F1500
G1 X60.592 Y49.87 Z0 F1500
G1 X60.674 Y49.515 Z0 F1500
G1 X60.77 Y49.178 Z0 F1500
G1 X60.884 Y48.84 Z0 F1500
G1 X61.015 Y48.508 Z0 F1500
G1 X61.162 Y48.184 Z0 F1500
G1 X61.318 Y47.878 Z0 F1500
G1 X61.501 Y47.559 Z0 F1500
G1 X61.659 Y47.313 Z0 F1500
G1 X62.108 Y46.712 Z0 F1500
G1 X62.581 Y46.193 Z0 F1500
G1 X63.096 Y45.725 Z0 F1500
G1 X63.692 Y45.279 Z0 F1500
G1 X63.95 Y45.113 Z0 F1500
G1 X64.258 Y44.937 Z0 F1500
G1 X64.575 Y44.774 Z0 F1500
G0 Z3.5 F1500
G0 X67.305 Y43.17 Z3.5 
G1 Z0 F1500
G1 X67.727 Y43.16 Z0 F1500
G1 X68.149 Y43.17 Z0 F1500
G1 X68.57 Y43.202 Z0 F1500
G1 X68.974 Y43.253 Z0 F1500
G1 X69.382 Y43.326 Z0 F1500
G1 X69.771 Y43.416 Z0 F1500
G1 X70.162 Y43.527 Z0 F1500
G1 X70.547 Y43.657 Z0 F1500
G1 X70.91 Y43.8 Z0 F1500
G1 X71.271 Y43.964 Z0 F1500
G1 X71.631 Y44.148 Z0 F1500
G1 X71.968 Y44.342 Z0 F1500
G1 X72.271 Y44.536 Z0 F1500
G1 X72.929 Y45.028 Z0 F1500
G1 X73.512 Y45.558 Z0 F1500
G1 X74.04 Y46.138 Z0 F1500
G1 X74.533 Y46.798 Z0 F1500
G1 X74.726 Y47.1 Z0 F1500
G1 X74.924 Y47.444 Z0 F1500
G1 X75.104 Y47.795 Z0 F1500
G1 X75.268 Y48.157 Z0 F1500
G1 X75.413 Y48.525 Z0 F1500
G1 X75.543 Y48.911 Z0 F1500
G1 X75.652 Y49.295 Z0 F1500
G1 X75.744 Y49.692 Z0 F1500
G1 X75.816 Y50.093 Z0 F1500
G1 X75.867 Y50.496 Z0 F1500
G1 X75.899 Y50.92 Z0 F1500
G1 X75.91 Y51.342 Z0 F1500
G1 X75.899 Y51.765 Z0 F1500
G1 X75.867 Y52.187 Z0 F1500
G1 X75.816 Y52.584 Z0 F1500
G1 X75.743 Y52.998 Z0 F1500
G1 X75.652 Y53.391 Z0 F1500
G1 X75.542 Y53.779 Z0 F1500
G1 X75.415 Y54.155 Z0 F1500
G1 X75.269 Y54.524 Z0 F1500
G1 X75.104 Y54.89 Z0 F1500
G1 X74.921 Y55.246 Z0 F1500
G1 X74.73 Y55.578 Z0 F1500
G1 X74.533 Y55.886 Z0 F1500
G1 X74.04 Y56.546 Z0 F1500
G1 X73.512 Y57.127 Z0 F1500
G1 X72.931 Y57.655 Z0 F1500
G1 X72.271 Y58.148 Z0 F1500
G1 X71.963 Y58.346 Z0 F1500
G1 X71.631 Y58.537 Z0 F1500
G1 X71.274 Y58.719 Z0 F1500
G1 X70.91 Y58.884 Z0 F1500
G1 X70.54 Y59.03 Z0 F1500
G1 X70.164 Y59.157 Z0 F1500
G1 X69.776 Y59.267 Z0 F1500
G1 X69.382 Y59.358 Z0 F1500
G1 X68.969 Y59.432 Z0 F1500
G1 X68.572 Y59.482 Z0 F1500
G1 X68.149 Y59.515 Z0 F1500
G1 X67.727 Y59.525 Z0 F1500
G1 X67.305 Y59.515 Z0 F1500
G1 X66.881 Y59.482 Z0 F1500
G1 X66.485 Y59.432 Z0 F1500
G1 X66.071 Y59.358 Z0 F1500
G1 X65.678 Y59.267 Z0 F1500
G1 X65.296 Y59.159 Z0 F1500
G1 X64.91 Y59.028 Z0 F1500
G1 X64.542 Y58.883 Z0 F1500
G1 X64.18 Y58.72 Z0 F1500
G1 X63.829 Y58.54 Z0 F1500
G1 X63.484 Y58.341 Z0 F1500
G1 X63.183 Y58.148 Z0 F1500
G1 X62.523 Y57.655 Z0 F1500
G1 X61.942 Y57.127 Z0 F1500
G1 X61.414 Y56.546 Z0 F1500
G1 X60.921 Y55.886 Z0 F1500
G1 X60.729 Y55.588 Z0 F1500
G1 X60.528 Y55.237 Z0 F1500
G1 X60.349 Y54.889 Z0 F1500
G1 X60.185 Y54.524 Z0 F1500
G1 X60.042 Y54.162 Z0 F1500
G1 X59.912 Y53.777 Z0 F1500
G1 X59.8 Y53.386 Z0 F1500
G1 X59.711 Y52.998 Z0 F1500
G1 X59.638 Y52.589 Z0 F1500
G1 X59.586 Y52.178 Z0 F1500
G1 X59.555 Y51.77 Z0 F1500
G1 X59.544 Y51.342 Z0 F1500
G1 X59.555 Y50.915 Z0 F1500
G1 X59.586 Y50.505 Z0 F1500
G1 X59.639 Y50.088 Z0 F1500
G1 X59.709 Y49.692 Z0 F1500
G1 X59.8 Y49.3 Z0 F1500
G1 X59.914 Y48.901 Z0 F1500
G1 X60.039 Y48.53 Z0 F1500
G1 X60.186 Y48.157 Z0 F1500
G1 X60.349 Y47.797 Z0 F1500
G1 X60.531 Y47.441 Z0 F1500
G1 X60.727 Y47.101 Z0 F1500
G1 X60.921 Y46.798 Z0 F1500
G1 X61.414 Y46.138 Z0 F1500
G1 X61.941 Y45.558 Z0 F1500
G1 X62.525 Y45.028 Z0 F1500
G1 X63.182 Y44.536 Z0 F1500
G1 X63.479 Y44.346 Z0 F1500
G1 X63.829 Y44.145 Z0 F1500
G1 X64.183 Y43.964 Z0 F1500
G1 X64.542 Y43.801 Z0 F1500
G1 X64.915 Y43.654 Z0 F1500
G1 X65.286 Y43.529 Z0 F1500
G1 X65.683 Y43.416 Z0 F1500
G1 X66.071 Y43.326 Z0 F1500
G1 X66.481 Y43.253 Z0 F1500
G1 X66.883 Y43.202 Z0 F1500
G1 X67.305 Y43.17 Z0 F1500
G0 Z3.5 F1500
G0 X70.436 Y42.669 Z3.5 
G1 Z0 F1500
G1 X70.852 Y42.81 Z0 F1500
G1 X71.257 Y42.97 Z0 F1500
G1 X71.663 Y43.153 Z0 F1500
G1 X72.057 Y43.354 Z0 F1500
G1 X72.439 Y43.575 Z0 F1500
G1 X72.781 Y43.794 Z0 F1500
G1 X73.503 Y44.334 Z0 F1500
G1 X74.149 Y44.921 Z0 F1500
G1 X74.739 Y45.57 Z0 F1500
G1 X75.268 Y46.277 Z0 F1500
G1 X75.499 Y46.638 Z0 F1500
G1 X75.716 Y47.016 Z0 F1500
G1 X75.916 Y47.405 Z0 F1500
G1 X76.095 Y47.803 Z0 F1500
G1 X76.26 Y48.221 Z0 F1500
G1 X76.4 Y48.635 Z0 F1500
G1 X76.525 Y49.075 Z0 F1500
G1 X76.625 Y49.51 Z0 F1500
G1 X76.706 Y49.956 Z0 F1500
G1 X76.763 Y50.41 Z0 F1500
G1 X76.799 Y50.877 Z0 F1500
G1 X76.811 Y51.342 Z0 F1500
G1 X76.799 Y51.808 Z0 F1500
G1 X76.763 Y52.273 Z0 F1500
G1 X76.705 Y52.729 Z0 F1500
G1 X76.626 Y53.172 Z0 F1500
G1 X76.525 Y53.611 Z0 F1500
G1 X76.399 Y54.052 Z0 F1500
G1 X76.259 Y54.466 Z0 F1500
G1 X76.1 Y54.872 Z0 F1500
G1 X75.913 Y55.284 Z0 F1500
G1 X75.717 Y55.667 Z0 F1500
G1 X75.499 Y56.047 Z0 F1500
G1 X75.268 Y56.407 Z0 F1500
G1 X74.739 Y57.114 Z0 F1500
G1 X74.148 Y57.764 Z0 F1500
G1 X73.499 Y58.354 Z0 F1500
G1 X72.792 Y58.883 Z0 F1500
G1 X72.432 Y59.114 Z0 F1500
G1 X72.057 Y59.33 Z0 F1500
G1 X71.66 Y59.533 Z0 F1500
G1 X71.261 Y59.713 Z0 F1500
G1 X70.851 Y59.875 Z0 F1500
G1 X70.437 Y60.015 Z0 F1500
G1 X69.996 Y60.14 Z0 F1500
G1 X69.557 Y60.241 Z0 F1500
G1 X69.114 Y60.32 Z0 F1500
G1 X68.658 Y60.378 Z0 F1500
G1 X68.192 Y60.414 Z0 F1500
G1 X67.727 Y60.426 Z0 F1500
G1 X67.262 Y60.414 Z0 F1500
G1 X66.795 Y60.378 Z0 F1500
G1 X66.341 Y60.321 Z0 F1500
G1 X65.896 Y60.241 Z0 F1500
G1 X65.458 Y60.14 Z0 F1500
G1 X65.02 Y60.016 Z0 F1500
G1 X64.605 Y59.875 Z0 F1500
G1 X64.188 Y59.71 Z0 F1500
G1 X63.79 Y59.531 Z0 F1500
G1 X63.4 Y59.332 Z0 F1500
G1 X63.022 Y59.114 Z0 F1500
G1 X62.662 Y58.883 Z0 F1500
G1 X61.955 Y58.354 Z0 F1500
G1 X61.305 Y57.764 Z0 F1500
G1 X60.715 Y57.114 Z0 F1500
G1 X60.186 Y56.407 Z0 F1500
G1 X59.952 Y56.042 Z0 F1500
G1 X59.742 Y55.678 Z0 F1500
G1 X59.538 Y55.279 Z0 F1500
G1 X59.354 Y54.872 Z0 F1500
G1 X59.194 Y54.467 Z0 F1500
G1 X59.054 Y54.051 Z0 F1500
G1 X58.929 Y53.612 Z0 F1500
G1 X58.828 Y53.172 Z0 F1500
G1 X58.748 Y52.725 Z0 F1500
G1 X58.691 Y52.28 Z0 F1500
G1 X58.655 Y51.805 Z0 F1500
G1 X58.643 Y51.342 Z0 F1500
G1 X58.655 Y50.88 Z0 F1500
G1 X58.691 Y50.404 Z0 F1500
G1 X58.748 Y49.959 Z0 F1500
G1 X58.828 Y49.51 Z0 F1500
G1 X58.929 Y49.074 Z0 F1500
G1 X59.053 Y48.636 Z0 F1500
G1 X59.194 Y48.22 Z0 F1500
G1 X59.358 Y47.803 Z0 F1500
G1 X59.536 Y47.41 Z0 F1500
G1 X59.741 Y47.01 Z0 F1500
G1 X59.954 Y46.638 Z0 F1500
G1 X60.186 Y46.277 Z0 F1500
G1 X60.715 Y45.57 Z0 F1500
G1 X61.305 Y44.921 Z0 F1500
G1 X61.95 Y44.334 Z0 F1500
G1 X62.673 Y43.794 Z0 F1500
G1 X63.015 Y43.575 Z0 F1500
G1 X63.4 Y43.353 Z0 F1500
G1 X63.788 Y43.155 Z0 F1500
G1 X64.191 Y42.972 Z0 F1500
G1 X64.605 Y42.809 Z0 F1500
G1 X65.021 Y42.668 Z0 F1500
G1 X65.457 Y42.544 Z0 F1500
G1 X65.896 Y42.443 Z0 F1500
G1 X66.344 Y42.363 Z0 F1500
G1 X66.791 Y42.307 Z0 F1500
G1 X67.262 Y42.271 Z0 F1500
G1 X67.727 Y42.259 Z0 F1500
G1 X68.192 Y42.271 Z0 F1500
G1 X68.664 Y42.307 Z0 F1500
G1 X69.11 Y42.363 Z0 F1500
G1 X69.557 Y42.443 Z0 F1500
G1 X69.997 Y42.544 Z0 F1500
G1 X70.436 Y42.669 Z0 F1500
G0 Z3.5 F1500
G0 X74.079 Y43.64 Z3.5 
G1 Z0 F1500
G1 X74.784 Y44.281 Z0 F1500
G1 X75.431 Y44.993 Z0 F1500
G1 X76.014 Y45.772 Z0 F1500
G1 X76.262 Y46.16 Z0 F1500
G1 X76.506 Y46.583 Z0 F1500
G1 X76.727 Y47.014 Z0 F1500
G1 X76.928 Y47.46 Z0 F1500
G1 X77.103 Y47.904 Z0 F1500
G1 X77.264 Y48.379 Z0 F1500
G1 X77.396 Y48.845 Z0 F1500
G1 X77.508 Y49.333 Z0 F1500
G1 X77.596 Y49.82 Z0 F1500
G1 X77.659 Y50.315 Z0 F1500
G1 X77.697 Y50.825 Z0 F1500
G1 X77.71 Y51.342 Z0 F1500
G1 X77.697 Y51.859 Z0 F1500
G1 X77.659 Y52.369 Z0 F1500
G1 X77.597 Y52.855 Z0 F1500
G1 X77.507 Y53.359 Z0 F1500
G1 X77.396 Y53.841 Z0 F1500
G1 X77.263 Y54.308 Z0 F1500
G1 X77.105 Y54.774 Z0 F1500
G1 X76.925 Y55.231 Z0 F1500
G1 X76.728 Y55.667 Z0 F1500
G1 X76.502 Y56.109 Z0 F1500
G1 X76.267 Y56.517 Z0 F1500
G1 X76.014 Y56.912 Z0 F1500
G1 X75.431 Y57.691 Z0 F1500
G1 X74.786 Y58.401 Z0 F1500
G1 X74.076 Y59.046 Z0 F1500
G1 X73.296 Y59.629 Z0 F1500
G1 X72.901 Y59.882 Z0 F1500
G1 X72.49 Y60.119 Z0 F1500
G1 X72.059 Y60.34 Z0 F1500
G1 X71.612 Y60.542 Z0 F1500
G1 X71.159 Y60.72 Z0 F1500
G1 X70.693 Y60.878 Z0 F1500
G1 X70.226 Y61.011 Z0 F1500
G1 X69.744 Y61.122 Z0 F1500
G1 X69.24 Y61.212 Z0 F1500
G1 X68.754 Y61.274 Z0 F1500
G1 X68.244 Y61.313 Z0 F1500
G1 X67.727 Y61.326 Z0 F1500
G1 X67.21 Y61.313 Z0 F1500
G1 X66.7 Y61.274 Z0 F1500
G1 X66.214 Y61.212 Z0 F1500
G1 X65.71 Y61.122 Z0 F1500
G1 X65.228 Y61.011 Z0 F1500
G1 X64.764 Y60.879 Z0 F1500
G1 X64.289 Y60.718 Z0 F1500
G1 X63.845 Y60.543 Z0 F1500
G1 X63.399 Y60.342 Z0 F1500
G1 X62.968 Y60.121 Z0 F1500
G1 X62.544 Y59.877 Z0 F1500
G1 X62.157 Y59.629 Z0 F1500
G1 X61.378 Y59.046 Z0 F1500
G1 X60.668 Y58.401 Z0 F1500
G1 X60.022 Y57.691 Z0 F1500
G1 X59.44 Y56.912 Z0 F1500
G1 X59.188 Y56.52 Z0 F1500
G1 X58.948 Y56.102 Z0 F1500
G1 X58.727 Y55.67 Z0 F1500
G1 X58.529 Y55.231 Z0 F1500
G1 X58.348 Y54.771 Z0 F1500
G1 X58.193 Y54.313 Z0 F1500
G1 X58.058 Y53.838 Z0 F1500
G1 X57.947 Y53.359 Z0 F1500
G1 X57.858 Y52.862 Z0 F1500
G1 X57.795 Y52.363 Z0 F1500
G1 X57.756 Y51.858 Z0 F1500
G1 X57.743 Y51.342 Z0 F1500
G1 X57.756 Y50.826 Z0 F1500
G1 X57.795 Y50.322 Z0 F1500
G1 X57.859 Y49.813 Z0 F1500
G1 X57.945 Y49.333 Z0 F1500
G1 X58.057 Y48.848 Z0 F1500
G1 X58.193 Y48.371 Z0 F1500
G1 X58.349 Y47.91 Z0 F1500
G1 X58.526 Y47.46 Z0 F1500
G1 X58.729 Y47.011 Z0 F1500
G1 X58.947 Y46.586 Z0 F1500
G1 X59.191 Y46.161 Z0 F1500
G1 X59.44 Y45.772 Z0 F1500
G1 X60.022 Y44.993 Z0 F1500
G1 X60.67 Y44.281 Z0 F1500
G1 X61.375 Y43.64 Z0 F1500
G1 X62.156 Y43.057 Z0 F1500
G1 X62.547 Y42.806 Z0 F1500
G1 X62.968 Y42.563 Z0 F1500
G1 X63.404 Y42.34 Z0 F1500
G1 X63.84 Y42.143 Z0 F1500
G1 X64.295 Y41.964 Z0 F1500
G1 X64.755 Y41.808 Z0 F1500
G1 X65.23 Y41.673 Z0 F1500
G1 X65.71 Y41.562 Z0 F1500
G1 X66.207 Y41.474 Z0 F1500
G1 X66.707 Y41.41 Z0 F1500
G1 X67.21 Y41.372 Z0 F1500
G1 X67.727 Y41.359 Z0 F1500
G1 X68.244 Y41.372 Z0 F1500
G1 X68.747 Y41.41 Z0 F1500
G1 X69.247 Y41.474 Z0 F1500
G1 X69.744 Y41.562 Z0 F1500
G1 X70.223 Y41.673 Z0 F1500
G1 X70.698 Y41.808 Z0 F1500
G1 X71.156 Y41.963 Z0 F1500
G1 X71.616 Y42.144 Z0 F1500
G1 X72.054 Y42.342 Z0 F1500
G1 X72.49 Y42.565 Z0 F1500
G1 X72.899 Y42.801 Z0 F1500
G1 X73.298 Y43.057 Z0 F1500
G1 X74.079 Y43.64 Z0 F1500
G0 Z3.5 F1500
G0 X77.035 Y45.698 Z3.5 
G1 Z0 F1500
G1 X77.297 Y46.154 Z0 F1500
G1 X77.538 Y46.624 Z0 F1500
G1 X77.755 Y47.105 Z0 F1500
G1 X77.95 Y47.6 Z0 F1500
G1 X78.122 Y48.105 Z0 F1500
G1 X78.268 Y48.622 Z0 F1500
G1 X78.39 Y49.149 Z0 F1500
G1 X78.485 Y49.685 Z0 F1500
G1 X78.555 Y50.229 Z0 F1500
G1 X78.597 Y50.782 Z0 F1500
G1 X78.611 Y51.342 Z0 F1500
G1 X78.597 Y51.902 Z0 F1500
G1 X78.555 Y52.455 Z0 F1500
G1 X78.485 Y53 Z0 F1500
G1 X78.39 Y53.536 Z0 F1500
G1 X78.268 Y54.062 Z0 F1500
G1 X78.122 Y54.579 Z0 F1500
G1 X77.95 Y55.084 Z0 F1500
G1 X77.755 Y55.579 Z0 F1500
G1 X77.538 Y56.061 Z0 F1500
G1 X77.297 Y56.53 Z0 F1500
G1 X77.035 Y56.986 Z0 F1500
G1 X76.752 Y57.427 Z0 F1500
G1 X76.125 Y58.265 Z0 F1500
G1 X75.423 Y59.038 Z0 F1500
G1 X74.65 Y59.741 Z0 F1500
G1 X73.812 Y60.367 Z0 F1500
G1 X73.371 Y60.65 Z0 F1500
G1 X72.915 Y60.913 Z0 F1500
G1 X72.445 Y61.153 Z0 F1500
G1 X71.963 Y61.371 Z0 F1500
G1 X71.469 Y61.565 Z0 F1500
G1 X70.963 Y61.737 Z0 F1500
G1 X70.447 Y61.883 Z0 F1500
G1 X69.92 Y62.005 Z0 F1500
G1 X69.384 Y62.101 Z0 F1500
G1 X68.84 Y62.17 Z0 F1500
G1 X68.287 Y62.212 Z0 F1500
G1 X67.727 Y62.226 Z0 F1500
G1 X67.167 Y62.212 Z0 F1500
G1 X66.614 Y62.17 Z0 F1500
G1 X66.069 Y62.101 Z0 F1500
G1 X65.533 Y62.005 Z0 F1500
G1 X65.007 Y61.883 Z0 F1500
G1 X64.49 Y61.737 Z0 F1500
G1 X63.985 Y61.565 Z0 F1500
G1 X63.49 Y61.371 Z0 F1500
G1 X63.008 Y61.153 Z0 F1500
G1 X62.539 Y60.913 Z0 F1500
G1 X62.083 Y60.65 Z0 F1500
G1 X61.642 Y60.367 Z0 F1500
G1 X60.804 Y59.741 Z0 F1500
G1 X60.031 Y59.038 Z0 F1500
G1 X59.328 Y58.265 Z0 F1500
G1 X58.702 Y57.427 Z0 F1500
G1 X58.418 Y56.986 Z0 F1500
G1 X58.157 Y56.53 Z0 F1500
G1 X57.916 Y56.061 Z0 F1500
G1 X57.698 Y55.579 Z0 F1500
G1 X57.503 Y55.084 Z0 F1500
G1 X57.333 Y54.579 Z0 F1500
G1 X57.186 Y54.062 Z0 F1500
G1 X57.064 Y53.536 Z0 F1500
G1 X56.968 Y53 Z0 F1500
G1 X56.899 Y52.455 Z0 F1500
G1 X56.857 Y51.902 Z0 F1500
G1 X56.843 Y51.342 Z0 F1500
G1 X56.857 Y50.782 Z0 F1500
G1 X56.899 Y50.229 Z0 F1500
G1 X56.968 Y49.685 Z0 F1500
G1 X57.064 Y49.149 Z0 F1500
G1 X57.186 Y48.622 Z0 F1500
G1 X57.333 Y48.105 Z0 F1500
G1 X57.503 Y47.6 Z0 F1500
G1 X57.698 Y47.105 Z0 F1500
G1 X57.916 Y46.624 Z0 F1500
G1 X58.157 Y46.154 Z0 F1500
G1 X58.418 Y45.698 Z0 F1500
G1 X58.702 Y45.257 Z0 F1500
G1 X59.328 Y44.419 Z0 F1500
G1 X60.031 Y43.646 Z0 F1500
G1 X60.804 Y42.944 Z0 F1500
G1 X61.642 Y42.317 Z0 F1500
G1 X62.083 Y42.034 Z0 F1500
G1 X62.539 Y41.772 Z0 F1500
G1 X63.008 Y41.532 Z0 F1500
G1 X63.49 Y41.313 Z0 F1500
G1 X63.985 Y41.119 Z0 F1500
G1 X64.49 Y40.948 Z0 F1500
G1 X65.007 Y40.801 Z0 F1500
G1 X65.533 Y40.679 Z0 F1500
G1 X66.069 Y40.583 Z0 F1500
G1 X66.614 Y40.515 Z0 F1500
G1 X67.167 Y40.473 Z0 F1500
G1 X67.727 Y40.458 Z0 F1500
G1 X68.287 Y40.473 Z0 F1500
G1 X68.84 Y40.515 Z0 F1500
G1 X69.384 Y40.583 Z0 F1500
G1 X69.92 Y40.679 Z0 F1500
G1 X70.447 Y40.801 Z0 F1500
G1 X70.963 Y40.948 Z0 F1500
G1 X71.469 Y41.119 Z0 F1500
G1 X71.963 Y41.313 Z0 F1500
G1 X72.445 Y41.532 Z0 F1500
G1 X72.915 Y41.772 Z0 F1500
G1 X73.371 Y42.034 Z0 F1500
G1 X73.812 Y42.317 Z0 F1500
G1 X74.65 Y42.944 Z0 F1500
G1 X75.423 Y43.646 Z0 F1500
G1 X76.125 Y44.419 Z0 F1500
G1 X76.752 Y45.257 Z0 F1500
G1 X77.035 Y45.698 Z0 F1500
;Cut @ 1500 mm/min, 80% power

M8
G0 Z3.5 F1500
G0 X88.68 Y50.442 Z3.5 
G1 Z0 F1500
;Layer Red
G1 X88.327 Y50.85 Z0 S800 F1500
G1 X87.993 Y51.275 Z0 F1500
G1 X87.68 Y51.716 Z0 F1500
G1 X87.387 Y52.172 Z0 F1500
G1 X87.117 Y52.642 Z0 F1500
G1 X86.868 Y53.127 Z0 F1500
G1 X86.643 Y53.625 Z0 F1500
G1 X86.442 Y54.135 Z0 F1500
G1 X86.265 Y54.658 Z0 F1500
G1 X86.114 Y55.191 Z0 F1500
G1 X85.988 Y55.735 Z0 F1500
G1 X85.889 Y56.288 Z0 F1500
G1 X85.818 Y56.851 Z0 F1500
G1 X85.775 Y57.422 Z0 F1500
G1 X85.76 Y58 Z0 F1500
G1 X85.775 Y58.578 Z0 F1500
G1 X85.818 Y59.149 Z0 F1500
G1 X85.889 Y59.712 Z0 F1500
G1 X85.988 Y60.265 Z0 F1500
G1 X86.114 Y60.809 Z0 F1500
G1 X86.265 Y61.342 Z0 F1500
G1 X86.442 Y61.865 Z0 F1500
G1 X86.643 Y62.375 Z0 F1500
G1 X86.868 Y62.873 Z0 F1500
G1 X87.117 Y63.358 Z0 F1500
G1 X87.387 Y63.828 Z0 F1500
G1 X87.68 Y64.284 Z0 F1500
G1 X87.993 Y64.725 Z0 F1500
G1 X88.327 Y65.15 Z0 F1500
G1 X88.68 Y65.558 Z0 F1500
G1 X89.052 Y65.948 Z0 F1500
G1 X89.442 Y66.32 Z0 F1500
G1 X89.85 Y66.673 Z0 F1500
G1 X90.275 Y67.007 Z0 F1500
G1 X90.716 Y67.32 Z0 F1500
G1 X91.172 Y67.613 Z0 F1500
G1 X91.642 Y67.883 Z0 F1500
G1 X92.127 Y68.132 Z0 F1500
G1 X92.625 Y68.357 Z0 F1500
G1 X93.135 Y68.558 Z0 F1500
G1 X93.658 Y68.735 Z0 F1500
G1 X94.191 Y68.886 Z0 F1500
G1 X94.735 Y69.012 Z0 F1500
G1 X95.288 Y69.111 Z0 F1500
G1 X95.851 Y69.182 Z0 F1500
G1 X96.422 Y69.225 Z0 F1500
G1 X97 Y69.24 Z0 F1500
G1 X97.578 Y69.225 Z0 F1500
G1 X98.149 Y69.182 Z0 F1500
G1 X98.712 Y69.111 Z0 F1500
G1 X99.265 Y69.012 Z0 F1500
G1 X99.809 Y68.886 Z0 F1500
G1 X100.342 Y68.735 Z0 F1500
G1 X100.865 Y68.558 Z0 F1500
G1 X101.375 Y68.357 Z0 F1500
G1 X101.873 Y68.132 Z0 F1500
G1 X102.358 Y67.883 Z0 F1500
G1 X102.828 Y67.613 Z0 F1500
G1 X103.284 Y67.32 Z0 F1500
G1 X103.725 Y67.007 Z0 F1500
G1 X104.15 Y66.673 Z0 F1500
G1 X104.558 Y66.32 Z0 F1500
G1 X104.948 Y65.948 Z0 F1500
G1 X105.32 Y65.558 Z0 F1500
G1 X105.673 Y65.15 Z0 F1500
G1 X106.007 Y64.725 Z0 F1500
G1 X106.32 Y64.284 Z0 F1500
G1 X106.613 Y63.828 Z0 F1500
G1 X106.883 Y63.358 Z0 F1500
G1 X107.132 Y62.873 Z0 F1500
G1 X107.357 Y62.375 Z0 F1500
G1 X107.558 Y61.865 Z0 F1500
G1 X107.735 Y61.342 Z0 F1500
G1 X107.886 Y60.809 Z0 F1500
G1 X108.012 Y60.265 Z0 F1500
G1 X108.111 Y59.712 Z0 F1500
G1 X108.182 Y59.149 Z0 F1500
G1 X108.225 Y58.578 Z0 F1500
G1 X108.24 Y58 Z0 F1500
G1 X108.225 Y57.422 Z0 F1500
G1 X108.182 Y56.851 Z0 F1500
G1 X108.111 Y56.288 Z0 F1500
G1 X108.012 Y55.735 Z0 F1500
G1 X107.886 Y55.191 Z0 F1500
G1 X107.735 Y54.658 Z0 F1500
G1 X107.558 Y54.135 Z0 F1500
G1 X107.357 Y53.625 Z0 F1500
G1 X107.132 Y53.127 Z0 F1500
G1 X106.883 Y52.642 Z0 F1500
G1 X106.613 Y52.172 Z0 F1500
G1 X106.32 Y51.716 Z0 F1500
G1 X106.007 Y51.275 Z0 F1500
G1 X105.673 Y50.85 Z0 F1500
G1 X105.32 Y50.442 Z0 F1500
G1 X104.948 Y50.052 Z0 F1500
G1 X104.558 Y49.68 Z0 F1500
G1 X104.15 Y49.327 Z0 F1500
G1 X103.725 Y48.993 Z0 F1500
G1 X103.284 Y48.68 Z0 F1500
G1 X102.828 Y48.387 Z0 F1500
G1 X102.358 Y48.117 Z0 F1500
G1 X101.873 Y47.868 Z0 F1500
G1 X101.375 Y47.643 Z0 F1500
G1 X100.865 Y47.442 Z0 F1500
G1 X100.342 Y47.265 Z0 F1500
G1 X99.809 Y47.114 Z0 F1500
G1 X99.265 Y46.988 Z0 F1500
G1 X98.712 Y46.889 Z0 F1500
G1 X98.149 Y46.818 Z0 F1500
G1 X97.578 Y46.775 Z0 F1500
G1 X97 Y46.76 Z0 F1500
G1 X96.422 Y46.775 Z0 F1500
G1 X95.851 Y46.818 Z0 F1500
G1 X95.288 Y46.889 Z0 F1500
G1 X94.735 Y46.988 Z0 F1500
G1 X94.191 Y47.114 Z0 F1500
G1 X93.658 Y47.265 Z0 F1500
G1 X93.135 Y47.442 Z0 F1500
G1 X92.625 Y47.643 Z0 F1500
G1 X92.127 Y47.868 Z0 F1500
G1 X91.642 Y48.117 Z0 F1500
G1 X91.172 Y48.387 Z0 F1500
G1 X90.716 Y48.68 Z0 F1500
G1 X90.275 Y48.993 Z0 F1500
G1 X89.85 Y49.327 Z0 F1500
G1 X89.442 Y49.68 Z0 F1500
G1 X89.052 Y50.052 Z0 F1500
G1 X88.68 Y50.442 Z0 F1500
M9
M5
G1 Z10 F1500
G90
G1 Z10 F1500

