G90 ; Absolutno pozicioniranje
G21 ; Milimetri
;LightBurn 1.6.04
;Custom GCode device profile, absolute coords
;Bounds: X15.97 Y25.28 to X110.03 Y136.72
G00 G17 G40 G21 G54
G90
G1 Z10 F1000
;Cut @ 1500 mm/min, 90% power

M8
G0 Z2.8F1000
G0 X17.274 Y26.578 Z2.800
G1 Z0F1000
;Layer Blue
; --- FIX Y Backlash: -1.500mm ---
G0 X17.274 Y25.078 F1200
G1 X18.694 Y24.960 F1800
G0 Z2.8F1000
; --- FIX X Backlash: -0.600mm ---
G0 X18.094 Y24.960 F1200
; --- FIX Y Backlash: 1.500mm ---
G0 X18.094 Y26.460 F1200
G0 X17.857 Y27.525 Z2.800
G1 Z0F1000
G1 X17.739 Y27.643 F1800
G0 Z2.8F1000
; --- FIX Y Backlash: -1.500mm ---
G0 X17.739 Y26.143 F1200
G0 X17.147 Y25.906 Z2.800
G1 Z0F1000
; --- FIX X Backlash: 0.600mm ---
G0 X17.747 Y25.906 F1200
; --- FIX Y Backlash: 1.500mm ---
G0 X17.747 Y27.406 F1200
G1 X19.048 Y27.761 F1800
G0 Z2.8F1000
G0 X21.060 Y28.116 Z2.800
G1 Z0F1000
G1 X21.437 Y28.210 F1800
G1 X21.815 Y28.343 F1800
G1 X22.193 Y28.509 F1800
G1 X22.568 Y28.698 F1800
G1 X23.306 Y29.117 F1800
G1 X24.017 Y29.536 F1800
G0 Z2.8F1000
; --- FIX X Backlash: -0.600mm ---
G0 X23.417 Y29.536 F1200
G0 X22.944 Y30.127 Z2.800
G1 Z0F1000
G1 X22.826 Y30.246 F1800
G0 Z2.8F1000
G0 X22.316 Y30.959 Z2.800
G1 Z0F1000
G1 X22.270 Y31.071 F1800
; --- FIX Y Backlash: -1.500mm ---
G0 X22.270 Y29.571 F1200
G1 X22.316 Y29.459 F1800
G0 Z2.8F1000
; --- FIX X Backlash: 0.600mm ---
G0 X22.916 Y29.459 F1200
; --- FIX Y Backlash: 1.500mm ---
G0 X22.916 Y30.959 F1200
G0 X23.308 Y31.902 Z2.800
G1 Z0F1000
; --- FIX X Backlash: -0.600mm ---
G0 X22.708 Y31.902 F1200
; --- FIX Y Backlash: -1.500mm ---
G0 X22.708 Y30.402 F1200
G1 X21.908 Y30.237 F1800
G1 X21.199 Y30.035 F1800
G1 X20.855 Y29.906 F1800
G1 X20.505 Y29.750 F1800
G1 X20.140 Y29.563 F1800
G1 X19.750 Y29.337 F1800
G0 Z2.8F1000
; --- FIX X Backlash: 0.600mm ---
G0 X20.350 Y29.337 F1200
G0 X20.941 Y28.509 Z2.800
G1 Z0F1000
; --- FIX X Backlash: -0.600mm ---
G0 X20.341 Y28.509 F1200
G1 X19.996 Y28.401 F1800
G1 X19.625 Y28.260 F1800
G1 X19.237 Y28.099 F1800
G1 X18.837 Y27.931 F1800
G1 X18.433 Y27.769 F1800
G1 X18.032 Y27.626 F1800
G1 X17.641 Y27.513 F1800
G1 X17.265 Y27.444 F1800
G0 Z2.8F1000
; --- FIX Y Backlash: 1.500mm ---
G0 X17.265 Y28.944 F1200
G0 X16.674 Y30.364 Z2.800
G1 Z0F1000
G1 X16.556 Y30.364 F1800
G0 Z2.8F1000
; --- FIX X Backlash: 0.600mm ---
G0 X17.156 Y30.364 F1200
G0 X18.102 Y31.429 Z2.800
G1 Z0F1000
G1 X20.941 Y32.271 F1800
G1 X22.716 Y32.730 F1800
G0 Z2.8F1000
G0 X23.308 Y32.730 Z2.800
G1 Z0F1000
G1 X24.021 Y32.918 F1800
G1 X24.645 Y33.121 F1800
G1 X25.250 Y33.306 F1800
G1 X25.910 Y33.440 F1800
G0 Z2.8F1000
; --- FIX Y Backlash: -1.500mm ---
G0 X25.910 Y31.940 F1200
G0 X26.265 Y31.349 Z2.800
G1 Z0F1000
; --- FIX Y Backlash: 1.500mm ---
G0 X26.265 Y32.849 F1200
G1 X26.912 Y33.007 F1800
G1 X27.561 Y33.181 F1800
G1 X28.213 Y33.336 F1800
G1 X28.868 Y33.440 F1800
; --- FIX X Backlash: -0.600mm ---
G0 X28.268 Y33.440 F1200
G1 X27.913 Y33.440 F1800
G0 Z2.8F1000
; --- FIX Y Backlash: -1.500mm ---
G0 X27.913 Y31.940 F1200
G0 X27.676 Y31.230 Z2.800
G1 Z0F1000
G1 X27.379 Y31.105 F1800
G1 X27.042 Y30.956 F1800
G1 X26.288 Y30.613 F1800
G1 X25.489 Y30.254 F1800
G1 X24.719 Y29.929 F1800
G0 Z2.8F1000
; --- FIX Y Backlash: 1.500mm ---
G0 X24.719 Y31.429 F1200
G0 X24.719 Y32.257 Z2.800
G1 Z0F1000
G1 X24.127 Y32.257 F1800
G0 Z2.8F1000
G0 X22.589 Y33.558 Z2.800
G1 Z0F1000
; --- FIX Y Backlash: -1.500mm ---
G0 X22.589 Y32.058 F1200
G1 X21.914 Y31.886 F1800
G1 X21.288 Y31.703 F1800
G0 Z2.8F1000
; --- FIX Y Backlash: 1.500mm ---
G0 X21.288 Y33.203 F1200
G0 X20.223 Y33.795 Z2.800
G1 Z0F1000
; --- FIX Y Backlash: -1.500mm ---
G0 X20.223 Y32.295 F1200
G1 X19.695 Y32.196 F1800
G1 X19.171 Y32.082 F1800
G1 X18.641 Y31.987 F1800
G1 X18.094 Y31.940 F1800
G0 Z2.8F1000
; --- FIX X Backlash: 0.600mm ---
G0 X18.694 Y31.940 F1200
; --- FIX Y Backlash: 1.500mm ---
G0 X18.694 Y33.440 F1200
G0 X19.167 Y34.268 Z2.800
G1 Z0F1000
G1 X19.640 Y34.505 F1800
G0 Z2.8F1000
G0 X20.468 Y34.860 Z2.800
G1 Z0F1000
; --- FIX X Backlash: -0.600mm ---
G0 X19.868 Y34.860 F1200
; --- FIX Y Backlash: -1.500mm ---
G0 X19.868 Y33.360 F1200
G1 X19.056 Y32.963 F1800
G1 X18.290 Y32.635 F1800
G1 X17.515 Y32.374 F1800
G1 X16.674 Y32.177 F1800
G0 Z2.8F1000
; --- FIX Y Backlash: 1.500mm ---
G0 X16.674 Y33.677 F1200
G0 X16.319 Y34.860 Z2.800
G1 Z0F1000
; --- FIX X Backlash: 0.600mm ---
G0 X16.919 Y34.860 F1200
G1 X17.437 Y34.923 F1800
G1 X17.882 Y35.027 F1800
G1 X18.319 Y35.166 F1800
G1 X18.812 Y35.333 F1800
G0 Z2.8F1000
G0 X19.048 Y36.871 Z2.800
G1 Z0F1000
G1 X20.113 Y37.108 F1800
G0 Z2.8F1000
; --- FIX X Backlash: -0.600mm ---
G0 X19.513 Y37.108 F1200
G0 X18.330 Y37.226 Z2.800
G1 Z0F1000
G1 X18.091 Y37.269 F1800
G1 X17.915 Y37.283 F1800
G1 X17.740 Y37.269 F1800
G1 X17.502 Y37.226 F1800
G0 Z2.8F1000
; --- FIX X Backlash: 0.600mm ---
G0 X18.102 Y37.226 F1200
G0 X18.694 Y37.936 Z2.800
G1 Z0F1000
; --- FIX Y Backlash: -1.500mm ---
G0 X18.694 Y36.436 F1200
G1 X18.694 Y35.963 F1800
; --- FIX Y Backlash: 1.500mm ---
G0 X18.694 Y37.463 F1200
G1 X18.836 Y37.663 F1800
G1 X19.030 Y37.834 F1800
G1 X19.268 Y37.979 F1800
G1 X19.542 Y38.099 F1800
G1 X20.162 Y38.276 F1800
G1 X20.823 Y38.385 F1800
G1 X21.294 Y38.449 F1800
G1 X21.770 Y38.492 F1800
G1 X22.094 Y38.495 F1800
G1 X22.419 Y38.487 F1800
G1 X22.745 Y38.492 F1800
G1 X23.071 Y38.527 F1800
G0 Z2.8F1000
; --- FIX X Backlash: -0.600mm ---
G0 X22.471 Y38.527 F1200
; --- FIX Y Backlash: -1.500mm ---
G0 X22.471 Y37.027 F1200
G0 X22.353 Y36.672 Z2.800
G1 Z0F1000
; --- FIX X Backlash: 0.600mm ---
G0 X22.953 Y36.672 F1200
G1 X23.189 Y36.554 F1800
G0 Z2.8F1000
; --- FIX X Backlash: -0.600mm ---
G0 X22.589 Y36.554 F1200
G0 X22.353 Y36.081 Z2.800
G1 Z0F1000
; --- FIX X Backlash: 0.600mm ---
G0 X22.953 Y36.081 F1200
; --- FIX Y Backlash: 1.500mm ---
G0 X22.953 Y37.581 F1200
G1 X24.727 Y38.054 F1800
G0 Z2.8F1000
; --- FIX Y Backlash: -1.500mm ---
G0 X24.727 Y36.554 F1200
G0 X25.319 Y35.963 Z2.800
G1 Z0F1000
; --- FIX Y Backlash: 1.500mm ---
G0 X25.319 Y37.463 F1200
G1 X25.910 Y37.542 F1800
G1 X26.507 Y37.651 F1800
G1 X27.101 Y37.798 F1800
G1 X27.685 Y37.988 F1800
G1 X28.239 Y38.225 F1800
G1 X28.782 Y38.491 F1800
G1 X29.338 Y38.760 F1800
G1 X29.933 Y39.004 F1800
G1 X31.309 Y39.492 F1800
G1 X32.654 Y39.947 F1800
G0 Z2.8F1000
; --- FIX X Backlash: -0.600mm ---
G0 X32.054 Y39.947 F1200
G0 X31.581 Y40.893 Z2.800
G1 Z0F1000
; --- FIX X Backlash: 0.600mm ---
G0 X32.181 Y40.893 F1200
G1 X32.550 Y40.951 F1800
G1 X32.916 Y40.987 F1800
G1 X33.328 Y41.006 F1800
G1 X33.837 Y41.012 F1800
G0 Z2.8F1000
; --- FIX Y Backlash: -1.500mm ---
G0 X33.837 Y39.512 F1200
G0 X33.955 Y39.393 Z2.800
G1 Z0F1000
; --- FIX Y Backlash: 1.500mm ---
G0 X33.955 Y40.893 F1200
G1 X34.102 Y40.999 F1800
G1 X34.280 Y41.068 F1800
G1 X34.394 Y41.092 F1800
G1 X34.532 Y41.109 F1800
G1 X34.699 Y41.122 F1800
G1 X34.902 Y41.130 F1800
G0 Z2.8F1000
G0 X35.001 Y41.125 Z2.800
G1 Z0F1000
G1 X35.060 Y41.170 F1800
G1 X35.093 Y41.170 F1800
G1 X35.141 Y41.161 F1800
G1 X35.158 Y41.136 F1800
; --- FIX X Backlash: -0.600mm ---
G0 X34.558 Y41.136 F1200
G1 X34.499 Y41.091 F1800
G1 X34.465 Y41.091 F1800
G1 X34.417 Y41.099 F1800
G1 X34.401 Y41.125 F1800
G0 Z2.8F1000
; --- FIX X Backlash: 0.600mm ---
G0 X35.001 Y41.125 F1200
G0 X35.257 Y41.130 Z2.800
G1 Z0F1000
G1 X35.612 Y41.130 F1800
G0 Z2.8F1000
; --- FIX X Backlash: -0.600mm ---
G0 X35.012 Y41.130 F1200
; --- FIX Y Backlash: -1.500mm ---
G0 X35.012 Y39.630 F1200
G0 X34.657 Y39.275 Z2.800
G1 Z0F1000
; --- FIX X Backlash: 0.600mm ---
G0 X35.257 Y39.275 F1200
G1 X35.494 Y39.176 F1800
G1 X35.717 Y39.118 F1800
G1 X35.937 Y39.094 F1800
G1 X36.166 Y39.099 F1800
G1 X36.415 Y39.126 F1800
G1 X36.694 Y39.169 F1800
; --- FIX Y Backlash: 1.500mm ---
G0 X36.694 Y40.669 F1200
G1 X37.014 Y40.721 F1800
G1 X37.386 Y40.775 F1800
G0 Z2.8F1000
; --- FIX Y Backlash: -1.500mm ---
G0 X37.386 Y39.275 F1200
G0 X37.859 Y38.329 Z2.800
G1 Z0F1000
; --- FIX X Backlash: -0.600mm ---
G0 X37.259 Y38.329 F1200
; --- FIX Y Backlash: 1.500mm ---
G0 X37.259 Y39.829 F1200
G1 X36.992 Y39.923 F1800
G1 X36.707 Y39.975 F1800
G1 X36.406 Y39.987 F1800
G1 X36.093 Y39.959 F1800
; --- FIX Y Backlash: -1.500mm ---
G0 X36.093 Y38.459 F1200
G1 X35.771 Y38.392 F1800
G1 X35.442 Y38.289 F1800
G1 X35.109 Y38.149 F1800
G1 X34.775 Y37.974 F1800
; --- FIX X Backlash: 0.600mm ---
G0 X35.375 Y37.974 F1200
G1 X35.739 Y37.850 F1800
G1 X36.105 Y37.808 F1800
G1 X36.473 Y37.833 F1800
; --- FIX Y Backlash: 1.500mm ---
G0 X36.473 Y39.333 F1200
G1 X36.843 Y39.413 F1800
G1 X37.586 Y39.684 F1800
G1 X38.333 Y40.016 F1800
G1 X38.745 Y40.170 F1800
G1 X39.165 Y40.278 F1800
G1 X39.590 Y40.348 F1800
G1 X40.019 Y40.389 F1800
G1 X40.889 Y40.415 F1800
G1 X41.764 Y40.420 F1800
G0 Z2.8F1000
G0 X42.119 Y40.420 Z2.800
G1 Z0F1000
; --- FIX X Backlash: -0.600mm ---
G0 X41.519 Y40.420 F1200
G1 X41.164 Y40.420 F1800
; --- FIX X Backlash: 0.600mm ---
G0 X41.764 Y40.420 F1200
; --- FIX Y Backlash: -1.500mm ---
G0 X41.764 Y38.920 F1200
G1 X42.474 Y38.684 F1800
G0 Z2.8F1000
G0 X42.828 Y38.684 Z2.800
G1 Z0F1000
G1 X43.420 Y38.684 F1800
G0 Z2.8F1000
; --- FIX X Backlash: -0.600mm ---
G0 X42.820 Y38.684 F1200
; --- FIX Y Backlash: 1.500mm ---
G0 X42.820 Y40.184 F1200
G0 X42.702 Y41.367 Z2.800
G1 Z0F1000
; --- FIX X Backlash: 0.600mm ---
G0 X43.302 Y41.367 F1200
; --- FIX Y Backlash: -1.500mm ---
G0 X43.302 Y39.867 F1200
G1 X45.550 Y39.388 F1800
G1 X47.561 Y39.039 F1800
G0 Z2.8F1000
; --- FIX X Backlash: -0.600mm ---
G0 X46.961 Y39.039 F1200
G0 X46.014 Y38.210 Z2.800
G1 Z0F1000
G1 X46.033 Y38.025 F1800
; --- FIX X Backlash: 0.600mm ---
G0 X46.633 Y38.025 F1200
G1 X46.690 Y37.891 F1800
G1 X46.747 Y37.840 F1800
G1 X46.828 Y37.798 F1800
G1 X46.940 Y37.764 F1800
G1 X47.088 Y37.737 F1800
; --- FIX X Backlash: -0.600mm ---
G0 X46.488 Y37.737 F1200
; --- FIX Y Backlash: 1.500mm ---
G0 X46.488 Y39.237 F1200
G1 X46.337 Y39.354 F1800
G1 X46.208 Y39.445 F1800
G1 X46.096 Y39.512 F1800
G1 X45.998 Y39.554 F1800
G1 X45.826 Y39.563 F1800
; --- FIX Y Backlash: -1.500mm ---
G0 X45.826 Y38.063 F1200
G1 X45.659 Y37.974 F1800
G0 Z2.8F1000
; --- FIX Y Backlash: 1.500mm ---
G0 X45.659 Y39.474 F1200
G0 X45.541 Y39.592 Z2.800
G1 Z0F1000
G1 X45.097 Y39.641 F1800
G1 X44.659 Y39.686 F1800
G1 X44.218 Y39.702 F1800
G1 X43.766 Y39.662 F1800
; --- FIX Y Backlash: -1.500mm ---
G0 X43.766 Y38.162 F1200
G1 X43.405 Y38.087 F1800
G1 X43.093 Y37.996 F1800
G1 X42.465 Y37.783 F1800
G1 X41.567 Y37.539 F1800
G1 X40.586 Y37.327 F1800
G1 X40.115 Y37.235 F1800
G1 X39.319 Y37.085 F1800
G1 X39.034 Y37.027 F1800
G0 Z2.8F1000
; --- FIX Y Backlash: 1.500mm ---
G0 X39.034 Y38.527 F1200
G0 X37.851 Y39.355 Z2.800
G1 Z0F1000
; --- FIX X Backlash: 0.600mm ---
G0 X38.451 Y39.355 F1200
G1 X38.806 Y39.336 F1800
G1 X39.159 Y39.351 F1800
G1 X39.513 Y39.388 F1800
G1 X40.146 Y39.471 F1800
G1 X40.374 Y39.509 F1800
G1 X40.558 Y39.556 F1800
G1 X40.701 Y39.618 F1800
G1 X40.807 Y39.704 F1800
G1 X40.879 Y39.822 F1800
G1 X40.921 Y39.979 F1800
G1 X40.936 Y40.184 F1800
G0 Z2.8F1000
; --- FIX Y Backlash: -1.500mm ---
G0 X40.936 Y38.684 F1200
G0 X42.119 Y37.619 Z2.800
G1 Z0F1000
G1 X42.592 Y37.619 F1800
G0 Z2.8F1000
G0 X42.710 Y36.436 Z2.800
G1 Z0F1000
; --- FIX Y Backlash: 1.500mm ---
G0 X42.710 Y37.936 F1200
G1 X43.125 Y38.014 F1800
G1 X43.548 Y38.071 F1800
G1 X44.485 Y38.172 F1800
G0 Z2.8F1000
; --- FIX X Backlash: -0.600mm ---
G0 X43.885 Y38.172 F1200
; --- FIX Y Backlash: -1.500mm ---
G0 X43.885 Y36.672 F1200
G0 X43.530 Y35.963 Z2.800
G1 Z0F1000
; --- FIX X Backlash: 0.600mm ---
G0 X44.130 Y35.963 F1200
; --- FIX Y Backlash: 1.500mm ---
G0 X44.130 Y37.463 F1200
G1 X44.938 Y37.631 F1800
G1 X45.839 Y37.804 F1800
G1 X46.832 Y37.972 F1800
G1 X47.916 Y38.128 F1800
G1 X48.332 Y38.176 F1800
G1 X48.677 Y38.200 F1800
G1 X48.973 Y38.204 F1800
G1 X49.242 Y38.192 F1800
G1 X49.508 Y38.167 F1800
; --- FIX Y Backlash: -1.500mm ---
G0 X49.508 Y36.667 F1200
G1 X50.123 Y36.595 F1800
G1 X50.518 Y36.554 F1800
G0 Z2.8F1000
G0 X50.755 Y35.608 Z2.800
G1 Z0F1000
; --- FIX X Backlash: -0.600mm ---
G0 X50.155 Y35.608 F1200
G1 X49.327 Y35.608 F1800
G0 Z2.8F1000
; --- FIX X Backlash: 0.600mm ---
G0 X49.927 Y35.608 F1200
G0 X51.938 Y35.253 Z2.800
G1 Z0F1000
; --- FIX X Backlash: -0.600mm ---
G0 X51.338 Y35.253 F1200
G1 X50.745 Y35.037 F1800
G1 X49.527 Y34.522 F1800
G1 X48.854 Y34.267 F1800
G1 X48.324 Y34.078 F1800
G1 X47.789 Y33.917 F1800
G1 X47.490 Y33.866 F1800
G1 X47.204 Y33.847 F1800
G1 X46.914 Y33.847 F1800
G1 X46.334 Y33.847 F1800
G1 X46.070 Y33.847 F1800
G1 X45.807 Y33.830 F1800
G1 X45.541 Y33.790 F1800
G1 X45.077 Y33.651 F1800
G1 X44.640 Y33.452 F1800
G1 X44.209 Y33.225 F1800
G1 X43.766 Y33.005 F1800
G0 Z2.8F1000
; --- FIX X Backlash: 0.600mm ---
G0 X44.366 Y33.005 F1200
G0 X45.668 Y32.295 Z2.800
G1 Z0F1000
; --- FIX X Backlash: -0.600mm ---
G0 X45.068 Y32.295 F1200
G1 X44.507 Y32.083 F1800
G1 X43.893 Y31.822 F1800
G1 X43.553 Y31.688 F1800
G1 X43.186 Y31.558 F1800
G1 X42.785 Y31.440 F1800
G1 X42.347 Y31.338 F1800
G1 X41.934 Y31.282 F1800
G1 X41.541 Y31.266 F1800
G1 X41.136 Y31.255 F1800
G1 X40.690 Y31.215 F1800
G1 X40.266 Y31.139 F1800
G1 X39.899 Y31.044 F1800
G1 X39.574 Y30.939 F1800
G1 X39.276 Y30.831 F1800
G1 X38.987 Y30.730 F1800
G1 X38.692 Y30.642 F1800
G1 X38.374 Y30.578 F1800
G1 X38.018 Y30.545 F1800
G1 X37.924 Y30.551 F1800
G1 X37.853 Y30.572 F1800
G1 X37.793 Y30.603 F1800
G1 X37.733 Y30.639 F1800
G0 Z2.8F1000
G0 X37.614 Y30.520 Z2.800
G1 Z0F1000
G1 X36.431 Y30.284 F1800
G0 Z2.8F1000
; --- FIX Y Backlash: 1.500mm ---
G0 X36.431 Y31.784 F1200
G0 X36.313 Y32.730 Z2.800
G1 Z0F1000
; --- FIX X Backlash: 0.600mm ---
G0 X36.913 Y32.730 F1200
G1 X37.859 Y32.849 F1800
G0 Z2.8F1000
G0 X38.569 Y33.795 Z2.800
G1 Z0F1000
G1 X38.912 Y33.795 F1800
G1 X39.224 Y33.832 F1800
G1 X39.534 Y33.889 F1800
G1 X39.871 Y33.960 F1800
G1 X40.322 Y34.060 F1800
G1 X40.774 Y34.176 F1800
G1 X41.217 Y34.311 F1800
G1 X41.645 Y34.468 F1800
G1 X42.042 Y34.633 F1800
G1 X42.362 Y34.787 F1800
G1 X42.679 Y34.967 F1800
G1 X43.065 Y35.215 F1800
G0 Z2.8F1000
G0 X43.420 Y36.279 Z2.800
G1 Z0F1000
; --- FIX X Backlash: -0.600mm ---
G0 X42.820 Y36.279 F1200
G1 X42.583 Y36.516 F1800
G0 Z2.8F1000
; --- FIX Y Backlash: -1.500mm ---
G0 X42.583 Y35.016 F1200
G0 X41.874 Y34.898 Z2.800
G1 Z0F1000
G1 X41.282 Y34.779 F1800
G0 Z2.8F1000
G0 X40.572 Y34.779 Z2.800
G1 Z0F1000
; --- FIX Y Backlash: 1.500mm ---
G0 X40.572 Y36.279 F1200
G1 X40.312 Y36.404 F1800
G1 X40.127 Y36.472 F1800
G1 X39.957 Y36.503 F1800
G1 X39.744 Y36.516 F1800
G0 Z2.8F1000
; --- FIX Y Backlash: -1.500mm ---
G0 X39.744 Y35.016 F1200
G0 X39.271 Y34.779 Z2.800
G1 Z0F1000
G1 X39.104 Y34.589 F1800
G1 X38.913 Y34.445 F1800
G1 X38.701 Y34.334 F1800
G1 X38.473 Y34.241 F1800
G1 X38.231 Y34.150 F1800
G1 X37.980 Y34.047 F1800
G1 X37.725 Y33.917 F1800
G1 X37.468 Y33.746 F1800
G1 X37.242 Y33.588 F1800
G1 X36.944 Y33.402 F1800
G1 X36.600 Y33.198 F1800
G1 X35.882 Y32.780 F1800
G1 X35.561 Y32.589 F1800
G1 X35.302 Y32.423 F1800
G1 X35.130 Y32.295 F1800
; --- FIX X Backlash: 0.600mm ---
G0 X35.730 Y32.295 F1200
; --- FIX Y Backlash: 1.500mm ---
G0 X35.730 Y33.795 F1200
G1 X35.967 Y34.268 F1800
G0 Z2.8F1000
; --- FIX X Backlash: -0.600mm ---
G0 X35.367 Y34.268 F1200
; --- FIX Y Backlash: -1.500mm ---
G0 X35.367 Y32.768 F1200
G0 X35.012 Y32.295 Z2.800
G1 Z0F1000
G1 X34.065 Y31.703 F1800
; --- FIX X Backlash: 0.600mm ---
G0 X34.665 Y31.703 F1200
; --- FIX Y Backlash: 1.500mm ---
G0 X34.665 Y33.203 F1200
G1 X34.783 Y33.795 F1800
G0 Z2.8F1000
; --- FIX X Backlash: -0.600mm ---
G0 X34.183 Y33.795 F1200
; --- FIX Y Backlash: -1.500mm ---
G0 X34.183 Y32.295 F1200
G0 X34.065 Y31.703 Z2.800
G1 Z0F1000
G1 X31.936 Y30.994 F1800
G0 Z2.8F1000
; --- FIX X Backlash: 0.600mm ---
G0 X32.536 Y30.994 F1200
G0 X33.127 Y30.402 Z2.800
G1 Z0F1000
G1 X33.183 Y30.312 F1800
G1 X33.165 Y30.247 F1800
; --- FIX X Backlash: -0.600mm ---
G0 X32.565 Y30.247 F1200
G1 X32.487 Y30.201 F1800
G1 X32.363 Y30.169 F1800
G1 X32.037 Y30.123 F1800
G1 X31.699 Y30.067 F1800
G1 X31.175 Y29.911 F1800
G1 X30.684 Y29.750 F1800
G1 X30.434 Y29.681 F1800
G1 X30.169 Y29.625 F1800
G1 X29.883 Y29.587 F1800
G1 X29.569 Y29.574 F1800
G0 Z2.8F1000
; --- FIX Y Backlash: 1.500mm ---
G0 X29.569 Y31.074 F1200
G0 X28.978 Y32.020 Z2.800
G1 Z0F1000
; --- FIX X Backlash: 0.600mm ---
G0 X29.578 Y32.020 F1200
G1 X29.933 Y32.139 F1800
G0 Z2.8F1000
G0 X31.353 Y32.494 Z2.800
G1 Z0F1000
; --- FIX X Backlash: -0.600mm ---
G0 X30.753 Y32.494 F1200
; --- FIX Y Backlash: -1.500mm ---
G0 X30.753 Y30.994 F1200
G1 X28.031 Y29.929 F1800
G0 Z2.8F1000
G0 X27.795 Y29.337 Z2.800
G1 Z0F1000
G1 X26.612 Y28.982 F1800
G0 Z2.8F1000
; --- FIX X Backlash: 0.600mm ---
G0 X27.212 Y28.982 F1200
G0 X29.460 Y26.143 Z2.800
G1 Z0F1000
; --- FIX X Backlash: -0.600mm ---
G0 X28.860 Y26.143 F1200
G1 X28.336 Y26.059 F1800
G1 X27.895 Y25.920 F1800
G1 X27.512 Y25.749 F1800
G1 X27.160 Y25.568 F1800
G1 X26.814 Y25.399 F1800
G1 X26.446 Y25.266 F1800
G1 X26.247 Y25.220 F1800
G1 X26.033 Y25.191 F1800
G1 X25.801 Y25.182 F1800
G1 X25.547 Y25.196 F1800
G0 Z2.8F1000
; --- FIX X Backlash: 0.600mm ---
G0 X26.147 Y25.196 F1200
G0 X27.093 Y23.777 Z2.800
G1 Z0F1000
G1 X27.922 Y23.777 F1800
G0 Z2.8F1000
; --- FIX Y Backlash: 1.500mm ---
G0 X27.922 Y25.277 F1200
G0 X28.868 Y25.750 Z2.800
G1 Z0F1000
G1 X29.147 Y25.835 F1800
G1 X29.463 Y25.944 F1800
G1 X29.805 Y26.072 F1800
G1 X30.159 Y26.214 F1800
G1 X30.860 Y26.517 F1800
G1 X31.471 Y26.815 F1800
G0 Z2.8F1000
; --- FIX X Backlash: -0.600mm ---
G0 X30.871 Y26.815 F1200
G0 X28.978 Y27.406 Z2.800
G1 Z0F1000
; --- FIX X Backlash: 0.600mm ---
G0 X29.578 Y27.406 F1200
G1 X29.636 Y27.472 F1800
G1 X29.770 Y27.517 F1800
G1 X29.963 Y27.547 F1800
G1 X30.193 Y27.565 F1800
G1 X30.693 Y27.585 F1800
G1 X31.116 Y27.612 F1800
G1 X31.789 Y27.692 F1800
G1 X32.461 Y27.766 F1800
G1 X33.141 Y27.855 F1800
G1 X33.837 Y27.974 F1800
G1 X34.432 Y28.110 F1800
G1 X34.986 Y28.305 F1800
G1 X35.247 Y28.439 F1800
G1 X35.498 Y28.606 F1800
G1 X35.738 Y28.812 F1800
G1 X35.967 Y29.063 F1800
G0 Z2.8F1000
; --- FIX Y Backlash: -1.500mm ---
G0 X35.967 Y27.563 F1200
G0 X37.859 Y27.089 Z2.800
G1 Z0F1000
; --- FIX Y Backlash: 1.500mm ---
G0 X37.859 Y28.589 F1200
G1 X38.435 Y28.714 F1800
G1 X38.939 Y28.843 F1800
G1 X39.395 Y28.977 F1800
G1 X39.831 Y29.118 F1800
G1 X40.743 Y29.425 F1800
G1 X41.271 Y29.593 F1800
G1 X41.882 Y29.773 F1800
G0 Z2.8F1000
; --- FIX X Backlash: -0.600mm ---
G0 X41.282 Y29.773 F1200
G0 X40.572 Y30.246 Z2.800
G1 Z0F1000
; --- FIX X Backlash: 0.600mm ---
G0 X41.172 Y30.246 F1200
G1 X41.827 Y30.470 F1800
G1 X42.445 Y30.678 F1800
G1 X42.765 Y30.772 F1800
G1 X43.107 Y30.859 F1800
G1 X43.479 Y30.936 F1800
G1 X43.893 Y31.003 F1800
G1 X44.665 Y31.080 F1800
G1 X45.441 Y31.124 F1800
G1 X46.212 Y31.173 F1800
G1 X46.969 Y31.269 F1800
G1 X47.355 Y31.346 F1800
G1 X47.793 Y31.447 F1800
G1 X48.262 Y31.562 F1800
G1 X49.202 Y31.797 F1800
G1 X49.629 Y31.898 F1800
G1 X49.996 Y31.976 F1800
G1 X50.282 Y32.020 F1800
G0 Z2.8F1000
; --- FIX X Backlash: -0.600mm ---
G0 X49.682 Y32.020 F1200
; --- FIX Y Backlash: -1.500mm ---
G0 X49.682 Y30.520 F1200
G0 X48.617 Y30.402 Z2.800
G1 Z0F1000
G1 X48.522 Y30.291 F1800
G1 X48.484 Y30.214 F1800
G1 X48.481 Y30.169 F1800
G1 X48.492 Y30.152 F1800
G1 X48.497 Y30.158 F1800
G1 X48.475 Y30.185 F1800
G1 X48.403 Y30.228 F1800
; --- FIX Y Backlash: 1.500mm ---
G0 X48.403 Y31.728 F1200
G1 X48.262 Y31.784 F1800
G0 Z2.8F1000
; --- FIX X Backlash: 0.600mm ---
G0 X48.862 Y31.784 F1200
G0 X50.518 Y33.440 Z2.800
G1 Z0F1000
G1 X51.311 Y33.460 F1800
G1 X52.062 Y33.526 F1800
G1 X52.442 Y33.580 F1800
G1 X52.839 Y33.652 F1800
G1 X53.259 Y33.743 F1800
G1 X53.713 Y33.856 F1800
G1 X54.078 Y33.960 F1800
G1 X54.391 Y34.063 F1800
G1 X54.664 Y34.161 F1800
G1 X54.909 Y34.254 F1800
G1 X55.361 Y34.408 F1800
G1 X55.842 Y34.505 F1800
G0 Z2.8F1000
; --- FIX X Backlash: -0.600mm ---
G0 X55.242 Y34.505 F1200
; --- FIX Y Backlash: -1.500mm ---
G0 X55.242 Y33.005 F1200
G0 X53.941 Y31.703 Z2.800
G1 Z0F1000
; --- FIX X Backlash: 0.600mm ---
G0 X54.541 Y31.703 F1200
; --- FIX Y Backlash: 1.500mm ---
G0 X54.541 Y33.203 F1200
G1 X55.961 Y33.481 F1800
G1 X59.273 Y34.860 F1800
G0 Z2.8F1000
; --- FIX Y Backlash: -1.500mm ---
G0 X59.273 Y33.360 F1200
G0 X60.693 Y31.822 Z2.800
G1 Z0F1000
; --- FIX Y Backlash: 1.500mm ---
G0 X60.693 Y33.322 F1200
G1 X61.444 Y33.612 F1800
G1 X62.232 Y33.891 F1800
G1 X62.628 Y34.051 F1800
G1 X63.019 Y34.240 F1800
G1 X63.401 Y34.467 F1800
G1 X63.769 Y34.741 F1800
G0 Z2.8F1000
; --- FIX X Backlash: -0.600mm ---
G0 X63.169 Y34.741 F1200
G0 X62.814 Y35.451 Z2.800
G1 Z0F1000
; --- FIX X Backlash: 0.600mm ---
G0 X63.414 Y35.451 F1200
G1 X63.807 Y35.447 F1800
G1 X64.209 Y35.465 F1800
G1 X64.628 Y35.509 F1800
G1 X65.070 Y35.582 F1800
G1 X65.304 Y35.624 F1800
G1 X65.535 Y35.654 F1800
G1 X65.770 Y35.668 F1800
G1 X66.017 Y35.658 F1800
; --- FIX Y Backlash: -1.500mm ---
G0 X66.017 Y34.158 F1200
G1 X66.425 Y34.092 F1800
G1 X66.784 Y33.985 F1800
G1 X67.144 Y33.849 F1800
G1 X67.555 Y33.698 F1800
G1 X68.078 Y33.556 F1800
G1 X68.620 Y33.460 F1800
G1 X69.306 Y33.341 F1800
G1 X69.977 Y33.232 F1800
G1 X70.650 Y33.152 F1800
G1 X71.341 Y33.123 F1800
G1 X72.055 Y33.165 F1800
; --- FIX Y Backlash: 1.500mm ---
G0 X72.055 Y34.665 F1200
G1 X72.760 Y34.749 F1800
G1 X73.028 Y34.776 F1800
G1 X73.258 Y34.780 F1800
G1 X73.475 Y34.760 F1800
G1 X73.707 Y34.718 F1800
; --- FIX Y Backlash: -1.500mm ---
G0 X73.707 Y33.218 F1200
G1 X74.340 Y33.090 F1800
G1 X75.008 Y33.005 F1800
G0 Z2.8F1000
G0 X75.245 Y31.585 Z2.800
G1 Z0F1000
; --- FIX Y Backlash: 1.500mm ---
G0 X75.245 Y33.085 F1200
G1 X75.651 Y33.167 F1800
G1 X76.020 Y33.283 F1800
G1 X76.356 Y33.425 F1800
G1 X76.664 Y33.581 F1800
G1 X77.220 Y33.897 F1800
G1 X77.729 Y34.150 F1800
G0 Z2.8F1000
; --- FIX Y Backlash: -1.500mm ---
G0 X77.729 Y32.650 F1200
G0 X77.848 Y32.532 Z2.800
G1 Z0F1000
G1 X78.216 Y32.470 F1800
G1 X78.577 Y32.404 F1800
G1 X78.958 Y32.357 F1800
G1 X79.386 Y32.350 F1800
G1 X79.652 Y32.370 F1800
G1 X79.880 Y32.400 F1800
G1 X80.081 Y32.439 F1800
G1 X80.266 Y32.483 F1800
; --- FIX Y Backlash: 1.500mm ---
G0 X80.266 Y33.983 F1200
G1 X80.625 Y34.074 F1800
G1 X81.042 Y34.150 F1800
G0 Z2.8F1000
; --- FIX X Backlash: -0.600mm ---
G0 X80.442 Y34.150 F1200
; --- FIX Y Backlash: -1.500mm ---
G0 X80.442 Y32.650 F1200
G0 X80.087 Y31.703 Z2.800
G1 Z0F1000
; --- FIX X Backlash: 0.600mm ---
G0 X80.687 Y31.703 F1200
; --- FIX Y Backlash: 1.500mm ---
G0 X80.687 Y33.203 F1200
G1 X81.320 Y33.346 F1800
G1 X81.903 Y33.524 F1800
G1 X82.204 Y33.621 F1800
G1 X82.528 Y33.720 F1800
G1 X82.886 Y33.818 F1800
G1 X83.290 Y33.913 F1800
G0 Z2.8F1000
; --- FIX Y Backlash: -1.500mm ---
G0 X83.290 Y32.413 F1200
G0 X84.000 Y32.058 Z2.800
G1 Z0F1000
; --- FIX Y Backlash: 1.500mm ---
G0 X84.000 Y33.558 F1200
G1 X84.118 Y33.677 F1800
G0 Z2.8F1000
G0 X84.828 Y34.268 Z2.800
G1 Z0F1000
; --- FIX Y Backlash: -1.500mm ---
G0 X84.828 Y32.768 F1200
G1 X85.183 Y32.650 F1800
; --- FIX X Backlash: -0.600mm ---
G0 X84.583 Y32.650 F1200
; --- FIX Y Backlash: 1.500mm ---
G0 X84.583 Y34.150 F1200
G1 X84.259 Y34.311 F1800
G1 X83.987 Y34.468 F1800
G1 X83.717 Y34.644 F1800
G1 X83.400 Y34.860 F1800
G0 Z2.8F1000
; --- FIX X Backlash: 0.600mm ---
G0 X84.000 Y34.860 F1200
; --- FIX Y Backlash: -1.500mm ---
G0 X84.000 Y33.360 F1200
G0 X86.011 Y32.295 Z2.800
G1 Z0F1000
; --- FIX Y Backlash: 1.500mm ---
G0 X86.011 Y33.795 F1200
G1 X86.721 Y34.387 F1800
G0 Z2.8F1000
; --- FIX Y Backlash: -1.500mm ---
G0 X86.721 Y32.887 F1200
G0 X87.667 Y32.650 Z2.800
G1 Z0F1000
G1 X87.667 Y32.413 F1800
G0 Z2.8F1000
; --- FIX X Backlash: -0.600mm ---
G0 X87.067 Y32.413 F1200
G0 X86.831 Y32.295 Z2.800
G1 Z0F1000
; --- FIX X Backlash: 0.600mm ---
G0 X87.431 Y32.295 F1200
G1 X87.667 Y31.822 F1800
G0 Z2.8F1000
; --- FIX X Backlash: -0.600mm ---
G0 X87.067 Y31.822 F1200
G0 X86.831 Y31.822 Z2.800
G1 Z0F1000
G1 X86.455 Y31.550 F1800
G1 X86.116 Y31.331 F1800
G1 X85.805 Y31.156 F1800
G1 X85.516 Y31.017 F1800
G1 X84.983 Y30.810 F1800
G1 X84.464 Y30.639 F1800
G0 Z2.8F1000
; --- FIX Y Backlash: 1.500mm ---
G0 X84.464 Y32.139 F1200
G0 X84.228 Y32.967 Z2.800
G1 Z0F1000
; --- FIX Y Backlash: -1.500mm ---
G0 X84.228 Y31.467 F1200
G1 X83.916 Y31.291 F1800
G1 X83.635 Y31.152 F1800
G1 X83.376 Y31.041 F1800
G1 X83.131 Y30.950 F1800
G1 X82.643 Y30.799 F1800
G1 X82.098 Y30.639 F1800
G0 Z2.8F1000
; --- FIX X Backlash: 0.600mm ---
G0 X82.698 Y30.639 F1200
G0 X83.290 Y29.811 Z2.800
G1 Z0F1000
; --- FIX X Backlash: -0.600mm ---
G0 X82.690 Y29.811 F1200
G1 X82.566 Y29.545 F1800
G1 X82.425 Y29.322 F1800
G1 X82.267 Y29.136 F1800
G1 X82.089 Y28.983 F1800
G1 X81.889 Y28.861 F1800
G1 X81.668 Y28.763 F1800
G1 X81.423 Y28.687 F1800
G1 X81.152 Y28.627 F1800
G0 Z2.8F1000
G0 X80.087 Y27.208 Z2.800
G1 Z0F1000
G1 X79.307 Y27.031 F1800
G1 X78.513 Y26.827 F1800
G1 X78.130 Y26.719 F1800
G1 X77.767 Y26.607 F1800
G1 X77.431 Y26.494 F1800
G1 X77.129 Y26.380 F1800
G0 Z2.8F1000
; --- FIX X Backlash: 0.600mm ---
G0 X77.729 Y26.380 F1200
G0 X79.386 Y25.196 Z2.800
G1 Z0F1000
; --- FIX X Backlash: -0.600mm ---
G0 X78.786 Y25.196 F1200
G1 X78.347 Y24.901 F1800
G1 X77.893 Y24.674 F1800
G1 X77.426 Y24.503 F1800
G1 X76.950 Y24.375 F1800
G1 X75.979 Y24.196 F1800
G1 X75.000 Y24.033 F1800
G1 X74.249 Y23.873 F1800
G1 X73.880 Y23.812 F1800
G1 X73.462 Y23.777 F1800
G0 Z2.8F1000
; --- FIX X Backlash: 0.600mm ---
G0 X74.062 Y23.777 F1200
; --- FIX Y Backlash: 1.500mm ---
G0 X74.062 Y25.277 F1200
G0 X74.890 Y27.406 Z2.800
G1 Z0F1000
; --- FIX X Backlash: -0.600mm ---
G0 X74.290 Y27.406 F1200
; --- FIX Y Backlash: -1.500mm ---
G0 X74.290 Y25.906 F1200
G1 X69.558 Y24.636 F1800
G1 X68.256 Y24.487 F1800
G0 Z2.8F1000
; --- FIX Y Backlash: 1.500mm ---
G0 X68.256 Y25.987 F1200
G0 X65.299 Y27.051 Z2.800
G1 Z0F1000
; --- FIX Y Backlash: -1.500mm ---
G0 X65.299 Y25.551 F1200
G1 X64.470 Y25.433 F1800
G0 Z2.8F1000
; --- FIX X Backlash: 0.600mm ---
G0 X65.070 Y25.433 F1200
; --- FIX Y Backlash: 1.500mm ---
G0 X65.070 Y26.933 F1200
G0 X65.425 Y27.761 Z2.800
G1 Z0F1000
G1 X65.639 Y27.761 F1800
G1 X65.916 Y27.766 F1800
G1 X66.240 Y27.783 F1800
G1 X66.596 Y27.808 F1800
G1 X67.342 Y27.887 F1800
G1 X68.028 Y28.002 F1800
G1 X68.820 Y28.153 F1800
G1 X69.684 Y28.260 F1800
G1 X70.139 Y28.313 F1800
G1 X70.544 Y28.378 F1800
G1 X70.932 Y28.464 F1800
G1 X71.341 Y28.574 F1800
G1 X72.020 Y28.801 F1800
G1 X72.642 Y29.063 F1800
G0 Z2.8F1000
G0 X73.944 Y29.891 Z2.800
G1 Z0F1000
G1 X74.457 Y30.088 F1800
G1 X75.007 Y30.311 F1800
G1 X75.587 Y30.590 F1800
G1 X76.191 Y30.956 F1800
G0 Z2.8F1000
; --- FIX X Backlash: -0.600mm ---
G0 X75.591 Y30.956 F1200
G0 X75.000 Y31.547 Z2.800
G1 Z0F1000
; --- FIX X Backlash: 0.600mm ---
G0 X75.600 Y31.547 F1200
G1 X76.073 Y31.784 F1800
G0 Z2.8F1000
; --- FIX X Backlash: -0.600mm ---
G0 X75.473 Y31.784 F1200
G0 X72.870 Y32.139 Z2.800
G1 Z0F1000
; --- FIX Y Backlash: -1.500mm ---
G0 X72.870 Y30.639 F1200
G1 X72.567 Y30.386 F1800
G1 X72.274 Y30.187 F1800
G1 X71.987 Y30.037 F1800
G1 X71.702 Y29.930 F1800
G1 X71.416 Y29.860 F1800
G1 X71.124 Y29.820 F1800
G1 X70.821 Y29.806 F1800
G1 X70.504 Y29.811 F1800
G0 Z2.8F1000
G0 X69.676 Y28.982 Z2.800
G1 Z0F1000
G1 X69.146 Y28.654 F1800
G1 X68.559 Y28.396 F1800
G1 X67.968 Y28.194 F1800
G1 X67.428 Y28.036 F1800
G0 Z2.8F1000
; --- FIX X Backlash: 0.600mm ---
G0 X68.028 Y28.036 F1200
; --- FIX Y Backlash: 1.500mm ---
G0 X68.028 Y29.536 F1200
G0 X68.501 Y31.902 Z2.800
G1 Z0F1000
; --- FIX X Backlash: -0.600mm ---
G0 X67.901 Y31.902 F1200
; --- FIX Y Backlash: -1.500mm ---
G0 X67.901 Y30.402 F1200
G1 X67.032 Y29.945 F1800
G1 X66.833 Y29.857 F1800
G1 X66.622 Y29.782 F1800
G1 X66.390 Y29.720 F1800
G1 X66.127 Y29.672 F1800
G1 X65.402 Y29.587 F1800
G1 X64.729 Y29.522 F1800
G1 X64.104 Y29.449 F1800
G1 X63.524 Y29.337 F1800
G0 Z2.8F1000
G0 X63.287 Y28.982 Z2.800
G1 Z0F1000
G1 X62.806 Y28.813 F1800
G1 X62.289 Y28.674 F1800
G1 X61.750 Y28.565 F1800
G1 X61.200 Y28.484 F1800
G1 X60.653 Y28.428 F1800
G1 X60.120 Y28.395 F1800
G1 X59.613 Y28.383 F1800
G1 X59.147 Y28.391 F1800
G0 Z2.8F1000
; --- FIX X Backlash: 0.600mm ---
G0 X59.747 Y28.391 F1200
G0 X60.220 Y26.143 Z2.800
G1 Z0F1000
; --- FIX Y Backlash: 1.500mm ---
G0 X60.220 Y27.643 F1200
G1 X62.823 Y28.589 F1800
G0 Z2.8F1000
; --- FIX X Backlash: -0.600mm ---
G0 X62.223 Y28.589 F1200
; --- FIX Y Backlash: -1.500mm ---
G0 X62.223 Y27.089 F1200
G0 X58.673 Y25.196 Z2.800
G1 Z0F1000
G1 X58.340 Y25.017 F1800
G1 X57.983 Y24.855 F1800
G1 X57.605 Y24.710 F1800
G1 X57.209 Y24.582 F1800
G1 X56.369 Y24.380 F1800
G1 X55.479 Y24.250 F1800
G0 Z2.8F1000
; --- FIX Y Backlash: 1.500mm ---
G0 X55.479 Y25.750 F1200
G0 X55.242 Y27.288 Z2.800
G1 Z0F1000
G1 X54.915 Y27.264 F1800
G1 X54.566 Y27.227 F1800
; --- FIX Y Backlash: -1.500mm ---
G0 X54.566 Y25.727 F1200
G1 X54.229 Y25.674 F1800
G1 X53.941 Y25.605 F1800
G1 X53.697 Y25.512 F1800
G1 X53.480 Y25.394 F1800
G1 X53.257 Y25.245 F1800
G1 X52.994 Y25.058 F1800
G1 X52.689 Y24.868 F1800
G1 X52.365 Y24.711 F1800
G1 X52.026 Y24.582 F1800
G1 X51.677 Y24.474 F1800
G1 X50.968 Y24.298 F1800
G1 X50.273 Y24.132 F1800
G0 Z2.8F1000
G0 X48.380 Y23.777 Z2.800
G1 Z0F1000
G1 X46.014 Y23.777 F1800
G0 Z2.8F1000
; --- FIX Y Backlash: 1.500mm ---
G0 X46.014 Y25.277 F1200
G0 X43.766 Y27.643 Z2.800
G1 Z0F1000
; --- FIX X Backlash: 0.600mm ---
G0 X44.366 Y27.643 F1200
G1 X44.994 Y27.746 F1800
G1 X47.081 Y28.067 F1800
G1 X47.797 Y28.184 F1800
G1 X48.499 Y28.309 F1800
G1 X49.175 Y28.443 F1800
G1 X49.809 Y28.589 F1800
G0 Z2.8F1000
; --- FIX Y Backlash: -1.500mm ---
G0 X49.809 Y27.089 F1200
G0 X51.465 Y26.498 Z2.800
G1 Z0F1000
; --- FIX X Backlash: -0.600mm ---
G0 X50.865 Y26.498 F1200
G1 X50.342 Y26.247 F1800
G1 X49.880 Y26.041 F1800
G1 X49.407 Y25.858 F1800
G1 X48.854 Y25.677 F1800
G1 X48.300 Y25.488 F1800
G1 X47.747 Y25.281 F1800
G1 X47.185 Y25.096 F1800
G1 X46.606 Y24.969 F1800
G1 X46.134 Y24.904 F1800
G1 X45.659 Y24.858 F1800
G1 X44.996 Y24.841 F1800
G1 X44.358 Y24.798 F1800
G1 X44.046 Y24.734 F1800
G1 X43.755 Y24.646 F1800
G1 X43.471 Y24.540 F1800
G1 X43.175 Y24.420 F1800
G1 X42.669 Y24.219 F1800
G1 X42.110 Y24.021 F1800
G1 X41.608 Y23.887 F1800
G1 X41.120 Y23.814 F1800
G1 X40.654 Y23.783 F1800
G1 X40.217 Y23.777 F1800
G0 Z2.8F1000
; --- FIX X Backlash: 0.600mm ---
G0 X40.817 Y23.777 F1200
; --- FIX Y Backlash: 1.500mm ---
G0 X40.817 Y25.277 F1200
G0 X42.947 Y27.288 Z2.800
G1 Z0F1000
; --- FIX X Backlash: -0.600mm ---
G0 X42.347 Y27.288 F1200
; --- FIX Y Backlash: -1.500mm ---
G0 X42.347 Y25.788 F1200
G1 X41.413 Y25.431 F1800
G1 X40.940 Y25.285 F1800
G1 X40.454 Y25.207 F1800
G1 X39.347 Y25.148 F1800
G1 X38.800 Y25.093 F1800
G1 X38.206 Y24.986 F1800
G1 X36.925 Y24.656 F1800
G1 X35.658 Y24.293 F1800
G1 X35.035 Y24.124 F1800
G1 X34.423 Y23.975 F1800
G1 X33.822 Y23.856 F1800
G1 X33.237 Y23.777 F1800
G0 Z2.8F1000
; --- FIX Y Backlash: 1.500mm ---
G0 X33.237 Y25.277 F1200
G0 X32.645 Y29.891 Z2.800
G1 Z0F1000
; --- FIX X Backlash: 0.600mm ---
G0 X33.245 Y29.891 F1200
G1 X33.742 Y29.856 F1800
G1 X34.225 Y29.885 F1800
G1 X34.700 Y29.964 F1800
G1 X35.167 Y30.080 F1800
G1 X36.095 Y30.373 F1800
G1 X37.031 Y30.658 F1800
G1 X37.980 Y30.882 F1800
G1 X38.890 Y31.049 F1800
G1 X39.758 Y31.154 F1800
G1 X40.581 Y31.192 F1800
G0 Z2.8F1000
; --- FIX Y Backlash: -1.500mm ---
G0 X40.581 Y29.692 F1200
G0 X41.882 Y27.208 Z2.800
G1 Z0F1000
; --- FIX Y Backlash: 1.500mm ---
G0 X41.882 Y28.708 F1200
G1 X42.254 Y28.760 F1800
G1 X42.640 Y28.839 F1800
G1 X43.037 Y28.941 F1800
G1 X43.441 Y29.063 F1800
G1 X44.262 Y29.345 F1800
G1 X45.076 Y29.654 F1800
; --- FIX X Backlash: -0.600mm ---
G0 X44.476 Y29.654 F1200
G1 X44.240 Y29.772 F1800
G0 Z2.8F1000
; --- FIX X Backlash: 0.600mm ---
G0 X44.840 Y29.772 F1200
G0 X45.195 Y29.773 Z2.800
G1 Z0F1000
G1 X46.023 Y29.773 F1800
G0 Z2.8F1000
G0 X51.347 Y30.246 Z2.800
G1 Z0F1000
G1 X53.594 Y30.587 F1800
G1 X54.778 Y30.773 F1800
G1 X57.262 Y31.474 F1800
G1 X61.166 Y32.020 F1800
G0 Z2.8F1000
G0 X65.662 Y32.494 Z2.800
G1 Z0F1000
G1 X66.136 Y32.698 F1800
G1 X66.584 Y32.964 F1800
G1 X66.791 Y33.139 F1800
G1 X66.984 Y33.351 F1800
G1 X67.161 Y33.606 F1800
G1 X67.318 Y33.913 F1800
G0 Z2.8F1000
G0 X67.555 Y36.279 Z2.800
G1 Z0F1000
G1 X67.935 Y36.237 F1800
; --- FIX Y Backlash: -1.500mm ---
G0 X67.935 Y34.737 F1200
G1 X69.336 Y34.567 F1800
G1 X69.826 Y34.512 F1800
G1 X70.297 Y34.467 F1800
G1 X70.729 Y34.436 F1800
G1 X71.104 Y34.425 F1800
G0 Z2.8F1000
; --- FIX Y Backlash: 1.500mm ---
G0 X71.104 Y35.925 F1200
G0 X71.696 Y37.344 Z2.800
G1 Z0F1000
; --- FIX Y Backlash: -1.500mm ---
G0 X71.696 Y35.844 F1200
G1 X72.328 Y35.579 F1800
G1 X72.945 Y35.394 F1800
G1 X73.529 Y35.257 F1800
G1 X74.062 Y35.134 F1800
G0 Z2.8F1000
; --- FIX X Backlash: -0.600mm ---
G0 X73.462 Y35.134 F1200
; --- FIX Y Backlash: 1.500mm ---
G0 X73.462 Y36.634 F1200
G0 X72.279 Y38.172 Z2.800
G1 Z0F1000
; --- FIX X Backlash: 0.600mm ---
G0 X72.879 Y38.172 F1200
; --- FIX Y Backlash: -1.500mm ---
G0 X72.879 Y36.672 F1200
G1 X73.516 Y36.447 F1800
G1 X74.222 Y36.230 F1800
G1 X74.974 Y36.023 F1800
G1 X75.747 Y35.830 F1800
G1 X76.517 Y35.653 F1800
G1 X77.258 Y35.496 F1800
G1 X77.946 Y35.362 F1800
G1 X78.558 Y35.253 F1800
G0 Z2.8F1000
; --- FIX Y Backlash: 1.500mm ---
G0 X78.558 Y36.753 F1200
G0 X78.912 Y37.344 Z2.800
G1 Z0F1000
; --- FIX Y Backlash: -1.500mm ---
G0 X78.912 Y35.844 F1200
G1 X79.513 Y35.753 F1800
G1 X80.096 Y35.659 F1800
G1 X80.859 Y35.515 F1800
G1 X81.559 Y35.418 F1800
G1 X81.889 Y35.396 F1800
G1 X82.207 Y35.396 F1800
G1 X82.516 Y35.428 F1800
; --- FIX Y Backlash: 1.500mm ---
G0 X82.516 Y36.928 F1200
G1 X82.817 Y36.989 F1800
G0 Z2.8F1000
; --- FIX X Backlash: -0.600mm ---
G0 X82.217 Y36.989 F1200
; --- FIX Y Backlash: -1.500mm ---
G0 X82.217 Y35.489 F1200
G0 X81.980 Y35.371 Z2.800
G1 Z0F1000
G1 X81.743 Y35.134 F1800
; --- FIX X Backlash: 0.600mm ---
G0 X82.343 Y35.134 F1200
G1 X82.817 Y34.898 F1800
G0 Z2.8F1000
; --- FIX X Backlash: -0.600mm ---
G0 X82.217 Y34.898 F1200
; --- FIX Y Backlash: 1.500mm ---
G0 X82.217 Y36.398 F1200
G0 X81.743 Y36.634 Z2.800
G1 Z0F1000
G1 X81.625 Y36.634 F1800
G0 Z2.8F1000
; --- FIX X Backlash: 0.600mm ---
G0 X82.225 Y36.634 F1200
G0 X83.881 Y36.753 Z2.800
G1 Z0F1000
; --- FIX Y Backlash: -1.500mm ---
G0 X83.881 Y35.253 F1200
G1 X84.580 Y35.049 F1800
G1 X85.309 Y34.924 F1800
G1 X86.064 Y34.823 F1800
G1 X86.839 Y34.695 F1800
G1 X87.839 Y34.473 F1800
G1 X88.857 Y34.243 F1800
G1 X89.872 Y34.053 F1800
G1 X90.862 Y33.951 F1800
G0 Z2.8F1000
G0 X91.690 Y33.360 Z2.800
G1 Z0F1000
G1 X93.464 Y32.752 F1800
G1 X95.002 Y32.419 F1800
G1 X97.724 Y31.884 F1800
G1 X99.262 Y31.703 F1800
G0 Z2.8F1000
; --- FIX X Backlash: -0.600mm ---
G0 X98.662 Y31.703 F1200
; --- FIX Y Backlash: 1.500mm ---
G0 X98.662 Y33.203 F1200
G0 X98.307 Y34.032 Z2.800
G1 Z0F1000
G1 X97.470 Y34.054 F1800
G1 X96.674 Y34.118 F1800
G1 X95.896 Y34.227 F1800
G1 X95.112 Y34.387 F1800
G0 Z2.8F1000
; --- FIX Y Backlash: -1.500mm ---
G0 X95.112 Y32.887 F1200
G0 X94.166 Y31.585 Z2.800
G1 Z0F1000
G1 X93.822 Y31.597 F1800
G1 X93.506 Y31.624 F1800
G1 X93.213 Y31.663 F1800
G1 X92.938 Y31.711 F1800
; --- FIX Y Backlash: 1.500mm ---
G0 X92.938 Y33.211 F1200
G1 X92.422 Y33.324 F1800
G1 X91.918 Y33.440 F1800
G0 Z2.8F1000
; --- FIX Y Backlash: -1.500mm ---
G0 X91.918 Y31.940 F1200
G0 X90.853 Y31.822 Z2.800
G1 Z0F1000
; --- FIX Y Backlash: 1.500mm ---
G0 X90.853 Y33.322 F1200
G1 X89.907 Y33.913 F1800
G0 Z2.8F1000
; --- FIX Y Backlash: -1.500mm ---
G0 X89.907 Y32.413 F1200
G0 X89.197 Y31.940 Z2.800
G1 Z0F1000
; --- FIX Y Backlash: 1.500mm ---
G0 X89.197 Y33.440 F1200
G1 X88.777 Y33.655 F1800
G1 X88.447 Y33.842 F1800
G1 X88.136 Y34.006 F1800
G1 X87.777 Y34.150 F1800
G0 Z2.8F1000
; --- FIX Y Backlash: -1.500mm ---
G0 X87.777 Y32.650 F1200
G0 X87.067 Y32.177 Z2.800
G1 Z0F1000
; --- FIX Y Backlash: 1.500mm ---
G0 X87.067 Y33.677 F1200
G1 X86.712 Y33.913 F1800
G1 X86.712 Y34.150 F1800
; --- FIX X Backlash: 0.600mm ---
G0 X87.312 Y34.150 F1200
G1 X87.500 Y34.196 F1800
G1 X87.657 Y34.226 F1800
G1 X87.790 Y34.243 F1800
G1 X87.908 Y34.247 F1800
G1 X88.127 Y34.219 F1800
; --- FIX Y Backlash: -1.500mm ---
G0 X88.127 Y32.719 F1200
G1 X88.377 Y32.650 F1800
; --- FIX X Backlash: -0.600mm ---
G0 X87.777 Y32.650 F1200
G1 X87.067 Y30.520 F1800
G0 Z2.8F1000
; --- FIX X Backlash: 0.600mm ---
G0 X87.667 Y30.520 F1200
; --- FIX Y Backlash: 1.500mm ---
G0 X87.667 Y32.020 F1200
G0 X88.614 Y32.139 Z2.800
G1 Z0F1000
; --- FIX Y Backlash: -1.500mm ---
G0 X88.614 Y30.639 F1200
G1 X88.624 Y30.354 F1800
G1 X88.656 Y30.088 F1800
G1 X88.713 Y29.837 F1800
G1 X88.800 Y29.598 F1800
G1 X88.924 Y29.370 F1800
G1 X89.089 Y29.147 F1800
G1 X89.299 Y28.929 F1800
G1 X89.561 Y28.711 F1800
G1 X90.107 Y28.363 F1800
G1 X90.735 Y28.057 F1800
G1 X91.397 Y27.786 F1800
G1 X92.045 Y27.540 F1800
G1 X92.918 Y27.158 F1800
G1 X93.789 Y26.737 F1800
G1 X94.229 Y26.543 F1800
G1 X94.675 Y26.376 F1800
G1 X95.129 Y26.247 F1800
G1 X95.594 Y26.170 F1800
G1 X96.091 Y26.150 F1800
G1 X96.550 Y26.178 F1800
G1 X97.004 Y26.223 F1800
G1 X97.487 Y26.256 F1800
; --- FIX Y Backlash: 1.500mm ---
G0 X97.487 Y27.756 F1200
G1 X99.297 Y27.817 F1800
G1 X101.036 Y27.846 F1800
G1 X101.388 Y27.855 F1800
G1 X101.701 Y27.877 F1800
G1 X101.985 Y27.910 F1800
G1 X102.253 Y27.950 F1800
G1 X102.789 Y28.038 F1800
G1 X103.402 Y28.116 F1800
G0 Z2.8F1000
G0 X104.940 Y28.708 Z2.800
G1 Z0F1000
; --- FIX Y Backlash: -1.500mm ---
G0 X104.940 Y27.208 F1200
G1 X106.242 Y26.875 F1800
G1 X108.963 Y26.616 F1800
G0 Z2.8F1000
; --- FIX Y Backlash: 1.500mm ---
G0 X108.963 Y28.116 F1200
G0 X109.554 Y29.418 Z2.800
G1 Z0F1000
; --- FIX X Backlash: -0.600mm ---
G0 X108.954 Y29.418 F1200
G1 X108.570 Y29.575 F1800
G1 X108.089 Y29.722 F1800
G1 X107.538 Y29.857 F1800
G1 X106.946 Y29.976 F1800
G1 X106.338 Y30.076 F1800
G1 X105.742 Y30.156 F1800
G1 X105.186 Y30.212 F1800
G1 X104.695 Y30.241 F1800
G1 X103.115 Y30.284 F1800
G1 X101.504 Y30.304 F1800
G1 X99.892 Y30.297 F1800
G1 X98.307 Y30.257 F1800
G1 X97.692 Y30.211 F1800
; --- FIX Y Backlash: -1.500mm ---
G0 X97.692 Y28.711 F1200
G1 X97.036 Y28.645 F1800
G1 X96.393 Y28.601 F1800
G1 X95.822 Y28.620 F1800
; --- FIX Y Backlash: 1.500mm ---
G0 X95.822 Y30.120 F1200
G1 X94.998 Y30.245 F1800
G1 X94.166 Y30.424 F1800
G1 X93.338 Y30.647 F1800
G1 X92.509 Y30.881 F1800
G1 X92.132 Y31.000 F1800
G1 X91.790 Y31.139 F1800
G1 X91.476 Y31.293 F1800
G1 X91.182 Y31.458 F1800
G1 X90.624 Y31.801 F1800
G1 X90.053 Y32.126 F1800
G1 X89.849 Y32.206 F1800
G1 X89.670 Y32.257 F1800
G0 Z2.8F1000
; --- FIX X Backlash: 0.600mm ---
G0 X90.270 Y32.257 F1200
G0 X93.701 Y32.257 Z2.800
G1 Z0F1000
; --- FIX Y Backlash: -1.500mm ---
G0 X93.701 Y30.757 F1200
G1 X94.129 Y30.677 F1800
G1 X94.585 Y30.556 F1800
G1 X95.060 Y30.401 F1800
G1 X95.548 Y30.219 F1800
G1 X96.534 Y29.795 F1800
G1 X97.487 Y29.337 F1800
G0 Z2.8F1000
; --- FIX Y Backlash: 1.500mm ---
G0 X97.487 Y30.837 F1200
G0 X99.616 Y32.020 Z2.800
G1 Z0F1000
; --- FIX X Backlash: -0.600mm ---
G0 X99.016 Y32.020 F1200
G1 X98.429 Y32.170 F1800
G1 X97.790 Y32.329 F1800
G1 X97.143 Y32.510 F1800
G1 X96.532 Y32.730 F1800
G0 Z2.8F1000
; --- FIX X Backlash: 0.600mm ---
G0 X97.132 Y32.730 F1200
; --- FIX Y Backlash: -1.500mm ---
G0 X97.132 Y31.230 F1200
G0 X101.983 Y30.402 Z2.800
G1 Z0F1000
G1 X104.349 Y30.372 F1800
G1 X108.371 Y29.810 F1800
G0 Z2.8F1000
; --- FIX Y Backlash: 1.500mm ---
G0 X108.371 Y31.310 F1200
G0 X108.963 Y33.085 Z2.800
G1 Z0F1000
; --- FIX X Backlash: -0.600mm ---
G0 X108.363 Y33.085 F1200
; --- FIX Y Backlash: -1.500mm ---
G0 X108.363 Y31.585 F1200
G1 X105.997 Y31.439 F1800
G1 X104.695 Y31.349 F1800
G0 Z2.8F1000
; --- FIX X Backlash: 0.600mm ---
G0 X105.295 Y31.349 F1200
G0 X107.425 Y23.777 Z2.800
G1 Z0F1000
; --- FIX X Backlash: -0.600mm ---
G0 X106.825 Y23.777 F1200
; --- FIX Y Backlash: 1.500mm ---
G0 X106.825 Y25.277 F1200
G1 X104.577 Y25.536 F1800
G1 X103.394 Y25.669 F1800
G1 X101.501 Y25.868 F1800
G1 X100.200 Y26.000 F1800
; --- FIX Y Backlash: -1.500mm ---
G0 X100.200 Y24.500 F1200
G1 X98.188 Y24.379 F1800
; --- FIX Y Backlash: 1.500mm ---
G0 X98.188 Y25.879 F1200
G1 X97.005 Y26.022 F1800
G1 X96.059 Y26.198 F1800
G1 X92.155 Y26.578 F1800
G0 Z2.8F1000
G0 X91.208 Y27.288 Z2.800
G1 Z0F1000
G1 X90.759 Y27.345 F1800
G1 X90.368 Y27.409 F1800
G1 X90.017 Y27.481 F1800
G1 X89.684 Y27.562 F1800
G1 X89.349 Y27.653 F1800
G1 X88.593 Y27.869 F1800
G1 X88.132 Y27.998 F1800
G0 Z2.8F1000
G0 X87.304 Y28.471 Z2.800
G1 Z0F1000
G1 X86.942 Y28.703 F1800
G1 X86.601 Y28.976 F1800
G1 X86.440 Y29.138 F1800
G1 X86.286 Y29.322 F1800
G1 X86.140 Y29.533 F1800
G1 X86.003 Y29.773 F1800
G0 Z2.8F1000
; --- FIX Y Backlash: -1.500mm ---
G0 X86.003 Y28.273 F1200
G0 X83.636 Y27.444 Z2.800
G1 Z0F1000
G1 X83.167 Y27.131 F1800
G1 X82.675 Y26.754 F1800
G1 X82.131 Y26.362 F1800
G1 X81.507 Y26.004 F1800
G1 X80.784 Y25.719 F1800
G1 X80.066 Y25.520 F1800
G1 X79.388 Y25.361 F1800
G1 X78.786 Y25.196 F1800
; --- FIX X Backlash: 0.600mm ---
G0 X79.386 Y25.196 F1200
; --- FIX Y Backlash: 1.500mm ---
G0 X79.386 Y26.696 F1200
G1 X79.741 Y26.815 F1800
G0 Z2.8F1000
; --- FIX Y Backlash: -1.500mm ---
G0 X79.741 Y25.315 F1200
G0 X81.515 Y24.250 Z2.800
G1 Z0F1000
G1 X81.988 Y24.132 F1800
G0 Z2.8F1000
; --- FIX Y Backlash: 1.500mm ---
G0 X81.988 Y25.632 F1200
G0 X84.473 Y26.933 Z2.800
G1 Z0F1000
; --- FIX Y Backlash: -1.500mm ---
G0 X84.473 Y25.433 F1200
G1 X84.967 Y25.101 F1800
G1 X85.441 Y24.862 F1800
G1 X85.904 Y24.672 F1800
G1 X86.366 Y24.487 F1800
G0 Z2.8F1000
; --- FIX Y Backlash: 1.500mm ---
G0 X86.366 Y25.987 F1200
G0 X87.194 Y26.460 Z2.800
G1 Z0F1000
; --- FIX Y Backlash: -1.500mm ---
G0 X87.194 Y24.960 F1200
G1 X87.903 Y24.712 F1800
G1 X88.614 Y24.471 F1800
G1 X89.014 Y24.361 F1800
G1 X89.385 Y24.274 F1800
G1 X89.734 Y24.207 F1800
G1 X90.071 Y24.160 F1800
G1 X90.738 Y24.117 F1800
G1 X91.453 Y24.132 F1800
G0 Z2.8F1000
; --- FIX X Backlash: -0.600mm ---
G0 X90.853 Y24.132 F1200
G0 X88.605 Y23.777 Z2.800
G1 Z0F1000
G1 X88.487 Y23.777 F1800
G0 Z2.8F1000
; --- FIX X Backlash: 0.600mm ---
G0 X89.087 Y23.777 F1200
; --- FIX Y Backlash: 1.500mm ---
G0 X89.087 Y25.277 F1200
G0 X97.487 Y25.868 Z2.800
G1 Z0F1000
G1 X97.605 Y25.868 F1800
G0 Z2.8F1000
; --- FIX X Backlash: -0.600mm ---
G0 X97.005 Y25.868 F1200
G0 X92.628 Y35.688 Z2.800
G1 Z0F1000
G1 X87.659 Y36.753 F1800
G0 Z2.8F1000
G0 X86.594 Y37.699 Z2.800
G1 Z0F1000
G1 X86.000 Y37.714 F1800
G1 X85.438 Y37.756 F1800
G1 X84.899 Y37.822 F1800
G1 X84.378 Y37.909 F1800
G1 X83.362 Y38.134 F1800
G1 X82.335 Y38.409 F1800
G0 Z2.8F1000
G0 X80.324 Y38.527 Z2.800
G1 Z0F1000
G1 X79.999 Y38.579 F1800
G1 X79.711 Y38.615 F1800
G1 X79.449 Y38.637 F1800
G1 X79.205 Y38.648 F1800
G1 X78.726 Y38.648 F1800
G1 X78.194 Y38.648 F1800
G0 Z2.8F1000
G0 X76.656 Y38.646 Z2.800
G1 Z0F1000
G1 X72.989 Y39.249 F1800
G1 X71.687 Y39.474 F1800
G0 Z2.8F1000
; --- FIX X Backlash: 0.600mm ---
G0 X72.287 Y39.474 F1200
G0 X72.760 Y40.420 Z2.800
G1 Z0F1000
; --- FIX Y Backlash: -1.500mm ---
G0 X72.760 Y38.920 F1200
G1 X74.614 Y38.547 F1800
G1 X76.428 Y38.210 F1800
G0 Z2.8F1000
; --- FIX X Backlash: -0.600mm ---
G0 X75.828 Y38.210 F1200
; --- FIX Y Backlash: 1.500mm ---
G0 X75.828 Y39.710 F1200
G0 X70.741 Y41.012 Z2.800
G1 Z0F1000
G1 X70.511 Y41.095 F1800
G1 X69.972 Y41.300 F1800
G1 X68.374 Y41.926 F1800
G1 X67.729 Y42.173 F1800
G1 X67.135 Y42.391 F1800
G1 X66.868 Y42.484 F1800
G1 X66.628 Y42.562 F1800
G1 X66.419 Y42.625 F1800
G1 X66.245 Y42.668 F1800
G0 Z2.8F1000
; --- FIX X Backlash: 0.600mm ---
G0 X66.845 Y42.668 F1200
; --- FIX Y Backlash: -1.500mm ---
G0 X66.845 Y41.168 F1200
G0 X67.437 Y39.630 Z2.800
G1 Z0F1000
; --- FIX X Backlash: -0.600mm ---
G0 X66.837 Y39.630 F1200
; --- FIX Y Backlash: 1.500mm ---
G0 X66.837 Y41.130 F1200
G1 X65.971 Y41.543 F1800
G1 X65.062 Y41.983 F1800
G1 X64.059 Y42.511 F1800
G1 X63.067 Y43.111 F1800
G1 X62.597 Y43.422 F1800
G1 X62.155 Y43.732 F1800
G1 X61.752 Y44.035 F1800
G1 X61.394 Y44.324 F1800
G0 Z2.8F1000
; --- FIX Y Backlash: -1.500mm ---
G0 X61.394 Y42.824 F1200
G0 X60.566 Y41.641 Z2.800
G1 Z0F1000
; --- FIX X Backlash: 0.600mm ---
G0 X61.166 Y41.641 F1200
G1 X61.823 Y41.200 F1800
G1 X62.560 Y40.764 F1800
G1 X63.370 Y40.346 F1800
G1 X64.242 Y39.962 F1800
G1 X64.893 Y39.700 F1800
G1 X65.544 Y39.441 F1800
G1 X66.187 Y39.205 F1800
G1 X66.802 Y39.005 F1800
G1 X67.380 Y38.833 F1800
G1 X67.910 Y38.684 F1800
G0 Z2.8F1000
; --- FIX Y Backlash: 1.500mm ---
G0 X67.910 Y40.184 F1200
G0 X68.501 Y40.420 Z2.800
G1 Z0F1000
; --- FIX Y Backlash: -1.500mm ---
G0 X68.501 Y38.920 F1200
G1 X70.513 Y38.565 F1800
G0 Z2.8F1000
; --- FIX X Backlash: -0.600mm ---
G0 X69.913 Y38.565 F1200
G0 X69.558 Y37.146 Z2.800
G1 Z0F1000
; --- FIX Y Backlash: 1.500mm ---
G0 X69.558 Y38.646 F1200
G1 X69.318 Y38.716 F1800
G1 X69.050 Y38.788 F1800
G1 X68.756 Y38.863 F1800
G1 X68.441 Y38.939 F1800
G1 X67.762 Y39.094 F1800
G1 X67.041 Y39.250 F1800
G1 X65.598 Y39.555 F1800
G1 X64.936 Y39.697 F1800
G1 X64.352 Y39.829 F1800
G0 Z2.8F1000
; --- FIX Y Backlash: -1.500mm ---
G0 X64.352 Y38.329 F1200
G0 X62.459 Y37.974 Z2.800
G1 Z0F1000
; --- FIX Y Backlash: 1.500mm ---
G0 X62.459 Y39.474 F1200
G1 X61.173 Y39.991 F1800
G1 X59.896 Y40.443 F1800
G1 X59.261 Y40.680 F1800
G1 X58.629 Y40.943 F1800
G1 X57.999 Y41.246 F1800
G1 X57.372 Y41.603 F1800
G0 Z2.8F1000
; --- FIX Y Backlash: -1.500mm ---
G0 X57.372 Y40.103 F1200
G0 X56.189 Y39.512 Z2.800
G1 Z0F1000
; --- FIX X Backlash: 0.600mm ---
G0 X56.789 Y39.512 F1200
G1 X57.434 Y39.201 F1800
G1 X58.090 Y38.920 F1800
G0 Z2.8F1000
G0 X58.327 Y37.264 Z2.800
G1 Z0F1000
; --- FIX X Backlash: -0.600mm ---
G0 X57.727 Y37.264 F1200
; --- FIX Y Backlash: 1.500mm ---
G0 X57.727 Y38.764 F1200
G1 X57.136 Y38.887 F1800
G1 X56.525 Y39.067 F1800
G1 X55.905 Y39.286 F1800
G1 X55.290 Y39.524 F1800
G1 X54.691 Y39.764 F1800
G1 X54.121 Y39.986 F1800
G1 X53.591 Y40.171 F1800
G1 X53.113 Y40.302 F1800
G0 Z2.8F1000
; --- FIX Y Backlash: -1.500mm ---
G0 X53.113 Y38.802 F1200
G0 X51.693 Y37.974 Z2.800
G1 Z0F1000
; --- FIX X Backlash: 0.600mm ---
G0 X52.293 Y37.974 F1200
G1 X55.132 Y37.264 F1800
G0 Z2.8F1000
G0 X55.487 Y35.963 Z2.800
G1 Z0F1000
; --- FIX X Backlash: -0.600mm ---
G0 X54.887 Y35.963 F1200
; --- FIX Y Backlash: 1.500mm ---
G0 X54.887 Y37.463 F1200
G1 X54.119 Y37.547 F1800
G1 X53.354 Y37.727 F1800
G1 X52.587 Y37.983 F1800
G1 X51.811 Y38.291 F1800
G0 Z2.8F1000
G0 X51.575 Y38.882 Z2.800
G1 Z0F1000
G1 X50.628 Y39.237 F1800
G0 Z2.8F1000
G0 X50.392 Y39.355 Z2.800
G1 Z0F1000
G1 X49.327 Y39.592 F1800
G0 Z2.8F1000
; --- FIX X Backlash: 0.600mm ---
G0 X49.927 Y39.592 F1200
G0 X51.347 Y40.184 Z2.800
G1 Z0F1000
; --- FIX X Backlash: -0.600mm ---
G0 X50.747 Y40.184 F1200
G1 X48.144 Y41.078 F1800
G1 X46.251 Y41.722 F1800
G0 Z2.8F1000
; --- FIX X Backlash: 0.600mm ---
G0 X46.851 Y41.722 F1200
G0 X47.916 Y42.313 Z2.800
G1 Z0F1000
; --- FIX Y Backlash: -1.500mm ---
G0 X47.916 Y40.813 F1200
G1 X48.980 Y40.577 F1800
G0 Z2.8F1000
G0 X49.217 Y40.340 Z2.800
G1 Z0F1000
G1 X49.572 Y40.340 F1800
G0 Z2.8F1000
G0 X49.809 Y40.103 Z2.800
G1 Z0F1000
G1 X50.796 Y39.792 F1800
G1 X51.702 Y39.512 F1800
G0 Z2.8F1000
; --- FIX X Backlash: -0.600mm ---
G0 X51.102 Y39.512 F1200
; --- FIX Y Backlash: 1.500mm ---
G0 X51.102 Y41.012 F1200
G0 X50.865 Y41.958 Z2.800
G1 Z0F1000
G1 X50.455 Y42.187 F1800
G1 X50.073 Y42.418 F1800
G1 X49.672 Y42.686 F1800
G1 X49.209 Y43.023 F1800
G0 Z2.8F1000
; --- FIX X Backlash: 0.600mm ---
G0 X49.809 Y43.023 F1200
G0 X51.465 Y43.378 Z2.800
G1 Z0F1000
; --- FIX Y Backlash: -1.500mm ---
G0 X51.465 Y41.878 F1200
G1 X52.285 Y41.321 F1800
G1 X53.121 Y40.813 F1800
G0 Z2.8F1000
; --- FIX Y Backlash: 1.500mm ---
G0 X53.121 Y42.313 F1200
G0 X54.186 Y43.023 Z2.800
G1 Z0F1000
; --- FIX Y Backlash: -1.500mm ---
G0 X54.186 Y41.523 F1200
G1 X55.369 Y40.695 F1800
G0 Z2.8F1000
; --- FIX Y Backlash: 1.500mm ---
G0 X55.369 Y42.195 F1200
G0 X56.671 Y42.668 Z2.800
G1 Z0F1000
; --- FIX X Backlash: -0.600mm ---
G0 X56.071 Y42.668 F1200
G1 X55.692 Y42.919 F1800
G1 X55.295 Y43.204 F1800
G1 X55.106 Y43.377 F1800
G1 X54.932 Y43.577 F1800
G1 X54.779 Y43.812 F1800
G1 X54.654 Y44.089 F1800
G1 X54.571 Y44.402 F1800
G1 X54.555 Y44.690 F1800
G1 X54.594 Y44.953 F1800
; --- FIX X Backlash: 0.600mm ---
G0 X55.194 Y44.953 F1200
G1 X55.278 Y45.195 F1800
G1 X55.536 Y45.620 F1800
G1 X55.842 Y45.981 F1800
G0 Z2.8F1000
G0 X57.380 Y46.927 Z2.800
G1 Z0F1000
G1 X57.789 Y47.034 F1800
G1 X58.228 Y47.178 F1800
G1 X58.689 Y47.348 F1800
G1 X60.125 Y47.912 F1800
G1 X61.048 Y48.229 F1800
G0 Z2.8F1000
; --- FIX Y Backlash: -1.500mm ---
G0 X61.048 Y46.729 F1200
G0 X61.403 Y46.374 Z2.800
G1 Z0F1000
; --- FIX Y Backlash: 1.500mm ---
G0 X61.403 Y47.874 F1200
G1 X61.357 Y48.031 F1800
G1 X61.338 Y48.156 F1800
G1 X61.343 Y48.254 F1800
G1 X61.370 Y48.333 F1800
G1 X61.477 Y48.458 F1800
G1 X61.639 Y48.584 F1800
G0 Z2.8F1000
; --- FIX Y Backlash: -1.500mm ---
G0 X61.639 Y47.084 F1200
G0 X62.113 Y45.664 Z2.800
G1 Z0F1000
; --- FIX Y Backlash: 1.500mm ---
G0 X62.113 Y47.164 F1200
G1 X62.389 Y47.302 F1800
G1 X62.746 Y47.463 F1800
G1 X63.157 Y47.635 F1800
G1 X63.599 Y47.810 F1800
G1 X64.047 Y47.979 F1800
G1 X64.478 Y48.131 F1800
G1 X64.867 Y48.256 F1800
G1 X65.189 Y48.347 F1800
G0 Z2.8F1000
; --- FIX Y Backlash: -1.500mm ---
G0 X65.189 Y46.847 F1200
G0 X65.425 Y46.137 Z2.800
G1 Z0F1000
; --- FIX Y Backlash: 1.500mm ---
G0 X65.425 Y47.637 F1200
G1 X66.330 Y47.862 F1800
G1 X67.157 Y48.093 F1800
G1 X67.554 Y48.193 F1800
G1 X67.947 Y48.273 F1800
G1 X68.340 Y48.327 F1800
G1 X68.738 Y48.347 F1800
G0 Z2.8F1000
; --- FIX Y Backlash: -1.500mm ---
G0 X68.738 Y46.847 F1200
G0 X69.093 Y46.492 Z2.800
G1 Z0F1000
; --- FIX X Backlash: -0.600mm ---
G0 X68.493 Y46.492 F1200
G1 X68.113 Y46.414 F1800
G1 X67.771 Y46.316 F1800
G1 X67.435 Y46.188 F1800
G1 X67.073 Y46.019 F1800
G0 Z2.8F1000
; --- FIX X Backlash: 0.600mm ---
G0 X67.673 Y46.019 F1200
G0 X69.921 Y45.191 Z2.800
G1 Z0F1000
; --- FIX X Backlash: -0.600mm ---
G0 X69.321 Y45.191 F1200
G1 X68.694 Y44.910 F1800
G1 X68.040 Y44.611 F1800
G1 X67.405 Y44.336 F1800
G1 X66.837 Y44.126 F1800
G0 Z2.8F1000
G0 X65.535 Y44.008 Z2.800
G1 Z0F1000
; --- FIX X Backlash: 0.600mm ---
G0 X66.135 Y44.008 F1200
G1 X66.279 Y43.704 F1800
G1 X66.450 Y43.440 F1800
G1 X66.648 Y43.207 F1800
G1 X66.872 Y42.998 F1800
G1 X67.122 Y42.806 F1800
G1 X67.398 Y42.622 F1800
G1 X67.700 Y42.440 F1800
G1 X68.028 Y42.250 F1800
G1 X69.043 Y41.716 F1800
G1 X70.055 Y41.272 F1800
G1 X71.089 Y40.894 F1800
G1 X72.169 Y40.560 F1800
G1 X73.291 Y40.255 F1800
G1 X74.417 Y39.970 F1800
G1 X75.129 Y39.776 F1800
G1 X75.836 Y39.594 F1800
G1 X77.258 Y39.310 F1800
G1 X78.676 Y39.068 F1800
G1 X79.543 Y38.965 F1800
G1 X80.433 Y38.901 F1800
G1 X81.332 Y38.825 F1800
G1 X82.225 Y38.684 F1800
G1 X84.236 Y38.247 F1800
G1 X85.119 Y38.048 F1800
G1 X86.022 Y37.822 F1800
G1 X86.918 Y37.572 F1800
G1 X87.786 Y37.298 F1800
G1 X88.086 Y37.190 F1800
G1 X88.344 Y37.088 F1800
G1 X88.783 Y36.904 F1800
G1 X89.196 Y36.762 F1800
G1 X89.679 Y36.672 F1800
; --- FIX X Backlash: -0.600mm ---
G0 X89.079 Y36.672 F1200
; --- FIX Y Backlash: 1.500mm ---
G0 X89.079 Y38.172 F1200
G1 X88.915 Y38.291 F1800
G1 X88.825 Y38.343 F1800
G1 X88.744 Y38.369 F1800
G1 X88.605 Y38.409 F1800
G0 Z2.8F1000
; --- FIX X Backlash: 0.600mm ---
G0 X89.205 Y38.409 F1200
; --- FIX Y Backlash: -1.500mm ---
G0 X89.205 Y36.909 F1200
G0 X89.679 Y36.672 Z2.800
G1 Z0F1000
G1 X90.033 Y36.672 F1800
G0 Z2.8F1000
G0 X90.033 Y36.081 Z2.800
G1 Z0F1000
; --- FIX X Backlash: -0.600mm ---
G0 X89.433 Y36.081 F1200
; --- FIX Y Backlash: 1.500mm ---
G0 X89.433 Y37.581 F1200
G1 X88.073 Y37.969 F1800
G1 X87.777 Y38.527 F1800
G0 Z2.8F1000
; --- FIX X Backlash: 0.600mm ---
G0 X88.377 Y38.527 F1200
G0 X94.056 Y43.260 Z2.800
G1 Z0F1000
G1 X94.344 Y43.270 F1800
G1 X94.666 Y43.232 F1800
; --- FIX Y Backlash: -1.500mm ---
G0 X94.666 Y41.732 F1200
G1 X95.015 Y41.664 F1800
G1 X95.383 Y41.583 F1800
G1 X95.762 Y41.506 F1800
G1 X96.146 Y41.450 F1800
G1 X96.526 Y41.433 F1800
G1 X96.895 Y41.472 F1800
; --- FIX Y Backlash: 1.500mm ---
G0 X96.895 Y42.972 F1200
G1 X98.032 Y43.288 F1800
G1 X98.315 Y43.329 F1800
G1 X98.574 Y43.318 F1800
; --- FIX Y Backlash: -1.500mm ---
G0 X98.574 Y41.818 F1200
G1 X98.797 Y41.738 F1800
G1 X98.972 Y41.570 F1800
G1 X99.118 Y41.303 F1800
G1 X99.198 Y41.108 F1800
G1 X99.241 Y41.034 F1800
G1 X99.300 Y40.973 F1800
G1 X99.387 Y40.922 F1800
G1 X99.513 Y40.881 F1800
G1 X99.695 Y40.833 F1800
G1 X99.858 Y40.774 F1800
G1 X100.002 Y40.684 F1800
G1 X100.128 Y40.547 F1800
G1 X100.265 Y40.335 F1800
G1 X100.396 Y40.156 F1800
G1 X100.472 Y40.088 F1800
G1 X100.563 Y40.037 F1800
G1 X100.673 Y40.008 F1800
G1 X100.808 Y40.003 F1800
G1 X101.108 Y40.048 F1800
; --- FIX Y Backlash: 1.500mm ---
G0 X101.108 Y41.548 F1200
G1 X101.338 Y41.609 F1800
G1 X101.557 Y41.639 F1800
G1 X101.826 Y41.590 F1800
; --- FIX Y Backlash: -1.500mm ---
G0 X101.826 Y40.090 F1200
G1 X102.110 Y39.986 F1800
G1 X102.406 Y39.888 F1800
G1 X102.717 Y39.841 F1800
G1 X103.047 Y39.886 F1800
; --- FIX Y Backlash: 1.500mm ---
G0 X103.047 Y41.386 F1200
G1 X103.469 Y41.498 F1800
G1 X103.840 Y41.558 F1800
G1 X104.175 Y41.573 F1800
G1 X104.491 Y41.549 F1800
; --- FIX Y Backlash: -1.500mm ---
G0 X104.491 Y40.049 F1200
G1 X104.805 Y39.993 F1800
G1 X105.131 Y39.913 F1800
G1 X105.887 Y39.703 F1800
G1 X106.424 Y39.532 F1800
G1 X106.879 Y39.344 F1800
G1 X107.341 Y39.140 F1800
G1 X107.898 Y38.920 F1800
G0 Z2.8F1000
; --- FIX Y Backlash: 1.500mm ---
G0 X107.898 Y40.420 F1200
G0 X109.791 Y40.539 Z2.800
G1 Z0F1000
; --- FIX X Backlash: -0.600mm ---
G0 X109.191 Y40.539 F1200
G1 X108.794 Y40.990 F1800
G1 X108.378 Y41.373 F1800
G1 X107.926 Y41.723 F1800
G1 X107.416 Y42.077 F1800
G0 Z2.8F1000
; --- FIX X Backlash: 0.600mm ---
G0 X108.016 Y42.077 F1200
G0 X108.490 Y45.271 Z2.800
G1 Z0F1000
; --- FIX X Backlash: -0.600mm ---
G0 X107.890 Y45.271 F1200
G1 X102.329 Y46.454 F1800
G0 Z2.8F1000
G0 X101.383 Y47.282 Z2.800
G1 Z0F1000
; --- FIX X Backlash: 0.600mm ---
G0 X101.983 Y47.282 F1200
; --- FIX Y Backlash: -1.500mm ---
G0 X101.983 Y45.782 F1200
G1 X103.516 Y45.546 F1800
G1 X105.044 Y45.254 F1800
G1 X105.801 Y45.076 F1800
G1 X106.550 Y44.871 F1800
G1 X107.289 Y44.635 F1800
G1 X108.016 Y44.362 F1800
G0 Z2.8F1000
; --- FIX Y Backlash: 1.500mm ---
G0 X108.016 Y45.862 F1200
G0 X109.436 Y47.519 Z2.800
G1 Z0F1000
; --- FIX X Backlash: -0.600mm ---
G0 X108.836 Y47.519 F1200
G1 X106.943 Y48.110 F1800
G0 Z2.8F1000
; --- FIX X Backlash: 0.600mm ---
G0 X107.543 Y48.110 F1200
G0 X107.780 Y48.938 Z2.800
G1 Z0F1000
; --- FIX X Backlash: -0.600mm ---
G0 X107.180 Y48.938 F1200
G1 X106.115 Y49.293 F1800
G0 Z2.8F1000
G0 X105.878 Y49.293 Z2.800
G1 Z0F1000
G1 X105.523 Y49.293 F1800
G0 Z2.8F1000
; --- FIX X Backlash: 0.600mm ---
G0 X106.123 Y49.293 F1200
G0 X106.833 Y49.530 Z2.800
G1 Z0F1000
; --- FIX X Backlash: -0.600mm ---
G0 X106.233 Y49.530 F1200
G1 X105.192 Y49.705 F1800
G1 X104.119 Y49.922 F1800
G1 X103.068 Y50.179 F1800
G1 X102.092 Y50.476 F1800
G0 Z2.8F1000
G0 X101.383 Y50.595 Z2.800
G1 Z0F1000
G1 X99.135 Y50.950 F1800
G0 Z2.8F1000
G0 X98.188 Y51.186 Z2.800
G1 Z0F1000
G1 X98.070 Y51.186 F1800
G0 Z2.8F1000
G0 X97.360 Y51.423 Z2.800
G1 Z0F1000
; --- FIX X Backlash: 0.600mm ---
G0 X97.960 Y51.423 F1200
G1 X98.315 Y51.541 F1800
; --- FIX X Backlash: -0.600mm ---
G0 X97.715 Y51.541 F1200
G1 X97.360 Y51.660 F1800
G0 Z2.8F1000
; --- FIX Y Backlash: -1.500mm ---
G0 X97.360 Y50.160 F1200
G0 X96.769 Y50.041 Z2.800
G1 Z0F1000
G1 X96.650 Y50.041 F1800
G0 Z2.8F1000
; --- FIX X Backlash: 0.600mm ---
G0 X97.250 Y50.041 F1200
; --- FIX Y Backlash: 1.500mm ---
G0 X97.250 Y51.541 F1200
G0 X97.605 Y51.778 Z2.800
G1 Z0F1000
; --- FIX Y Backlash: -1.500mm ---
G0 X97.605 Y50.278 F1200
G1 X97.842 Y50.041 F1800
; --- FIX X Backlash: -0.600mm ---
G0 X97.242 Y50.041 F1200
; --- FIX Y Backlash: 1.500mm ---
G0 X97.242 Y51.541 F1200
G1 X96.949 Y51.610 F1800
G1 X96.694 Y51.659 F1800
G1 X96.464 Y51.693 F1800
G1 X96.246 Y51.717 F1800
G1 X96.026 Y51.733 F1800
G1 X95.531 Y51.759 F1800
G1 X95.231 Y51.778 F1800
G0 Z2.8F1000
; --- FIX Y Backlash: -1.500mm ---
G0 X95.231 Y50.278 F1200
G0 X94.994 Y49.568 Z2.800
G1 Z0F1000
; --- FIX X Backlash: 0.600mm ---
G0 X95.594 Y49.568 F1200
G1 X101.036 Y48.481 F1800
G1 X103.994 Y47.814 F1800
G1 X109.436 Y46.610 F1800
G0 Z2.8F1000
; --- FIX Y Backlash: 1.500mm ---
G0 X109.436 Y48.110 F1200
G0 X109.554 Y48.702 Z2.800
G1 Z0F1000
; --- FIX X Backlash: -0.600mm ---
G0 X108.954 Y48.702 F1200
G1 X107.416 Y48.938 F1800
G0 Z2.8F1000
; --- FIX X Backlash: 0.600mm ---
G0 X108.016 Y48.938 F1200
G0 X108.726 Y49.648 Z2.800
G1 Z0F1000
; --- FIX Y Backlash: -1.500mm ---
G0 X108.726 Y48.148 F1200
G1 X109.791 Y48.030 F1800
G0 Z2.8F1000
; --- FIX X Backlash: -0.600mm ---
G0 X109.191 Y48.030 F1200
; --- FIX Y Backlash: 1.500mm ---
G0 X109.191 Y49.530 F1200
G0 X108.954 Y50.122 Z2.800
G1 Z0F1000
G1 X106.806 Y50.702 F1800
G1 X104.695 Y51.305 F1800
G0 Z2.8F1000
G0 X104.222 Y51.541 Z2.800
G1 Z0F1000
; --- FIX X Backlash: 0.600mm ---
G0 X104.822 Y51.541 F1200
G1 X105.177 Y51.541 F1800
; --- FIX X Backlash: -0.600mm ---
G0 X104.577 Y51.541 F1200
G1 X104.222 Y51.660 F1800
G0 Z2.8F1000
G0 X103.867 Y51.778 Z2.800
G1 Z0F1000
; --- FIX X Backlash: 0.600mm ---
G0 X104.467 Y51.778 F1200
; --- FIX Y Backlash: -1.500mm ---
G0 X104.467 Y50.278 F1200
G1 X104.822 Y50.160 F1800
; --- FIX X Backlash: -0.600mm ---
G0 X104.222 Y50.160 F1200
G1 X103.867 Y50.041 F1800
G0 Z2.8F1000
; --- FIX Y Backlash: 1.500mm ---
G0 X103.867 Y51.541 F1200
G0 X103.630 Y51.896 Z2.800
G1 Z0F1000
; --- FIX X Backlash: 0.600mm ---
G0 X104.230 Y51.896 F1200
; --- FIX Y Backlash: -1.500mm ---
G0 X104.230 Y50.396 F1200
G1 X104.467 Y50.278 F1800
; --- FIX X Backlash: -0.600mm ---
G0 X103.867 Y50.278 F1200
; --- FIX Y Backlash: 1.500mm ---
G0 X103.867 Y51.778 F1200
G1 X103.394 Y51.896 F1800
G0 Z2.8F1000
G0 X103.276 Y52.014 Z2.800
G1 Z0F1000
G1 X102.921 Y52.014 F1800
G0 Z2.8F1000
G0 X102.329 Y52.606 Z2.800
G1 Z0F1000
G1 X101.617 Y52.864 F1800
G1 X100.871 Y53.085 F1800
G1 X100.103 Y53.284 F1800
G1 X99.328 Y53.472 F1800
G1 X98.558 Y53.662 F1800
G1 X97.806 Y53.869 F1800
G1 X97.087 Y54.104 F1800
G1 X96.414 Y54.381 F1800
G0 Z2.8F1000
; --- FIX Y Backlash: -1.500mm ---
G0 X96.414 Y52.881 F1200
G0 X95.467 Y52.171 Z2.800
G1 Z0F1000
; --- FIX X Backlash: 0.600mm ---
G0 X96.067 Y52.171 F1200
G1 X97.108 Y51.900 F1800
G1 X98.132 Y51.673 F1800
G1 X98.644 Y51.594 F1800
G1 X99.159 Y51.547 F1800
G1 X99.680 Y51.540 F1800
G1 X100.208 Y51.579 F1800
G0 Z2.8F1000
; --- FIX X Backlash: -0.600mm ---
G0 X99.608 Y51.579 F1200
G0 X99.135 Y50.988 Z2.800
G1 Z0F1000
; --- FIX X Backlash: 0.600mm ---
G0 X99.735 Y50.988 F1200
G1 X100.090 Y50.869 F1800
G0 Z2.8F1000
; --- FIX X Backlash: -0.600mm ---
G0 X99.490 Y50.869 F1200
G0 X99.253 Y50.278 Z2.800
G1 Z0F1000
; --- FIX X Backlash: 0.600mm ---
G0 X99.853 Y50.278 F1200
G1 X102.101 Y49.805 F1800
G0 Z2.8F1000
G0 X103.402 Y49.450 Z2.800
G1 Z0F1000
G1 X104.822 Y49.181 F1800
G1 X106.478 Y48.622 F1800
G0 Z2.8F1000
; --- FIX Y Backlash: 1.500mm ---
G0 X106.478 Y50.122 F1200
G0 X107.306 Y51.305 Z2.800
G1 Z0F1000
; --- FIX X Backlash: -0.600mm ---
G0 X106.706 Y51.305 F1200
G1 X106.470 Y51.541 F1800
G0 Z2.8F1000
; --- FIX X Backlash: 0.600mm ---
G0 X107.070 Y51.541 F1200
G0 X107.188 Y51.778 Z2.800
G1 Z0F1000
; --- FIX Y Backlash: -1.500mm ---
G0 X107.188 Y50.278 F1200
G1 X107.456 Y50.086 F1800
G1 X107.561 Y50.021 F1800
G1 X107.659 Y49.977 F1800
G1 X107.757 Y49.956 F1800
G1 X107.863 Y49.959 F1800
G1 X107.987 Y49.987 F1800
; --- FIX Y Backlash: 1.500mm ---
G0 X107.987 Y51.487 F1200
G1 X108.135 Y51.541 F1800
G0 Z2.8F1000
; --- FIX X Backlash: -0.600mm ---
G0 X107.535 Y51.541 F1200
G0 X107.180 Y51.660 Z2.800
G1 Z0F1000
G1 X106.943 Y51.660 F1800
G0 Z2.8F1000
G0 X106.233 Y51.896 Z2.800
G1 Z0F1000
; --- FIX X Backlash: 0.600mm ---
G0 X106.833 Y51.896 F1200
; --- FIX Y Backlash: -1.500mm ---
G0 X106.833 Y50.396 F1200
G1 X107.188 Y50.278 F1800
; --- FIX X Backlash: -0.600mm ---
G0 X106.588 Y50.278 F1200
; --- FIX Y Backlash: 1.500mm ---
G0 X106.588 Y51.778 F1200
G1 X105.760 Y52.014 F1800
G0 Z2.8F1000
G0 X105.287 Y52.133 Z2.800
G1 Z0F1000
G1 X105.287 Y52.251 F1800
G0 Z2.8F1000
G0 X105.050 Y52.251 Z2.800
G1 Z0F1000
G1 X102.447 Y52.843 F1800
G0 Z2.8F1000
; --- FIX X Backlash: 0.600mm ---
G0 X103.047 Y52.843 F1200
G0 X104.704 Y53.316 Z2.800
G1 Z0F1000
; --- FIX X Backlash: -0.600mm ---
G0 X104.104 Y53.316 F1200
G1 X103.578 Y53.316 F1800
G1 X103.058 Y53.346 F1800
G1 X102.543 Y53.404 F1800
G1 X102.033 Y53.487 F1800
G1 X101.023 Y53.715 F1800
G1 X100.025 Y54.005 F1800
G1 X98.045 Y54.681 F1800
G1 X96.059 Y55.327 F1800
G0 Z2.8F1000
; --- FIX X Backlash: 0.600mm ---
G0 X96.659 Y55.327 F1200
G0 X97.250 Y55.564 Z2.800
G1 Z0F1000
; --- FIX X Backlash: -0.600mm ---
G0 X96.650 Y55.564 F1200
G1 X94.639 Y55.800 F1800
G0 Z2.8F1000
G0 Z2.8
G1 Z0F1000
; --- FIX Y Backlash: -1.500mm ---
G0 X94.639 Y54.300 F1200
G1 X94.166 Y54.182 F1800
; --- FIX X Backlash: 0.600mm ---
G0 X94.766 Y54.182 F1200
; --- FIX Y Backlash: 1.500mm ---
G0 X94.766 Y55.682 F1200
G1 X95.239 Y55.800 F1800
G0 Z2.8F1000
; --- FIX X Backlash: -0.600mm ---
G0 X94.639 Y55.800 F1200
G0 X93.456 Y56.155 Z2.800
G1 Z0F1000
; --- FIX X Backlash: 0.600mm ---
G0 X94.056 Y56.155 F1200
; --- FIX Y Backlash: -1.500mm ---
G0 X94.056 Y54.655 F1200
G1 X94.766 Y54.419 F1800
; --- FIX X Backlash: -0.600mm ---
G0 X94.166 Y54.419 F1200
G1 X93.716 Y54.419 F1800
; --- FIX Y Backlash: 1.500mm ---
G0 X93.716 Y55.919 F1200
G1 X93.233 Y56.005 F1800
G1 X92.730 Y56.165 F1800
G1 X92.221 Y56.375 F1800
G1 X91.718 Y56.618 F1800
G1 X91.234 Y56.872 F1800
G1 X90.380 Y57.338 F1800
G0 Z2.8F1000
G0 X90.025 Y57.575 Z2.800
G1 Z0F1000
G1 X89.552 Y57.575 F1800
G0 Z2.8F1000
G0 X89.315 Y57.812 Z2.800
G1 Z0F1000
; --- FIX Y Backlash: -1.500mm ---
G0 X89.315 Y56.312 F1200
G1 X89.195 Y56.213 F1800
G1 X89.053 Y56.139 F1800
G1 X88.894 Y56.090 F1800
G1 X88.719 Y56.061 F1800
G1 X88.335 Y56.061 F1800
; --- FIX Y Backlash: 1.500mm ---
G0 X88.335 Y57.561 F1200
G1 X87.924 Y57.615 F1800
G1 X87.510 Y57.712 F1800
G1 X87.115 Y57.831 F1800
G1 X86.763 Y57.954 F1800
G1 X86.476 Y58.064 F1800
G1 X85.530 Y58.395 F1800
G1 X84.548 Y58.668 F1800
G1 X83.554 Y58.902 F1800
G1 X82.572 Y59.113 F1800
G0 Z2.8F1000
G0 X81.862 Y59.586 Z2.800
G1 Z0F1000
G1 X81.507 Y59.586 F1800
G0 Z2.8F1000
G0 X81.389 Y59.704 Z2.800
G1 Z0F1000
G1 X79.614 Y59.717 F1800
G1 X77.129 Y59.935 F1800
G1 X75.473 Y59.929 F1800
G1 X73.698 Y60.296 F1800
G0 Z2.8F1000
G0 X73.225 Y61.124 Z2.800
G1 Z0F1000
G1 X72.531 Y61.139 F1800
G1 X71.842 Y61.182 F1800
G1 X71.158 Y61.252 F1800
G1 X70.477 Y61.348 F1800
G1 X69.125 Y61.609 F1800
G1 X67.783 Y61.952 F1800
G0 Z2.8F1000
G0 X66.482 Y62.544 Z2.800
G1 Z0F1000
G1 X65.299 Y62.899 F1800
G0 Z2.8F1000
; --- FIX Y Backlash: -1.500mm ---
G0 X65.299 Y61.399 F1200
G0 X63.879 Y60.926 Z2.800
G1 Z0F1000
G1 X63.642 Y60.926 F1800
G0 Z2.8F1000
G0 X63.524 Y60.807 Z2.800
G1 Z0F1000
; --- FIX Y Backlash: 1.500mm ---
G0 X63.524 Y62.307 F1200
G1 X63.406 Y62.544 F1800
G0 Z2.8F1000
; --- FIX X Backlash: 0.600mm ---
G0 X64.006 Y62.544 F1200
G0 X66.372 Y63.964 Z2.800
G1 Z0F1000
; --- FIX X Backlash: -0.600mm ---
G0 X65.772 Y63.964 F1200
G1 X64.352 Y64.042 F1800
G1 X63.406 Y64.126 F1800
G1 X62.341 Y64.370 F1800
G1 X60.803 Y64.792 F1800
G0 Z2.8F1000
G0 X60.685 Y65.147 Z2.800
G1 Z0F1000
G1 X58.673 Y65.383 F1800
G0 Z2.8F1000
; --- FIX X Backlash: 0.600mm ---
G0 X59.273 Y65.383 F1200
G0 X59.983 Y65.857 Z2.800
G1 Z0F1000
; --- FIX Y Backlash: -1.500mm ---
G0 X59.983 Y64.357 F1200
G1 X61.048 Y64.120 F1800
G0 Z2.8F1000
; --- FIX Y Backlash: 1.500mm ---
G0 X61.048 Y65.620 F1200
G0 X62.349 Y65.975 Z2.800
G1 Z0F1000
; --- FIX Y Backlash: -1.500mm ---
G0 X62.349 Y64.475 F1200
G1 X62.832 Y64.169 F1800
G1 X63.310 Y63.907 F1800
G1 X63.789 Y63.682 F1800
G1 X64.274 Y63.489 F1800
G1 X64.770 Y63.324 F1800
G1 X65.281 Y63.180 F1800
G1 X65.814 Y63.053 F1800
G1 X66.372 Y62.937 F1800
G0 Z2.8F1000
; --- FIX Y Backlash: 1.500mm ---
G0 X66.372 Y64.437 F1200
G0 X67.318 Y65.028 Z2.800
G1 Z0F1000
; --- FIX X Backlash: -0.600mm ---
G0 X66.718 Y65.028 F1200
G1 X63.997 Y65.383 F1800
G0 Z2.8F1000
; --- FIX X Backlash: 0.600mm ---
G0 X64.597 Y65.383 F1200
G0 X64.834 Y67.040 Z2.800
G1 Z0F1000
; --- FIX Y Backlash: -1.500mm ---
G0 X64.834 Y65.540 F1200
G1 X68.146 Y64.419 F1800
G1 X70.394 Y64.120 F1800
G0 Z2.8F1000
; --- FIX Y Backlash: 1.500mm ---
G0 X70.394 Y65.620 F1200
G0 X70.986 Y65.857 Z2.800
G1 Z0F1000
; --- FIX Y Backlash: -1.500mm ---
G0 X70.986 Y64.357 F1200
G1 X76.428 Y63.834 F1800
G1 X81.752 Y62.582 F1800
G0 Z2.8F1000
G0 X82.343 Y62.227 Z2.800
G1 Z0F1000
; --- FIX X Backlash: -0.600mm ---
G0 X81.743 Y62.227 F1200
G1 X81.631 Y62.127 F1800
G1 X81.491 Y62.057 F1800
G1 X81.329 Y62.014 F1800
G1 X81.147 Y61.995 F1800
G1 X80.740 Y62.020 F1800
; --- FIX Y Backlash: 1.500mm ---
G0 X80.740 Y63.520 F1200
G1 X80.300 Y63.610 F1800
G1 X79.855 Y63.744 F1800
G1 X79.435 Y63.902 F1800
G1 X79.069 Y64.061 F1800
G1 X78.786 Y64.200 F1800
G0 Z2.8F1000
; --- FIX Y Backlash: -1.500mm ---
G0 X78.786 Y62.700 F1200
G0 X78.549 Y62.582 Z2.800
G1 Z0F1000
G1 X78.269 Y62.491 F1800
G1 X77.993 Y62.435 F1800
G1 X77.717 Y62.408 F1800
G1 X77.441 Y62.405 F1800
G1 X76.882 Y62.451 F1800
; --- FIX Y Backlash: 1.500mm ---
G0 X76.882 Y63.951 F1200
G1 X76.301 Y64.033 F1800
G1 X75.828 Y64.123 F1800
G1 X75.413 Y64.214 F1800
G1 X75.028 Y64.256 F1800
; --- FIX Y Backlash: -1.500mm ---
G0 X75.028 Y62.756 F1200
G1 X74.645 Y62.700 F1800
G0 Z2.8F1000
G0 X74.290 Y62.700 Z2.800
G1 Z0F1000
; --- FIX Y Backlash: 1.500mm ---
G0 X74.290 Y64.200 F1200
G1 X74.110 Y64.299 F1800
G1 X73.925 Y64.364 F1800
G1 X73.730 Y64.404 F1800
G1 X73.524 Y64.424 F1800
G1 X73.063 Y64.439 F1800
G1 X72.515 Y64.465 F1800
G1 X71.370 Y64.534 F1800
G1 X70.219 Y64.608 F1800
G1 X69.641 Y64.676 F1800
G1 X69.062 Y64.781 F1800
G1 X68.482 Y64.934 F1800
G1 X67.901 Y65.147 F1800
G0 Z2.8F1000
; --- FIX Y Backlash: -1.500mm ---
G0 X67.901 Y63.647 F1200
G0 X67.546 Y62.700 Z2.800
G1 Z0F1000
; --- FIX X Backlash: 0.600mm ---
G0 X68.146 Y62.700 F1200
G1 X68.856 Y62.551 F1800
G1 X69.661 Y62.417 F1800
G1 X70.045 Y62.349 F1800
G1 X70.389 Y62.276 F1800
G1 X70.670 Y62.197 F1800
G1 X70.868 Y62.109 F1800
G0 Z2.8F1000
; --- FIX Y Backlash: 1.500mm ---
G0 X70.868 Y63.609 F1200
G0 X70.986 Y63.727 Z2.800
G1 Z0F1000
; --- FIX Y Backlash: -1.500mm ---
G0 X70.986 Y62.227 F1200
G1 X72.997 Y62.066 F1800
G1 X74.298 Y61.813 F1800
G1 X75.718 Y61.399 F1800
G0 Z2.8F1000
G0 X76.665 Y60.926 Z2.800
G1 Z0F1000
; --- FIX X Backlash: -0.600mm ---
G0 X76.065 Y60.926 F1200
G1 X75.553 Y60.950 F1800
; --- FIX Y Backlash: 1.500mm ---
G0 X75.553 Y62.450 F1200
G1 X75.016 Y62.510 F1800
G1 X74.472 Y62.602 F1800
G1 X73.943 Y62.721 F1800
G1 X73.451 Y62.862 F1800
G1 X73.015 Y63.021 F1800
G1 X72.657 Y63.192 F1800
G1 X72.397 Y63.372 F1800
G0 Z2.8F1000
; --- FIX X Backlash: 0.600mm ---
G0 X72.997 Y63.372 F1200
; --- FIX Y Backlash: -1.500mm ---
G0 X72.997 Y61.872 F1200
G0 X73.944 Y60.452 Z2.800
G1 Z0F1000
G1 X74.501 Y60.206 F1800
G1 X75.058 Y59.955 F1800
G1 X75.619 Y59.717 F1800
G1 X76.191 Y59.507 F1800
G1 X76.547 Y59.406 F1800
G1 X76.895 Y59.337 F1800
G1 X77.236 Y59.293 F1800
G1 X77.572 Y59.270 F1800
G1 X78.239 Y59.263 F1800
G1 X78.912 Y59.269 F1800
G0 Z2.8F1000
; --- FIX Y Backlash: 1.500mm ---
G0 X78.912 Y60.769 F1200
G0 X80.332 Y61.006 Z2.800
G1 Z0F1000
; --- FIX X Backlash: -0.600mm ---
G0 X79.732 Y61.006 F1200
G1 X79.019 Y61.118 F1800
G1 X78.311 Y61.311 F1800
G1 X77.967 Y61.439 F1800
G1 X77.633 Y61.588 F1800
G1 X77.314 Y61.759 F1800
G1 X77.011 Y61.952 F1800
G0 Z2.8F1000
; --- FIX X Backlash: 0.600mm ---
G0 X77.611 Y61.952 F1200
G0 X78.439 Y62.426 Z2.800
G1 Z0F1000
; --- FIX Y Backlash: -1.500mm ---
G0 X78.439 Y60.926 F1200
G1 X80.096 Y60.216 F1800
G0 Z2.8F1000
; --- FIX Y Backlash: 1.500mm ---
G0 X80.096 Y61.716 F1200
G0 X80.569 Y62.544 Z2.800
G1 Z0F1000
; --- FIX X Backlash: -0.600mm ---
G0 X79.969 Y62.544 F1200
G1 X79.141 Y62.899 F1800
G0 Z2.8F1000
G0 X79.022 Y63.727 Z2.800
G1 Z0F1000
; --- FIX X Backlash: 0.600mm ---
G0 X79.622 Y63.727 F1200
; --- FIX Y Backlash: -1.500mm ---
G0 X79.622 Y62.227 F1200
G1 X81.988 Y61.106 F1800
G1 X85.538 Y60.778 F1800
G1 X89.560 Y59.861 F1800
G0 Z2.8F1000
G0 X89.679 Y59.506 Z2.800
G1 Z0F1000
G1 X89.915 Y59.388 F1800
G0 Z2.8F1000
; --- FIX Y Backlash: 1.500mm ---
G0 X89.915 Y60.888 F1200
G0 X89.915 Y61.716 Z2.800
G1 Z0F1000
; --- FIX X Backlash: -0.600mm ---
G0 X89.315 Y61.716 F1200
G1 X86.594 Y62.426 F1800
G0 Z2.8F1000
; --- FIX Y Backlash: -1.500mm ---
G0 X86.594 Y60.926 F1200
G0 X85.648 Y60.216 Z2.800
G1 Z0F1000
G1 X84.465 Y60.216 F1800
G0 Z2.8F1000
; --- FIX X Backlash: 0.600mm ---
G0 X85.065 Y60.216 F1200
G0 X86.129 Y60.097 Z2.800
G1 Z0F1000
G1 X87.431 Y59.597 F1800
G1 X90.507 Y58.559 F1800
G0 Z2.8F1000
; --- FIX Y Backlash: 1.500mm ---
G0 X90.507 Y60.059 F1200
G0 X91.335 Y60.296 Z2.800
G1 Z0F1000
; --- FIX Y Backlash: -1.500mm ---
G0 X91.335 Y58.796 F1200
G1 X91.568 Y58.605 F1800
G1 X91.811 Y58.443 F1800
G1 X92.062 Y58.306 F1800
G1 X92.321 Y58.193 F1800
G1 X92.860 Y58.023 F1800
G1 X93.418 Y57.907 F1800
G1 X94.568 Y57.740 F1800
G1 X95.712 Y57.495 F1800
G0 Z2.8F1000
G0 X95.712 Y56.785 Z2.800
G1 Z0F1000
; --- FIX X Backlash: -0.600mm ---
G0 X95.112 Y56.785 F1200
; --- FIX Y Backlash: 1.500mm ---
G0 X95.112 Y58.285 F1200
G1 X91.208 Y58.995 F1800
G0 Z2.8F1000
; --- FIX X Backlash: 0.600mm ---
G0 X91.808 Y58.995 F1200
; --- FIX Y Backlash: -1.500mm ---
G0 X91.808 Y57.495 F1200
G0 X91.926 Y56.785 Z2.800
G1 Z0F1000
G1 X92.991 Y56.548 F1800
G0 Z2.8F1000
G0 X94.411 Y55.838 Z2.800
G1 Z0F1000
G1 X96.067 Y55.134 F1800
G1 X98.078 Y54.537 F1800
G0 Z2.8F1000
G0 X98.315 Y54.419 Z2.800
G1 Z0F1000
G1 X100.090 Y53.996 F1800
G1 X103.639 Y53.117 F1800
G0 Z2.8F1000
; --- FIX Y Backlash: 1.500mm ---
G0 X103.639 Y54.617 F1200
G0 X104.467 Y54.972 Z2.800
G1 Z0F1000
; --- FIX Y Backlash: -1.500mm ---
G0 X104.467 Y53.472 F1200
G1 X107.543 Y52.697 F1800
G1 X109.068 Y52.538 F1800
G1 X109.554 Y52.407 F1800
G0 Z2.8F1000
; --- FIX Y Backlash: 1.500mm ---
G0 X109.554 Y53.907 F1200
G0 X109.673 Y54.026 Z2.800
G1 Z0F1000
G1 X110.028 Y54.026 F1800
G0 Z2.8F1000
; --- FIX Y Backlash: -1.500mm ---
G0 X110.028 Y52.526 F1200
G0 X110.028 Y51.698 Z2.800
G1 Z0F1000
; --- FIX X Backlash: -0.600mm ---
G0 X109.428 Y51.698 F1200
; --- FIX Y Backlash: 1.500mm ---
G0 X109.428 Y53.198 F1200
G1 X108.523 Y53.321 F1800
G1 X107.593 Y53.449 F1800
G1 X106.634 Y53.580 F1800
G1 X105.642 Y53.707 F1800
G1 X104.162 Y53.938 F1800
G1 X102.674 Y54.245 F1800
G1 X101.191 Y54.600 F1800
G1 X99.726 Y54.972 F1800
G0 Z2.8F1000
G0 X97.597 Y55.564 Z2.800
G1 Z0F1000
G1 X96.769 Y55.682 F1800
G0 Z2.8F1000
G0 X95.704 Y57.930 Z2.800
G1 Z0F1000
; --- FIX X Backlash: 0.600mm ---
G0 X96.304 Y57.930 F1200
; --- FIX Y Backlash: -1.500mm ---
G0 X96.304 Y56.430 F1200
G1 X99.616 Y54.896 F1800
G1 X103.047 Y54.064 F1800
G0 Z2.8F1000
; --- FIX X Backlash: -0.600mm ---
G0 X102.447 Y54.064 F1200
; --- FIX Y Backlash: 1.500mm ---
G0 X102.447 Y55.564 F1200
G0 X99.963 Y56.983 Z2.800
G1 Z0F1000
; --- FIX X Backlash: 0.600mm ---
G0 X100.563 Y56.983 F1200
; --- FIX Y Backlash: -1.500mm ---
G0 X100.563 Y55.483 F1200
G1 X102.574 Y54.916 F1800
G1 X104.704 Y54.475 F1800
G1 X108.016 Y53.709 F1800
G0 Z2.8F1000
G0 X108.135 Y53.709 Z2.800
G1 Z0F1000
G1 X108.403 Y53.679 F1800
G1 X108.634 Y53.644 F1800
G1 X108.840 Y53.606 F1800
G1 X109.033 Y53.563 F1800
G1 X109.427 Y53.466 F1800
G1 X109.909 Y53.354 F1800
G0 Z2.8F1000
; --- FIX X Backlash: -0.600mm ---
G0 X109.309 Y53.354 F1200
; --- FIX Y Backlash: 1.500mm ---
G0 X109.309 Y54.854 F1200
G0 X106.825 Y56.155 Z2.800
G1 Z0F1000
G1 X99.963 Y57.812 F1800
G0 Z2.8F1000
G0 X98.307 Y57.930 Z2.800
G1 Z0F1000
G1 X96.414 Y58.521 F1800
G0 Z2.8F1000
G0 X96.295 Y59.468 Z2.800
G1 Z0F1000
; --- FIX X Backlash: 0.600mm ---
G0 X96.895 Y59.468 F1200
; --- FIX Y Backlash: -1.500mm ---
G0 X96.895 Y57.968 F1200
G1 X98.157 Y57.531 F1800
G1 X99.426 Y57.156 F1800
G1 X100.701 Y56.821 F1800
G1 X101.983 Y56.502 F1800
G1 X103.696 Y56.089 F1800
G1 X105.433 Y55.724 F1800
G1 X106.309 Y55.577 F1800
G1 X107.190 Y55.464 F1800
G1 X108.074 Y55.391 F1800
G1 X108.963 Y55.365 F1800
G0 Z2.8F1000
; --- FIX X Backlash: -0.600mm ---
G0 X108.363 Y55.365 F1200
; --- FIX Y Backlash: 1.500mm ---
G0 X108.363 Y56.865 F1200
G0 X108.008 Y57.693 Z2.800
G1 Z0F1000
G1 X102.684 Y58.422 F1800
G1 X101.028 Y58.799 F1800
G1 X99.608 Y59.171 F1800
G1 X96.650 Y60.178 F1800
G0 Z2.8F1000
; --- FIX Y Backlash: -1.500mm ---
G0 X96.650 Y58.678 F1200
G0 X95.822 Y58.559 Z2.800
G1 Z0F1000
G1 X95.132 Y58.507 F1800
G1 X94.444 Y58.515 F1800
; --- FIX Y Backlash: 1.500mm ---
G0 X94.444 Y60.015 F1200
G1 X93.767 Y60.085 F1800
G1 X93.104 Y60.216 F1800
G1 X92.464 Y60.409 F1800
G1 X91.851 Y60.664 F1800
G1 X91.273 Y60.981 F1800
G1 X90.735 Y61.361 F1800
G0 Z2.8F1000
; --- FIX X Backlash: 0.600mm ---
G0 X91.335 Y61.361 F1200
G0 X92.636 Y61.952 Z2.800
G1 Z0F1000
; --- FIX X Backlash: -0.600mm ---
G0 X92.036 Y61.952 F1200
G1 X88.605 Y63.017 F1800
G0 Z2.8F1000
G0 X88.132 Y63.727 Z2.800
G1 Z0F1000
; --- FIX X Backlash: 0.600mm ---
G0 X88.732 Y63.727 F1200
; --- FIX Y Backlash: -1.500mm ---
G0 X88.732 Y62.227 F1200
G1 X92.163 Y61.162 F1800
G0 Z2.8F1000
; --- FIX Y Backlash: 1.500mm ---
G0 X92.163 Y62.662 F1200
G0 X93.228 Y62.781 Z2.800
G1 Z0F1000
; --- FIX Y Backlash: -1.500mm ---
G0 X93.228 Y61.281 F1200
G1 X98.433 Y60.807 F1800
G0 Z2.8F1000
; --- FIX Y Backlash: 1.500mm ---
G0 X98.433 Y62.307 F1200
G0 X99.143 Y63.017 Z2.800
G1 Z0F1000
; --- FIX Y Backlash: -1.500mm ---
G0 X99.143 Y61.517 F1200
G1 X99.864 Y61.285 F1800
G1 X100.587 Y61.086 F1800
G1 X101.312 Y60.919 F1800
G1 X102.043 Y60.781 F1800
G1 X103.529 Y60.577 F1800
G1 X105.059 Y60.452 F1800
G0 Z2.8F1000
; --- FIX X Backlash: -0.600mm ---
G0 X104.459 Y60.452 F1200
G0 X103.157 Y59.861 Z2.800
G1 Z0F1000
; --- FIX X Backlash: 0.600mm ---
G0 X103.757 Y59.861 F1200
; --- FIX Y Backlash: 1.500mm ---
G0 X103.757 Y61.361 F1200
G1 X104.086 Y61.417 F1800
G1 X104.433 Y61.447 F1800
G1 X104.794 Y61.453 F1800
G1 X105.168 Y61.439 F1800
; --- FIX Y Backlash: -1.500mm ---
G0 X105.168 Y59.939 F1200
G1 X105.941 Y59.854 F1800
G1 X106.733 Y59.711 F1800
G1 X107.523 Y59.528 F1800
G1 X108.289 Y59.322 F1800
G1 X109.013 Y59.111 F1800
G1 X109.673 Y58.914 F1800
G0 Z2.8F1000
; --- FIX X Backlash: -0.600mm ---
G0 X109.073 Y58.914 F1200
G0 X108.718 Y58.323 Z2.800
G1 Z0F1000
; --- FIX Y Backlash: 1.500mm ---
G0 X108.718 Y59.823 F1200
G1 X103.276 Y61.006 F1800
G0 Z2.8F1000
G0 X100.554 Y61.597 Z2.800
G1 Z0F1000
G1 X99.608 Y62.307 F1800
; --- FIX Y Backlash: -1.500mm ---
G0 X99.608 Y60.807 F1200
G1 X99.135 Y60.689 F1800
G0 Z2.8F1000
; --- FIX X Backlash: 0.600mm ---
G0 X99.735 Y60.689 F1200
; --- FIX Y Backlash: 1.500mm ---
G0 X99.735 Y62.189 F1200
G0 X102.338 Y62.899 Z2.800
G1 Z0F1000
; --- FIX Y Backlash: -1.500mm ---
G0 X102.338 Y61.399 F1200
G1 X103.761 Y61.089 F1800
G1 X105.250 Y60.762 F1800
G1 X105.996 Y60.623 F1800
G1 X106.732 Y60.517 F1800
G1 X107.447 Y60.456 F1800
G1 X108.135 Y60.452 F1800
G0 Z2.8F1000
; --- FIX X Backlash: -0.600mm ---
G0 X107.535 Y60.452 F1200
; --- FIX Y Backlash: 1.500mm ---
G0 X107.535 Y61.952 F1200
G0 X107.416 Y62.426 Z2.800
G1 Z0F1000
G1 X102.447 Y63.372 F1800
G0 Z2.8F1000
; --- FIX Y Backlash: -1.500mm ---
G0 X102.447 Y61.872 F1200
G0 X102.329 Y61.754 Z2.800
G1 Z0F1000
; --- FIX Y Backlash: 1.500mm ---
G0 X102.329 Y63.254 F1200
G1 X100.791 Y63.845 F1800
G0 Z2.8F1000
G0 X99.963 Y64.319 Z2.800
G1 Z0F1000
G1 X97.124 Y64.802 F1800
G1 X95.467 Y65.738 F1800
G0 Z2.8F1000
; --- FIX X Backlash: 0.600mm ---
G0 X96.067 Y65.738 F1200
G0 X96.304 Y66.448 Z2.800
G1 Z0F1000
; --- FIX Y Backlash: -1.500mm ---
G0 X96.304 Y64.948 F1200
G1 X98.197 Y64.185 F1800
G1 X100.090 Y63.656 F1800
G1 X101.509 Y63.173 F1800
; --- FIX X Backlash: -0.600mm ---
G0 X100.909 Y63.173 F1200
; --- FIX Y Backlash: 1.500mm ---
G0 X100.909 Y64.673 F1200
G1 X100.436 Y64.910 F1800
G0 Z2.8F1000
; --- FIX X Backlash: 0.600mm ---
G0 X101.036 Y64.910 F1200
; --- FIX Y Backlash: -1.500mm ---
G0 X101.036 Y63.410 F1200
G0 X101.509 Y63.173 Z2.800
G1 Z0F1000
G1 X104.467 Y62.109 F1800
G0 Z2.8F1000
; --- FIX X Backlash: -0.600mm ---
G0 X103.867 Y62.109 F1200
; --- FIX Y Backlash: 1.500mm ---
G0 X103.867 Y63.609 F1200
G0 X102.329 Y63.727 Z2.800
G1 Z0F1000
G1 X102.211 Y63.727 F1800
G0 Z2.8F1000
G0 X101.974 Y65.265 Z2.800
G1 Z0F1000
; --- FIX X Backlash: 0.600mm ---
G0 X102.574 Y65.265 F1200
; --- FIX Y Backlash: -1.500mm ---
G0 X102.574 Y63.765 F1200
G1 X106.360 Y63.173 F1800
G0 Z2.8F1000
G0 X106.360 Y62.937 Z2.800
G1 Z0F1000
G1 X109.554 Y62.109 F1800
G0 Z2.8F1000
; --- FIX X Backlash: -0.600mm ---
G0 X108.954 Y62.109 F1200
G0 X108.599 Y62.109 Z2.800
G1 Z0F1000
; --- FIX Y Backlash: 1.500mm ---
G0 X108.599 Y63.609 F1200
G1 X106.233 Y63.727 F1800
G0 Z2.8F1000
; --- FIX X Backlash: 0.600mm ---
G0 X106.833 Y63.727 F1200
G0 X108.490 Y65.147 Z2.800
G1 Z0F1000
; --- FIX X Backlash: -0.600mm ---
G0 X107.890 Y65.147 F1200
G1 X107.163 Y65.157 F1800
G1 X106.400 Y65.191 F1800
G1 X105.614 Y65.251 F1800
G1 X104.820 Y65.342 F1800
G1 X104.033 Y65.468 F1800
G1 X103.266 Y65.633 F1800
G1 X102.536 Y65.840 F1800
G1 X101.856 Y66.093 F1800
G0 Z2.8F1000
G0 X99.608 Y67.276 Z2.800
G1 Z0F1000
; --- FIX X Backlash: 0.600mm ---
G0 X100.208 Y67.276 F1200
; --- FIX Y Backlash: -1.500mm ---
G0 X100.208 Y65.776 F1200
G1 X102.219 Y65.239 F1800
G1 X103.284 Y65.132 F1800
G1 X108.608 Y64.475 F1800
G0 Z2.8F1000
; --- FIX X Backlash: -0.600mm ---
G0 X108.008 Y64.475 F1200
; --- FIX Y Backlash: 1.500mm ---
G0 X108.008 Y65.975 F1200
G0 X105.878 Y67.040 Z2.800
G1 Z0F1000
G1 X99.726 Y67.631 F1800
G0 Z2.8F1000
G0 X99.490 Y68.459 Z2.800
G1 Z0F1000
G1 X95.349 Y68.933 F1800
G0 Z2.8F1000
G0 X95.112 Y68.933 Z2.800
G1 Z0F1000
G1 X94.521 Y68.933 F1800
G0 Z2.8F1000
; --- FIX X Backlash: 0.600mm ---
G0 X95.121 Y68.933 F1200
G0 X95.712 Y69.642 Z2.800
G1 Z0F1000
; --- FIX Y Backlash: -1.500mm ---
G0 X95.712 Y68.142 F1200
G1 X99.735 Y67.787 F1800
G0 Z2.8F1000
; --- FIX Y Backlash: 1.500mm ---
G0 X99.735 Y69.287 F1200
G0 X99.853 Y70.116 Z2.800
G1 Z0F1000
G1 X100.090 Y70.116 F1800
G0 Z2.8F1000
G0 X100.445 Y70.116 Z2.800
G1 Z0F1000
; --- FIX Y Backlash: -1.500mm ---
G0 X100.445 Y68.616 F1200
G1 X100.681 Y68.379 F1800
; --- FIX X Backlash: -0.600mm ---
G0 X100.081 Y68.379 F1200
; --- FIX Y Backlash: 1.500mm ---
G0 X100.081 Y69.879 F1200
G1 X99.845 Y70.116 F1800
G0 Z2.8F1000
; --- FIX X Backlash: 0.600mm ---
G0 X100.445 Y70.116 F1200
; --- FIX Y Backlash: -1.500mm ---
G0 X100.445 Y68.616 F1200
G0 X101.628 Y67.551 Z2.800
G1 Z0F1000
G1 X102.698 Y67.469 F1800
G1 X103.757 Y67.347 F1800
G1 X104.951 Y67.242 F1800
G1 X106.158 Y67.148 F1800
G1 X106.756 Y67.075 F1800
G1 X107.347 Y66.968 F1800
G1 X107.926 Y66.815 F1800
G1 X108.490 Y66.604 F1800
; --- FIX X Backlash: -0.600mm ---
G0 X107.890 Y66.604 F1200
G1 X104.695 Y66.486 F1800
G0 Z2.8F1000
; --- FIX Y Backlash: 1.500mm ---
G0 X104.695 Y67.986 F1200
G0 X104.577 Y68.104 Z2.800
G1 Z0F1000
G1 X104.044 Y68.117 F1800
G1 X103.473 Y68.150 F1800
G1 X102.879 Y68.204 F1800
G1 X102.277 Y68.275 F1800
G1 X101.682 Y68.362 F1800
G1 X101.108 Y68.462 F1800
G1 X100.569 Y68.574 F1800
G1 X100.081 Y68.696 F1800
G0 Z2.8F1000
G0 X97.833 Y69.524 Z2.800
G1 Z0F1000
G1 X97.715 Y69.642 F1800
G0 Z2.8F1000
G0 X97.478 Y69.761 Z2.800
G1 Z0F1000
G1 X95.231 Y70.352 F1800
G0 Z2.8F1000
G0 X94.876 Y71.299 Z2.800
G1 Z0F1000
; --- FIX X Backlash: 0.600mm ---
G0 X95.476 Y71.299 F1200
; --- FIX Y Backlash: -1.500mm ---
G0 X95.476 Y69.799 F1200
G1 X96.651 Y69.593 F1800
G1 X97.836 Y69.398 F1800
G1 X99.025 Y69.224 F1800
G1 X100.208 Y69.081 F1800
G1 X100.739 Y69.011 F1800
G1 X101.240 Y68.963 F1800
G1 X101.485 Y68.969 F1800
G1 X101.728 Y69.006 F1800
; --- FIX Y Backlash: 1.500mm ---
G0 X101.728 Y70.506 F1200
G1 X101.972 Y70.583 F1800
G1 X102.219 Y70.707 F1800
; --- FIX X Backlash: -0.600mm ---
G0 X101.619 Y70.707 F1200
G1 X101.291 Y70.841 F1800
G1 X101.011 Y70.913 F1800
G1 X100.710 Y70.960 F1800
G1 X100.318 Y71.019 F1800
G1 X99.172 Y71.152 F1800
G1 X97.965 Y71.285 F1800
G1 X97.374 Y71.397 F1800
G1 X96.811 Y71.562 F1800
G1 X96.544 Y71.671 F1800
G1 X96.289 Y71.800 F1800
G1 X96.048 Y71.951 F1800
G1 X95.822 Y72.127 F1800
G0 Z2.8F1000
; --- FIX X Backlash: 0.600mm ---
G0 X96.422 Y72.127 F1200
G0 X97.132 Y73.073 Z2.800
G1 Z0F1000
; --- FIX X Backlash: -0.600mm ---
G0 X96.532 Y73.073 F1200
G1 X95.822 Y73.192 F1800
G0 Z2.8F1000
; --- FIX Y Backlash: -1.500mm ---
G0 X95.822 Y71.692 F1200
G0 X94.639 Y71.337 Z2.800
G1 Z0F1000
; --- FIX Y Backlash: 1.500mm ---
G0 X94.639 Y72.837 F1200
G1 X85.648 Y73.602 F1800
G1 X79.969 Y74.611 F1800
G0 Z2.8F1000
; --- FIX X Backlash: 0.600mm ---
G0 X80.569 Y74.611 F1200
G0 X80.687 Y75.440 Z2.800
G1 Z0F1000
; --- FIX Y Backlash: -1.500mm ---
G0 X80.687 Y73.940 F1200
G1 X81.911 Y73.630 F1800
G1 X83.143 Y73.378 F1800
G1 X84.381 Y73.173 F1800
G1 X85.624 Y73.004 F1800
G1 X88.121 Y72.737 F1800
G1 X90.625 Y72.494 F1800
G1 X91.692 Y72.351 F1800
G1 X92.752 Y72.176 F1800
G1 X93.813 Y72.018 F1800
G1 X94.884 Y71.928 F1800
G0 Z2.8F1000
; --- FIX Y Backlash: 1.500mm ---
G0 X94.884 Y73.428 F1200
G0 X95.831 Y74.138 Z2.800
G1 Z0F1000
; --- FIX Y Backlash: -1.500mm ---
G0 X95.831 Y72.638 F1200
G1 X97.724 Y72.402 F1800
G0 Z2.8F1000
; --- FIX Y Backlash: 1.500mm ---
G0 X97.724 Y73.902 F1200
G0 X98.315 Y74.730 Z2.800
G1 Z0F1000
G1 X99.143 Y74.730 F1800
G0 Z2.8F1000
; --- FIX X Backlash: -0.600mm ---
G0 X98.543 Y74.730 F1200
G0 X98.425 Y75.085 Z2.800
G1 Z0F1000
G1 X97.597 Y75.203 F1800
G0 Z2.8F1000
G0 X97.360 Y75.913 Z2.800
G1 Z0F1000
; --- FIX X Backlash: 0.600mm ---
G0 X97.960 Y75.913 F1200
; --- FIX Y Backlash: -1.500mm ---
G0 X97.960 Y74.413 F1200
G1 X99.143 Y74.294 F1800
G0 Z2.8F1000
; --- FIX Y Backlash: 1.500mm ---
G0 X99.143 Y75.794 F1200
G0 X99.735 Y76.386 Z2.800
G1 Z0F1000
G1 X99.853 Y76.386 F1800
G0 Z2.8F1000
; --- FIX Y Backlash: -1.500mm ---
G0 X99.853 Y74.886 F1200
G0 X100.090 Y74.768 Z2.800
G1 Z0F1000
G1 X102.574 Y74.058 F1800
G0 Z2.8F1000
G0 X102.574 Y73.821 Z2.800
G1 Z0F1000
G1 X103.047 Y73.585 F1800
; --- FIX X Backlash: -0.600mm ---
G0 X102.447 Y73.585 F1200
; --- FIX Y Backlash: 1.500mm ---
G0 X102.447 Y75.085 F1200
G1 X100.791 Y75.203 F1800
G0 Z2.8F1000
; --- FIX X Backlash: 0.600mm ---
G0 X101.391 Y75.203 F1200
; --- FIX Y Backlash: -1.500mm ---
G0 X101.391 Y73.703 F1200
G0 X101.746 Y72.875 Z2.800
G1 Z0F1000
; --- FIX X Backlash: -0.600mm ---
G0 X101.146 Y72.875 F1200
G1 X100.318 Y72.875 F1800
G0 Z2.8F1000
; --- FIX X Backlash: 0.600mm ---
G0 X100.918 Y72.875 F1200
G0 X101.509 Y72.165 Z2.800
G1 Z0F1000
G1 X101.509 Y71.928 F1800
; --- FIX Y Backlash: 1.500mm ---
G0 X101.509 Y73.428 F1200
G1 X101.509 Y73.665 F1800
G0 Z2.8F1000
; --- FIX X Backlash: -0.600mm ---
G0 X100.909 Y73.665 F1200
; --- FIX Y Backlash: -1.500mm ---
G0 X100.909 Y72.165 F1200
G0 X100.791 Y72.047 Z2.800
G1 Z0F1000
G1 X99.963 Y72.047 F1800
G0 Z2.8F1000
; --- FIX X Backlash: 0.600mm ---
G0 X100.563 Y72.047 F1200
G0 X100.681 Y71.455 Z2.800
G1 Z0F1000
; --- FIX Y Backlash: 1.500mm ---
G0 X100.681 Y72.955 F1200
G1 X102.929 Y73.073 F1800
G0 Z2.8F1000
G0 X103.047 Y73.310 Z2.800
G1 Z0F1000
; --- FIX X Backlash: -0.600mm ---
G0 X102.447 Y73.310 F1200
G1 X101.146 Y73.547 F1800
G0 Z2.8F1000
; --- FIX X Backlash: 0.600mm ---
G0 X101.746 Y73.547 F1200
G0 X102.101 Y74.138 Z2.800
G1 Z0F1000
; --- FIX Y Backlash: -1.500mm ---
G0 X102.101 Y72.638 F1200
G1 X102.574 Y72.520 F1800
G0 Z2.8F1000
; --- FIX Y Backlash: 1.500mm ---
G0 X102.574 Y74.020 F1200
G0 X103.166 Y74.848 Z2.800
G1 Z0F1000
; --- FIX Y Backlash: -1.500mm ---
G0 X103.166 Y73.348 F1200
G1 X105.414 Y72.993 F1800
G0 Z2.8F1000
; --- FIX Y Backlash: 1.500mm ---
G0 X105.414 Y74.493 F1200
G0 X106.005 Y74.611 Z2.800
G1 Z0F1000
; --- FIX Y Backlash: -1.500mm ---
G0 X106.005 Y73.111 F1200
G1 X109.199 Y72.283 F1800
G0 Z2.8F1000
; --- FIX Y Backlash: 1.500mm ---
G0 X109.199 Y73.783 F1200
G0 X109.318 Y74.493 Z2.800
G1 Z0F1000
; --- FIX X Backlash: -0.600mm ---
G0 X108.718 Y74.493 F1200
G1 X105.642 Y75.085 F1800
G0 Z2.8F1000
; --- FIX X Backlash: 0.600mm ---
G0 X106.242 Y75.085 F1200
G0 X106.715 Y75.913 Z2.800
G1 Z0F1000
; --- FIX Y Backlash: -1.500mm ---
G0 X106.715 Y74.413 F1200
G1 X108.490 Y74.058 F1800
G0 Z2.8F1000
; --- FIX X Backlash: -0.600mm ---
G0 X107.890 Y74.058 F1200
; --- FIX Y Backlash: 1.500mm ---
G0 X107.890 Y75.558 F1200
G0 X107.653 Y75.913 Z2.800
G1 Z0F1000
G1 X106.115 Y76.415 F1800
G1 X101.501 Y77.569 F1800
G0 Z2.8F1000
; --- FIX X Backlash: 0.600mm ---
G0 X102.101 Y77.569 F1200
G0 X103.876 Y78.161 Z2.800
G1 Z0F1000
; --- FIX Y Backlash: -1.500mm ---
G0 X103.876 Y76.661 F1200
G1 X104.112 Y76.542 F1800
G0 Z2.8F1000
; --- FIX Y Backlash: 1.500mm ---
G0 X104.112 Y78.042 F1200
G0 X104.822 Y78.516 Z2.800
G1 Z0F1000
G1 X105.059 Y78.516 F1800
G0 Z2.8F1000
; --- FIX Y Backlash: -1.500mm ---
G0 X105.059 Y77.016 F1200
G0 X105.295 Y76.897 Z2.800
G1 Z0F1000
G1 X109.081 Y76.187 F1800
G0 Z2.8F1000
; --- FIX X Backlash: -0.600mm ---
G0 X108.481 Y76.187 F1200
G0 X108.363 Y75.241 Z2.800
G1 Z0F1000
; --- FIX Y Backlash: 1.500mm ---
G0 X108.363 Y76.741 F1200
G1 X107.252 Y77.008 F1800
G1 X106.184 Y77.291 F1800
G1 X105.111 Y77.557 F1800
G1 X103.985 Y77.773 F1800
G1 X102.461 Y77.936 F1800
G1 X100.885 Y78.081 F1800
G1 X100.106 Y78.199 F1800
G1 X99.350 Y78.376 F1800
G1 X98.984 Y78.493 F1800
G1 X98.628 Y78.632 F1800
G1 X98.284 Y78.797 F1800
G1 X97.952 Y78.989 F1800
G0 Z2.8F1000
G0 X97.360 Y79.344 Z2.800
G1 Z0F1000
G1 X89.670 Y80.882 F1800
G0 Z2.8F1000
; --- FIX X Backlash: 0.600mm ---
G0 X90.270 Y80.882 F1200
G0 X90.862 Y81.710 Z2.800
G1 Z0F1000
; --- FIX Y Backlash: -1.500mm ---
G0 X90.862 Y80.210 F1200
G1 X91.327 Y80.107 F1800
G1 X91.841 Y79.995 F1800
G1 X92.385 Y79.891 F1800
G1 X92.945 Y79.807 F1800
G1 X93.503 Y79.759 F1800
G1 X94.043 Y79.759 F1800
; --- FIX Y Backlash: 1.500mm ---
G0 X94.043 Y81.259 F1200
G1 X94.548 Y81.327 F1800
G1 X95.002 Y81.473 F1800
G0 Z2.8F1000
G0 X95.002 Y81.710 Z2.800
G1 Z0F1000
; --- FIX X Backlash: -0.600mm ---
G0 X94.402 Y81.710 F1200
G1 X94.284 Y81.710 F1800
G0 Z2.8F1000
G0 X94.047 Y81.710 Z2.800
G1 Z0F1000
G1 X93.693 Y81.822 F1800
G1 X93.323 Y81.972 F1800
G1 X93.168 Y82.073 F1800
G1 X93.050 Y82.198 F1800
G1 X92.983 Y82.351 F1800
G1 X92.983 Y82.538 F1800
G0 Z2.8F1000
; --- FIX X Backlash: 0.600mm ---
G0 X93.583 Y82.538 F1200
; --- FIX Y Backlash: -1.500mm ---
G0 X93.583 Y81.038 F1200
G0 X94.056 Y80.920 Z2.800
G1 Z0F1000
G1 X94.174 Y80.920 F1800
G0 Z2.8F1000
; --- FIX Y Backlash: 1.500mm ---
G0 X94.174 Y82.420 F1200
G0 X94.174 Y82.775 Z2.800
G1 Z0F1000
; --- FIX X Backlash: -0.600mm ---
G0 X93.574 Y82.775 F1200
G1 X91.563 Y83.248 F1800
G0 Z2.8F1000
G0 X91.208 Y83.484 Z2.800
G1 Z0F1000
G1 X91.090 Y83.603 F1800
G0 Z2.8F1000
; --- FIX X Backlash: 0.600mm ---
G0 X91.690 Y83.603 F1200
G0 X92.636 Y84.668 Z2.800
G1 Z0F1000
; --- FIX X Backlash: -0.600mm ---
G0 X92.036 Y84.668 F1200
G1 X86.712 Y85.377 F1800
G0 Z2.8F1000
G0 X86.476 Y85.732 Z2.800
G1 Z0F1000
; --- FIX X Backlash: 0.600mm ---
G0 X87.076 Y85.732 F1200
G1 X87.667 Y85.851 F1800
G0 Z2.8F1000
G0 X87.904 Y85.851 Z2.800
G1 Z0F1000
; --- FIX Y Backlash: -1.500mm ---
G0 X87.904 Y84.351 F1200
G1 X93.819 Y83.759 F1800
G0 Z2.8F1000
; --- FIX X Backlash: -0.600mm ---
G0 X93.219 Y83.759 F1200
; --- FIX Y Backlash: 1.500mm ---
G0 X93.219 Y85.259 F1200
G0 X93.101 Y85.969 Z2.800
G1 Z0F1000
G1 X88.842 Y86.405 F1800
G1 X85.293 Y86.797 F1800
G0 Z2.8F1000
; --- FIX X Backlash: 0.600mm ---
G0 X85.893 Y86.797 F1200
G0 X86.129 Y87.507 Z2.800
G1 Z0F1000
G1 X88.022 Y87.507 F1800
G0 Z2.8F1000
G0 X88.377 Y87.980 Z2.800
G1 Z0F1000
; --- FIX X Backlash: -0.600mm ---
G0 X87.777 Y87.980 F1200
G1 X85.648 Y88.217 F1800
G0 Z2.8F1000
; --- FIX X Backlash: 0.600mm ---
G0 X86.248 Y88.217 F1200
G0 X87.076 Y88.690 Z2.800
G1 Z0F1000
; --- FIX X Backlash: -0.600mm ---
G0 X86.476 Y88.690 F1200
G1 X82.808 Y89.282 F1800
G0 Z2.8F1000
; --- FIX X Backlash: 0.600mm ---
G0 X83.408 Y89.282 F1200
G0 X83.763 Y89.755 Z2.800
G1 Z0F1000
; --- FIX X Backlash: -0.600mm ---
G0 X83.163 Y89.755 F1200
G1 X82.453 Y89.991 F1800
G0 Z2.8F1000
; --- FIX X Backlash: 0.600mm ---
G0 X83.053 Y89.991 F1200
; --- FIX Y Backlash: -1.500mm ---
G0 X83.053 Y88.491 F1200
G0 X84.000 Y88.373 Z2.800
G1 Z0F1000
G1 X85.538 Y88.018 F1800
G0 Z2.8F1000
; --- FIX X Backlash: -0.600mm ---
G0 X84.938 Y88.018 F1200
G0 X84.228 Y86.835 Z2.800
G1 Z0F1000
; --- FIX Y Backlash: 1.500mm ---
G0 X84.228 Y88.335 F1200
G1 X83.252 Y88.410 F1800
G1 X82.260 Y88.518 F1800
G1 X81.260 Y88.659 F1800
G1 X80.259 Y88.834 F1800
G1 X79.267 Y89.043 F1800
G1 X78.290 Y89.286 F1800
G1 X77.339 Y89.562 F1800
G1 X76.420 Y89.873 F1800
G0 Z2.8F1000
; --- FIX X Backlash: 0.600mm ---
G0 X77.020 Y89.873 F1200
G0 X77.611 Y90.110 Z2.800
G1 Z0F1000
; --- FIX X Backlash: -0.600mm ---
G0 X77.011 Y90.110 F1200
G1 X76.420 Y90.346 F1800
G0 Z2.8F1000
; --- FIX X Backlash: 0.600mm ---
G0 X77.020 Y90.346 F1200
G0 X77.374 Y91.056 Z2.800
G1 Z0F1000
; --- FIX Y Backlash: -1.500mm ---
G0 X77.374 Y89.556 F1200
G1 X77.665 Y89.431 F1800
G1 X77.944 Y89.328 F1800
G1 X78.213 Y89.255 F1800
G1 X78.475 Y89.217 F1800
G1 X78.732 Y89.222 F1800
; --- FIX Y Backlash: 1.500mm ---
G0 X78.732 Y90.722 F1200
G1 X78.988 Y90.776 F1800
G1 X79.244 Y90.885 F1800
G1 X79.504 Y91.056 F1800
; --- FIX Y Backlash: -1.500mm ---
G0 X79.504 Y89.556 F1200
G1 X79.715 Y89.364 F1800
G1 X79.928 Y89.212 F1800
G1 X80.146 Y89.095 F1800
G1 X80.372 Y89.006 F1800
G1 X80.855 Y88.898 F1800
G1 X81.397 Y88.846 F1800
G0 Z2.8F1000
; --- FIX X Backlash: -0.600mm ---
G0 X80.797 Y88.846 F1200
G0 X80.560 Y88.255 Z2.800
G1 Z0F1000
; --- FIX Y Backlash: 1.500mm ---
G0 X80.560 Y89.755 F1200
G1 X78.786 Y90.346 F1800
G0 Z2.8F1000
G0 X78.549 Y90.583 Z2.800
G1 Z0F1000
; --- FIX X Backlash: 0.600mm ---
G0 X79.149 Y90.583 F1200
G1 X79.622 Y90.820 F1800
G0 Z2.8F1000
G0 X79.622 Y91.411 Z2.800
G1 Z0F1000
; --- FIX Y Backlash: -1.500mm ---
G0 X79.622 Y89.911 F1200
G1 X82.343 Y89.320 F1800
G0 Z2.8F1000
; --- FIX Y Backlash: 1.500mm ---
G0 X82.343 Y90.820 F1200
G0 X83.290 Y92.239 Z2.800
G1 Z0F1000
; --- FIX Y Backlash: -1.500mm ---
G0 X83.290 Y90.739 F1200
G1 X83.834 Y90.458 F1800
G1 X84.424 Y90.232 F1800
G1 X85.046 Y90.051 F1800
G1 X85.686 Y89.908 F1800
G1 X86.329 Y89.796 F1800
G1 X86.962 Y89.705 F1800
G1 X88.141 Y89.556 F1800
G0 Z2.8F1000
; --- FIX X Backlash: -0.600mm ---
G0 X87.541 Y89.556 F1200
; --- FIX Y Backlash: 1.500mm ---
G0 X87.541 Y91.056 F1200
G0 X87.304 Y91.175 Z2.800
G1 Z0F1000
G1 X87.304 Y91.293 F1800
G0 Z2.8F1000
; --- FIX X Backlash: 0.600mm ---
G0 X87.904 Y91.293 F1200
; --- FIX Y Backlash: -1.500mm ---
G0 X87.904 Y89.793 F1200
G0 X88.850 Y89.675 Z2.800
G1 Z0F1000
G1 X89.087 Y89.675 F1800
G0 Z2.8F1000
G0 X89.442 Y89.556 Z2.800
G1 Z0F1000
; --- FIX Y Backlash: 1.500mm ---
G0 X89.442 Y91.056 F1200
G1 X89.442 Y91.293 F1800
; --- FIX Y Backlash: -1.500mm ---
G0 X89.442 Y89.793 F1200
G1 X89.773 Y89.679 F1800
G1 X90.050 Y89.601 F1800
G1 X90.348 Y89.536 F1800
G1 X90.743 Y89.463 F1800
G1 X91.451 Y89.369 F1800
G1 X92.159 Y89.319 F1800
G1 X92.869 Y89.276 F1800
G1 X93.583 Y89.201 F1800
G0 Z2.8F1000
G0 X94.293 Y88.610 Z2.800
G1 Z0F1000
; --- FIX X Backlash: -0.600mm ---
G0 X93.693 Y88.610 F1200
; --- FIX Y Backlash: 1.500mm ---
G0 X93.693 Y90.110 F1200
G1 X92.273 Y90.218 F1800
G1 X90.380 Y90.228 F1800
G0 Z2.8F1000
; --- FIX Y Backlash: -1.500mm ---
G0 X90.380 Y88.728 F1200
G0 X88.724 Y87.663 Z2.800
G1 Z0F1000
; --- FIX X Backlash: 0.600mm ---
G0 X89.324 Y87.663 F1200
G1 X90.064 Y87.450 F1800
G1 X90.802 Y87.268 F1800
G1 X92.281 Y86.937 F1800
G1 X93.427 Y86.694 F1800
G1 X94.577 Y86.487 F1800
G1 X95.732 Y86.302 F1800
G1 X96.895 Y86.126 F1800
G1 X97.332 Y86.066 F1800
G1 X97.729 Y86.024 F1800
G1 X98.098 Y85.998 F1800
G1 X98.448 Y85.983 F1800
G1 X99.130 Y85.983 F1800
G1 X99.853 Y86.007 F1800
G0 Z2.8F1000
; --- FIX X Backlash: -0.600mm ---
G0 X99.253 Y86.007 F1200
; --- FIX Y Backlash: 1.500mm ---
G0 X99.253 Y87.507 F1200
G0 X99.135 Y87.980 Z2.800
G1 Z0F1000
G1 X98.351 Y88.003 F1800
G1 X97.584 Y88.069 F1800
G1 X96.824 Y88.174 F1800
G1 X95.176 Y88.472 F1800
G1 X93.571 Y88.735 F1800
G1 X92.864 Y88.853 F1800
G1 X92.201 Y88.977 F1800
G1 X91.588 Y89.115 F1800
G1 X91.009 Y89.261 F1800
G1 X90.451 Y89.408 F1800
G1 X89.898 Y89.549 F1800
G1 X89.337 Y89.678 F1800
G1 X88.753 Y89.788 F1800
G1 X88.132 Y89.873 F1800
G0 Z2.8F1000
; --- FIX X Backlash: 0.600mm ---
G0 X88.732 Y89.873 F1200
; --- FIX Y Backlash: -1.500mm ---
G0 X88.732 Y88.373 F1200
G0 X89.679 Y86.717 Z2.800
G1 Z0F1000
G1 X94.529 Y85.889 F1800
G0 Z2.8F1000
G0 X94.766 Y85.770 Z2.800
G1 Z0F1000
G1 X95.002 Y85.770 F1800
G0 Z2.8F1000
G0 X95.831 Y85.297 Z2.800
G1 Z0F1000
G1 X99.853 Y84.587 F1800
G0 Z2.8F1000
G0 X99.853 Y83.996 Z2.800
G1 Z0F1000
; --- FIX X Backlash: -0.600mm ---
G0 X99.253 Y83.996 F1200
; --- FIX Y Backlash: 1.500mm ---
G0 X99.253 Y85.496 F1200
G1 X98.313 Y85.650 F1800
G1 X96.817 Y85.845 F1800
G1 X96.337 Y85.915 F1800
G1 X95.883 Y85.995 F1800
G1 X95.467 Y86.087 F1800
G0 Z2.8F1000
; --- FIX Y Backlash: -1.500mm ---
G0 X95.467 Y84.587 F1200
G0 X94.994 Y83.759 Z2.800
G1 Z0F1000
; --- FIX X Backlash: 0.600mm ---
G0 X95.594 Y83.759 F1200
G1 X96.540 Y83.641 F1800
G0 Z2.8F1000
; --- FIX X Backlash: -0.600mm ---
G0 X95.940 Y83.641 F1200
G0 X95.112 Y82.813 Z2.800
G1 Z0F1000
; --- FIX X Backlash: 0.600mm ---
G0 X95.712 Y82.813 F1200
G1 X96.895 Y82.576 F1800
G0 Z2.8F1000
; --- FIX X Backlash: -0.600mm ---
G0 X96.295 Y82.576 F1200
G0 X95.940 Y81.984 Z2.800
G1 Z0F1000
; --- FIX Y Backlash: 1.500mm ---
G0 X95.940 Y83.484 F1200
G1 X94.876 Y83.603 F1800
G0 Z2.8F1000
; --- FIX X Backlash: 0.600mm ---
G0 X95.476 Y83.603 F1200
; --- FIX Y Backlash: -1.500mm ---
G0 X95.476 Y82.103 F1200
G0 X95.594 Y81.393 Z2.800
G1 Z0F1000
G1 X96.659 Y81.156 F1800
G0 Z2.8F1000
; --- FIX X Backlash: -0.600mm ---
G0 X96.059 Y81.156 F1200
G0 X94.876 Y80.683 Z2.800
G1 Z0F1000
; --- FIX X Backlash: 0.600mm ---
G0 X95.476 Y80.683 F1200
G1 X99.735 Y79.855 F1800
G0 Z2.8F1000
G0 X99.971 Y79.737 Z2.800
G1 Z0F1000
G1 X103.047 Y79.382 F1800
G0 Z2.8F1000
; --- FIX Y Backlash: 1.500mm ---
G0 X103.047 Y80.882 F1200
G0 X103.876 Y81.473 Z2.800
G1 Z0F1000
; --- FIX Y Backlash: -1.500mm ---
G0 X103.876 Y79.973 F1200
G1 X104.230 Y79.855 F1800
G0 Z2.8F1000
G0 X104.704 Y79.382 Z2.800
G1 Z0F1000
G1 X105.887 Y79.027 F1800
G0 Z2.8F1000
; --- FIX Y Backlash: 1.500mm ---
G0 X105.887 Y80.527 F1200
G0 X106.597 Y81.237 Z2.800
G1 Z0F1000
; --- FIX X Backlash: -0.600mm ---
G0 X105.997 Y81.237 F1200
G1 X105.536 Y81.272 F1800
G1 X105.073 Y81.351 F1800
G1 X104.613 Y81.463 F1800
G1 X104.163 Y81.593 F1800
G1 X103.312 Y81.863 F1800
G1 X102.923 Y81.979 F1800
G1 X102.566 Y82.065 F1800
G0 Z2.8F1000
G0 X101.974 Y82.420 Z2.800
G1 Z0F1000
; --- FIX X Backlash: 0.600mm ---
G0 X102.574 Y82.420 F1200
; --- FIX Y Backlash: -1.500mm ---
G0 X102.574 Y80.920 F1200
G1 X103.166 Y80.565 F1800
; --- FIX X Backlash: -0.600mm ---
G0 X102.566 Y80.565 F1200
G1 X102.100 Y80.462 F1800
G1 X101.595 Y80.403 F1800
G1 X101.043 Y80.395 F1800
; --- FIX Y Backlash: 1.500mm ---
G0 X101.043 Y81.895 F1200
G1 X100.436 Y81.946 F1800
G0 Z2.8F1000
G0 X100.200 Y82.183 Z2.800
G1 Z0F1000
G1 X97.597 Y82.656 F1800
G0 Z2.8F1000
; --- FIX X Backlash: 0.600mm ---
G0 X98.197 Y82.656 F1200
G0 X98.315 Y83.366 Z2.800
G1 Z0F1000
G1 X98.670 Y83.366 F1800
G0 Z2.8F1000
; --- FIX Y Backlash: -1.500mm ---
G0 X98.670 Y81.866 F1200
G0 X98.907 Y81.748 Z2.800
G1 Z0F1000
G1 X102.338 Y81.038 F1800
G0 Z2.8F1000
; --- FIX Y Backlash: 1.500mm ---
G0 X102.338 Y82.538 F1200
G0 X102.811 Y83.011 Z2.800
G1 Z0F1000
; --- FIX Y Backlash: -1.500mm ---
G0 X102.811 Y81.511 F1200
G1 X105.532 Y80.683 F1800
G0 Z2.8F1000
; --- FIX Y Backlash: 1.500mm ---
G0 X105.532 Y82.183 F1200
G0 X106.478 Y83.484 Z2.800
G1 Z0F1000
; --- FIX X Backlash: -0.600mm ---
G0 X105.878 Y83.484 F1200
G1 X102.092 Y83.721 F1800
G0 Z2.8F1000
G0 X101.738 Y83.958 Z2.800
G1 Z0F1000
G1 X100.909 Y83.958 F1800
G0 Z2.8F1000
; --- FIX Y Backlash: -1.500mm ---
G0 X100.909 Y82.458 F1200
G0 X99.845 Y82.103 Z2.800
G1 Z0F1000
; --- FIX Y Backlash: 1.500mm ---
G0 X99.845 Y83.603 F1200
G1 X97.715 Y84.668 F1800
G0 Z2.8F1000
G0 X97.478 Y84.668 Z2.800
G1 Z0F1000
; --- FIX X Backlash: 0.600mm ---
G0 X98.078 Y84.668 F1200
; --- FIX Y Backlash: -1.500mm ---
G0 X98.078 Y83.168 F1200
G1 X98.197 Y82.931 F1800
G0 Z2.8F1000
G0 X98.197 Y82.576 Z2.800
G1 Z0F1000
G1 X98.907 Y82.458 F1800
G0 Z2.8F1000
; --- FIX Y Backlash: 1.500mm ---
G0 X98.907 Y83.958 F1200
G0 X98.907 Y84.786 Z2.800
G1 Z0F1000
; --- FIX Y Backlash: -1.500mm ---
G0 X98.907 Y83.286 F1200
G1 X100.326 Y83.049 F1800
G0 Z2.8F1000
; --- FIX Y Backlash: 1.500mm ---
G0 X100.326 Y84.549 F1200
G0 X100.918 Y85.732 Z2.800
G1 Z0F1000
; --- FIX Y Backlash: -1.500mm ---
G0 X100.918 Y84.232 F1200
G1 X103.166 Y83.641 F1800
G0 Z2.8F1000
G0 X104.112 Y83.168 Z2.800
G1 Z0F1000
G1 X104.934 Y83.019 F1800
G1 X105.840 Y82.902 F1800
G1 X106.769 Y82.830 F1800
G1 X107.661 Y82.813 F1800
G0 Z2.8F1000
; --- FIX X Backlash: -0.600mm ---
G0 X107.061 Y82.813 F1200
; --- FIX Y Backlash: 1.500mm ---
G0 X107.061 Y84.313 F1200
G0 X106.825 Y85.022 Z2.800
G1 Z0F1000
G1 X104.340 Y85.271 F1800
G1 X101.501 Y86.206 F1800
G0 Z2.8F1000
; --- FIX X Backlash: 0.600mm ---
G0 X102.101 Y86.206 F1200
G0 X103.757 Y86.324 Z2.800
G1 Z0F1000
; --- FIX X Backlash: -0.600mm ---
G0 X103.157 Y86.324 F1200
G1 X100.318 Y87.152 F1800
G0 Z2.8F1000
G0 X100.318 Y87.744 Z2.800
G1 Z0F1000
; --- FIX X Backlash: 0.600mm ---
G0 X100.918 Y87.744 F1200
; --- FIX Y Backlash: -1.500mm ---
G0 X100.918 Y86.244 F1200
G1 X103.757 Y85.534 F1800
G0 Z2.8F1000
G0 X105.414 Y85.534 Z2.800
G1 Z0F1000
; --- FIX Y Backlash: 1.500mm ---
G0 X105.414 Y87.034 F1200
G1 X105.414 Y87.270 F1800
; --- FIX Y Backlash: -1.500mm ---
G0 X105.414 Y85.770 F1200
G1 X105.414 Y85.534 F1800
G0 Z2.8F1000
; --- FIX X Backlash: -0.600mm ---
G0 X104.814 Y85.534 F1200
; --- FIX Y Backlash: 1.500mm ---
G0 X104.814 Y87.034 F1200
G0 X104.459 Y87.744 Z2.800
G1 Z0F1000
G1 X104.222 Y87.980 F1800
G0 Z2.8F1000
; --- FIX X Backlash: 0.600mm ---
G0 X104.822 Y87.980 F1200
G0 X104.940 Y88.690 Z2.800
G1 Z0F1000
; --- FIX Y Backlash: -1.500mm ---
G0 X104.940 Y87.190 F1200
G1 X105.532 Y87.072 F1800
G0 Z2.8F1000
G0 X105.768 Y86.953 Z2.800
G1 Z0F1000
G1 X106.123 Y86.953 F1800
G0 Z2.8F1000
; --- FIX Y Backlash: 1.500mm ---
G0 X106.123 Y88.453 F1200
G0 X106.123 Y88.690 Z2.800
G1 Z0F1000
; --- FIX Y Backlash: -1.500mm ---
G0 X106.123 Y87.190 F1200
G1 X106.715 Y86.835 F1800
G0 Z2.8F1000
; --- FIX X Backlash: -0.600mm ---
G0 X106.115 Y86.835 F1200
; --- FIX Y Backlash: 1.500mm ---
G0 X106.115 Y88.335 F1200
G0 X104.932 Y89.400 Z2.800
G1 Z0F1000
; --- FIX X Backlash: 0.600mm ---
G0 X105.532 Y89.400 F1200
; --- FIX Y Backlash: -1.500mm ---
G0 X105.532 Y87.900 F1200
G1 X105.999 Y87.716 F1800
G1 X106.487 Y87.581 F1800
G1 X106.991 Y87.486 F1800
G1 X107.505 Y87.422 F1800
G1 X108.542 Y87.355 F1800
G1 X109.554 Y87.308 F1800
G0 Z2.8F1000
; --- FIX X Backlash: -0.600mm ---
G0 X108.954 Y87.308 F1200
; --- FIX Y Backlash: 1.500mm ---
G0 X108.954 Y88.808 F1200
G0 X108.836 Y89.282 Z2.800
G1 Z0F1000
G1 X106.706 Y89.755 F1800
G0 Z2.8F1000
G0 X106.352 Y89.873 Z2.800
G1 Z0F1000
G1 X106.233 Y89.991 F1800
G0 Z2.8F1000
G0 X105.523 Y90.346 Z2.800
G1 Z0F1000
; --- FIX X Backlash: 0.600mm ---
G0 X106.123 Y90.346 F1200
; --- FIX Y Backlash: -1.500mm ---
G0 X106.123 Y88.846 F1200
G1 X108.490 Y88.491 F1800
G0 Z2.8F1000
G0 X108.726 Y88.491 Z2.800
G1 Z0F1000
G1 X109.199 Y88.373 F1800
G0 Z2.8F1000
; --- FIX X Backlash: -0.600mm ---
G0 X108.599 Y88.373 F1200
; --- FIX Y Backlash: 1.500mm ---
G0 X108.599 Y89.873 F1200
G0 X106.588 Y91.411 Z2.800
G1 Z0F1000
G1 X106.233 Y91.411 F1800
G0 Z2.8F1000
; --- FIX X Backlash: 0.600mm ---
G0 X106.833 Y91.411 F1200
G0 X107.070 Y92.239 Z2.800
G1 Z0F1000
G1 X107.425 Y92.358 F1800
; --- FIX X Backlash: -0.600mm ---
G0 X106.825 Y92.358 F1200
G1 X105.287 Y92.594 F1800
G0 Z2.8F1000
G0 X104.814 Y92.713 Z2.800
G1 Z0F1000
G1 X104.695 Y92.713 F1800
G0 Z2.8F1000
; --- FIX Y Backlash: -1.500mm ---
G0 X104.695 Y91.213 F1200
G0 X104.340 Y90.976 Z2.800
G1 Z0F1000
; --- FIX X Backlash: 0.600mm ---
G0 X104.940 Y90.976 F1200
G1 X106.833 Y89.911 F1800
; --- FIX X Backlash: -0.600mm ---
G0 X106.233 Y89.911 F1200
G1 X105.329 Y89.856 F1800
G1 X104.400 Y89.897 F1800
; --- FIX Y Backlash: 1.500mm ---
G0 X104.400 Y91.397 F1200
G1 X103.456 Y91.516 F1800
G1 X102.509 Y91.698 F1800
G1 X101.569 Y91.925 F1800
G1 X100.646 Y92.181 F1800
G1 X99.753 Y92.449 F1800
G1 X98.898 Y92.713 F1800
G0 Z2.8F1000
G0 X97.597 Y92.831 Z2.800
G1 Z0F1000
G1 X96.177 Y93.186 F1800
G0 Z2.8F1000
G0 X96.059 Y93.186 Z2.800
G1 Z0F1000
G1 X94.639 Y93.659 F1800
G0 Z2.8F1000
; --- FIX X Backlash: 0.600mm ---
G0 X95.239 Y93.659 F1200
G0 X95.476 Y94.251 Z2.800
G1 Z0F1000
; --- FIX Y Backlash: -1.500mm ---
G0 X95.476 Y92.751 F1200
G1 X96.275 Y92.585 F1800
G1 X97.070 Y92.416 F1800
G1 X97.866 Y92.258 F1800
G1 X98.670 Y92.128 F1800
G1 X99.270 Y92.017 F1800
G1 X99.853 Y91.861 F1800
G1 X100.362 Y91.685 F1800
G1 X100.920 Y91.498 F1800
G1 X101.210 Y91.428 F1800
