
G0 Z10 F500;      ; Move to clearance level - Z motion limited to 500
; G0 X-10 Y-10 F1200; Homing
; G0 X-5 Y-5 F1200; go in
; G10 P0 L20 X0 Y0; set to zero
G1 F1200;           ; Set feed rate to 1000
;LightBurn 1.6.04
;Custom GCode device profile, absolute coords
;Bounds: X109.1 Y89.29 to X142.9 Y120.71
G00 G17 G40 G21 G54
G90
M4
;Cut @ 1500 mm/min, 90% power

M8

; Washing sequence (no color)
G1 Z10 F1000;        ; Raise brush to safe height
G0 X5 Y5 F1200;     ; Rapid move to brush cleaning position
G1 Z-1 F800;         ; Lower brush for cleaning - controlled movement
G1 X10 Y12 Z8 F1200;     ; Rapid move to brush cleaning position
G1 Z-1 F800;         ; Lower brush for cleaning - controlled movement
G1 X25 Y14 Z6 F800;     ; Move across cleaning area - controlled movement
G1 Z8 F800;         ; Maintain brush height - controlled movement
G0 X5 Y5 F1200;     ; Rapid move to brush cleaning position
G1 Z-1 F800;         ; Lower brush for cleaning - controlled movement
G1 X15 Y12 Z8 F1200;     ; Rapid move to brush cleaning position
G1 Z-1 F800;         ; Lower brush for cleaning - controlled movement
G1 X25 Y14 Z6 F800;     ; Move across cleaning area - controlled movement
G1 Z10 F800;         ; Maintain brush height - controlled movement
G1 F1200;           ; Set feed rate to 1000

; Color picking sequence
G1 Z10 F1000;         ; Raise brush to safe height
G0 X41 Y5 F1200;    ; Rapid move to color 1 position
G1 Z0 F1000;         ; Lower into color - controlled movement
G1 X40.102Y7.295Z0S800F1200
G1 X40.026Y7.642Z0F1200
G1 X40Y8Z0F1200
G1 X40.026Y8.358Z0F1200
G1 X40.102Y8.705Z0F1200
G1 X40.225Y9.041Z0F1200
G1 X40.393Y9.362Z0F1200
G1 X40.603Y9.668Z0F1200
G1 X40.854Y9.957Z0F1200
G1 X41.142Y10.226Z0F1200
G1 X41.464Y10.475Z0F1200
G1 X41.82Y10.701Z0F1200
G1 X42.204Y10.902Z0F1200
G1 X42.617Y11.078Z0F1200
G1 X43.054Y11.225Z0F1200
G1 X43.513Y11.343Z0F1200
G1 X43.992Y11.429Z0F1200
G1 X44.489Y11.482Z0F1200
G1 X45Y11.5Z0F1200
G1 X45.511Y11.482Z0F1200
G1 X46.008Y11.429Z0F1200
G1 X46.487Y11.343Z0F1200
G1 X46.946Y11.225Z0F1200
G1 X47.383Y11.078Z0F1200
G1 X47.796Y10.902Z0F1200
G1 X48.18Y10.701Z0F1200
G1 X48.536Y10.475Z0F1200
G1 X48.858Y10.226Z0F1200
G1 X49.146Y9.957Z0F1200
G1 X49.397Y9.668Z0F1200
G1 X49.607Y9.362Z0F1200
G1 X49.775Y9.041Z0F1200
G1 X49.898Y8.705Z0F1200
G1 X49.974Y8.358Z0F1200
G1 X50Y8Z0F1200
G1 X49.974Y7.642Z0F1200
G1 X49.898Y7.295Z0F1200
G1 X49.775Y6.959Z0F1200
G1 X49.607Y6.638Z0F1200
G1 X49.397Y6.332Z0F1200
G1 X49.146Y6.043Z0F1200
G1 X48.858Y5.774Z0F1200
G1 X48.536Y5.525Z0F1200
G1 X48.18Y5.299Z0F1200
G1 X47.796Y5.098Z0F1200
G1 X47.383Y4.922Z0F1200
G1 X46.946Y4.775Z0F1200
G1 X46.487Y4.657Z0F1200
G1 X46.008Y4.571Z0F1200
G1 X45.511Y4.518Z0F1200
G1 X45Y4.5Z0F1200
G1 X44.489Y4.518Z0F1200
G1 X43.992Y4.571Z0F1200
G1 X43.513Y4.657Z0F1200
G1 X43.054Y4.775Z0F1200
G1 X42.617Y4.922Z0F1200
G1 X42.204Y5.098Z0F1200
G1 X41.82Y5.299Z0F1200
G1 X41.464Y5.525Z0F1200
G1 X41.142Y5.774Z0F1200
G1 X40.854Y6.043Z0F1200
G1 X40.603Y6.332Z0F1200
G1 X40.393Y6.638Z0F1200
G1 X40.225Y6.959Z0F1200
G1 Z7 F800;         ; Raise from color - controlled movement
G1 X34 Y8 Z1 F1200;     ; Movement in paint - controlled movement
G1 X24 Y18 Z8 F500;     ; Move in paint - controlled movement
G1 F1200;           ; Set feed rate to 1000
G0 Z3.5 F1000
G0 X124.808 Y103.845 Z3.5 
G1 Z0 F1000
;Layer C1
G1 X124.893 Y103.761 Z0 S900 F1000
G1 X124.948 Y103.676 Z0 F1000
G1 X124.975 Y103.592 Z0 F1000
G1 Y103.51 Z0 F1000
G1 X124.918 Y103.352 Z0 F1000
G1 X124.793 Y103.211 Z0 F1000
G1 X124.623 Y103.093 Z0 F1000
G1 X124.431 Y103.005 Z0 F1000
G1 X124.239 Y102.955 Z0 F1000
G1 X124.069 Y102.949 Z0 F1000
G1 X123.872 Y102.988 Z0 F1000
G1 X123.693 Y103.054 Z0 F1000
G1 X123.533 Y103.143 Z0 F1000
G1 X123.391 Y103.254 Z0 F1000
G1 X123.16 Y103.529 Z0 F1000
G1 X122.998 Y103.859 Z0 F1000
G1 X122.905 Y104.223 Z0 F1000
G1 X122.878 Y104.602 Z0 F1000
G1 X122.916 Y104.976 Z0 F1000
G1 X123.017 Y105.324 Z0 F1000
G1 X123.15 Y105.604 Z0 F1000
G1 X123.313 Y105.856 Z0 F1000
G1 X123.501 Y106.08 Z0 F1000
G1 X123.713 Y106.276 Z0 F1000
G1 X123.946 Y106.445 Z0 F1000
G1 X124.195 Y106.587 Z0 F1000
G1 X124.46 Y106.701 Z0 F1000
G1 X124.736 Y106.788 Z0 F1000
G1 X125.021 Y106.849 Z0 F1000
G1 X125.313 Y106.882 Z0 F1000
G1 X125.607 Y106.889 Z0 F1000
G1 X125.902 Y106.87 Z0 F1000
G1 X126.194 Y106.825 Z0 F1000
G1 X126.481 Y106.753 Z0 F1000
G1 X126.76 Y106.655 Z0 F1000
G1 X127.027 Y106.532 Z0 F1000
G1 X127.391 Y106.314 Z0 F1000
G1 X127.718 Y106.061 Z0 F1000
G1 X128.007 Y105.777 Z0 F1000
G1 X128.258 Y105.466 Z0 F1000
G1 X128.473 Y105.131 Z0 F1000
G1 X128.65 Y104.776 Z0 F1000
G1 X128.79 Y104.404 Z0 F1000
G1 X128.893 Y104.019 Z0 F1000
G1 X128.959 Y103.624 Z0 F1000
G1 X128.988 Y103.223 Z0 F1000
G1 X128.98 Y102.819 Z0 F1000
G1 X128.935 Y102.417 Z0 F1000
G1 X128.854 Y102.018 Z0 F1000
G1 X128.737 Y101.628 Z0 F1000
G1 X128.582 Y101.25 Z0 F1000
G1 X128.392 Y100.886 Z0 F1000
G1 X128.091 Y100.437 Z0 F1000
G1 X127.75 Y100.035 Z0 F1000
G1 X127.373 Y99.681 Z0 F1000
G1 X126.963 Y99.373 Z0 F1000
G1 X126.526 Y99.113 Z0 F1000
G1 X126.064 Y98.9 Z0 F1000
G1 X125.584 Y98.734 Z0 F1000
G1 X125.089 Y98.615 Z0 F1000
G1 X124.583 Y98.544 Z0 F1000
G1 X124.071 Y98.519 Z0 F1000
G1 X123.558 Y98.542 Z0 F1000
G1 X123.046 Y98.613 Z0 F1000
G1 X122.541 Y98.73 Z0 F1000
G1 X122.048 Y98.895 Z0 F1000
G1 X121.569 Y99.106 Z0 F1000
G1 X121.11 Y99.366 Z0 F1000
G1 X120.576 Y99.747 Z0 F1000
G1 X120.098 Y100.175 Z0 F1000
G1 X119.677 Y100.646 Z0 F1000
G1 X119.314 Y101.154 Z0 F1000
G1 X119.007 Y101.695 Z0 F1000
G1 X118.758 Y102.262 Z0 F1000
G1 X118.566 Y102.85 Z0 F1000
G1 X118.431 Y103.456 Z0 F1000
G1 X118.354 Y104.073 Z0 F1000
G1 X118.335 Y104.696 Z0 F1000
G1 X118.373 Y105.32 Z0 F1000
G1 X118.47 Y105.941 Z0 F1000
G1 X118.624 Y106.553 Z0 F1000
G1 X118.835 Y107.15 Z0 F1000
G1 X119.105 Y107.728 Z0 F1000
G1 X119.433 Y108.282 Z0 F1000
G1 X119.895 Y108.903 Z0 F1000
G1 X120.411 Y109.457 Z0 F1000
G1 X120.975 Y109.944 Z0 F1000
G1 X121.581 Y110.364 Z0 F1000
G1 X122.224 Y110.716 Z0 F1000
G1 X122.897 Y111.002 Z0 F1000
G1 X123.595 Y111.22 Z0 F1000
G1 X124.31 Y111.37 Z0 F1000
G1 X125.039 Y111.453 Z0 F1000
G1 X125.774 Y111.467 Z0 F1000
G1 X126.509 Y111.413 Z0 F1000
G1 X127.239 Y111.291 Z0 F1000
G1 X127.957 Y111.1 Z0 F1000
G1 X128.659 Y110.841 Z0 F1000
G1 X129.337 Y110.513 Z0 F1000
G1 X129.985 Y110.115 Z0 F1000
G1 X130.692 Y109.574 Z0 F1000
G1 X131.322 Y108.971 Z0 F1000
G1 X131.876 Y108.314 Z0 F1000
G1 X132.352 Y107.609 Z0 F1000
G1 X132.751 Y106.864 Z0 F1000
G1 X133.073 Y106.085 Z0 F1000
G1 X133.317 Y105.278 Z0 F1000
G1 X133.483 Y104.452 Z0 F1000
G1 X133.571 Y103.612 Z0 F1000
G1 X133.58 Y102.765 Z0 F1000
G1 X133.511 Y101.919 Z0 F1000
G1 X133.363 Y101.08 Z0 F1000
G1 X133.135 Y100.254 Z0 F1000
G1 X132.828 Y99.449 Z0 F1000
G1 X132.442 Y98.672 Z0 F1000
G1 X131.975 Y97.928 Z0 F1000
G1 X131.673 Y97.521 Z0 F1000
G1 X131.353 Y97.135 Z0 F1000
G1 X131.016 Y96.771 Z0 F1000
G1 X130.663 Y96.429 Z0 F1000
G1 X130.295 Y96.108 Z0 F1000
G1 X129.913 Y95.809 Z0 F1000
G1 X129.518 Y95.531 Z0 F1000
G1 X129.11 Y95.276 Z0 F1000
G1 X128.263 Y94.83 Z0 F1000
G1 X127.377 Y94.472 Z0 F1000
G1 X126.462 Y94.202 Z0 F1000
G1 X125.525 Y94.02 Z0 F1000
G1 X124.573 Y93.926 Z0 F1000
G1 X123.615 Y93.922 Z0 F1000
G1 X122.658 Y94.007 Z0 F1000
G1 X121.709 Y94.182 Z0 F1000
G1 X120.776 Y94.446 Z0 F1000
G1 X119.867 Y94.801 Z0 F1000
G1 X118.99 Y95.246 Z0 F1000
G1 X118.152 Y95.782 Z0 F1000
G1 X117.701 Y96.123 Z0 F1000
G1 X117.273 Y96.484 Z0 F1000
G1 X116.87 Y96.863 Z0 F1000
G1 X116.49 Y97.26 Z0 F1000
G1 X116.135 Y97.674 Z0 F1000
G1 X115.804 Y98.103 Z0 F1000
G1 X115.497 Y98.547 Z0 F1000
G1 X115.214 Y99.005 Z0 F1000
G1 X114.956 Y99.474 Z0 F1000
G1 X114.722 Y99.955 Z0 F1000
G1 X114.512 Y100.446 Z0 F1000
G1 X114.327 Y100.947 Z0 F1000
G1 X114.167 Y101.455 Z0 F1000
G1 X114.031 Y101.97 Z0 F1000
G1 X113.92 Y102.492 Z0 F1000
G1 X113.833 Y103.018 Z0 F1000
G1 X113.734 Y104.082 Z0 F1000
G1 Y105.152 Z0 F1000
G1 X113.773 Y105.687 Z0 F1000
G1 X113.836 Y106.22 Z0 F1000
G1 X113.923 Y106.751 Z0 F1000
G1 X114.036 Y107.279 Z0 F1000
G1 X114.174 Y107.801 Z0 F1000
G1 X114.338 Y108.318 Z0 F1000
G1 X114.526 Y108.829 Z0 F1000
G1 X114.74 Y109.331 Z0 F1000
G1 X114.98 Y109.824 Z0 F1000
G1 X115.244 Y110.308 Z0 F1000
G1 X115.534 Y110.78 Z0 F1000
G1 X115.85 Y111.24 Z0 F1000
G1 X116.23 Y111.736 Z0 F1000
G1 X116.631 Y112.206 Z0 F1000
G1 X117.053 Y112.649 Z0 F1000
G1 X117.495 Y113.065 Z0 F1000
G1 X117.954 Y113.455 Z0 F1000
G1 X118.431 Y113.818 Z0 F1000
G1 X118.923 Y114.155 Z0 F1000
G1 X119.43 Y114.465 Z0 F1000
G1 X119.95 Y114.748 Z0 F1000
G1 X120.483 Y115.004 Z0 F1000
G1 X121.027 Y115.232 Z0 F1000
G1 X121.581 Y115.434 Z0 F1000
G1 X122.143 Y115.609 Z0 F1000
G1 X122.714 Y115.757 Z0 F1000
G1 X123.29 Y115.877 Z0 F1000
G1 X123.872 Y115.97 Z0 F1000
G1 X124.458 Y116.036 Z0 F1000
G1 X125.047 Y116.075 Z0 F1000
G1 X125.638 Y116.086 Z0 F1000
G1 X126.229 Y116.069 Z0 F1000
G1 X126.82 Y116.025 Z0 F1000
G1 X127.409 Y115.953 Z0 F1000
G1 X127.995 Y115.853 Z0 F1000
G1 X128.577 Y115.726 Z0 F1000
G1 X129.154 Y115.571 Z0 F1000
G1 X129.724 Y115.387 Z0 F1000
G1 X130.286 Y115.176 Z0 F1000
G1 X130.84 Y114.937 Z0 F1000
G1 X131.384 Y114.67 Z0 F1000
G1 X131.916 Y114.374 Z0 F1000
G1 X132.437 Y114.051 Z0 F1000
G1 X132.944 Y113.699 Z0 F1000
G1 X133.484 Y113.28 Z0 F1000
G1 X133.995 Y112.838 Z0 F1000
G1 X134.478 Y112.373 Z0 F1000
G1 X134.931 Y111.888 Z0 F1000
G1 X135.356 Y111.383 Z0 F1000
G1 X135.751 Y110.859 Z0 F1000
G1 X136.117 Y110.318 Z0 F1000
G1 X136.454 Y109.761 Z0 F1000
G1 X136.762 Y109.19 Z0 F1000
G1 X137.04 Y108.606 Z0 F1000
G1 X137.288 Y108.009 Z0 F1000
G1 X137.507 Y107.402 Z0 F1000
G1 X137.696 Y106.785 Z0 F1000
G1 X137.855 Y106.16 Z0 F1000
G1 X137.985 Y105.528 Z0 F1000
G1 X138.085 Y104.891 Z0 F1000
G1 X138.155 Y104.249 Z0 F1000
G1 X138.195 Y103.604 Z0 F1000
G1 X138.204 Y102.957 Z0 F1000
G1 X138.184 Y102.31 Z0 F1000
G1 X138.133 Y101.663 Z0 F1000
G1 X138.052 Y101.019 Z0 F1000
G1 X137.941 Y100.378 Z0 F1000
G1 X137.799 Y99.742 Z0 F1000
G1 X137.626 Y99.111 Z0 F1000
G1 X137.423 Y98.488 Z0 F1000
G1 X137.189 Y97.873 Z0 F1000
G1 X136.925 Y97.268 Z0 F1000
G1 X136.63 Y96.673 Z0 F1000
G1 X136.303 Y96.092 Z0 F1000
G1 X135.946 Y95.523 Z0 F1000
G1 X135.558 Y94.97 Z0 F1000
G1 X135.101 Y94.385 Z0 F1000
G1 X134.618 Y93.832 Z0 F1000
G1 X134.111 Y93.31 Z0 F1000
G1 X133.581 Y92.819 Z0 F1000
G1 X133.03 Y92.36 Z0 F1000
G1 X132.459 Y91.932 Z0 F1000
G1 X131.87 Y91.537 Z0 F1000
G1 X131.264 Y91.173 Z0 F1000
G1 X130.642 Y90.841 Z0 F1000
G1 X130.005 Y90.541 Z0 F1000
G1 X129.356 Y90.273 Z0 F1000
G1 X128.695 Y90.037 Z0 F1000
G1 X128.024 Y89.834 Z0 F1000
G1 X127.344 Y89.662 Z0 F1000
G1 X126.657 Y89.524 Z0 F1000
G1 X125.964 Y89.417 Z0 F1000
G1 X125.266 Y89.343 Z0 F1000
G1 X124.565 Y89.302 Z0 F1000
G1 X123.863 Y89.294 Z0 F1000
G1 X123.16 Y89.318 Z0 F1000
G1 X122.457 Y89.375 Z0 F1000
G1 X121.758 Y89.465 Z0 F1000
G1 X121.061 Y89.589 Z0 F1000
G1 X120.37 Y89.745 Z0 F1000
G1 X119.686 Y89.935 Z0 F1000
G1 X119.009 Y90.158 Z0 F1000
G1 X118.342 Y90.414 Z0 F1000
G1 X117.686 Y90.704 Z0 F1000
G1 X117.041 Y91.027 Z0 F1000
G1 X116.41 Y91.384 Z0 F1000
G1 X115.794 Y91.775 Z0 F1000
G1 X115.194 Y92.199 Z0 F1000
G1 X114.565 Y92.695 Z0 F1000
G1 X113.969 Y93.219 Z0 F1000
G1 X113.408 Y93.769 Z0 F1000
G1 X112.88 Y94.343 Z0 F1000
G1 X112.386 Y94.939 Z0 F1000
G1 X111.927 Y95.557 Z0 F1000
G1 X111.502 Y96.195 Z0 F1000
G1 X111.111 Y96.851 Z0 F1000
G1 X110.754 Y97.524 Z0 F1000
G1 X110.432 Y98.212 Z0 F1000
G1 X110.145 Y98.914 Z0 F1000
G1 X109.892 Y99.628 Z0 F1000
G1 X109.674 Y100.353 Z0 F1000
G1 X109.491 Y101.088 Z0 F1000
G1 X109.343 Y101.83 Z0 F1000
G1 X109.23 Y102.579 Z0 F1000
G1 X109.152 Y103.333 Z0 F1000
G1 X109.109 Y104.089 Z0 F1000
G1 X109.102 Y104.848 Z0 F1000
G1 X109.13 Y105.607 Z0 F1000
G1 X109.194 Y106.365 Z0 F1000
G1 X109.293 Y107.12 Z0 F1000
G1 X109.428 Y107.872 Z0 F1000
G1 X109.599 Y108.617 Z0 F1000
G1 X109.806 Y109.355 Z0 F1000
G1 X110.049 Y110.085 Z0 F1000
G1 X110.328 Y110.805 Z0 F1000
G1 X110.643 Y111.513 Z0 F1000
G1 X110.994 Y112.208 Z0 F1000
G1 X111.382 Y112.888 Z0 F1000
G1 X111.806 Y113.552 Z0 F1000
G1 X112.267 Y114.199 Z0 F1000
G1 X112.802 Y114.872 Z0 F1000
G1 X113.367 Y115.51 Z0 F1000
G1 X113.959 Y116.111 Z0 F1000
G1 X114.577 Y116.676 Z0 F1000
G1 X115.219 Y117.204 Z0 F1000
G1 X115.884 Y117.696 Z0 F1000
G1 X116.57 Y118.15 Z0 F1000
G1 X117.276 Y118.568 Z0 F1000
G1 X118 Y118.95 Z0 F1000
G1 X118.74 Y119.294 Z0 F1000
G1 X119.494 Y119.601 Z0 F1000
G1 X120.262 Y119.87 Z0 F1000
G1 X121.042 Y120.103 Z0 F1000
G1 X121.831 Y120.297 Z0 F1000
G1 X122.628 Y120.455 Z0 F1000
G1 X123.433 Y120.574 Z0 F1000
G1 X124.242 Y120.656 Z0 F1000
G1 X125.055 Y120.7 Z0 F1000
G1 X125.87 Y120.706 Z0 F1000
G1 X126.685 Y120.674 Z0 F1000
G1 X127.498 Y120.604 Z0 F1000
G1 X128.309 Y120.496 Z0 F1000
G1 X129.115 Y120.349 Z0 F1000
G1 X129.915 Y120.163 Z0 F1000
G1 X130.708 Y119.939 Z0 F1000
G1 X131.491 Y119.677 Z0 F1000
G1 X132.263 Y119.375 Z0 F1000
G1 X133.022 Y119.035 Z0 F1000
G1 X133.767 Y118.655 Z0 F1000
G1 X134.497 Y118.237 Z0 F1000
G1 X135.209 Y117.779 Z0 F1000
G1 X135.902 Y117.282 Z0 F1000
G1 X136.753 Y116.594 Z0 F1000
G1 X137.555 Y115.856 Z0 F1000
G1 X138.306 Y115.073 Z0 F1000
G1 X139.004 Y114.246 Z0 F1000
G1 X139.65 Y113.38 Z0 F1000
G1 X140.241 Y112.477 Z0 F1000
G1 X140.777 Y111.541 Z0 F1000
G1 X141.255 Y110.575 Z0 F1000
G1 X141.675 Y109.582 Z0 F1000
G1 X142.035 Y108.565 Z0 F1000
G1 X142.335 Y107.527 Z0 F1000
G1 X142.572 Y106.472 Z0 F1000
G1 X142.746 Y105.403 Z0 F1000
G1 X142.855 Y104.323 Z0 F1000
G1 X142.898 Y103.235 Z0 F1000
G1 X142.874 Y102.142 Z0 F1000
M9

G90
G1 Z10 F800

; Return to 2,0 wash and park
G1 Z10 F1000;        ; Raise brush to safe height
G0 X5 Y5 F1200;     ; Rapid move to brush cleaning position
G1 Z-1 F800;         ; Lower brush for cleaning - controlled movement
G1 X10 Y12 Z8 F1200;     ; Rapid move to brush cleaning position
G1 Z-1 F800;         ; Lower brush for cleaning - controlled movement
G1 X25 Y14 Z6 F800;     ; Move across cleaning area - controlled movement
G0 X5 Y5 F1200;     ; Rapid move to brush cleaning position
G1 Z-1 F800;         ; Lower brush for cleaning - controlled movement
G1 X15 Y12 Z8 F1200;     ; Rapid move to brush cleaning position
G1 Z-1 F800;         ; Lower brush for cleaning - controlled movement
G1 X25 Y14 Z6 F800;     ; Move across cleaning area - controlled movement
G1 Z10 F800;         ; Maintain brush height - controlled movement
G0 X20 Y130 Z10 F500;; Move to parking position with Z at safe height
M2;                 ; End program
