;LightBurn 1.6.04
;Custom GCode device profile, absolute coords
;Bounds: X21.42 Y38.03 to X126.58 Y103.97
G00 G17 G40 G21 G54
G90
M3
G1 Z10 F500
;Cut @ 1300 mm/min, 90% power

M8
G0 Z3.5 F500
G0 X38.235 Y60.637 Z3.5 
G1 Z0 F500
;Layer C1
G1 Y60.559 Z0 S900 F800
G1 Y60.47 Z0 F800
G1 X38.23 Y60.355 Z0 F800
G1 X38.198 Y60.069 Z0 F800
G1 X38.122 Y59.743 Z0 F800
G1 X37.984 Y59.423 Z0 F800
G1 X37.768 Y59.15 Z0 F800
G1 X37.624 Y59.046 Z0 F800
G1 X37.454 Y58.97 Z0 F800
G1 X37.256 Y58.928 Z0 F800
G1 X37.027 Y58.925 Z0 F800
G1 X36.766 Y58.964 Z0 F800
G1 X36.479 Y59.039 Z0 F800
G1 X36.168 Y59.148 Z0 F800
G1 X35.836 Y59.287 Z0 F800
G1 X35.124 Y59.644 Z0 F800
G1 X34.371 Y60.083 Z0 F800
G1 X33.604 Y60.579 Z0 F800
G1 X32.85 Y61.106 Z0 F800
G1 X32.136 Y61.637 Z0 F800
G1 X31.489 Y62.147 Z0 F800
G1 X31.163 Y62.419 Z0 F800
G1 X30.796 Y62.738 Z0 F800
G1 X30.392 Y63.098 Z0 F800
G1 X29.962 Y63.494 Z0 F800
G1 X29.045 Y64.363 Z0 F800
G1 X28.104 Y65.294 Z0 F800
G1 X27.642 Y65.766 Z0 F800
G1 X27.195 Y66.233 Z0 F800
G1 X26.772 Y66.691 Z0 F800
G1 X26.378 Y67.131 Z0 F800
G1 X26.021 Y67.548 Z0 F800
G1 X25.709 Y67.934 Z0 F800
G1 X25.449 Y68.284 Z0 F800
G1 X25.247 Y68.591 Z0 F800
G1 X24.955 Y69.158 Z0 F800
G1 X24.74 Y69.711 Z0 F800
G1 X24.578 Y70.226 Z0 F800
G1 X24.441 Y70.68 Z0 F800
G1 X24.375 Y70.877 Z0 F800
G1 X24.305 Y71.049 Z0 F800
G1 X24.229 Y71.194 Z0 F800
G1 X24.142 Y71.309 Z0 F800
G1 X24.043 Y71.391 Z0 F800
G1 X23.928 Y71.437 Z0 F800
G1 X23.793 Y71.445 Z0 F800
G1 X23.305 Y71.34 Z0 F800
G1 X23.005 Y71.322 Z0 F800
G1 X22.76 Y71.304 Z0 F800
G1 X22.591 Y71.234 Z0 F800
G1 X22.543 Y71.163 Z0 F800
G1 X22.522 Y71.06 Z0 F800
G1 X22.531 Y70.918 Z0 F800
G1 X22.574 Y70.73 Z0 F800
G1 X22.653 Y70.491 Z0 F800
G1 X22.77 Y70.193 Z0 F800
G1 X22.929 Y69.83 Z0 F800
G1 X23.132 Y69.396 Z0 F800
G1 X23.596 Y68.389 Z0 F800
G1 X24.067 Y67.282 Z0 F800
G1 X24.524 Y66.119 Z0 F800
G1 X24.945 Y64.941 Z0 F800
G1 X25.135 Y64.36 Z0 F800
G1 X25.309 Y63.792 Z0 F800
G1 X25.464 Y63.241 Z0 F800
G1 X25.596 Y62.714 Z0 F800
G1 X25.704 Y62.214 Z0 F800
G1 X25.784 Y61.748 Z0 F800
G1 X25.834 Y61.322 Z0 F800
G1 X25.851 Y60.939 Z0 F800
G1 X25.855 Y60.746 Z0 F800
G1 X25.869 Y60.526 Z0 F800
G1 X25.89 Y60.28 Z0 F800
G1 X25.919 Y60.01 Z0 F800
G1 X25.995 Y59.404 Z0 F800
G1 X26.092 Y58.719 Z0 F800
G1 X26.323 Y57.157 Z0 F800
G1 X26.447 Y56.302 Z0 F800
G1 X26.568 Y55.414 Z0 F800
G1 X26.78 Y53.582 Z0 F800
G1 X26.913 Y51.75 Z0 F800
G1 X26.935 Y50.863 Z0 F800
G1 X26.92 Y50.011 Z0 F800
G1 X26.863 Y49.204 Z0 F800
G1 X26.757 Y48.454 Z0 F800
G1 X26.638 Y47.772 Z0 F800
G1 X26.544 Y47.155 Z0 F800
G1 X26.469 Y46.598 Z0 F800
G1 X26.409 Y46.098 Z0 F800
G1 X26.281 Y44.881 Z0 F800
G1 X26.241 Y44.553 Z0 F800
G1 X26.195 Y44.256 Z0 F800
G1 X26.139 Y43.985 Z0 F800
G1 X26.068 Y43.734 Z0 F800
G1 X25.978 Y43.499 Z0 F800
G1 X25.866 Y43.275 Z0 F800
G1 X25.726 Y43.056 Z0 F800
G1 X25.555 Y42.837 Z0 F800
G1 X25.347 Y42.615 Z0 F800
G1 X25.227 Y42.488 Z0 F800
G1 X25.092 Y42.336 Z0 F800
G1 X24.945 Y42.162 Z0 F800
G1 X24.787 Y41.968 Z0 F800
G1 X24.444 Y41.532 Z0 F800
G1 X24.073 Y41.048 Z0 F800
G1 X23.298 Y40.024 Z0 F800
G1 X22.554 Y39.066 Z0 F800
G1 X22.222 Y38.665 Z0 F800
G1 X21.932 Y38.344 Z0 F800
G1 X21.806 Y38.22 Z0 F800
G1 X21.696 Y38.124 Z0 F800
G1 X21.601 Y38.059 Z0 F800
G1 X21.525 Y38.028 Z0 F800
G1 X21.467 Y38.032 Z0 F800
G1 X21.43 Y38.075 Z0 F800
G1 X21.416 Y38.159 Z0 F800
G1 X21.424 Y38.287 Z0 F800
G1 X21.458 Y38.462 Z0 F800
G1 X21.518 Y38.686 Z0 F800
G1 X21.606 Y38.962 Z0 F800
G1 X21.723 Y39.292 Z0 F800
G1 X21.965 Y39.965 Z0 F800
G1 X22.168 Y40.556 Z0 F800
G1 X22.34 Y41.074 Z0 F800
G1 X22.489 Y41.529 Z0 F800
G1 X22.623 Y41.932 Z0 F800
G1 X22.751 Y42.29 Z0 F800
G1 X22.88 Y42.616 Z0 F800
G1 X23.019 Y42.917 Z0 F800
G1 X23.176 Y43.204 Z0 F800
G1 X23.358 Y43.487 Z0 F800
G1 X23.574 Y43.775 Z0 F800
G1 X23.833 Y44.078 Z0 F800
G1 X24.141 Y44.406 Z0 F800
G1 X24.508 Y44.768 Z0 F800
G1 X24.941 Y45.175 Z0 F800
G1 X25.448 Y45.635 Z0 F800
G1 X26.008 Y46.16 Z0 F800
G1 X26.591 Y46.746 Z0 F800
G1 X27.2 Y47.384 Z0 F800
G1 X27.835 Y48.064 Z0 F800
G1 X28.496 Y48.778 Z0 F800
G1 X29.184 Y49.515 Z0 F800
G1 X29.901 Y50.266 Z0 F800
G1 X30.646 Y51.022 Z0 F800
G1 X31.421 Y51.773 Z0 F800
G1 X32.226 Y52.51 Z0 F800
G1 X33.061 Y53.223 Z0 F800
G1 X33.929 Y53.904 Z0 F800
G1 X34.829 Y54.542 Z0 F800
G1 X35.762 Y55.128 Z0 F800
G1 X36.73 Y55.652 Z0 F800
G1 X37.731 Y56.106 Z0 F800
G1 X38.223 Y56.308 Z0 F800
G1 X38.681 Y56.499 Z0 F800
G1 X39.107 Y56.68 Z0 F800
G1 X39.87 Y57.009 Z0 F800
G1 X41.352 Y57.659 Z0 F800
G1 X41.814 Y57.855 Z0 F800
G1 X42.226 Y58.016 Z0 F800
G1 X42.602 Y58.145 Z0 F800
G1 X42.958 Y58.243 Z0 F800
G1 X43.309 Y58.313 Z0 F800
G1 X43.671 Y58.355 Z0 F800
G1 X44.06 Y58.372 Z0 F800
G1 X44.491 Y58.365 Z0 F800
G1 X44.979 Y58.336 Z0 F800
G1 X45.54 Y58.288 Z0 F800
G1 X46.189 Y58.221 Z0 F800
G1 X46.849 Y58.141 Z0 F800
G1 X47.438 Y58.055 Z0 F800
G1 X47.962 Y57.962 Z0 F800
G1 X48.427 Y57.862 Z0 F800
G1 X48.84 Y57.755 Z0 F800
G1 X49.206 Y57.64 Z0 F800
G1 X49.533 Y57.519 Z0 F800
G1 X49.826 Y57.39 Z0 F800
G1 X50.337 Y57.111 Z0 F800
G1 X50.79 Y56.805 Z0 F800
G1 X51.236 Y56.47 Z0 F800
G1 X51.726 Y56.106 Z0 F800
G1 X52.034 Y55.898 Z0 F800
G1 X52.416 Y55.659 Z0 F800
G1 X52.852 Y55.401 Z0 F800
G1 X53.32 Y55.134 Z0 F800
G1 X53.8 Y54.871 Z0 F800
G1 X54.273 Y54.623 Z0 F800
G1 X54.717 Y54.402 Z0 F800
G1 X55.112 Y54.218 Z0 F800
G1 X55.284 Y54.145 Z0 F800
G1 X55.437 Y54.085 Z0 F800
G1 X55.567 Y54.04 Z0 F800
G1 X55.672 Y54.012 Z0 F800
G1 X55.749 Y54.002 Z0 F800
G1 X55.796 Y54.012 Z0 F800
G1 X55.811 Y54.043 Z0 F800
G1 X55.79 Y54.096 Z0 F800
G1 X55.731 Y54.173 Z0 F800
G1 X55.631 Y54.275 Z0 F800
G1 X55.489 Y54.404 Z0 F800
G1 X55.301 Y54.562 Z0 F800
G1 X55.065 Y54.749 Z0 F800
G1 X54.778 Y54.967 Z0 F800
G1 X54.438 Y55.218 Z0 F800
G1 X54.042 Y55.502 Z0 F800
G1 X52.377 Y56.684 Z0 F800
G1 X50.789 Y57.823 Z0 F800
G1 X49.285 Y58.93 Z0 F800
G1 X47.875 Y60.02 Z0 F800
G1 X47.209 Y60.563 Z0 F800
G1 X46.569 Y61.106 Z0 F800
G1 X45.958 Y61.65 Z0 F800
G1 X45.377 Y62.199 Z0 F800
G1 X44.826 Y62.753 Z0 F800
G1 X44.307 Y63.314 Z0 F800
G1 X43.821 Y63.883 Z0 F800
G1 X43.37 Y64.463 Z0 F800
G1 X42.921 Y65.082 Z0 F800
G1 X42.448 Y65.76 Z0 F800
G1 X41.957 Y66.487 Z0 F800
G1 X41.453 Y67.25 Z0 F800
G1 X40.435 Y68.845 Z0 F800
G1 X39.443 Y70.453 Z0 F800
G1 X38.972 Y71.235 Z0 F800
G1 X38.526 Y71.986 Z0 F800
G1 X38.112 Y72.697 Z0 F800
G1 X37.735 Y73.354 Z0 F800
G1 X37.401 Y73.948 Z0 F800
G1 X37.117 Y74.467 Z0 F800
G1 X36.996 Y74.695 Z0 F800
G1 X36.89 Y74.9 Z0 F800
G1 X36.799 Y75.081 Z0 F800
G1 X36.725 Y75.236 Z0 F800
G1 X36.577 Y75.562 Z0 F800
G1 X36.399 Y75.967 Z0 F800
G1 X36.196 Y76.44 Z0 F800
G1 X34.925 Y79.439 Z0 F800
G1 X34.366 Y80.732 Z0 F800
G1 X33.822 Y81.947 Z0 F800
G1 X33.565 Y82.498 Z0 F800
G1 X33.323 Y82.997 Z0 F800
G1 X33.1 Y83.432 Z0 F800
G1 X32.899 Y83.794 Z0 F800
G1 X32.708 Y84.143 Z0 F800
G1 X32.512 Y84.543 Z0 F800
G1 X32.314 Y84.985 Z0 F800
G1 X32.112 Y85.461 Z0 F800
G1 X31.702 Y86.484 Z0 F800
G1 X31.288 Y87.544 Z0 F800
G1 X30.873 Y88.576 Z0 F800
G1 X30.463 Y89.514 Z0 F800
G1 X30.262 Y89.927 Z0 F800
G1 X30.063 Y90.291 Z0 F800
G1 X29.868 Y90.599 Z0 F800
G1 X29.677 Y90.842 Z0 F800
G1 X29.301 Y91.224 Z0 F800
G1 X28.937 Y91.545 Z0 F800
G1 X28.597 Y91.806 Z0 F800
G1 X28.292 Y92.012 Z0 F800
G1 X28.035 Y92.166 Z0 F800
G1 X27.836 Y92.272 Z0 F800
G1 X27.708 Y92.332 Z0 F800
G1 X27.663 Y92.352 Z0 F800
G0 Z3.5 F500
G0 X24.844 Y95.07 Z3.5 F1300
G1 Z0 F500
G1 X24.548 Y95.251 Z0 F800
G1 X24.35 Y95.368 Z0 F800
G1 X23.878 Y95.628 Z0 F800
G1 X23.384 Y95.863 Z0 F800
G1 X23.16 Y95.948 Z0 F800
G1 X22.966 Y95.999 Z0 F800
G1 X22.816 Y96.007 Z0 F800
G1 X22.72 Y95.962 Z0 F800
G1 X22.697 Y95.917 Z0 F800
G1 X22.692 Y95.855 Z0 F800
G1 X22.707 Y95.776 Z0 F800
G1 X22.744 Y95.677 Z0 F800
G1 X22.803 Y95.559 Z0 F800
G1 X22.886 Y95.419 Z0 F800
G1 X22.996 Y95.256 Z0 F800
G1 X23.132 Y95.07 Z0 F800
G1 X23.685 Y94.344 Z0 F800
G1 X24.155 Y93.731 Z0 F800
G1 X24.699 Y93.033 Z0 F800
G1 X24.995 Y92.657 Z0 F800
G1 X25.633 Y91.863 Z0 F800
G1 X26.325 Y91.024 Z0 F800
G1 X27.063 Y90.158 Z0 F800
G1 X27.839 Y89.281 Z0 F800
G1 X28.646 Y88.408 Z0 F800
G1 X29.476 Y87.556 Z0 F800
G1 X30.322 Y86.742 Z0 F800
G1 X31.174 Y85.981 Z0 F800
G1 X32.027 Y85.289 Z0 F800
G1 X32.873 Y84.683 Z0 F800
G1 X33.29 Y84.417 Z0 F800
G1 X33.703 Y84.179 Z0 F800
G1 X34.109 Y83.971 Z0 F800
G1 X34.51 Y83.794 Z0 F800
G1 X35.294 Y83.483 Z0 F800
G1 X36.063 Y83.191 Z0 F800
G1 X36.817 Y82.921 Z0 F800
G1 X37.557 Y82.674 Z0 F800
G1 X38.283 Y82.45 Z0 F800
G1 X38.996 Y82.251 Z0 F800
G1 X39.697 Y82.077 Z0 F800
G1 X40.387 Y81.931 Z0 F800
G1 X41.066 Y81.813 Z0 F800
G1 X41.735 Y81.725 Z0 F800
G1 X42.395 Y81.668 Z0 F800
G1 X43.047 Y81.642 Z0 F800
G1 X43.691 Y81.649 Z0 F800
G1 X44.328 Y81.691 Z0 F800
G1 X44.959 Y81.767 Z0 F800
G1 X45.585 Y81.881 Z0 F800
G1 X47.307 Y82.247 Z0 F800
G1 X48.296 Y82.459 Z0 F800
G1 X49.161 Y82.649 Z0 F800
G1 X49.907 Y82.819 Z0 F800
G1 X50.236 Y82.898 Z0 F800
G1 X50.537 Y82.972 Z0 F800
G1 X50.809 Y83.042 Z0 F800
G1 X51.054 Y83.109 Z0 F800
G1 X51.271 Y83.172 Z0 F800
G1 X51.461 Y83.233 Z0 F800
G1 X51.626 Y83.29 Z0 F800
G1 X51.996 Y83.401 Z0 F800
G1 X52.453 Y83.497 Z0 F800
G1 X52.925 Y83.561 Z0 F800
G1 X53.337 Y83.58 Z0 F800
G1 X53.498 Y83.567 Z0 F800
G1 X53.618 Y83.537 Z0 F800
G1 X53.685 Y83.488 Z0 F800
G1 X53.693 Y83.418 Z0 F800
G1 X53.63 Y83.325 Z0 F800
G1 X53.489 Y83.206 Z0 F800
G1 X53.386 Y83.137 Z0 F800
G1 X53.26 Y83.061 Z0 F800
G1 X53.11 Y82.978 Z0 F800
G1 X52.934 Y82.888 Z0 F800
G1 X52.563 Y82.714 Z0 F800
G1 X52.203 Y82.566 Z0 F800
G1 X51.854 Y82.442 Z0 F800
G1 X51.517 Y82.337 Z0 F800
G1 X50.876 Y82.169 Z0 F800
G1 X50.279 Y82.032 Z0 F800
G1 X49.724 Y81.895 Z0 F800
G1 X49.211 Y81.727 Z0 F800
G1 X48.737 Y81.497 Z0 F800
G1 X48.303 Y81.176 Z0 F800
G1 X47.546 Y80.415 Z0 F800
G1 X46.856 Y79.616 Z0 F800
G1 X46.497 Y79.19 Z0 F800
G1 X46.108 Y78.741 Z0 F800
G1 X45.675 Y78.263 Z0 F800
G1 X45.182 Y77.753 Z0 F800
G1 X44.617 Y77.174 Z0 F800
G1 X44 Y76.518 Z0 F800
G1 X43.368 Y75.822 Z0 F800
G1 X42.753 Y75.123 Z0 F800
G1 X42.463 Y74.783 Z0 F800
G1 X42.19 Y74.456 Z0 F800
G1 X41.939 Y74.147 Z0 F800
G1 X41.713 Y73.859 Z0 F800
G1 X41.518 Y73.598 Z0 F800
G1 X41.357 Y73.369 Z0 F800
G1 X41.234 Y73.175 Z0 F800
G1 X41.155 Y73.021 Z0 F800
G1 X41.11 Y72.943 Z0 F800
G1 X41.036 Y72.842 Z0 F800
G1 X40.934 Y72.72 Z0 F800
G1 X40.808 Y72.58 Z0 F800
G1 X40.494 Y72.253 Z0 F800
G1 X40.118 Y71.876 Z0 F800
G1 X39.27 Y71.039 Z0 F800
G1 X38.449 Y70.202 Z0 F800
G1 X38.106 Y69.825 Z0 F800
G1 X37.84 Y69.497 Z0 F800
G1 X37.743 Y69.357 Z0 F800
G1 X37.673 Y69.235 Z0 F800
G1 X37.634 Y69.135 Z0 F800
G1 X37.629 Y69.056 Z0 F800
G1 X37.66 Y69.003 Z0 F800
G1 X37.731 Y68.977 Z0 F800
G1 X37.843 Z0 F800
G1 X38.001 Y69.012 Z0 F800
G1 X38.207 Y69.079 Z0 F800
G1 X38.463 Y69.18 Z0 F800
G1 X38.774 Y69.319 Z0 F800
G1 X39.141 Y69.497 Z0 F800
G1 X39.901 Y69.875 Z0 F800
G1 X42.388 Y71.102 Z0 F800
G1 X42.905 Y71.361 Z0 F800
G1 X43.394 Y71.608 Z0 F800
G1 X43.86 Y71.85 Z0 F800
G1 X44.754 Y72.336 Z0 F800
G1 X45.64 Y72.853 Z0 F800
G1 X46.096 Y73.134 Z0 F800
G1 X46.57 Y73.438 Z0 F800
G1 X47.069 Y73.768 Z0 F800
G1 X47.598 Y74.128 Z0 F800
G1 X48.157 Y74.523 Z0 F800
G1 X48.732 Y74.946 Z0 F800
G1 X49.32 Y75.392 Z0 F800
G1 X49.914 Y75.856 Z0 F800
G1 X51.095 Y76.808 Z0 F800
G1 X52.23 Y77.753 Z0 F800
G1 X52.764 Y78.207 Z0 F800
G1 X53.269 Y78.641 Z0 F800
G1 X53.739 Y79.049 Z0 F800
G1 X54.168 Y79.424 Z0 F800
G1 X54.877 Y80.05 Z0 F800
G1 X55.351 Y80.471 Z0 F800
G1 X55.442 Y80.564 Z0 F800
G1 X55.546 Y80.69 Z0 F800
G1 X55.66 Y80.845 Z0 F800
G1 X55.784 Y81.025 Z0 F800
G1 X56.055 Y81.451 Z0 F800
G1 X56.347 Y81.939 Z0 F800
G1 X56.949 Y82.997 Z0 F800
G1 X57.503 Y83.983 Z0 F800
G1 X57.623 Y84.193 Z0 F800
G1 X57.734 Y84.381 Z0 F800
G1 X57.833 Y84.545 Z0 F800
G1 X57.92 Y84.681 Z0 F800
G1 X57.992 Y84.785 Z0 F800
G1 X58.049 Y84.854 Z0 F800
G1 X58.09 Y84.885 Z0 F800
G1 X58.112 Y84.875 Z0 F800
G1 Y84.819 Z0 F800
G1 X58.095 Y84.715 Z0 F800
G1 X58.054 Y84.56 Z0 F800
G1 X57.99 Y84.349 Z0 F800
G1 X57.9 Y84.08 Z0 F800
G1 X57.783 Y83.749 Z0 F800
G1 X57.639 Y83.353 Z0 F800
G1 X57.465 Y82.888 Z0 F800
G1 X57.083 Y81.9 Z0 F800
G1 X56.696 Y80.94 Z0 F800
G1 X56.306 Y80.009 Z0 F800
G1 X55.917 Y79.107 Z0 F800
G1 X55.533 Y78.237 Z0 F800
G1 X55.157 Y77.4 Z0 F800
G1 X54.445 Y75.827 Z0 F800
G1 X54.115 Y75.095 Z0 F800
G1 X53.807 Y74.402 Z0 F800
G1 X53.526 Y73.747 Z0 F800
G1 X53.274 Y73.133 Z0 F800
G1 X53.055 Y72.56 Z0 F800
G1 X52.873 Y72.031 Z0 F800
G1 X52.731 Y71.547 Z0 F800
G1 X52.632 Y71.108 Z0 F800
G1 X52.552 Y70.643 Z0 F800
G1 X52.465 Y70.088 Z0 F800
G1 X52.371 Y69.455 Z0 F800
G1 X52.272 Y68.759 Z0 F800
G1 X52.068 Y67.23 Z0 F800
G1 X51.865 Y65.608 Z0 F800
G1 X51.768 Y64.796 Z0 F800
G1 X51.676 Y64 Z0 F800
G1 X51.591 Y63.235 Z0 F800
G1 X51.514 Y62.514 Z0 F800
G1 X51.447 Y61.85 Z0 F800
G1 X51.392 Y61.256 Z0 F800
G1 X51.35 Y60.747 Z0 F800
G1 X51.323 Y60.335 Z0 F800
G1 X51.315 Y60.141 Z0 F800
G1 X51.309 Y59.92 Z0 F800
G1 X51.306 Y59.673 Z0 F800
G1 Y59.401 Z0 F800
G1 X51.312 Y58.795 Z0 F800
G1 X51.33 Y58.115 Z0 F800
G1 X51.359 Y57.377 Z0 F800
G1 X51.401 Y56.595 Z0 F800
G1 X51.456 Y55.785 Z0 F800
G1 X51.525 Y54.961 Z0 F800
G1 X51.608 Y54.138 Z0 F800
G1 X51.705 Y53.331 Z0 F800
G1 X51.818 Y52.556 Z0 F800
G1 X51.946 Y51.826 Z0 F800
G1 X52.092 Y51.157 Z0 F800
G1 X52.254 Y50.563 Z0 F800
G1 X52.342 Y50.299 Z0 F800
G1 X52.434 Y50.06 Z0 F800
G1 X52.531 Y49.847 Z0 F800
G1 X52.632 Y49.663 Z0 F800
G1 X52.846 Y49.305 Z0 F800
G1 X53.562 Y48.069 Z0 F800
G1 X54.107 Y47.173 Z0 F800
G1 X54.709 Y46.277 Z0 F800
G1 X55.033 Y45.846 Z0 F800
G1 X55.373 Y45.434 Z0 F800
G1 X55.729 Y45.047 Z0 F800
G1 X56.101 Y44.693 Z0 F800
G1 X56.491 Y44.377 Z0 F800
G1 X56.898 Y44.106 Z0 F800
G1 X57.323 Y43.885 Z0 F800
G1 X57.767 Y43.722 Z0 F800
G1 X58 Y43.669 Z0 F800
G1 X58.245 Y43.642 Z0 F800
G1 X58.5 Y43.638 Z0 F800
G1 X58.765 Y43.658 Z0 F800
G1 X59.319 Y43.761 Z0 F800
G1 X59.897 Y43.941 Z0 F800
G1 X60.491 Y44.189 Z0 F800
G1 X61.091 Y44.496 Z0 F800
G1 X61.688 Y44.851 Z0 F800
G1 X62.273 Y45.245 Z0 F800
G1 X62.836 Y45.669 Z0 F800
G1 X63.37 Y46.113 Z0 F800
G1 X63.863 Y46.567 Z0 F800
G1 X64.308 Y47.021 Z0 F800
G1 X64.696 Y47.467 Z0 F800
G1 X65.016 Y47.895 Z0 F800
G1 X65.26 Y48.294 Z0 F800
G1 X65.419 Y48.656 Z0 F800
G1 X65.488 Y48.842 Z0 F800
G1 X65.581 Y49.06 Z0 F800
G1 X65.696 Y49.308 Z0 F800
G1 X65.831 Y49.586 Z0 F800
G1 X66.151 Y50.223 Z0 F800
G1 X66.525 Y50.96 Z0 F800
G1 X66.936 Y51.788 Z0 F800
G1 X67.368 Y52.696 Z0 F800
G1 X67.803 Y53.673 Z0 F800
G1 X68.225 Y54.709 Z0 F800
G1 X68.619 Y55.794 Z0 F800
G1 X68.965 Y56.916 Z0 F800
G1 X69.25 Y58.066 Z0 F800
G1 X69.454 Y59.232 Z0 F800
G1 X69.521 Y59.819 Z0 F800
G1 X69.563 Y60.405 Z0 F800
G1 X69.576 Y60.991 Z0 F800
G1 X69.558 Y61.574 Z0 F800
G1 X69.508 Y62.154 Z0 F800
G1 X69.424 Y62.729 Z0 F800
G1 X69.304 Y63.298 Z0 F800
G1 X69.144 Y63.859 Z0 F800
G1 X68.786 Y64.922 Z0 F800
G1 X68.427 Y65.886 Z0 F800
G1 X68.068 Y66.756 Z0 F800
G1 X67.709 Y67.538 Z0 F800
G1 X67.351 Y68.237 Z0 F800
G1 X66.992 Y68.858 Z0 F800
G1 X66.633 Y69.407 Z0 F800
G1 X66.275 Y69.887 Z0 F800
G1 X65.916 Y70.305 Z0 F800
G1 X65.557 Y70.666 Z0 F800
G1 X65.199 Y70.974 Z0 F800
G1 X64.84 Y71.235 Z0 F800
G1 X64.481 Y71.455 Z0 F800
G1 X64.123 Y71.637 Z0 F800
G1 X63.764 Y71.789 Z0 F800
G1 X63.405 Y71.913 Z0 F800
G1 X63.205 Y71.96 Z0 F800
G1 X62.966 Y71.987 Z0 F800
G1 X62.692 Y71.997 Z0 F800
G1 X62.386 Y71.99 Z0 F800
G1 X61.692 Y71.935 Z0 F800
G1 X60.913 Y71.832 Z0 F800
G1 X59.214 Y71.531 Z0 F800
G1 X57.515 Y71.183 Z0 F800
G1 X56.737 Y71.021 Z0 F800
G1 X56.043 Y70.883 Z0 F800
G1 X55.737 Y70.826 Z0 F800
G1 X55.462 Y70.78 Z0 F800
G1 X55.224 Y70.745 Z0 F800
G1 X55.024 Y70.724 Z0 F800
G1 X54.866 Y70.718 Z0 F800
G1 X54.755 Y70.727 Z0 F800
G1 X54.693 Y70.755 Z0 F800
G1 X54.684 Y70.801 Z0 F800
G1 X54.732 Y70.868 Z0 F800
G1 X54.839 Y70.958 Z0 F800
G1 X55.011 Y71.071 Z0 F800
G1 X55.25 Y71.209 Z0 F800
G1 X56.325 Y71.76 Z0 F800
G1 X57.357 Y72.225 Z0 F800
G1 X58.338 Y72.628 Z0 F800
G1 X59.265 Y72.996 Z0 F800
G1 X60.13 Y73.354 Z0 F800
G1 X60.928 Y73.729 Z0 F800
G1 X61.299 Y73.93 Z0 F800
G1 X61.652 Y74.146 Z0 F800
G1 X61.985 Y74.379 Z0 F800
G1 X62.298 Y74.632 Z0 F800
G1 X62.617 Y74.923 Z0 F800
G1 X62.966 Y75.263 Z0 F800
G1 X63.342 Y75.65 Z0 F800
G1 X63.739 Y76.078 Z0 F800
G1 X64.152 Y76.543 Z0 F800
G1 X64.577 Y77.04 Z0 F800
G1 X65.01 Y77.567 Z0 F800
G1 X65.444 Y78.118 Z0 F800
G1 X66.302 Y79.276 Z0 F800
G1 X67.112 Y80.479 Z0 F800
G1 X67.487 Y81.088 Z0 F800
G1 X67.837 Y81.695 Z0 F800
G1 X68.156 Y82.296 Z0 F800
G1 X68.439 Y82.888 Z0 F800
G1 X68.574 Y83.196 Z0 F800
G1 X68.714 Y83.535 Z0 F800
G1 X68.858 Y83.902 Z0 F800
G1 X69.005 Y84.295 Z0 F800
G1 X69.31 Y85.15 Z0 F800
G1 X69.624 Y86.084 Z0 F800
G1 X69.943 Y87.08 Z0 F800
G1 X70.264 Y88.119 Z0 F800
G1 X70.582 Y89.186 Z0 F800
G1 X70.894 Y90.263 Z0 F800
G1 X71.194 Y91.332 Z0 F800
G1 X71.481 Y92.378 Z0 F800
G1 X71.748 Y93.382 Z0 F800
G1 X71.993 Y94.328 Z0 F800
G1 X72.212 Y95.198 Z0 F800
G1 X72.4 Y95.976 Z0 F800
G1 X72.481 Y96.324 Z0 F800
G1 X72.553 Y96.644 Z0 F800
G1 X72.616 Y96.931 Z0 F800
G1 X72.668 Y97.185 Z0 F800
G1 X72.755 Y97.694 Z0 F800
G1 X72.827 Y98.267 Z0 F800
G1 X72.887 Y98.886 Z0 F800
G1 X72.937 Y99.535 Z0 F800
G1 X73.017 Y100.855 Z0 F800
G1 X73.083 Y102.093 Z0 F800
G1 X73.117 Y102.639 Z0 F800
G1 X73.155 Y103.113 Z0 F800
G1 X73.175 Y103.319 Z0 F800
G1 X73.198 Y103.5 Z0 F800
G1 X73.222 Y103.655 Z0 F800
G1 X73.249 Y103.782 Z0 F800
G1 X73.278 Y103.879 Z0 F800
G1 X73.309 Y103.943 Z0 F800
G1 X73.344 Y103.972 Z0 F800
G1 X73.382 Y103.965 Z0 F800
G1 X73.424 Y103.919 Z0 F800
G1 X73.47 Y103.832 Z0 F800
G1 X73.52 Y103.703 Z0 F800
G1 X73.574 Y103.528 Z0 F800
G1 X73.63 Y103.305 Z0 F800
G1 X73.685 Y103.037 Z0 F800
G1 X73.739 Y102.725 Z0 F800
G1 X73.793 Y102.374 Z0 F800
G1 X73.845 Y101.984 Z0 F800
G1 X73.897 Y101.56 Z0 F800
G1 X73.949 Y101.105 Z0 F800
G1 X74.001 Y100.62 Z0 F800
G1 X74.103 Y99.576 Z0 F800
G1 X74.206 Y98.452 Z0 F800
G1 X74.417 Y96.052 Z0 F800
G1 X74.528 Y94.823 Z0 F800
G1 X74.643 Y93.605 Z0 F800
G1 X74.764 Y92.421 Z0 F800
G1 X74.891 Y91.295 Z0 F800
G1 X74.957 Y90.76 Z0 F800
G1 X75.026 Y90.248 Z0 F800
G1 X75.097 Y89.763 Z0 F800
G1 X75.17 Y89.305 Z0 F800
G1 X75.245 Y88.88 Z0 F800
G1 X75.323 Y88.489 Z0 F800
G1 X75.404 Y88.135 Z0 F800
G1 X75.487 Y87.821 Z0 F800
G1 X75.572 Y87.482 Z0 F800
G1 X75.657 Y87.054 Z0 F800
G1 X75.742 Y86.543 Z0 F800
G1 X75.828 Y85.954 Z0 F800
G1 X75.913 Y85.293 Z0 F800
G1 X76 Y84.564 Z0 F800
G1 X76.086 Y83.774 Z0 F800
G1 X76.173 Y82.929 Z0 F800
G1 X76.261 Y82.032 Z0 F800
G1 X76.349 Y81.091 Z0 F800
G1 X76.438 Y80.111 Z0 F800
G1 X76.528 Y79.096 Z0 F800
G1 X76.897 Y74.808 Z0 F800
G1 X77.088 Y72.603 Z0 F800
G1 X77.285 Y70.416 Z0 F800
G1 X77.385 Y69.343 Z0 F800
G1 X77.487 Y68.291 Z0 F800
G1 X77.591 Y67.266 Z0 F800
G1 X77.696 Y66.272 Z0 F800
G1 X77.803 Y65.316 Z0 F800
G1 X77.912 Y64.403 Z0 F800
G1 X78.023 Y63.538 Z0 F800
G1 X78.136 Y62.727 Z0 F800
G1 X78.251 Y61.976 Z0 F800
G1 X78.368 Y61.29 Z0 F800
G1 X78.487 Y60.674 Z0 F800
G1 X78.608 Y60.134 Z0 F800
G1 X78.841 Y59.163 Z0 F800
G1 X79.051 Y58.252 Z0 F800
G1 X79.24 Y57.397 Z0 F800
G1 X79.411 Y56.597 Z0 F800
G1 X79.566 Y55.849 Z0 F800
G1 X79.968 Y53.891 Z0 F800
G1 X80.088 Y53.327 Z0 F800
G1 X80.207 Y52.803 Z0 F800
G1 X80.326 Y52.316 Z0 F800
G1 X80.449 Y51.865 Z0 F800
G1 X80.577 Y51.447 Z0 F800
G1 X80.714 Y51.06 Z0 F800
G1 X80.863 Y50.701 Z0 F800
G1 X81.025 Y50.367 Z0 F800
G1 X81.192 Y50.064 Z0 F800
G1 X81.354 Y49.794 Z0 F800
G1 X81.51 Y49.555 Z0 F800
G1 X81.659 Y49.346 Z0 F800
G1 X81.8 Y49.165 Z0 F800
G1 X81.933 Y49.01 Z0 F800
G1 X82.056 Y48.879 Z0 F800
G1 X82.17 Y48.769 Z0 F800
G1 X82.365 Y48.608 Z0 F800
G1 X82.511 Y48.513 Z0 F800
G1 X82.604 Y48.466 Z0 F800
G1 X82.636 Y48.454 Z0 F800
G0 Z3.5 F500
G0 X84.75 Y59.127 Z3.5 
G1 Z0 F500
G1 X84.581 Y59.23 Z0 F800
G1 X84.462 Y59.308 Z0 F800
G1 X84.161 Y59.525 Z0 F800
G1 X83.806 Y59.819 Z0 F800
G1 X83.437 Y60.184 Z0 F800
G1 X83.093 Y60.613 Z0 F800
G1 X82.943 Y60.851 Z0 F800
G1 X82.813 Y61.102 Z0 F800
G1 X82.709 Y61.367 Z0 F800
G1 X82.636 Y61.644 Z0 F800
G1 X82.605 Y61.81 Z0 F800
G1 X82.571 Y62.023 Z0 F800
G1 X82.534 Y62.281 Z0 F800
G1 X82.494 Y62.582 Z0 F800
G1 X82.452 Y62.924 Z0 F800
G1 X82.408 Y63.303 Z0 F800
G1 X82.363 Y63.718 Z0 F800
G1 X82.316 Y64.167 Z0 F800
G1 X82.27 Y64.647 Z0 F800
G1 X82.223 Y65.156 Z0 F800
G1 X82.177 Y65.692 Z0 F800
G1 X82.131 Y66.252 Z0 F800
G1 X82.045 Y67.437 Z0 F800
G1 X81.969 Y68.692 Z0 F800
G1 X81.905 Y69.998 Z0 F800
G1 X81.858 Y71.338 Z0 F800
G1 X81.831 Y72.694 Z0 F800
G1 Y74.047 Z0 F800
G1 X81.854 Y75.378 Z0 F800
G1 X81.91 Y76.67 Z0 F800
G1 X82.002 Y77.904 Z0 F800
G1 X82.132 Y79.062 Z0 F800
G1 X82.297 Y80.225 Z0 F800
G1 X82.485 Y81.475 Z0 F800
G1 X82.693 Y82.792 Z0 F800
G1 X82.917 Y84.156 Z0 F800
G1 X83.394 Y86.944 Z0 F800
G1 X83.882 Y89.684 Z0 F800
G1 X84.119 Y90.985 Z0 F800
G1 X84.345 Y92.215 Z0 F800
G1 X84.558 Y93.354 Z0 F800
G1 X84.752 Y94.381 Z0 F800
G1 X85.066 Y96.023 Z0 F800
G1 X85.253 Y96.983 Z0 F800
G1 X85.298 Y97.319 Z0 F800
G1 X85.32 Y97.748 Z0 F800
G1 X85.324 Y98.247 Z0 F800
G1 X85.315 Y98.795 Z0 F800
G1 X85.269 Y99.956 Z0 F800
G1 X85.216 Y101.061 Z0 F800
G1 X85.196 Y101.539 Z0 F800
G1 X85.185 Y101.939 Z0 F800
G1 Y102.103 Z0 F800
G1 X85.189 Y102.24 Z0 F800
G1 X85.198 Y102.346 Z0 F800
G1 X85.211 Y102.42 Z0 F800
G1 X85.23 Y102.459 Z0 F800
G1 X85.254 Z0 F800
G1 X85.285 Y102.419 Z0 F800
G1 X85.324 Y102.335 Z0 F800
G1 X85.369 Y102.205 Z0 F800
G1 X85.423 Y102.027 Z0 F800
G1 X85.485 Y101.798 Z0 F800
G1 X85.555 Y101.514 Z0 F800
G1 X85.621 Y101.176 Z0 F800
G1 X85.668 Y100.788 Z0 F800
G1 X85.697 Y100.354 Z0 F800
G1 X85.71 Y99.876 Z0 F800
G1 Y99.36 Z0 F800
G1 X85.691 Y98.807 Z0 F800
G1 X85.662 Y98.222 Z0 F800
G1 X85.621 Y97.608 Z0 F800
G1 X85.51 Y96.308 Z0 F800
G1 X85.368 Y94.936 Z0 F800
G1 X85.203 Y93.519 Z0 F800
G1 X85.027 Y92.088 Z0 F800
G1 X84.848 Y90.669 Z0 F800
G1 X84.676 Y89.291 Z0 F800
G1 X84.596 Y88.627 Z0 F800
G1 X84.522 Y87.984 Z0 F800
G1 X84.454 Y87.365 Z0 F800
G1 X84.394 Y86.775 Z0 F800
G1 X84.344 Y86.216 Z0 F800
G1 X84.303 Y85.693 Z0 F800
G1 X84.275 Y85.208 Z0 F800
G1 X84.259 Y84.766 Z0 F800
G1 Y84.37 Z0 F800
G1 X84.27 Y84.023 Z0 F800
G1 X84.3 Y83.729 Z0 F800
G1 X84.438 Y83.033 Z0 F800
G1 X84.493 Y82.497 Z0 F800
G1 X84.528 Y81.898 Z0 F800
G1 X84.555 Y81.252 Z0 F800
G1 X84.589 Y80.572 Z0 F800
G1 X84.645 Y79.874 Z0 F800
G1 X84.735 Y79.173 Z0 F800
G1 X84.876 Y78.483 Z0 F800
G1 X85.08 Y77.819 Z0 F800
G1 X85.362 Y77.195 Z0 F800
G1 X85.537 Y76.903 Z0 F800
G1 X85.736 Y76.627 Z0 F800
G1 X85.962 Y76.369 Z0 F800
G1 X86.216 Y76.129 Z0 F800
G1 X86.5 Y75.911 Z0 F800
G1 X86.817 Y75.717 Z0 F800
G1 X87.166 Y75.547 Z0 F800
G1 X87.552 Y75.403 Z0 F800
G1 X87.974 Y75.289 Z0 F800
G1 X88.435 Y75.205 Z0 F800
G1 X88.937 Y75.153 Z0 F800
G1 X89.482 Y75.135 Z0 F800
G1 X90.568 Y75.14 Z0 F800
G1 X91.567 Y75.153 Z0 F800
G1 X92.482 Y75.176 Z0 F800
G1 X93.322 Y75.206 Z0 F800
G1 X94.091 Y75.244 Z0 F800
G1 X94.797 Y75.289 Z0 F800
G1 X95.444 Y75.341 Z0 F800
G1 X96.039 Y75.399 Z0 F800
G1 X96.588 Y75.464 Z0 F800
G1 X97.097 Y75.533 Z0 F800
G1 X97.572 Y75.608 Z0 F800
G1 X98.02 Y75.687 Z0 F800
G1 X98.855 Y75.858 Z0 F800
G1 X99.651 Y76.041 Z0 F800
G1 X100.425 Y76.233 Z0 F800
G1 X101.145 Y76.402 Z0 F800
G1 X101.477 Y76.465 Z0 F800
G1 X101.785 Y76.507 Z0 F800
G1 X102.067 Y76.523 Z0 F800
G1 X102.319 Y76.507 Z0 F800
G1 X102.538 Y76.455 Z0 F800
G1 X102.721 Y76.361 Z0 F800
G1 X102.864 Y76.22 Z0 F800
G1 X102.964 Y76.027 Z0 F800
G1 X103.018 Y75.777 Z0 F800
G1 X103.023 Y75.465 Z0 F800
G1 X102.976 Y75.085 Z0 F800
G1 X102.873 Y74.632 Z0 F800
G1 X102.791 Y74.37 Z0 F800
G1 X102.679 Y74.077 Z0 F800
G1 X102.537 Y73.755 Z0 F800
G1 X102.368 Y73.405 Z0 F800
G1 X102.173 Y73.029 Z0 F800
G1 X101.953 Y72.63 Z0 F800
G1 X101.709 Y72.208 Z0 F800
G1 X101.443 Y71.765 Z0 F800
G1 X100.85 Y70.827 Z0 F800
G1 X100.184 Y69.829 Z0 F800
G1 X99.458 Y68.785 Z0 F800
G1 X98.682 Y67.71 Z0 F800
G1 X97.024 Y65.525 Z0 F800
G1 X95.298 Y63.39 Z0 F800
G1 X94.438 Y62.377 Z0 F800
G1 X93.594 Y61.42 Z0 F800
G1 X92.777 Y60.533 Z0 F800
G1 X91.999 Y59.731 Z0 F800
G1 X91.617 Y59.367 Z0 F800
G1 X91.227 Y59.03 Z0 F800
G1 X90.829 Y58.719 Z0 F800
G1 X90.425 Y58.432 Z0 F800
G1 X89.604 Y57.931 Z0 F800
G1 X88.771 Y57.517 Z0 F800
G1 X87.936 Y57.185 Z0 F800
G1 X87.107 Y56.926 Z0 F800
G1 X86.294 Y56.732 Z0 F800
G1 X85.505 Y56.597 Z0 F800
G1 X84.749 Y56.513 Z0 F800
G1 X84.035 Y56.471 Z0 F800
G1 X83.372 Y56.466 Z0 F800
G1 X82.768 Y56.489 Z0 F800
G1 X82.232 Y56.532 Z0 F800
G1 X81.774 Y56.588 Z0 F800
G1 X81.402 Y56.65 Z0 F800
G1 X81.125 Y56.71 Z0 F800
G1 X80.906 Y56.778 Z0 F800
G1 X80.701 Y56.868 Z0 F800
G1 X80.512 Y56.978 Z0 F800
G1 X80.339 Y57.107 Z0 F800
G1 X80.042 Y57.411 Z0 F800
G1 X79.817 Y57.768 Z0 F800
G1 X79.666 Y58.162 Z0 F800
G1 X79.596 Y58.579 Z0 F800
G1 X79.611 Y59.006 Z0 F800
G1 X79.716 Y59.429 Z0 F800
G1 X79.866 Y59.829 Z0 F800
G1 X80.012 Y60.195 Z0 F800
G1 X80.148 Y60.521 Z0 F800
G1 X80.27 Y60.801 Z0 F800
G1 X80.373 Y61.028 Z0 F800
G1 X80.452 Y61.199 Z0 F800
G1 X80.521 Y61.342 Z0 F800
G0 Z3.5 F500
G0 X66.224 Y63.657 Z3.5 
G1 Z0 F500
G1 X65.757 Y63.063 Z0 F800
G1 X65.242 Y62.415 Z0 F800
G1 X64.601 Y61.619 Z0 F800
G1 X63.879 Y60.737 Z0 F800
G1 X63.124 Y59.835 Z0 F800
G1 X62.747 Y59.395 Z0 F800
G1 X62.38 Y58.975 Z0 F800
G1 X62.027 Y58.58 Z0 F800
G1 X61.694 Y58.221 Z0 F800
G1 X61.37 Y57.911 Z0 F800
G1 X61.041 Y57.659 Z0 F800
G1 X60.704 Y57.461 Z0 F800
G1 X60.358 Y57.314 Z0 F800
G1 X60.002 Y57.215 Z0 F800
G1 X59.635 Y57.159 Z0 F800
G1 X59.256 Y57.143 Z0 F800
G1 X58.862 Y57.163 Z0 F800
G1 X58.453 Y57.217 Z0 F800
G1 X58.027 Y57.3 Z0 F800
G1 X57.584 Y57.409 Z0 F800
G1 X57.121 Y57.541 Z0 F800
G1 X56.637 Y57.691 Z0 F800
G1 X56.131 Y57.857 Z0 F800
G1 X55.049 Y58.221 Z0 F800
G1 X54.782 Y58.32 Z0 F800
G1 X54.545 Y58.428 Z0 F800
G1 X54.339 Y58.544 Z0 F800
G1 X54.16 Y58.668 Z0 F800
G1 X53.881 Y58.939 Z0 F800
G1 X53.697 Y59.235 Z0 F800
G1 X53.597 Y59.553 Z0 F800
G1 X53.567 Y59.89 Z0 F800
G1 X53.598 Y60.239 Z0 F800
G1 X53.677 Y60.599 Z0 F800
G1 X53.933 Y61.332 Z0 F800
G1 X54.242 Y62.058 Z0 F800
G1 X54.387 Y62.407 Z0 F800
G1 X54.51 Y62.742 Z0 F800
G1 X54.601 Y63.06 Z0 F800
G1 X54.646 Y63.355 Z0 F800
G1 X54.704 Y63.666 Z0 F800
G1 X54.834 Y64.026 Z0 F800
G1 X55.028 Y64.429 Z0 F800
G1 X55.28 Y64.867 Z0 F800
G1 X55.58 Y65.335 Z0 F800
G1 X55.922 Y65.824 Z0 F800
G1 X56.297 Y66.329 Z0 F800
G1 X56.697 Y66.841 Z0 F800
G1 X57.544 Y67.863 Z0 F800
G1 X58.398 Y68.835 Z0 F800
G1 X58.809 Y69.284 Z0 F800
G1 X59.198 Y69.7 Z0 F800
G1 X59.558 Y70.075 Z0 F800
G1 X59.881 Y70.403 Z0 F800
G1 X60.19 Y70.68 Z0 F800
G1 X60.511 Y70.906 Z0 F800
G1 X60.842 Y71.084 Z0 F800
G1 X61.181 Y71.216 Z0 F800
G1 X61.526 Y71.304 Z0 F800
G1 X61.874 Y71.35 Z0 F800
G1 X62.225 Y71.355 Z0 F800
G1 X62.575 Y71.322 Z0 F800
G1 X62.922 Y71.252 Z0 F800
G1 X63.266 Y71.147 Z0 F800
G1 X63.603 Y71.01 Z0 F800
G1 X63.931 Y70.842 Z0 F800
G1 X64.248 Y70.645 Z0 F800
G1 X64.553 Y70.421 Z0 F800
G1 X64.844 Y70.172 Z0 F800
G1 X65.117 Y69.9 Z0 F800
G1 X65.345 Y69.623 Z0 F800
G1 X65.504 Y69.358 Z0 F800
G1 X65.603 Y69.107 Z0 F800
G1 X65.649 Y68.869 Z0 F800
G1 Y68.647 Z0 F800
G1 X65.609 Y68.44 Z0 F800
G1 X65.538 Y68.249 Z0 F800
G1 X65.444 Y68.075 Z0 F800
G1 X65.213 Y67.781 Z0 F800
G1 X64.975 Y67.564 Z0 F800
G1 X64.872 Y67.486 Z0 F800
G1 X64.789 Y67.429 Z0 F800
G1 X64.714 Y67.383 Z0 F800
G0 Z3.5 F500
G0 X64.211 Y68.591 Z3.5 
G1 Z0 F500
G1 X64.344 Y68.678 Z0 F800
G1 X64.713 Y68.913 Z0 F800
G1 X64.97 Y69.073 Z0 F800
G1 X65.267 Y69.255 Z0 F800
G1 X65.6 Y69.452 Z0 F800
G1 X65.96 Y69.661 Z0 F800
G1 X66.743 Y70.09 Z0 F800
G1 X67.566 Y70.502 Z0 F800
G1 X67.979 Y70.689 Z0 F800
G1 X68.383 Y70.855 Z0 F800
G1 X68.774 Y70.997 Z0 F800
G1 X69.144 Y71.108 Z0 F800
G1 X69.528 Y71.218 Z0 F800
G1 X69.96 Y71.358 Z0 F800
G1 X70.435 Y71.522 Z0 F800
G1 X70.95 Y71.709 Z0 F800
G1 X71.501 Y71.913 Z0 F800
G1 X72.691 Y72.359 Z0 F800
G1 X73.323 Y72.593 Z0 F800
G1 X74.638 Y73.064 Z0 F800
G1 X75.997 Y73.515 Z0 F800
G1 X77.365 Y73.913 Z0 F800
G1 X78.709 Y74.229 Z0 F800
G1 X79.343 Y74.358 Z0 F800
G1 X79.924 Y74.479 Z0 F800
G1 X80.454 Y74.593 Z0 F800
G1 X80.935 Y74.699 Z0 F800
G1 X81.368 Y74.798 Z0 F800
G1 X81.755 Y74.889 Z0 F800
G1 X82.097 Y74.972 Z0 F800
G1 X82.396 Y75.047 Z0 F800
G1 X82.873 Y75.172 Z0 F800
G1 X83.197 Y75.263 Z0 F800
G1 X83.441 Y75.337 Z0 F800
G0 Z3.5 F500
G0 X105.591 Y75.739 Z3.5 
G1 Z0 F500
G1 X105.587 Y75.657 Z0 F800
G1 X105.578 Y75.559 Z0 F800
G1 X105.56 Y75.425 Z0 F800
G1 X105.53 Y75.257 Z0 F800
G1 X105.485 Y75.06 Z0 F800
G1 X105.423 Y74.834 Z0 F800
G1 X105.339 Y74.581 Z0 F800
G1 X105.233 Y74.306 Z0 F800
G1 X105.1 Y74.009 Z0 F800
G1 X104.937 Y73.693 Z0 F800
G1 X104.742 Y73.361 Z0 F800
G1 X104.511 Y73.014 Z0 F800
G1 X104.242 Y72.656 Z0 F800
G1 X103.932 Y72.288 Z0 F800
G1 X103.577 Y71.913 Z0 F800
G1 X103.223 Y71.548 Z0 F800
G1 X102.911 Y71.204 Z0 F800
G1 X102.632 Y70.877 Z0 F800
G1 X102.379 Y70.562 Z0 F800
G1 X101.917 Y69.951 Z0 F800
G1 X101.463 Y69.333 Z0 F800
G1 X101.219 Y69.011 Z0 F800
G1 X100.952 Y68.674 Z0 F800
G1 X100.656 Y68.316 Z0 F800
G1 X100.321 Y67.935 Z0 F800
G1 X99.94 Y67.524 Z0 F800
G1 X99.506 Y67.08 Z0 F800
G1 X99.009 Y66.598 Z0 F800
G1 X98.443 Y66.074 Z0 F800
G1 X98.153 Y65.808 Z0 F800
G1 X97.885 Y65.559 Z0 F800
G1 X97.639 Y65.325 Z0 F800
G1 X97.412 Y65.104 Z0 F800
G1 X97.012 Y64.701 Z0 F800
G1 X96.673 Y64.34 Z0 F800
G1 X96.383 Y64.014 Z0 F800
G1 X96.13 Y63.713 Z0 F800
G1 X95.901 Y63.429 Z0 F800
G1 X95.473 Y62.879 Z0 F800
G1 X95.248 Y62.595 Z0 F800
G1 X95.001 Y62.294 Z0 F800
G1 X94.719 Y61.968 Z0 F800
G1 X94.391 Y61.607 Z0 F800
G1 X94.003 Y61.204 Z0 F800
G1 X93.784 Y60.983 Z0 F800
G1 X93.546 Y60.749 Z0 F800
G1 X93.287 Y60.5 Z0 F800
G1 X93.006 Y60.234 Z0 F800
G1 X92.448 Y59.694 Z0 F800
G1 X91.941 Y59.165 Z0 F800
G1 X91.479 Y58.647 Z0 F800
G1 X91.057 Y58.137 Z0 F800
G1 X90.307 Y57.135 Z0 F800
G1 X89.646 Y56.144 Z0 F800
G1 X89.027 Y55.148 Z0 F800
G1 X88.404 Y54.132 Z0 F800
G1 X88.077 Y53.612 Z0 F800
G1 X87.732 Y53.08 Z0 F800
G1 X87.364 Y52.537 Z0 F800
G1 X86.776 Y51.714 Z0 F800
G1 X86.625 Y51.485 Z0 F800
G1 X86.509 Y51.291 Z0 F800
G1 X86.428 Y51.129 Z0 F800
G1 X86.38 Y50.998 Z0 F800
G1 X86.364 Y50.896 Z0 F800
G1 X86.379 Y50.822 Z0 F800
G1 X86.424 Y50.773 Z0 F800
G1 X86.497 Y50.748 Z0 F800
G1 X86.597 Z0 F800
G1 X86.723 Y50.763 Z0 F800
G1 X86.873 Y50.8 Z0 F800
G1 X87.242 Y50.921 Z0 F800
G1 X87.695 Y51.097 Z0 F800
G1 X88.809 Y51.555 Z0 F800
G1 X89.451 Y51.81 Z0 F800
G1 X90.136 Y52.063 Z0 F800
G1 X90.854 Y52.301 Z0 F800
G1 X91.596 Y52.51 Z0 F800
G1 X92.35 Y52.675 Z0 F800
G1 X93.107 Y52.784 Z0 F800
G1 X93.882 Y52.886 Z0 F800
G1 X94.693 Y53.037 Z0 F800
G1 X95.534 Y53.234 Z0 F800
G1 X96.398 Y53.471 Z0 F800
G1 X97.278 Y53.744 Z0 F800
G1 X98.168 Y54.049 Z0 F800
G1 X99.062 Y54.381 Z0 F800
G1 X99.953 Y54.734 Z0 F800
G1 X101.7 Y55.491 Z0 F800
G1 X103.357 Y56.281 Z0 F800
G1 X104.136 Y56.677 Z0 F800
G1 X104.873 Y57.069 Z0 F800
G1 X105.562 Y57.45 Z0 F800
G1 X106.195 Y57.818 Z0 F800
G1 X106.811 Y58.194 Z0 F800
G1 X107.452 Y58.606 Z0 F800
G1 X108.117 Y59.054 Z0 F800
G1 X108.808 Y59.539 Z0 F800
G1 X109.526 Y60.06 Z0 F800
G1 X110.271 Y60.618 Z0 F800
G1 X111.044 Y61.213 Z0 F800
G1 X111.846 Y61.845 Z0 F800
G1 X112.677 Y62.515 Z0 F800
G1 X113.539 Y63.224 Z0 F800
G1 X114.431 Y63.97 Z0 F800
G1 X115.356 Y64.755 Z0 F800
G1 X116.312 Y65.58 Z0 F800
G1 X117.302 Y66.443 Z0 F800
G1 X118.326 Y67.346 Z0 F800
G1 X119.385 Y68.289 Z0 F800
G1 X120.425 Y69.251 Z0 F800
G1 X121.392 Y70.209 Z0 F800
G1 X122.284 Y71.161 Z0 F800
G1 X123.099 Y72.101 Z0 F800
G1 X123.834 Y73.026 Z0 F800
G1 X124.487 Y73.933 Z0 F800
G1 X125.056 Y74.817 Z0 F800
G1 X125.539 Y75.676 Z0 F800
G1 X125.933 Y76.506 Z0 F800
G1 X126.237 Y77.302 Z0 F800
G1 X126.354 Y77.687 Z0 F800
G1 X126.447 Y78.061 Z0 F800
G1 X126.517 Y78.426 Z0 F800
G1 X126.563 Y78.78 Z0 F800
G1 X126.584 Y79.123 Z0 F800
G1 X126.581 Y79.455 Z0 F800
G1 X126.553 Y79.774 Z0 F800
G1 X126.5 Y80.081 Z0 F800
G1 X126.421 Y80.376 Z0 F800
G1 X126.317 Y80.656 Z0 F800
G1 X126.186 Y80.923 Z0 F800
G1 X126.03 Y81.176 Z0 F800
G1 X125.661 Y81.624 Z0 F800
G1 X125.239 Y81.992 Z0 F800
G1 X124.768 Y82.286 Z0 F800
G1 X124.254 Y82.512 Z0 F800
G1 X123.701 Y82.677 Z0 F800
G1 X123.115 Y82.788 Z0 F800
G1 X122.501 Y82.852 Z0 F800
G1 X121.864 Y82.875 Z0 F800
G1 X120.542 Y82.825 Z0 F800
G1 X119.191 Y82.691 Z0 F800
G1 X117.852 Y82.526 Z0 F800
G1 X116.565 Y82.384 Z0 F800
G1 X116.242 Y82.347 Z0 F800
G1 X115.894 Y82.291 Z0 F800
G1 X115.524 Y82.218 Z0 F800
G1 X115.132 Y82.129 Z0 F800
G1 X114.285 Y81.905 Z0 F800
G1 X113.363 Y81.626 Z0 F800
G1 X112.372 Y81.299 Z0 F800
G1 X111.32 Y80.929 Z0 F800
G1 X110.215 Y80.526 Z0 F800
G1 X109.065 Y80.094 Z0 F800
G1 X106.659 Y79.173 Z0 F800
G1 X104.163 Y78.222 Z0 F800
G1 X101.639 Y77.294 Z0 F800
G1 X99.147 Y76.444 Z0 F800
G1 X98.558 Y76.262 Z0 F800
G1 X98.015 Y76.111 Z0 F800
G1 X97.516 Y75.989 Z0 F800
G1 X97.059 Y75.896 Z0 F800
G1 X96.643 Y75.83 Z0 F800
G1 X96.265 Y75.79 Z0 F800
G1 X95.924 Y75.775 Z0 F800
G1 X95.617 Y75.782 Z0 F800
G1 X95.343 Y75.811 Z0 F800
G1 X95.099 Y75.86 Z0 F800
G1 X94.884 Y75.928 Z0 F800
G1 X94.695 Y76.014 Z0 F800
G1 X94.388 Y76.233 Z0 F800
G1 X94.164 Y76.507 Z0 F800
G1 X93.767 Y77.931 Z0 F800
G1 X93.409 Y79.364 Z0 F800
G1 X93.262 Y79.671 Z0 F800
G1 X93.165 Y79.993 Z0 F800
G1 X93.117 Y80.333 Z0 F800
G1 Y80.696 Z0 F800
G1 X93.174 Y81.087 Z0 F800
G1 X93.281 Y81.511 Z0 F800
G1 X93.443 Y81.971 Z0 F800
G1 X93.66 Y82.472 Z0 F800
G1 X93.934 Y83.02 Z0 F800
G1 X94.266 Y83.618 Z0 F800
G1 X94.657 Y84.272 Z0 F800
G1 X95.108 Y84.985 Z0 F800
G1 X95.62 Y85.762 Z0 F800
G1 X96.195 Y86.608 Z0 F800
G1 X96.506 Y87.059 Z0 F800
G1 X96.833 Y87.528 Z0 F800
G1 X97.537 Y88.526 Z0 F800
G1 X97.905 Y89.019 Z0 F800
G1 X98.274 Y89.462 Z0 F800
G1 X98.643 Y89.857 Z0 F800
G1 X99.01 Y90.207 Z0 F800
G1 X99.375 Y90.513 Z0 F800
G1 X99.738 Y90.777 Z0 F800
G1 X100.097 Y91.003 Z0 F800
G1 X100.452 Y91.192 Z0 F800
G1 X100.801 Y91.347 Z0 F800
G1 X101.145 Y91.47 Z0 F800
G1 X101.481 Y91.563 Z0 F800
G1 X101.811 Y91.628 Z0 F800
G1 X102.443 Y91.686 Z0 F800
G1 X103.036 Y91.66 Z0 F800
G1 X103.583 Y91.569 Z0 F800
G1 X104.078 Y91.431 Z0 F800
G1 X104.514 Y91.265 Z0 F800
G1 X104.885 Y91.089 Z0 F800
G1 X105.184 Y90.92 Z0 F800
G1 X105.406 Y90.776 Z0 F800
G1 X105.486 Y90.72 Z0 F800
G1 X105.591 Y90.64 Z0 F800
G0 Z3.5 F500
G0 X106.296 Y85.606 Z3.5 
G1 Z0 F500
G1 X105.941 Y85.389 Z0 F800
G1 X105.595 Y85.194 Z0 F800
G1 X105.26 Y85.023 Z0 F800
G1 X104.937 Y84.878 Z0 F800
G1 X104.628 Y84.762 Z0 F800
G1 X104.335 Y84.677 Z0 F800
G1 X104.06 Y84.626 Z0 F800
G1 X103.804 Y84.612 Z0 F800
G1 X103.57 Y84.636 Z0 F800
G1 X103.358 Y84.703 Z0 F800
G1 X103.171 Y84.813 Z0 F800
G1 X103.011 Y84.969 Z0 F800
G1 X102.879 Y85.174 Z0 F800
G1 X102.778 Y85.431 Z0 F800
G1 X102.708 Y85.742 Z0 F800
G1 X102.671 Y86.11 Z0 F800
G1 X102.636 Y86.89 Z0 F800
G1 X102.618 Y87.65 Z0 F800
G1 X102.632 Y88.398 Z0 F800
G1 X102.697 Y89.143 Z0 F800
G1 X102.827 Y89.892 Z0 F800
G1 X103.039 Y90.654 Z0 F800
G1 X103.182 Y91.043 Z0 F800
G1 X103.351 Y91.438 Z0 F800
G1 X103.55 Y91.84 Z0 F800
G1 X103.779 Y92.251 Z0 F800
G1 X104.269 Y93.061 Z0 F800
G1 X104.759 Y93.823 Z0 F800
G1 X105.246 Y94.525 Z0 F800
G1 X105.73 Y95.158 Z0 F800
G1 X106.208 Y95.711 Z0 F800
G1 X106.681 Y96.173 Z0 F800
G1 X106.915 Y96.367 Z0 F800
G1 X107.147 Y96.533 Z0 F800
G1 X107.377 Y96.672 Z0 F800
G1 X107.605 Y96.782 Z0 F800
G1 X108.034 Y96.931 Z0 F800
G1 X108.413 Y97.01 Z0 F800
G1 X108.741 Y97.035 Z0 F800
G1 X109.014 Y97.021 Z0 F800
G1 X109.231 Y96.983 Z0 F800
G1 X109.389 Y96.938 Z0 F800
G1 X109.485 Y96.899 Z0 F800
G1 X109.518 Y96.883 Z0 F800
G0 Z3.5 F500
G0 X105.893 Y80.572 Z3.5 
G1 Z0 F500
G1 X107.504 Y79.263 Z0 F800
G1 X107.778 Y79.026 Z0 F800
G1 X108 Y78.804 Z0 F800
G1 X108.173 Y78.591 Z0 F800
G1 X108.3 Y78.384 Z0 F800
G1 X108.386 Y78.177 Z0 F800
G1 X108.435 Y77.966 Z0 F800
G1 X108.45 Y77.746 Z0 F800
G1 X108.435 Y77.514 Z0 F800
G1 X108.395 Y77.263 Z0 F800
G1 X108.332 Y76.991 Z0 F800
G1 X108.251 Y76.692 Z0 F800
G1 X108.049 Y75.994 Z0 F800
G1 X107.936 Y75.586 Z0 F800
G1 X107.82 Y75.134 Z0 F800
G1 X107.705 Y74.632 Z0 F800
G1 X107.595 Y74.132 Z0 F800
G1 X107.49 Y73.684 Z0 F800
G1 X107.387 Y73.278 Z0 F800
G1 X107.284 Y72.903 Z0 F800
G1 X107.068 Y72.209 Z0 F800
G1 X106.824 Y71.523 Z0 F800
G1 X106.686 Y71.159 Z0 F800
G1 X105.967 Y69.326 Z0 F800
G1 X105.734 Y68.725 Z0 F800
G1 X105.476 Y68.047 Z0 F800
G1 X105.188 Y67.282 Z0 F800
G1 X104.918 Y66.5 Z0 F800
G1 X104.709 Y65.775 Z0 F800
G1 X104.553 Y65.108 Z0 F800
G1 X104.446 Y64.496 Z0 F800
G1 X104.381 Y63.939 Z0 F800
G1 X104.353 Y63.436 Z0 F800
G1 X104.356 Y62.986 Z0 F800
G1 X104.383 Y62.588 Z0 F800
G1 X104.429 Y62.24 Z0 F800
G1 X104.488 Y61.942 Z0 F800
G1 X104.555 Y61.693 Z0 F800
G1 X104.622 Y61.491 Z0 F800
G1 X104.685 Y61.336 Z0 F800
G1 X104.737 Y61.227 Z0 F800
G1 X104.786 Y61.14 Z0 F800
G0 Z3.5 F500
G0 X60.183 Y88.325 Z3.5 
G1 Z0 F500
G1 X60.147 Y88.34 Z0 F800
G1 X60.083 Y88.378 Z0 F800
G1 X59.97 Y88.45 Z0 F800
G1 X59.795 Y88.57 Z0 F800
G1 X59.546 Y88.749 Z0 F800
G1 X59.21 Y88.999 Z0 F800
G1 X58.774 Y89.331 Z0 F800
G1 X58.544 Y89.566 Z0 F800
G1 X58.343 Y89.886 Z0 F800
G1 X58.164 Y90.283 Z0 F800
G1 X58.005 Y90.747 Z0 F800
G1 X57.858 Y91.271 Z0 F800
G1 X57.721 Y91.844 Z0 F800
G1 X57.587 Y92.459 Z0 F800
G1 X57.452 Y93.107 Z0 F800
G1 X57.16 Y94.464 Z0 F800
G1 X56.806 Y95.844 Z0 F800
G1 X56.593 Y96.521 Z0 F800
G1 X56.35 Y97.177 Z0 F800
G1 X56.072 Y97.804 Z0 F800
G1 X55.753 Y98.393 Z0 F800
G1 X55.598 Y98.643 Z0 F800
G1 X55.47 Y98.829 Z0 F800
G1 X55.367 Y98.956 Z0 F800
G1 X55.289 Y99.026 Z0 F800
G1 X55.235 Y99.044 Z0 F800
G1 X55.201 Y99.013 Z0 F800
G1 X55.188 Y98.936 Z0 F800
G1 X55.193 Y98.817 Z0 F800
G1 X55.216 Y98.661 Z0 F800
G1 X55.254 Y98.47 Z0 F800
G1 X55.306 Y98.249 Z0 F800
G1 X55.371 Y98 Z0 F800
G1 X55.533 Y97.436 Z0 F800
G1 X55.728 Y96.807 Z0 F800
G1 X56.17 Y95.473 Z0 F800
G1 X56.603 Y94.23 Z0 F800
G1 X56.932 Y93.313 Z0 F800
G1 X57.062 Y92.956 Z0 F800
G1 X57.056 Y92.898 Z0 F800
G1 X57.041 Y92.802 Z0 F800
G1 X57.012 Y92.641 Z0 F800
G1 X56.964 Y92.4 Z0 F800
G1 X56.892 Y92.064 Z0 F800
G1 X56.793 Y91.617 Z0 F800
G1 X56.66 Y91.043 Z0 F800
G1 X56.585 Y90.739 Z0 F800
G1 X56.511 Y90.467 Z0 F800
G1 X56.436 Y90.222 Z0 F800
G1 X56.359 Y90 Z0 F800
G1 X56.191 Y89.611 Z0 F800
G1 X55.993 Y89.268 Z0 F800
G1 X55.752 Y88.94 Z0 F800
G1 X55.456 Y88.594 Z0 F800
G1 X55.283 Y88.404 Z0 F800
G1 X54.646 Y87.72 Z0 F800
G1 X54.408 Y87.48 Z0 F800
G1 X54.184 Y87.285 Z0 F800
G1 X53.974 Y87.132 Z0 F800
G1 X53.779 Y87.016 Z0 F800
G1 X53.599 Y86.932 Z0 F800
G1 X53.434 Y86.878 Z0 F800
G1 X53.283 Y86.848 Z0 F800
G1 X53.148 Y86.839 Z0 F800
G1 X52.924 Y86.867 Z0 F800
G1 X52.763 Y86.928 Z0 F800
G1 X52.665 Y86.988 Z0 F800
G1 X52.632 Y87.016 Z0 F800
G0 Z3.5 F500
G0 X46.893 Y90.942 Z3.5 
G1 Z0 F500
G1 X46.898 Y90.922 Z0 F800
G1 X46.93 Y90.876 Z0 F800
G1 X47.016 Y90.825 Z0 F800
G1 X47.183 Y90.791 Z0 F800
G1 X47.306 Y90.787 Z0 F800
G1 X47.459 Y90.795 Z0 F800
G1 X47.646 Y90.817 Z0 F800
G1 X47.87 Y90.857 Z0 F800
G1 X48.136 Y90.917 Z0 F800
G1 X48.445 Y91 Z0 F800
G1 X48.802 Y91.108 Z0 F800
G1 X49.209 Y91.244 Z0 F800
G1 X49.687 Y91.415 Z0 F800
G1 X50.244 Y91.62 Z0 F800
G1 X50.871 Y91.856 Z0 F800
G1 X53.078 Y92.697 Z0 F800
G1 X54.721 Y93.321 Z0 F800
G1 X56.412 Y93.949 Z0 F800
G1 X58.072 Y94.543 Z0 F800
G1 X58.867 Y94.815 Z0 F800
G1 X59.624 Y95.064 Z0 F800
G1 X60.335 Y95.285 Z0 F800
G1 X60.989 Y95.473 Z0 F800
G1 X62.732 Y95.946 Z0 F800
G1 X63.257 Y96.085 Z0 F800
G1 X63.756 Y96.212 Z0 F800
G1 X64.228 Y96.328 Z0 F800
G1 X64.673 Y96.43 Z0 F800
G1 X65.092 Y96.518 Z0 F800
G1 X65.485 Y96.59 Z0 F800
G1 X65.852 Y96.646 Z0 F800
G1 X66.194 Y96.685 Z0 F800
G1 X66.511 Y96.705 Z0 F800
G1 X66.803 Z0 F800
G1 X67.07 Y96.686 Z0 F800
G1 X67.314 Y96.644 Z0 F800
G1 X67.533 Y96.58 Z0 F800
G1 X67.908 Y96.439 Z0 F800
G1 X68.205 Y96.316 Z0 F800
G1 X68.434 Y96.212 Z0 F800
G1 X68.603 Y96.127 Z0 F800
G1 X68.72 Y96.061 Z0 F800
G1 X68.793 Y96.014 Z0 F800
G1 X68.842 Y95.976 Z0 F800
M9
M5
G1 Z10 F500
G90
G1 Z10 F800
