;LightBurn 1.6.04
;Custom GCode device profile, absolute coords
;Bounds: X3.92 Y26.66 to X146.08 Y129.34
G00 G17 G40 G21 G54
G90
M3
G1 Z10 F1000
;Cut @ 1500 mm/min, 90% power

M8
G0 Z3.5 F1000
G0 X21.112 Y26.696 Z2.1 
G1 Z0 F1000
;Layer Blue
G1 Y29.262 Z0 S900 F1600
G0 Z3.5 F1000
G0 X46.773 Z2.1 F1500
G1 Z0 F1000
G1 Y26.696 Z0 F1600
G0 Z3.5 F1000
G0 X52.432 Y30.655 Z2.1 
G1 Z0 F1000
G1 X52.592 Y30.592 Z0 F1600
G1 X52.738 Y30.582 Z0 F1600
G1 X52.748 Z0 F1600
G1 X52.958 Y30.634 Z0 F1600
G1 X53.157 Y30.77 Z0 F1600
G1 X53.28 Y30.981 Z0 F1600
G1 X53.334 Y31.211 Z0 F1600
G1 X53.344 Y31.43 Z0 F1600
G1 X53.314 Y31.63 Z0 F1600
G1 X53.241 Y31.806 Z0 F1600
G1 X53.134 Y31.942 Z0 F1600
G1 X52.988 Y32.069 Z0 F1600
G1 X52.831 Y32.122 Z0 F1600
G1 X52.685 Y32.132 Z0 F1600
G1 X52.515 Y32.102 Z0 F1600
G1 X52.359 Y32.006 Z0 F1600
G1 X52.223 Y31.849 Z0 F1600
G1 X52.15 Y31.703 Z0 F1600
G1 X52.088 Y31.483 Z0 F1600
G1 Y31.314 Z0 F1600
G1 X52.108 Y31.118 Z0 F1600
G1 X52.16 Y30.938 Z0 F1600
G1 X52.286 Y30.77 Z0 F1600
G1 X52.432 Y30.655 Z0 F1600
G0 Z3.5 F1000
G0 X54.089 Y30.833 Z2.1 
G1 Z0 F1000
G1 X54.258 Y30.718 Z0 F1600
G1 X54.435 Y30.624 Z0 F1600
G1 X54.594 Y30.592 Z0 F1600
G1 X54.791 Y30.603 Z0 F1600
G1 X54.917 Y30.666 Z0 F1600
G1 X55.087 Y30.823 Z0 F1600
G1 X55.2 Y31.064 Z0 F1600
G1 X55.233 Y31.294 Z0 F1600
G1 Y31.567 Z0 F1600
G1 X55.16 Y31.806 Z0 F1600
G1 X55.013 Y32.016 Z0 F1600
G1 X54.844 Y32.112 Z0 F1600
G1 X54.624 Z0 F1600
G1 X54.445 Y32.079 Z0 F1600
G1 X54.235 Y31.966 Z0 F1600
G1 X54.059 Y31.786 Z0 F1600
G1 Y32.122 Z0 F1600
G1 Y29.87 Z0 F1600
G0 Z3.5 F1000
G0 X55.829 Y31.4 Z2.1 
G1 Z0 F1000
G1 X56.982 Z0 F1600
G1 Y31.587 Z0 F1600
G1 X56.929 Y31.829 Z0 F1600
G1 X56.773 Y32.016 Z0 F1600
G1 X56.613 Y32.122 Z0 F1600
G1 X56.394 Y32.132 Z0 F1600
G1 X56.174 Y32.069 Z0 F1600
G1 X55.985 Y31.913 Z0 F1600
G1 X55.911 Y31.756 Z0 F1600
G1 X55.829 Y31.557 Z0 F1600
G1 X55.808 Y31.347 Z0 F1600
G1 X55.86 Y31.094 Z0 F1600
G1 X55.955 Y30.865 Z0 F1600
G1 X56.144 Y30.676 Z0 F1600
G1 X56.321 Y30.592 Z0 F1600
G1 X56.54 Y30.571 Z0 F1600
G1 X56.73 Y30.624 Z0 F1600
G1 X56.909 Y30.718 Z0 F1600
G0 Z3.5 F1000
G0 X57.631 Y30.571 Z2.1 
G1 Z0 F1000
G1 Y32.122 Z0 F1600
G1 Y31.746 Z0 F1600
G1 X57.777 Y31.893 Z0 F1600
G1 X57.914 Y32.016 Z0 F1600
G1 X58.02 Y32.079 Z0 F1600
G1 X58.176 Y32.122 Z0 F1600
G1 X58.28 Y32.132 Z0 F1600
G1 X58.439 Y32.089 Z0 F1600
G1 X58.532 Y32.029 Z0 F1600
G1 X58.606 Y31.923 Z0 F1600
G1 X58.669 Y31.776 Z0 F1600
G1 Y30.571 Z0 F1600
G0 Z3.5 F1000
G0 X59.497 Y31.829 Z2.1 
G1 Z0 F1000
G1 X59.706 Y31.996 Z0 F1600
G1 X59.906 Y32.102 Z0 F1600
G1 X60.106 Y32.142 Z0 F1600
G1 X60.295 Y32.102 Z0 F1600
G1 X60.432 Y32.029 Z0 F1600
G1 X60.588 Y31.829 Z0 F1600
G1 X60.638 Y31.587 Z0 F1600
G1 X60.651 Y31.327 Z0 F1600
G1 X60.608 Y31.064 Z0 F1600
G1 X60.505 Y30.855 Z0 F1600
G1 X60.368 Y30.708 Z0 F1600
G1 X60.146 Y30.582 Z0 F1600
G1 X59.959 Y30.592 Z0 F1600
G1 X59.77 Y30.645 Z0 F1600
G1 X59.593 Y30.76 Z0 F1600
G1 X59.477 Y30.855 Z0 F1600
G1 Y30.571 Z0 F1600
G1 Y32.907 Z0 F1600
G0 Z3.5 F1000
G0 X59.437 Y33.495 Z2.1 
G1 Z0 F1000
G1 X59.56 Y33.526 Z0 F1600
G1 X59.677 Y33.606 Z0 F1600
G1 X59.749 Y33.73 Z0 F1600
G1 X59.78 Y33.865 Z0 F1600
G1 X59.786 Y33.993 Z0 F1600
G1 X59.769 Y34.111 Z0 F1600
G1 X59.726 Y34.214 Z0 F1600
G1 X59.663 Y34.294 Z0 F1600
G1 X59.577 Y34.368 Z0 F1600
G1 X59.485 Y34.399 Z0 F1600
G1 X59.4 Y34.405 Z0 F1600
G1 X59.3 Y34.388 Z0 F1600
G1 X59.208 Y34.331 Z0 F1600
G1 X59.128 Y34.239 Z0 F1600
G1 X59.085 Y34.153 Z0 F1600
G1 X59.049 Y34.025 Z0 F1600
G1 Y33.925 Z0 F1600
G1 X59.061 Y33.81 Z0 F1600
G1 X59.091 Y33.704 Z0 F1600
G1 X59.165 Y33.606 Z0 F1600
G1 X59.251 Y33.538 Z0 F1600
G1 X59.345 Y33.502 Z0 F1600
G1 X59.431 Y33.495 Z0 F1600
G1 X59.437 Z0 F1600
G0 Z3.5 F1000
G0 X60.218 Z2.1 
G1 Z0 F1000
G1 Y34.399 Z0 F1600
G1 Y34.122 Z0 F1600
G1 X60.274 Y34.234 Z0 F1600
G1 X60.36 Y34.345 Z0 F1600
G1 X60.452 Y34.388 Z0 F1600
G1 X60.538 Y34.399 Z0 F1600
G1 X60.592 Y34.394 Z0 F1600
G0 Z3.5 F1000
G0 X60.87 Y33.489 Z2.1 
G1 Z0 F1000
G1 Y34.394 Z0 F1600
G1 Y34.191 Z0 F1600
G1 X60.956 Y34.265 Z0 F1600
G1 X61.036 Y34.331 Z0 F1600
G1 X61.11 Y34.38 Z0 F1600
G1 X61.202 Y34.405 Z0 F1600
G1 X61.282 Y34.394 Z0 F1600
G1 X61.336 Y34.368 Z0 F1600
G1 X61.399 Y34.308 Z0 F1600
G1 X61.442 Y34.202 Z0 F1600
G1 X61.453 Y34.073 Z0 F1600
G1 Y33.489 Z0 F1600
G1 Y34.171 Z0 F1600
G1 X61.479 Y34.222 Z0 F1600
G1 X61.608 Y34.337 Z0 F1600
G1 X61.705 Y34.388 Z0 F1600
G1 X61.785 Y34.411 Z0 F1600
G1 X61.871 Y34.388 Z0 F1600
G1 X61.928 Y34.357 Z0 F1600
G1 X61.994 Y34.276 Z0 F1600
G1 X62.025 Y34.116 Z0 F1600
G1 Y33.495 Z0 F1600
G0 Z3.5 F1000
G0 X62.488 Y34.294 Z2.1 
G1 Z0 F1000
G1 X62.617 Y34.368 Z0 F1600
G1 X62.726 Y34.399 Z0 F1600
G1 X62.838 Y34.411 Z0 F1600
G1 X62.924 Y34.38 Z0 F1600
G1 X62.998 Y34.314 Z0 F1600
G1 X63.047 Y34.214 Z0 F1600
G1 X63.052 Y34.079 Z0 F1600
G1 Y33.502 Z0 F1600
G1 X63.047 Y33.667 Z0 F1600
G1 X62.967 Y33.612 Z0 F1600
G1 X62.881 Y33.551 Z0 F1600
G1 X62.783 Y33.508 Z0 F1600
G1 X62.672 Y33.489 Z0 F1600
G1 X62.58 Y33.52 Z0 F1600
G1 X62.506 Y33.569 Z0 F1600
G1 X62.45 Y33.649 Z0 F1600
G1 Y33.767 Z0 F1600
G1 X62.494 Y33.859 Z0 F1600
G1 X62.592 Y33.939 Z0 F1600
G1 X62.689 Y33.976 Z0 F1600
G1 X62.806 Y34.013 Z0 F1600
G1 X62.918 Y34.03 Z0 F1600
G1 X62.986 Y34.036 Z0 F1600
G1 X63.041 Z0 F1600
G0 Z3.5 F1000
G0 X63.546 Y34.651 Z2.1 
G1 Z0 F1000
G1 Y34.374 Z0 F1600
G1 X63.841 Z0 F1600
G1 X63.367 Z0 F1600
G1 X63.546 Z0 F1600
G1 Y33.742 Z0 F1600
G1 X63.558 Y33.606 Z0 F1600
G1 X63.626 Y33.526 Z0 F1600
G1 X63.705 Y33.502 Z0 F1600
G1 X63.792 Z0 F1600
G1 X63.859 Y33.532 Z0 F1600
G0 Z3.5 F1000
G0 X64.173 Y33.489 Z2.1 
G1 Z0 F1000
G1 Y34.394 Z0 F1600
G0 Z3.5 F1000
G0 X64.216 Y34.671 Z2.1 
G1 Z0 F1000
G1 Y34.768 Z0 F1600
G1 X64.118 Z0 F1600
G1 Y34.671 Z0 F1600
G1 X64.216 Z0 F1600
G0 Z3.5 F1000
G0 X64.757 Y34.331 Z2.1 
G1 Z0 F1000
G1 X64.677 Y34.239 Z0 F1600
G1 X64.634 Y34.153 Z0 F1600
G1 X64.598 Y34.025 Z0 F1600
G1 Y33.925 Z0 F1600
G1 X64.61 Y33.81 Z0 F1600
G1 X64.64 Y33.704 Z0 F1600
G1 X64.714 Y33.606 Z0 F1600
G1 X64.8 Y33.538 Z0 F1600
G1 X64.894 Y33.502 Z0 F1600
G1 X64.979 Y33.495 Z0 F1600
G1 X64.985 Z0 F1600
G1 X65.108 Y33.526 Z0 F1600
G1 X65.225 Y33.606 Z0 F1600
G1 X65.298 Y33.73 Z0 F1600
G1 X65.329 Y33.865 Z0 F1600
G1 X65.335 Y33.993 Z0 F1600
G1 X65.317 Y34.111 Z0 F1600
G1 X65.274 Y34.214 Z0 F1600
G1 X65.212 Y34.294 Z0 F1600
G1 X65.126 Y34.368 Z0 F1600
G1 X65.034 Y34.399 Z0 F1600
G1 X64.948 Y34.405 Z0 F1600
G1 X64.849 Y34.388 Z0 F1600
G1 X64.757 Y34.331 Z0 F1600
G0 Z3.5 F1000
G0 X65.76 Y33.489 Z2.1 
G1 Z0 F1000
G1 Y34.399 Z0 F1600
G1 Y34.179 Z0 F1600
G1 X65.846 Y34.265 Z0 F1600
G1 X65.926 Y34.337 Z0 F1600
G1 X65.989 Y34.374 Z0 F1600
G1 X66.081 Y34.399 Z0 F1600
G1 X66.141 Y34.405 Z0 F1600
G1 X66.235 Y34.38 Z0 F1600
G1 X66.289 Y34.345 Z0 F1600
G1 X66.332 Y34.282 Z0 F1600
G1 X66.37 Y34.196 Z0 F1600
G1 Y33.489 Z0 F1600
G0 Z3.5 F1000
G0 X67.915 Y32.102 Z2.1 
G1 Z0 F1000
G1 X67.759 Y32.006 Z0 F1600
G1 X67.623 Y31.849 Z0 F1600
G1 X67.549 Y31.703 Z0 F1600
G1 X67.488 Y31.483 Z0 F1600
G1 Y31.314 Z0 F1600
G1 X67.508 Y31.118 Z0 F1600
G1 X67.559 Y30.938 Z0 F1600
G1 X67.686 Y30.77 Z0 F1600
G1 X67.832 Y30.655 Z0 F1600
G1 X67.992 Y30.592 Z0 F1600
G1 X68.138 Y30.582 Z0 F1600
G1 X68.148 Z0 F1600
G1 X68.358 Y30.634 Z0 F1600
G1 X68.557 Y30.77 Z0 F1600
G1 X68.68 Y30.981 Z0 F1600
G1 X68.733 Y31.211 Z0 F1600
G1 X68.743 Y31.43 Z0 F1600
G1 X68.714 Y31.63 Z0 F1600
G1 X68.64 Y31.806 Z0 F1600
G1 X68.534 Y31.942 Z0 F1600
G1 X68.388 Y32.069 Z0 F1600
G1 X68.231 Y32.122 Z0 F1600
G1 X68.085 Y32.132 Z0 F1600
G1 X67.915 Y32.102 Z0 F1600
G0 Z3.5 F1000
G0 X69.635 Y31.211 Z2.1 
G1 Z0 F1000
G1 X69.542 Y31.294 Z0 F1600
G1 X69.459 Y31.4 Z0 F1600
G1 X69.415 Y31.567 Z0 F1600
G1 X69.425 Y31.776 Z0 F1600
G1 X69.522 Y31.966 Z0 F1600
G1 X69.688 Y32.102 Z0 F1600
G1 X69.931 Y32.122 Z0 F1600
G1 X70.087 Y32.089 Z0 F1600
G1 X70.589 Z0 F1600
G1 X70.087 Z0 F1600
G1 X70.234 Y31.996 Z0 F1600
G1 X70.297 Y31.913 Z0 F1600
G1 X70.38 Y31.723 Z0 F1600
G1 Y31.513 Z0 F1600
G1 X70.307 Y31.337 Z0 F1600
G1 X70.15 Y31.191 Z0 F1600
G1 X69.931 Y31.118 Z0 F1600
G1 X69.751 Y31.148 Z0 F1600
G1 X69.635 Y31.221 Z0 F1600
G1 X69.459 Y31.021 Z0 F1600
G1 X69.425 Y30.885 Z0 F1600
G1 X69.488 Y30.739 Z0 F1600
G1 X69.625 Y30.645 Z0 F1600
G1 X70.263 Z0 F1600
G1 X70.496 Y30.582 Z0 F1600
G1 X70.589 Y30.414 Z0 F1600
G1 X70.599 Y30.236 Z0 F1600
G1 X70.506 Y30.08 Z0 F1600
G1 X70.253 Y29.91 Z0 F1600
G1 X70.004 Y29.847 Z0 F1600
G1 X69.721 Y29.88 Z0 F1600
G1 X69.478 Y29.983 Z0 F1600
G1 X69.332 Y30.143 Z0 F1600
G1 X69.353 Y30.33 Z0 F1600
G1 X69.459 Y30.508 Z0 F1600
G1 X69.615 Y30.655 Z0 F1600
G0 Z3.5 F1000
G0 X71.175 Y30.582 Z2.1 
G1 Z0 F1000
G1 Y32.122 Z0 F1600
G1 Y31.65 Z0 F1600
G1 X71.271 Y31.839 Z0 F1600
G1 X71.418 Y32.029 Z0 F1600
G1 X71.574 Y32.102 Z0 F1600
G1 X71.72 Y32.122 Z0 F1600
G1 X71.813 Y32.112 Z0 F1600
G0 Z3.5 F1000
G0 X72.266 Y31.942 Z2.1 
G1 Z0 F1000
G1 X72.485 Y32.069 Z0 F1600
G1 X72.672 Y32.122 Z0 F1600
G1 X72.861 Y32.142 Z0 F1600
G1 X73.007 Y32.089 Z0 F1600
G1 X73.134 Y31.976 Z0 F1600
G1 X73.217 Y31.806 Z0 F1600
G1 X73.227 Y31.577 Z0 F1600
G1 Y30.592 Z0 F1600
G1 X73.217 Y30.875 Z0 F1600
G1 X73.081 Y30.781 Z0 F1600
G1 X72.934 Y30.676 Z0 F1600
G1 X72.768 Y30.603 Z0 F1600
G1 X72.578 Y30.571 Z0 F1600
G1 X72.422 Y30.624 Z0 F1600
G1 X72.296 Y30.708 Z0 F1600
G1 X72.201 Y30.844 Z0 F1600
G1 Y31.044 Z0 F1600
G1 X72.276 Y31.201 Z0 F1600
G1 X72.442 Y31.337 Z0 F1600
G1 X72.608 Y31.4 Z0 F1600
G1 X72.808 Y31.464 Z0 F1600
G1 X72.997 Y31.493 Z0 F1600
G1 X73.114 Y31.503 Z0 F1600
G1 X73.207 Z0 F1600
G0 Z3.5 F1000
G0 X74.045 Y30.833 Z2.1 
G1 Z0 F1000
G1 X74.215 Y30.718 Z0 F1600
G1 X74.391 Y30.624 Z0 F1600
G1 X74.551 Y30.592 Z0 F1600
G1 X74.747 Y30.603 Z0 F1600
G1 X74.873 Y30.666 Z0 F1600
G1 X75.043 Y30.823 Z0 F1600
G1 X75.156 Y31.064 Z0 F1600
G1 X75.189 Y31.294 Z0 F1600
G1 Y31.567 Z0 F1600
G1 X75.116 Y31.806 Z0 F1600
G1 X74.97 Y32.016 Z0 F1600
G1 X74.8 Y32.112 Z0 F1600
G1 X74.581 Z0 F1600
G1 X74.401 Y32.079 Z0 F1600
G1 X74.192 Y31.966 Z0 F1600
G1 X74.015 Y31.786 Z0 F1600
G1 Y32.122 Z0 F1600
G1 Y29.87 Z0 F1600
G0 Z3.5 F1000
G0 X72.434 Y29.144 Z2.1 
G1 Z0 F1000
G1 Y26.661 Z0 F1600
G0 Z3.5 F1000
G0 X75.911 Y30.592 Z2.1 
G1 Z0 F1000
G1 Y32.897 Z0 F1600
G1 Y31.733 Z0 F1600
G1 X76.067 Y31.903 Z0 F1600
G1 X76.204 Y32.029 Z0 F1600
G1 X76.403 Y32.112 Z0 F1600
G1 X76.603 Y32.132 Z0 F1600
G1 X76.832 Y32.006 Z0 F1600
G1 X76.916 Y31.859 Z0 F1600
G1 X76.959 Y31.62 Z0 F1600
G1 Y30.582 Z0 F1600
G0 Z3.5 F1000
G0 X77.659 Y30.592 Z2.1 
G1 Z0 F1000
G1 X77.827 Z0 F1600
G1 Y30.76 Z0 F1600
G1 X77.659 Z0 F1600
G1 Y30.592 Z0 F1600
G0 Z3.5 F1000
G0 X78.728 Y30.655 Z2.1 
G1 Z0 F1000
G1 X78.572 Y30.508 Z0 F1600
G1 X78.467 Y30.33 Z0 F1600
G1 X78.446 Y30.143 Z0 F1600
G1 X78.592 Y29.983 Z0 F1600
G1 X78.835 Y29.88 Z0 F1600
G1 X79.117 Y29.847 Z0 F1600
G1 X79.367 Y29.91 Z0 F1600
G1 X79.62 Y30.08 Z0 F1600
G1 X79.713 Y30.236 Z0 F1600
G1 X79.703 Y30.414 Z0 F1600
G1 X79.61 Y30.582 Z0 F1600
G1 X79.377 Y30.645 Z0 F1600
G1 X78.738 Z0 F1600
G1 X78.602 Y30.739 Z0 F1600
G1 X78.539 Y30.885 Z0 F1600
G1 X78.572 Y31.021 Z0 F1600
G1 X78.748 Y31.221 Z0 F1600
G1 X78.865 Y31.148 Z0 F1600
G1 X79.044 Y31.118 Z0 F1600
G1 X79.264 Y31.191 Z0 F1600
G1 X79.42 Y31.337 Z0 F1600
G1 X79.493 Y31.513 Z0 F1600
G1 Y31.723 Z0 F1600
G1 X79.41 Y31.913 Z0 F1600
G1 X79.347 Y31.996 Z0 F1600
G1 X79.201 Y32.089 Z0 F1600
G1 X79.703 Z0 F1600
G1 X79.201 Z0 F1600
G1 X79.044 Y32.122 Z0 F1600
G1 X78.802 Y32.102 Z0 F1600
G1 X78.635 Y31.966 Z0 F1600
G1 X78.539 Y31.776 Z0 F1600
G1 X78.529 Y31.567 Z0 F1600
G1 X78.572 Y31.4 Z0 F1600
G1 X78.655 Y31.294 Z0 F1600
G1 X78.748 Y31.211 Z0 F1600
G0 Z3.5 F1000
G0 X80.278 Y30.571 Z2.1 
G1 Z0 F1000
G1 Y32.112 Z0 F1600
G0 Z3.5 F1000
G0 X80.351 Y32.584 Z2.1 
G1 Z0 F1000
G1 Y32.751 Z0 F1600
G1 X80.184 Z0 F1600
G1 Y32.584 Z0 F1600
G1 X80.351 Z0 F1600
G0 Z3.5 F1000
G0 X81.16 Y32.551 Z2.1 
G1 Z0 F1000
G1 Y32.079 Z0 F1600
G1 X81.662 Z0 F1600
G1 X80.854 Z0 F1600
G1 X81.16 Z0 F1600
G1 Y31.001 Z0 F1600
G1 X81.18 Y30.77 Z0 F1600
G1 X81.296 Y30.634 Z0 F1600
G1 X81.429 Y30.592 Z0 F1600
G1 X81.579 Z0 F1600
G1 X81.692 Y30.645 Z0 F1600
G0 Z3.5 F1000
G0 X82.227 Y30.592 Z2.1 
G1 Z0 F1000
G1 Y32.897 Z0 F1600
G1 Y31.733 Z0 F1600
G1 X82.384 Y31.903 Z0 F1600
G1 X82.52 Y32.029 Z0 F1600
G1 X82.72 Y32.112 Z0 F1600
G1 X82.919 Y32.132 Z0 F1600
G1 X83.149 Y32.006 Z0 F1600
G1 X83.232 Y31.859 Z0 F1600
G1 X83.275 Y31.62 Z0 F1600
G1 Y30.582 Z0 F1600
G0 Z3.5 F1000
G0 X84.05 Y32.102 Z2.1 
G1 Z0 F1000
G1 Y31.128 Z0 F1600
G1 X84.06 Y30.865 Z0 F1600
G1 X84.133 Y30.728 Z0 F1600
G1 X84.26 Y30.624 Z0 F1600
G1 X84.446 Y30.571 Z0 F1600
G1 X84.625 Y30.603 Z0 F1600
G1 X84.815 Y30.708 Z0 F1600
G1 X84.951 Y30.844 Z0 F1600
G1 X85.065 Y30.981 Z0 F1600
G1 Y30.582 Z0 F1600
G1 Y32.102 Z0 F1600
G0 Z3.5 F1000
G0 X85.923 Y31.829 Z2.1 
G1 Z0 F1000
G1 X86.132 Y31.996 Z0 F1600
G1 X86.332 Y32.102 Z0 F1600
G1 X86.531 Y32.142 Z0 F1600
G1 X86.721 Y32.102 Z0 F1600
G1 X86.857 Y32.029 Z0 F1600
G1 X87.014 Y31.829 Z0 F1600
G1 X87.063 Y31.587 Z0 F1600
G1 X87.077 Y31.327 Z0 F1600
G1 X87.034 Y31.064 Z0 F1600
G1 X86.93 Y30.855 Z0 F1600
G1 X86.794 Y30.708 Z0 F1600
G1 X86.571 Y30.582 Z0 F1600
G1 X86.385 Y30.592 Z0 F1600
G1 X86.195 Y30.645 Z0 F1600
G1 X86.019 Y30.76 Z0 F1600
G1 X85.903 Y30.855 Z0 F1600
G1 Y30.571 Z0 F1600
G1 Y32.907 Z0 F1600
G0 Z3.5 F1000
G0 X88.522 Y32.751 Z2.1 
G1 Z0 F1000
G1 Y32.584 Z0 F1600
G1 X88.69 Z0 F1600
G1 Y32.751 Z0 F1600
G1 X88.522 Z0 F1600
G0 Z3.5 F1000
G0 X88.617 Y32.112 Z2.1 
G1 Z0 F1000
G1 Y30.571 Z0 F1600
G0 Z3.5 F1000
G0 X87.862 Y30.592 Z2.1 
G1 Z0 F1000
G1 Y30.76 Z0 F1600
G1 X87.694 Z0 F1600
G1 Y30.592 Z0 F1600
G1 X87.862 Z0 F1600
G0 Z3.5 F1000
G0 X89.412 Y30.938 Z2.1 
G1 Z0 F1000
G1 X89.538 Y30.77 Z0 F1600
G1 X89.684 Y30.655 Z0 F1600
G1 X89.844 Y30.592 Z0 F1600
G1 X89.99 Y30.582 Z0 F1600
G1 X90 Z0 F1600
G1 X90.21 Y30.634 Z0 F1600
G1 X90.41 Y30.77 Z0 F1600
G1 X90.533 Y30.981 Z0 F1600
G1 X90.586 Y31.211 Z0 F1600
G1 X90.596 Y31.43 Z0 F1600
G1 X90.566 Y31.63 Z0 F1600
G1 X90.493 Y31.806 Z0 F1600
G1 X90.386 Y31.942 Z0 F1600
G1 X90.24 Y32.069 Z0 F1600
G1 X90.084 Y32.122 Z0 F1600
G1 X89.937 Y32.132 Z0 F1600
G1 X89.768 Y32.102 Z0 F1600
G1 X89.611 Y32.006 Z0 F1600
G1 X89.475 Y31.849 Z0 F1600
G1 X89.402 Y31.703 Z0 F1600
G1 X89.34 Y31.483 Z0 F1600
G1 Y31.314 Z0 F1600
G1 X89.361 Y31.118 Z0 F1600
G1 X89.412 Y30.938 Z0 F1600
G0 Z3.5 F1000
G0 X94.211 Y30.69 Z2.1 
G1 Z0 F1000
G1 X94.044 Y30.563 Z0 F1600
G1 X93.819 Y30.483 Z0 F1600
G1 X93.596 Y30.515 Z0 F1600
G1 X93.389 Y30.626 Z0 F1600
G1 X93.229 Y30.818 Z0 F1600
G1 X93.151 Y31.018 Z0 F1600
G1 X93.127 Y31.319 Z0 F1600
G1 X93.151 Y31.6 Z0 F1600
G1 X93.255 Y31.83 Z0 F1600
G1 X93.414 Y32.004 Z0 F1600
G1 X93.596 Y32.093 Z0 F1600
G1 X93.804 Y32.108 Z0 F1600
G1 X93.988 Y32.07 Z0 F1600
G1 X94.115 Y31.989 Z0 F1600
G1 X94.155 Y31.941 Z0 F1600
G0 Z3.5 F1000
G0 X95.534 Y32.07 Z2.1 
G1 Z0 F1000
G1 X94.72 Z0 F1600
G1 Y31.344 Z0 F1600
G1 X95.423 Z0 F1600
G1 X94.72 Z0 F1600
G1 Y30.523 Z0 F1600
G1 X95.565 Z0 F1600
G0 Z3.5 F1000
G0 X96.076 Y30.491 Z2.1 
G1 Z0 F1000
G1 Y32.085 Z0 F1600
G1 X96.61 Z0 F1600
G1 X96.739 Y32.045 Z0 F1600
G1 X96.881 Y31.974 Z0 F1600
G1 X96.984 Y31.815 Z0 F1600
G1 Y31.678 Z0 F1600
G1 X96.962 Y31.526 Z0 F1600
G1 X96.865 Y31.392 Z0 F1600
G1 X96.746 Y31.319 Z0 F1600
G1 X96.554 Y31.273 Z0 F1600
G1 X96.084 Z0 F1600
G1 X96.539 Z0 F1600
G1 X97.002 Y30.491 Z0 F1600
G0 Z3.5 F1000
G0 X97.536 Y30.499 Z2.1 
G1 Z0 F1000
G1 Y32.085 Z0 F1600
G1 X97.592 Z0 F1600
G1 X98.54 Y30.499 Z0 F1600
G1 Y32.093 Z0 F1600
G0 Z3.5 F1000
G0 X99.018 Y31.104 Z2.1 
G1 Z0 F1000
G1 X99.535 Z0 F1600
G0 Z3.5 F1000
G0 X99.936 Y31.207 Z2.1 
G1 Z0 F1000
G1 X99.968 Y31 Z0 F1600
G1 X100.046 Y30.81 Z0 F1600
G1 X100.16 Y30.659 Z0 F1600
G1 X100.286 Y30.555 Z0 F1600
G1 X100.423 Y30.507 Z0 F1600
G1 X100.55 Y30.499 Z0 F1600
G1 X100.757 Y30.531 Z0 F1600
G1 X100.964 Y30.666 Z0 F1600
G1 X101.106 Y30.881 Z0 F1600
G1 X101.18 Y31.162 Z0 F1600
G1 Y31.423 Z0 F1600
G1 X101.139 Y31.638 Z0 F1600
G1 X101.061 Y31.815 Z0 F1600
G1 X100.932 Y31.982 Z0 F1600
G1 X100.757 Y32.085 Z0 F1600
G1 X100.58 Y32.118 Z0 F1600
G1 X100.431 Y32.093 Z0 F1600
G1 X100.261 Y32.03 Z0 F1600
G1 X100.104 Y31.893 Z0 F1600
G1 X99.983 Y31.663 Z0 F1600
G1 X99.944 Y31.481 Z0 F1600
G1 X99.936 Y31.207 Z0 F1600
G0 Z3.5 F1000
G0 X101.751 Y30.499 Z2.1 
G1 Z0 F1000
G1 Y32.093 Z0 F1600
G1 Y31.352 Z0 F1600
G1 X102.764 Z0 F1600
G1 Y32.085 Z0 F1600
G1 Y30.499 Z0 F1600
G0 Z3.5 F1000
G0 X104.239 Y30.523 Z2.1 
G1 Z0 F1000
G1 X103.442 Z0 F1600
G1 Y32.101 Z0 F1600
G0 Z3.5 F1000
G0 X104.493 Y31.104 Z2.1 
G1 Z0 F1000
G1 X105.01 Z0 F1600
G0 Z3.5 F1000
G0 X105.514 Y31.233 Z2.1 
G1 Z0 F1000
G1 X105.899 Z0 F1600
G1 X106.088 Y31.24 Z0 F1600
G1 X106.255 Y31.304 Z0 F1600
G1 X106.374 Y31.4 Z0 F1600
G1 X106.44 Y31.559 Z0 F1600
G1 X106.448 Y31.703 Z0 F1600
G1 X106.415 Y31.863 Z0 F1600
G1 X106.336 Y31.967 Z0 F1600
G1 X106.233 Y32.045 Z0 F1600
G1 X106.088 Y32.085 Z0 F1600
G1 X105.522 Z0 F1600
G1 Y30.483 Z0 F1600
G0 Z3.5 F1000
G0 X106.791 Y31.104 Z2.1 
G1 Z0 F1000
G1 X107.308 Z0 F1600
G0 Z3.5 F1000
G0 X107.669 Y31.855 Z2.1 
G1 Z0 F1000
G1 X107.773 Y31.956 Z0 F1600
G1 X107.9 Y32.037 Z0 F1600
G1 X108.059 Y32.078 Z0 F1600
G1 X108.196 Y32.053 Z0 F1600
G1 X108.338 Y31.982 Z0 F1600
G1 X108.426 Y31.863 Z0 F1600
G1 X108.467 Y31.686 Z0 F1600
G1 X108.457 Y31.536 Z0 F1600
G1 X108.378 Y31.352 Z0 F1600
G1 X108.234 Y31.144 Z0 F1600
G1 X108.059 Y30.929 Z0 F1600
G1 X107.9 Y30.762 Z0 F1600
G1 X107.685 Y30.523 Z0 F1600
G1 X108.586 Z0 F1600
G0 Z3.5 F1000
G0 X109 Y30.499 Z2.1 
G1 Z0 F1000
G1 X109.127 Z0 F1600
G1 Y30.626 Z0 F1600
G1 X109 Z0 F1600
G1 Y30.499 Z0 F1600
G0 Z3.5 F1000
G0 X109.702 Y30.682 Z2.1 
G1 Z0 F1000
G1 X109.798 Y30.579 Z0 F1600
G1 X109.894 Y30.499 Z0 F1600
G1 X110.005 Y30.491 Z0 F1600
G1 X110.157 Y30.523 Z0 F1600
G1 X110.316 Y30.682 Z0 F1600
G1 X110.387 Y30.851 Z0 F1600
G1 X110.42 Y31.04 Z0 F1600
G1 X110.435 Y31.304 Z0 F1600
G1 X110.42 Y31.552 Z0 F1600
G1 X110.362 Y31.789 Z0 F1600
G1 X110.284 Y31.941 Z0 F1600
G1 X110.157 Y32.037 Z0 F1600
G1 X110.043 Y32.078 Z0 F1600
G1 X109.95 Y32.07 Z0 F1600
G1 X109.798 Y31.982 Z0 F1600
G1 X109.694 Y31.837 Z0 F1600
G1 X109.622 Y31.607 Z0 F1600
G1 X109.598 Y31.367 Z0 F1600
G1 X109.59 Y31.129 Z0 F1600
G1 X109.622 Y30.906 Z0 F1600
G1 X109.702 Y30.682 Z0 F1600
G0 Z3.5 F1000
G0 X112.859 Y31.925 Z2.1 
G1 Z0 F1000
G1 X112.97 Y32.032 Z0 F1600
G1 X113.103 Y32.117 Z0 F1600
G1 X113.272 Y32.16 Z0 F1600
G1 X113.416 Y32.133 Z0 F1600
G1 X113.566 Y32.058 Z0 F1600
G1 X113.66 Y31.933 Z0 F1600
G1 X113.703 Y31.746 Z0 F1600
G1 X113.692 Y31.588 Z0 F1600
G1 X113.609 Y31.392 Z0 F1600
G1 X113.456 Y31.173 Z0 F1600
G1 X113.272 Y30.946 Z0 F1600
G1 X113.103 Y30.769 Z0 F1600
G1 X112.876 Y30.517 Z0 F1600
G1 X113.828 Z0 F1600
G0 Z3.5 F1000
G0 X114.165 Y30.702 Z2.1 
G1 Z0 F1000
G1 X114.258 Y30.618 Z0 F1600
G1 X114.409 Y30.533 Z0 F1600
G1 X114.561 Y30.491 Z0 F1600
G1 X114.722 Z0 F1600
G1 X114.871 Y30.533 Z0 F1600
G1 X114.992 Y30.609 Z0 F1600
G1 X115.075 Y30.727 Z0 F1600
G1 X115.101 Y30.828 Z0 F1600
G1 X115.109 Y30.954 Z0 F1600
G1 X115.083 Y31.072 Z0 F1600
G1 X115.016 Y31.173 Z0 F1600
G1 X114.871 Y31.283 Z0 F1600
G1 X114.738 Y31.334 Z0 F1600
G1 X114.604 Y31.35 Z0 F1600
G1 X114.476 Z0 F1600
G1 X114.577 Z0 F1600
G1 X114.714 Y31.376 Z0 F1600
G1 X114.871 Y31.459 Z0 F1600
G1 X115.016 Y31.569 Z0 F1600
G1 X115.059 Y31.713 Z0 F1600
G1 X115.032 Y31.874 Z0 F1600
G1 X114.973 Y32.008 Z0 F1600
G1 X114.847 Y32.109 Z0 F1600
G1 X114.695 Y32.152 Z0 F1600
G1 X114.553 Z0 F1600
G1 X114.377 Y32.075 Z0 F1600
G1 X114.241 Y31.973 Z0 F1600
G0 Z3.5 F1000
G0 X115.598 Y30.626 Z2.1 
G1 Z0 F1000
G1 Y30.491 Z0 F1600
G1 X115.733 Z0 F1600
G1 Y30.626 Z0 F1600
G1 X115.598 Z0 F1600
G0 Z3.5 F1000
G0 X117.131 Y30.517 Z2.1 
G1 Z0 F1000
G1 X116.297 Z0 F1600
G1 X116.72 Z0 F1600
G1 Y32.133 Z0 F1600
G1 X116.433 Y32.024 Z0 F1600
G1 X116.712 Y32.032 Z0 F1600
G0 Z3.5 F1000
G0 X118.06 Z2.1 
G1 Z0 F1000
G1 X117.781 Y32.024 Z0 F1600
G1 X118.068 Y32.133 Z0 F1600
G1 Y30.517 Z0 F1600
G1 X117.645 Z0 F1600
G1 X118.479 Z0 F1600
G0 Z3.5 F1000
G0 X118.96 Y30.491 Z2.1 
G1 Z0 F1000
G1 X119.095 Z0 F1600
G1 Y30.626 Z0 F1600
G1 X118.96 Z0 F1600
G1 Y30.491 Z0 F1600
G0 Z3.5 F1000
G0 X120.536 Y30.517 Z2.1 
G1 Z0 F1000
G1 X119.584 Z0 F1600
G1 X119.811 Y30.769 Z0 F1600
G1 X119.98 Y30.946 Z0 F1600
G1 X120.165 Y31.173 Z0 F1600
G1 X120.317 Y31.392 Z0 F1600
G1 X120.4 Y31.588 Z0 F1600
G1 X120.411 Y31.746 Z0 F1600
G1 X120.368 Y31.933 Z0 F1600
G1 X120.274 Y32.058 Z0 F1600
G1 X120.124 Y32.133 Z0 F1600
G1 X119.98 Y32.16 Z0 F1600
G1 X119.811 Y32.117 Z0 F1600
G1 X119.678 Y32.032 Z0 F1600
G1 X119.567 Y31.925 Z0 F1600
G0 Z3.5 F1000
G0 X121.775 Y32.117 Z2.1 
G1 Z0 F1000
G1 X121.085 Z0 F1600
G1 X121.034 Y31.409 Z0 F1600
G1 X121.05 Y31.384 Z0 F1600
G1 X121.194 Y31.459 Z0 F1600
G1 X121.336 Y31.494 Z0 F1600
G1 X121.531 Y31.478 Z0 F1600
G1 X121.724 Y31.368 Z0 F1600
G1 X121.817 Y31.2 Z0 F1600
G1 X121.842 Y30.981 Z0 F1600
G1 X121.799 Y30.793 Z0 F1600
G1 X121.689 Y30.634 Z0 F1600
G1 X121.555 Y30.525 Z0 F1600
G1 X121.363 Y30.475 Z0 F1600
G1 X121.234 Y30.483 Z0 F1600
G1 X121.101 Y30.533 Z0 F1600
G1 X120.983 Y30.601 Z0 F1600
G1 X120.873 Y30.693 Z0 F1600
G0 Z3.5 F1000
G0 X123.755 Y29.262 Z2.1 
G1 Z0 F1000
G1 Y26.696 Z0 F1600
G0 Z3.5 F1000
G0 X128.585 Y30.249 Z2.1 
G1 Z0 F1000
G1 X128.575 Y30.299 Z0 F1600
G1 X128.558 Y30.421 Z0 F1600
G1 X128.525 Y30.679 Z0 F1600
G1 X128.514 Y31.268 Z0 F1600
G1 X128.536 Y31.867 Z0 F1600
G1 X128.585 Y32.177 Z0 F1600
G1 X128.642 Y32.438 Z0 F1600
G1 X128.712 Y32.663 Z0 F1600
G1 X128.797 Y32.863 Z0 F1600
G1 X128.95 Y33.14 Z0 F1600
G1 X129.09 Y33.346 Z0 F1600
G1 X129.255 Y33.522 Z0 F1600
G1 X129.402 Y33.65 Z0 F1600
G1 X129.536 Y33.734 Z0 F1600
G1 X129.663 Y33.779 Z0 F1600
G1 X129.798 Y33.797 Z0 F1600
G1 X129.946 Y33.801 Z0 F1600
G1 X130.066 Y33.793 Z0 F1600
G1 X130.115 Y33.772 Z0 F1600
G1 X130.111 Y33.751 Z0 F1600
G1 X130.1 Y33.738 Z0 F1600
G1 X130.055 Y33.69 Z0 F1600
G1 X129.966 Y33.58 Z0 F1600
G1 X129.855 Y33.436 Z0 F1600
G1 X129.747 Y33.287 Z0 F1600
G1 X129.509 Y32.919 Z0 F1600
G1 X129.314 Y32.54 Z0 F1600
G1 X129.155 Y32.141 Z0 F1600
G1 X129.03 Y31.712 Z0 F1600
G1 X128.993 Y31.534 Z0 F1600
G1 X128.964 Y31.347 Z0 F1600
G1 X128.949 Y31.203 Z0 F1600
G1 X128.956 Y31.156 Z0 F1600
G1 X129.002 Y31.256 Z0 F1600
G1 X129.099 Y31.482 Z0 F1600
G1 X129.341 Y32.014 Z0 F1600
G1 X129.601 Y32.518 Z0 F1600
G1 X129.964 Y33.086 Z0 F1600
G1 X130.351 Y33.601 Z0 F1600
G1 X130.41 Y33.655 Z0 F1600
G1 X130.474 Y33.641 Z0 F1600
G1 X130.697 Y33.508 Z0 F1600
G1 X130.825 Y33.384 Z0 F1600
G1 X130.804 Y33.301 Z0 F1600
G1 X130.75 Y33.154 Z0 F1600
G1 X130.676 Y32.979 Z0 F1600
G1 X130.595 Y32.808 Z0 F1600
G1 X130.296 Y32.291 Z0 F1600
G1 X129.921 Y31.791 Z0 F1600
G1 X129.689 Y31.522 Z0 F1600
G1 X129.283 Y31.099 Z0 F1600
G1 X129.243 Y31.045 Z0 F1600
G1 X129.277 Y31.05 Z0 F1600
G1 X129.385 Y31.107 Z0 F1600
G1 X129.682 Y31.298 Z0 F1600
G1 X129.968 Y31.529 Z0 F1600
G1 X130.237 Y31.792 Z0 F1600
G1 X130.482 Y32.084 Z0 F1600
G1 X130.646 Y32.319 Z0 F1600
G1 X130.799 Y32.579 Z0 F1600
G1 X130.929 Y32.84 Z0 F1600
G1 X131.022 Y33.075 Z0 F1600
G1 X131.055 Y33.169 Z0 F1600
G1 X131.072 Y33.208 Z0 F1600
G1 X131.147 Y33.084 Z0 F1600
G1 X131.237 Y32.878 Z0 F1600
G1 X131.269 Y32.745 Z0 F1600
G1 X131.279 Y32.591 Z0 F1600
G1 X131.261 Y32.384 Z0 F1600
G1 X131.205 Y32.175 Z0 F1600
G1 X131.114 Y31.967 Z0 F1600
G1 X130.988 Y31.761 Z0 F1600
G1 X130.829 Y31.559 Z0 F1600
G1 X130.638 Y31.361 Z0 F1600
G1 X130.415 Y31.17 Z0 F1600
G1 X130.162 Y30.987 Z0 F1600
G1 X129.857 Y30.804 Z0 F1600
G1 X129.492 Y30.616 Z0 F1600
G1 X129.102 Y30.441 Z0 F1600
G1 X128.726 Y30.296 Z0 F1600
G1 X128.585 Y30.249 Z0 F1600
G0 Z3.5 F1000
G0 X131.634 Y32.439 Z2.1 
G1 Z0 F1000
G1 X131.631 Y32.459 Z0 F1600
G1 X131.627 Y32.513 Z0 F1600
G1 X131.624 Y32.69 Z0 F1600
G1 X131.614 Y32.926 Z0 F1600
G1 X131.568 Y33.096 Z0 F1600
G1 X131.513 Y33.25 Z0 F1600
G1 X132.026 Y34.016 Z0 F1600
G1 X132.23 Y34.315 Z0 F1600
G1 X132.264 Y34.361 Z0 F1600
G1 X132.311 Y34.357 Z0 F1600
G1 X132.405 Y34.334 Z0 F1600
G1 X132.62 Y34.287 Z0 F1600
G1 X132.87 Y34.254 Z0 F1600
G1 X133.144 Y34.233 Z0 F1600
G1 X133.429 Y34.227 Z0 F1600
G1 X133.714 Y34.233 Z0 F1600
G1 X133.988 Y34.253 Z0 F1600
G1 X134.237 Y34.286 Z0 F1600
G1 X134.452 Y34.333 Z0 F1600
G1 X134.555 Y34.36 Z0 F1600
G1 X134.614 Y34.37 Z0 F1600
G1 X134.645 Y34.361 Z0 F1600
G1 X134.744 Y34.21 Z0 F1600
G1 X134.91 Y33.966 Z0 F1600
G1 X135.211 Y33.528 Z0 F1600
G1 X135.26 Y33.446 Z0 F1600
G1 X135.271 Y33.404 Z0 F1600
G1 X135.247 Y33.394 Z0 F1600
G1 X135.112 Y33.355 Z0 F1600
G1 X134.795 Y33.273 Z0 F1600
G1 X134.586 Y33.224 Z0 F1600
G1 X134.469 Y33.198 Z0 F1600
G1 X134.319 Y32.44 Z0 F1600
G1 X134.294 Y32.321 Z0 F1600
G1 X134.269 Y32.22 Z0 F1600
G1 X134.249 Y32.15 Z0 F1600
G1 X134.234 Y32.12 Z0 F1600
G1 X134.172 Y32.114 Z0 F1600
G1 X134.022 Y32.109 Z0 F1600
G1 X133.805 Y32.105 Z0 F1600
G1 X133.546 Z0 F1600
G1 X133.227 Z0 F1600
G1 X133.02 Y32.109 Z0 F1600
G1 X132.904 Y32.116 Z0 F1600
G1 X132.862 Y32.128 Z0 F1600
G1 X132.85 Y32.159 Z0 F1600
G1 X132.832 Y32.224 Z0 F1600
G1 X132.811 Y32.314 Z0 F1600
G1 X132.67 Y32.999 Z0 F1600
G1 X132.65 Y33.114 Z0 F1600
G1 X132.641 Y33.173 Z0 F1600
G1 X132.614 Y33.204 Z0 F1600
G1 X132.532 Y33.226 Z0 F1600
G1 X132.36 Y33.255 Z0 F1600
G1 X132.228 Y33.272 Z0 F1600
G1 X132.18 Y33.25 Z0 F1600
G1 X132.12 Y33.165 Z0 F1600
G1 X132.006 Y32.996 Z0 F1600
G1 X131.67 Y32.485 Z0 F1600
G1 X131.634 Y32.439 Z0 F1600
G0 Z3.5 F1000
G0 X131.29 Y33.452 Z2.1 
G1 Z0 F1000
G1 X131.263 Z0 F1600
G1 X131.222 Y33.483 Z0 F1600
G1 X131.161 Y33.542 Z0 F1600
G1 X130.999 Y33.691 Z0 F1600
G1 X130.791 Y33.832 Z0 F1600
G1 X130.488 Y33.983 Z0 F1600
G1 X130.242 Y34.057 Z0 F1600
G1 X130.209 Y34.061 Z0 F1600
G1 X130.196 Y34.077 Z0 F1600
G1 X130.204 Y34.106 Z0 F1600
G1 X130.282 Y34.234 Z0 F1600
G1 X130.359 Y34.367 Z0 F1600
G1 X130.448 Y34.526 Z0 F1600
G1 X130.595 Y34.798 Z0 F1600
G1 X130.666 Y34.922 Z0 F1600
G1 X130.805 Y35.187 Z0 F1600
G1 X130.846 Y35.26 Z0 F1600
G1 X130.886 Y35.341 Z0 F1600
G1 X130.974 Y35.52 Z0 F1600
G1 X131.219 Y36.035 Z0 F1600
G1 X131.254 Y36.099 Z0 F1600
G1 X131.276 Y36.121 Z0 F1600
G1 X132.379 Y35.452 Z0 F1600
G1 X132.494 Y35.376 Z0 F1600
G1 X132.542 Y35.331 Z0 F1600
G1 X132.506 Y35.267 Z0 F1600
G1 X132.421 Y35.142 Z0 F1600
G1 X132.179 Y34.8 Z0 F1600
G1 X132.036 Y34.593 Z0 F1600
G1 X131.876 Y34.354 Z0 F1600
G1 X131.633 Y33.983 Z0 F1600
G1 X131.409 Y33.638 Z0 F1600
G1 X131.307 Y33.476 Z0 F1600
G1 X131.29 Y33.452 Z0 F1600
G0 Z3.5 F1000
G0 X129.965 Y34.335 Z2.1 
G1 Z0 F1000
G1 X129.93 Y34.356 Z0 F1600
G1 X129.773 Y34.482 Z0 F1600
G1 X129.725 Y34.518 Z0 F1600
G1 X129.696 Y34.509 Z0 F1600
G1 X129.63 Y34.474 Z0 F1600
G1 X129.538 Y34.419 Z0 F1600
G1 X129.426 Y34.35 Z0 F1600
G1 X129.181 Y34.189 Z0 F1600
G1 X128.963 Y34.034 Z0 F1600
G1 X128.874 Y33.974 Z0 F1600
G1 X128.808 Y33.953 Z0 F1600
G1 X128.748 Y33.97 Z0 F1600
G1 X128.679 Y34.024 Z0 F1600
G1 X128.614 Y34.088 Z0 F1600
G1 X128.357 Y34.35 Z0 F1600
G1 X128.084 Y34.634 Z0 F1600
G1 X127.927 Y34.802 Z0 F1600
G1 X127.877 Y34.859 Z0 F1600
G1 X127.825 Y34.931 Z0 F1600
G1 X127.818 Y34.968 Z0 F1600
G1 X127.867 Y35.059 Z0 F1600
G1 X127.967 Y35.218 Z0 F1600
G1 X128.063 Y35.365 Z0 F1600
G1 X128.114 Y35.449 Z0 F1600
G1 X128.193 Y35.568 Z0 F1600
G1 X128.397 Y35.87 Z0 F1600
G1 X128.314 Y35.997 Z0 F1600
G1 X128.218 Y36.157 Z0 F1600
G1 X128.039 Y36.477 Z0 F1600
G1 X127.993 Y36.55 Z0 F1600
G1 X127.96 Y36.59 Z0 F1600
G1 X127.935 Y36.602 Z0 F1600
G1 X127.882 Y36.598 Z0 F1600
G1 X127.216 Y36.534 Z0 F1600
G1 X127.058 Y36.522 Z0 F1600
G1 X126.951 Y36.517 Z0 F1600
G1 X126.904 Y36.521 Z0 F1600
G1 X126.876 Y36.563 Z0 F1600
G1 X126.832 Y36.673 Z0 F1600
G1 X126.77 Y36.863 Z0 F1600
G1 X126.627 Y37.33 Z0 F1600
G1 X126.539 Y37.611 Z0 F1600
G1 X126.508 Y37.726 Z0 F1600
G1 X126.491 Y37.809 Z0 F1600
G1 Y37.853 Z0 F1600
G1 X126.551 Y37.91 Z0 F1600
G1 X126.699 Y38.004 Z0 F1600
G1 X126.928 Y38.132 Z0 F1600
G1 X127.232 Y38.289 Z0 F1600
G1 X127.418 Y38.383 Z0 F1600
G1 X127.385 Y38.926 Z0 F1600
G1 X127.371 Y39.122 Z0 F1600
G1 X127.361 Y39.233 Z0 F1600
G1 X127.353 Y39.272 Z0 F1600
G1 X127.325 Y39.285 Z0 F1600
G1 X127.166 Y39.347 Z0 F1600
G1 X126.805 Y39.479 Z0 F1600
G1 X126.589 Y39.554 Z0 F1600
G1 X126.431 Y39.613 Z0 F1600
G1 X126.35 Y39.657 Z0 F1600
G1 X126.335 Y39.695 Z0 F1600
G1 Y39.768 Z0 F1600
G1 X126.351 Y39.897 Z0 F1600
G1 X126.386 Y40.104 Z0 F1600
G1 X126.485 Y40.667 Z0 F1600
G1 X126.514 Y40.822 Z0 F1600
G1 X126.54 Y40.935 Z0 F1600
G1 X126.561 Y41.009 Z0 F1600
G1 X126.58 Y41.044 Z0 F1600
G1 X126.613 Y41.061 Z0 F1600
G1 X126.689 Y41.073 Z0 F1600
G1 X126.829 Y41.081 Z0 F1600
G1 X127.236 Y41.093 Z0 F1600
G1 X127.631 Y41.102 Z0 F1600
G1 X127.661 Y41.115 Z0 F1600
G1 X127.682 Y41.149 Z0 F1600
G1 X127.746 Y41.312 Z0 F1600
G1 X128.007 Y41.93 Z0 F1600
G1 X127.416 Y42.56 Z0 F1600
G1 X127.339 Y42.65 Z0 F1600
G1 X127.301 Y42.713 Z0 F1600
G1 Y42.753 Z0 F1600
G1 X127.337 Y42.829 Z0 F1600
G1 X127.383 Y42.899 Z0 F1600
G1 X127.452 Y43 Z0 F1600
G1 X128.039 Y43.836 Z0 F1600
G1 X128.087 Y43.889 Z0 F1600
G1 X128.149 Y43.904 Z0 F1600
G1 X128.249 Y43.879 Z0 F1600
G1 X128.408 Y43.813 Z0 F1600
G1 X128.63 Y43.714 Z0 F1600
G1 X129.129 Y43.485 Z0 F1600
G1 X129.203 Y43.549 Z0 F1600
G1 X129.281 Y43.619 Z0 F1600
G1 X129.365 Y43.698 Z0 F1600
G1 X129.432 Y43.759 Z0 F1600
G1 X129.469 Y43.784 Z0 F1600
G1 X129.486 Y43.768 Z0 F1600
G1 X129.505 Y43.73 Z0 F1600
G1 X129.533 Y43.663 Z0 F1600
G1 X129.807 Y43.061 Z0 F1600
G1 X129.905 Y42.84 Z0 F1600
G1 X129.915 Y42.763 Z0 F1600
G1 X129.872 Y42.688 Z0 F1600
G1 X129.764 Y42.566 Z0 F1600
G1 X129.497 Y42.247 Z0 F1600
G1 X129.262 Y41.923 Z0 F1600
G1 X129.059 Y41.592 Z0 F1600
G1 X128.886 Y41.252 Z0 F1600
G1 X128.742 Y40.901 Z0 F1600
G1 X128.627 Y40.536 Z0 F1600
G1 X128.539 Y40.154 Z0 F1600
G1 X128.476 Y39.754 Z0 F1600
G1 X128.462 Y39.091 Z0 F1600
G1 X128.516 Y38.417 Z0 F1600
G1 X128.654 Y37.819 Z0 F1600
G1 X128.854 Y37.263 Z0 F1600
G1 X129.12 Y36.738 Z0 F1600
G1 X129.459 Y36.232 Z0 F1600
G1 X129.89 Y35.744 Z0 F1600
G1 X130.337 Y35.311 Z0 F1600
G1 X130.403 Y35.253 Z0 F1600
G1 X130.431 Y35.221 Z0 F1600
G1 X130.405 Y35.164 Z0 F1600
G1 X130.241 Y34.858 Z0 F1600
G1 X129.965 Y34.335 Z0 F1600
G0 Z3.5 F1000
G0 X132.022 Y36.038 Z2.1 
G1 Z0 F1000
G1 X131.59 Y36.297 Z0 F1600
G1 X131.422 Y36.394 Z0 F1600
G1 X131.39 Y36.41 Z0 F1600
G1 Y36.437 Z0 F1600
G1 X131.401 Y36.505 Z0 F1600
G1 X131.427 Y36.605 Z0 F1600
G1 X131.463 Y36.73 Z0 F1600
G1 X131.557 Y37.02 Z0 F1600
G1 X131.664 Y37.312 Z0 F1600
G1 X131.852 Y37.742 Z0 F1600
G1 X132.086 Y38.181 Z0 F1600
G1 X132.23 Y38.42 Z0 F1600
G1 X132.396 Y38.679 Z0 F1600
G1 X132.589 Y38.966 Z0 F1600
G1 X133.419 Y40.152 Z0 F1600
G1 X133.717 Y40.573 Z0 F1600
G1 X133.968 Y40.923 Z0 F1600
G1 X134.106 Y41.111 Z0 F1600
G1 X135.047 Y42.423 Z0 F1600
G1 X136.015 Y43.777 Z0 F1600
G1 X136.646 Y44.676 Z0 F1600
G1 X137.418 Y45.789 Z0 F1600
G1 X137.501 Y45.903 Z0 F1600
G1 X137.834 Y46.389 Z0 F1600
G1 X137.964 Y46.572 Z0 F1600
G1 X137.997 Y46.61 Z0 F1600
G1 X138.064 Y46.628 Z0 F1600
G1 X138.139 Y46.611 Z0 F1600
G1 X138.2 Y46.567 Z0 F1600
G1 X138.225 Y46.508 Z0 F1600
G1 X138.218 Y46.478 Z0 F1600
G1 X138.2 Y46.421 Z0 F1600
G1 X138.126 Y46.227 Z0 F1600
G1 X138.004 Y45.93 Z0 F1600
G1 X137.426 Y44.577 Z0 F1600
G1 X135.976 Y41.268 Z0 F1600
G1 X135.403 Y39.966 Z0 F1600
G1 X135.058 Y39.187 Z0 F1600
G1 X134.763 Y38.532 Z0 F1600
G1 X134.497 Y37.97 Z0 F1600
G1 X134.252 Y37.488 Z0 F1600
G1 X134.019 Y37.073 Z0 F1600
G1 X133.792 Y36.71 Z0 F1600
G1 X133.561 Y36.387 Z0 F1600
G1 X133.319 Y36.089 Z0 F1600
G1 X133.057 Y35.803 Z0 F1600
G1 X132.914 Y35.657 Z0 F1600
G1 X132.837 Y35.582 Z0 F1600
G1 X132.804 Z0 F1600
G1 X132.728 Y35.614 Z0 F1600
G1 X132.589 Y35.694 Z0 F1600
G1 X132.364 Y35.83 Z0 F1600
G1 X132.022 Y36.038 Z0 F1600
G0 Z3.5 F1000
G0 X133.647 Y36.028 Z2.1 
G1 Z0 F1000
G1 X133.666 Y36.059 Z0 F1600
G1 X133.713 Y36.106 Z0 F1600
G1 X133.79 Y36.203 Z0 F1600
G1 X133.889 Y36.336 Z0 F1600
G1 X133.999 Y36.493 Z0 F1600
G1 X134.221 Y36.827 Z0 F1600
G1 X134.386 Y37.101 Z0 F1600
G1 X134.533 Y37.38 Z0 F1600
G1 X134.717 Y37.733 Z0 F1600
G1 X134.855 Y38.004 Z0 F1600
G1 X134.892 Y38.067 Z0 F1600
G1 X134.913 Y38.082 Z0 F1600
G1 X134.927 Y38.062 Z0 F1600
G1 X135.201 Y37.385 Z0 F1600
G1 X135.294 Y37.145 Z0 F1600
G1 X135.363 Y36.951 Z0 F1600
G1 X135.47 Y36.628 Z0 F1600
G1 X135.515 Y36.483 Z0 F1600
G1 X135.521 Y36.454 Z0 F1600
G1 X135.484 Y36.424 Z0 F1600
G1 X135.383 Y36.357 Z0 F1600
G1 X135.234 Y36.263 Z0 F1600
G1 X134.347 Y35.723 Z0 F1600
G1 X134.173 Y35.62 Z0 F1600
G1 X134.115 Y35.589 Z0 F1600
G1 X134.088 Y35.577 Z0 F1600
G1 X134.062 Y35.592 Z0 F1600
G1 X134.01 Y35.635 Z0 F1600
G1 X133.939 Y35.698 Z0 F1600
G1 X133.856 Y35.775 Z0 F1600
G1 X133.738 Y35.893 Z0 F1600
G1 X133.67 Y35.975 Z0 F1600
G1 X133.647 Y36.028 Z0 F1600
G0 Z3.5 F1000
G0 X134.481 Y35.439 Z2.1 
G1 Z0 F1000
G1 X134.611 Y35.517 Z0 F1600
G1 X134.962 Y35.736 Z0 F1600
G1 X135.386 Y35.99 Z0 F1600
G1 X135.579 Y36.1 Z0 F1600
G1 X135.614 Y36.117 Z0 F1600
G1 X135.658 Y36.064 Z0 F1600
G1 X135.727 Y35.929 Z0 F1600
G1 X136.074 Y35.214 Z0 F1600
G1 X136.49 Y34.457 Z0 F1600
G1 X136.566 Y34.323 Z0 F1600
G1 X136.673 Y34.13 Z0 F1600
G1 X136.69 Y34.095 Z0 F1600
G1 X136.652 Y34.068 Z0 F1600
G1 X136.551 Y34.035 Z0 F1600
G1 X136.348 Y33.964 Z0 F1600
G1 X136.142 Y33.859 Z0 F1600
G1 X135.939 Y33.726 Z0 F1600
G1 X135.75 Y33.569 Z0 F1600
G1 X135.67 Y33.496 Z0 F1600
G1 X135.627 Y33.459 Z0 F1600
G1 X135.6 Y33.476 Z0 F1600
G1 X135.562 Y33.531 Z0 F1600
G1 X135.496 Y33.637 Z0 F1600
G1 X135.013 Y34.367 Z0 F1600
G1 X134.802 Y34.678 Z0 F1600
G1 X134.611 Y34.95 Z0 F1600
G1 X134.374 Y35.278 Z0 F1600
G1 X134.338 Y35.338 Z0 F1600
G1 X134.38 Y35.374 Z0 F1600
G1 X134.481 Y35.439 Z0 F1600
G0 Z3.5 F1000
G0 X136.474 Y35.207 Z2.1 
G1 Z0 F1000
G1 X136.486 Y35.238 Z0 F1600
G1 X136.533 Y35.288 Z0 F1600
G1 X136.626 Y35.374 Z0 F1600
G1 X137.058 Y35.793 Z0 F1600
G1 X137.422 Y36.217 Z0 F1600
G1 X137.724 Y36.652 Z0 F1600
G1 X137.969 Y37.105 Z0 F1600
G1 X138.161 Y37.596 Z0 F1600
G1 X138.311 Y38.112 Z0 F1600
G1 X138.401 Y38.655 Z0 F1600
G1 X138.432 Y39.219 Z0 F1600
G1 X138.405 Y39.777 Z0 F1600
G1 X138.32 Y40.302 Z0 F1600
G1 X138.219 Y40.674 Z0 F1600
G1 X138.113 Y40.992 Z0 F1600
G1 X138.052 Y41.14 Z0 F1600
G1 X137.889 Y41.476 Z0 F1600
G1 X137.723 Y41.783 Z0 F1600
G1 X137.526 Y42.071 Z0 F1600
G1 X137.366 Y42.293 Z0 F1600
G1 X137.169 Y42.526 Z0 F1600
G1 X137.014 Y42.701 Z0 F1600
G1 X136.979 Y42.745 Z0 F1600
G1 X136.984 Y42.785 Z0 F1600
G1 X137.017 Y42.877 Z0 F1600
G1 X137.08 Y43.024 Z0 F1600
G1 X137.21 Y43.316 Z0 F1600
G1 X137.323 Y43.578 Z0 F1600
G1 X137.376 Y43.69 Z0 F1600
G1 X137.413 Y43.76 Z0 F1600
G1 X137.435 Y43.784 Z0 F1600
G1 X137.481 Y43.752 Z0 F1600
G1 X137.567 Y43.675 Z0 F1600
G1 X137.765 Y43.487 Z0 F1600
G1 X137.96 Y43.578 Z0 F1600
G1 X138.422 Y43.789 Z0 F1600
G1 X138.598 Y43.863 Z0 F1600
G1 X138.717 Y43.896 Z0 F1600
G1 X138.792 Y43.888 Z0 F1600
G1 X138.837 Y43.842 Z0 F1600
G1 X138.86 Y43.806 Z0 F1600
G1 X138.985 Y43.628 Z0 F1600
G1 X139.281 Y43.214 Z0 F1600
G1 X139.485 Y42.934 Z0 F1600
G1 X139.57 Y42.807 Z0 F1600
G1 X139.606 Y42.733 Z0 F1600
G1 X139.57 Y42.668 Z0 F1600
G1 X139.482 Y42.565 Z0 F1600
G1 X139.274 Y42.345 Z0 F1600
G1 X139.015 Y42.068 Z0 F1600
G1 X138.949 Y41.991 Z0 F1600
G1 X138.9 Y41.911 Z0 F1600
G1 X138.91 Y41.865 Z0 F1600
G1 X138.946 Y41.771 Z0 F1600
G1 X139.072 Y41.469 Z0 F1600
G1 X139.136 Y41.308 Z0 F1600
G1 X139.187 Y41.189 Z0 F1600
G1 X139.221 Y41.125 Z0 F1600
G1 X139.258 Y41.112 Z0 F1600
G1 X139.352 Y41.102 Z0 F1600
G1 X139.513 Y41.094 Z0 F1600
G1 X140.022 Y41.079 Z0 F1600
G1 X140.181 Y41.071 Z0 F1600
G1 X140.262 Y41.059 Z0 F1600
G1 X140.297 Y41.041 Z0 F1600
G1 X140.331 Y40.966 Z0 F1600
G1 X140.364 Y40.822 Z0 F1600
G1 X140.423 Y40.499 Z0 F1600
G1 X140.523 Y39.975 Z0 F1600
G1 X140.542 Y39.869 Z0 F1600
G1 X140.556 Y39.777 Z0 F1600
G1 X140.563 Y39.709 Z0 F1600
G1 Y39.676 Z0 F1600
G1 X140.551 Y39.653 Z0 F1600
G1 X140.517 Y39.632 Z0 F1600
G1 X140.429 Y39.599 Z0 F1600
G1 X139.996 Y39.446 Z0 F1600
G1 X139.771 Y39.362 Z0 F1600
G1 X139.609 Y39.3 Z0 F1600
G1 X139.541 Y39.268 Z0 F1600
G1 X139.533 Y39.233 Z0 F1600
G1 X139.524 Y39.15 Z0 F1600
G1 X139.515 Y39.031 Z0 F1600
G1 X139.491 Y38.612 Z0 F1600
G1 X139.48 Y38.455 Z0 F1600
G1 X139.488 Y38.387 Z0 F1600
G1 X139.574 Y38.332 Z0 F1600
G1 X139.827 Y38.199 Z0 F1600
G1 X140.085 Y38.056 Z0 F1600
G1 X140.289 Y37.937 Z0 F1600
G1 X140.352 Y37.897 Z0 F1600
G1 X140.38 Y37.876 Z0 F1600
G1 X140.393 Y37.837 Z0 F1600
G1 X140.39 Y37.776 Z0 F1600
G1 X140.372 Y37.687 Z0 F1600
G1 X140.336 Y37.566 Z0 F1600
G1 X140.15 Y36.967 Z0 F1600
G1 X140.094 Y36.792 Z0 F1600
G1 X140.047 Y36.657 Z0 F1600
G1 X140.01 Y36.567 Z0 F1600
G1 X139.987 Y36.528 Z0 F1600
G1 X139.957 Y36.513 Z0 F1600
G1 X139.885 Z0 F1600
G1 X139.71 Y36.528 Z0 F1600
G1 X139.086 Y36.596 Z0 F1600
G1 X139 Y36.6 Z0 F1600
G1 X138.941 Y36.595 Z0 F1600
G1 X138.873 Y36.548 Z0 F1600
G1 X138.816 Y36.439 Z0 F1600
G1 X138.723 Y36.269 Z0 F1600
G1 X138.535 Y35.947 Z0 F1600
G1 X138.501 Y35.877 Z0 F1600
G1 X138.523 Y35.835 Z0 F1600
G1 X138.585 Y35.736 Z0 F1600
G1 X138.901 Y35.251 Z0 F1600
G1 X138.991 Y35.105 Z0 F1600
G1 X139.051 Y35.001 Z0 F1600
G1 X139.073 Y34.95 Z0 F1600
G1 X139.058 Y34.913 Z0 F1600
G1 X139.011 Y34.85 Z0 F1600
G1 X138.93 Y34.758 Z0 F1600
G1 X138.812 Y34.633 Z0 F1600
G1 X138.372 Y34.181 Z0 F1600
G1 X138.206 Y34.019 Z0 F1600
G1 X138.155 Y33.973 Z0 F1600
G1 X138.122 Y33.947 Z0 F1600
G1 X138.104 Y33.938 Z0 F1600
G1 X138.058 Y33.962 Z0 F1600
G1 X137.952 Y34.026 Z0 F1600
G1 X137.804 Y34.121 Z0 F1600
G1 X137.628 Y34.236 Z0 F1600
G1 X137.182 Y34.534 Z0 F1600
G1 X136.92 Y34.335 Z0 F1600
G1 X136.566 Y35.029 Z0 F1600
G1 X136.487 Y35.178 Z0 F1600
G1 X136.474 Y35.207 Z0 F1600
G0 Z3.5 F1000
G0 X136.858 Y33.797 Z2.1 
G1 Z0 F1000
G1 X137.014 Z0 F1600
G1 X137.218 Y33.779 Z0 F1600
G1 X137.371 Y33.715 Z0 F1600
G1 X137.508 Y33.628 Z0 F1600
G1 X137.644 Y33.511 Z0 F1600
G1 X137.775 Y33.367 Z0 F1600
G1 X137.898 Y33.201 Z0 F1600
G1 X138.111 Y32.819 Z0 F1600
G1 X138.262 Y32.396 Z0 F1600
G1 X138.316 Y32.155 Z0 F1600
G1 X138.35 Y31.912 Z0 F1600
G1 X138.367 Y31.626 Z0 F1600
G1 X138.372 Y31.255 Z0 F1600
G1 X138.367 Y30.885 Z0 F1600
G1 X138.352 Y30.563 Z0 F1600
G1 X138.342 Y30.434 Z0 F1600
G1 X138.331 Y30.335 Z0 F1600
G1 X138.319 Y30.271 Z0 F1600
G1 X138.306 Y30.25 Z0 F1600
G1 X138.257 Y30.264 Z0 F1600
G1 X138.156 Y30.296 Z0 F1600
G1 X137.862 Y30.409 Z0 F1600
G1 X137.49 Y30.57 Z0 F1600
G1 X137.31 Y30.652 Z0 F1600
G1 X137.154 Y30.726 Z0 F1600
G1 X137.036 Y30.786 Z0 F1600
G1 X136.972 Y30.826 Z0 F1600
G1 X136.897 Y30.877 Z0 F1600
G1 X136.744 Y30.976 Z0 F1600
G1 X136.532 Y31.117 Z0 F1600
G1 X136.392 Y31.231 Z0 F1600
G1 X136.136 Y31.477 Z0 F1600
G1 X135.936 Y31.716 Z0 F1600
G1 X135.785 Y31.958 Z0 F1600
G1 X135.677 Y32.212 Z0 F1600
G1 X135.639 Y32.37 Z0 F1600
G1 X135.63 Y32.597 Z0 F1600
G1 X135.638 Y32.823 Z0 F1600
G1 X135.684 Y32.958 Z0 F1600
G1 X135.734 Y33.056 Z0 F1600
G1 X135.78 Y33.133 Z0 F1600
G1 X135.824 Y33.194 Z0 F1600
G1 X135.887 Y33.018 Z0 F1600
G1 X135.994 Y32.761 Z0 F1600
G1 X136.127 Y32.504 Z0 F1600
G1 X136.279 Y32.258 Z0 F1600
G1 X136.445 Y32.034 Z0 F1600
G1 X136.52 Y31.952 Z0 F1600
G1 X136.564 Y31.921 Z0 F1600
G1 X136.576 Y31.916 Z0 F1600
G1 Y31.899 Z0 F1600
G1 X136.589 Y31.872 Z0 F1600
G1 X136.633 Y31.818 Z0 F1600
G1 X136.702 Y31.745 Z0 F1600
G1 X136.788 Y31.66 Z0 F1600
G1 X136.982 Y31.479 Z0 F1600
G1 X137.161 Y31.331 Z0 F1600
G1 X137.306 Y31.231 Z0 F1600
G1 X137.46 Y31.134 Z0 F1600
G1 X137.587 Y31.065 Z0 F1600
G1 X137.646 Y31.045 Z0 F1600
G1 X137.611 Y31.095 Z0 F1600
G1 X137.119 Y31.614 Z0 F1600
G1 X136.794 Y32.006 Z0 F1600
G1 X136.526 Y32.39 Z0 F1600
G1 X136.303 Y32.785 Z0 F1600
G1 X136.205 Y32.985 Z0 F1600
G1 X136.126 Y33.163 Z0 F1600
G1 X136.073 Y33.3 Z0 F1600
G1 X136.054 Y33.38 Z0 F1600
G1 X136.264 Y33.554 Z0 F1600
G1 X136.495 Y33.66 Z0 F1600
G1 X136.649 Y33.465 Z0 F1600
G1 X136.98 Y33.016 Z0 F1600
G1 X137.271 Y32.553 Z0 F1600
G1 X137.538 Y32.054 Z0 F1600
G1 X137.793 Y31.494 Z0 F1600
G1 X137.87 Y31.315 Z0 F1600
G1 X137.915 Y31.221 Z0 F1600
G1 X137.937 Y31.195 Z0 F1600
G1 X137.945 Y31.221 Z0 F1600
G1 X137.937 Y31.345 Z0 F1600
G1 X137.906 Y31.537 Z0 F1600
G1 X137.86 Y31.753 Z0 F1600
G1 X137.808 Y31.948 Z0 F1600
G1 X137.707 Y32.243 Z0 F1600
G1 X137.586 Y32.531 Z0 F1600
G1 X137.452 Y32.804 Z0 F1600
G1 X137.307 Y33.05 Z0 F1600
G1 X137.065 Y33.395 Z0 F1600
G1 X136.827 Y33.702 Z0 F1600
G1 X136.789 Y33.756 Z0 F1600
G1 X136.783 Y33.788 Z0 F1600
G1 X136.858 Y33.797 Z0 F1600
G0 Z3.5 F1000
G0 X132.067 Y38.713 Z2.1 
G1 Z0 F1000
G1 X132.05 Y38.74 Z0 F1600
G1 X132.013 Y38.813 Z0 F1600
G1 X131.901 Y39.054 Z0 F1600
G1 X131.543 Y39.859 Z0 F1600
G1 X131.499 Y39.968 Z0 F1600
G1 X131.393 Y40.202 Z0 F1600
G1 X130.639 Y41.909 Z0 F1600
G1 X130.308 Y42.665 Z0 F1600
G1 X130.037 Y43.277 Z0 F1600
G1 X129.664 Y44.131 Z0 F1600
G1 X129.624 Y44.231 Z0 F1600
G1 X129.541 Y44.418 Z0 F1600
G1 X129.506 Y44.511 Z0 F1600
G1 X129.382 Y44.791 Z0 F1600
G1 X129.216 Y45.177 Z0 F1600
G1 X128.734 Y46.31 Z0 F1600
G1 X128.688 Y46.448 Z0 F1600
G1 X128.683 Y46.546 Z0 F1600
G1 X128.719 Y46.605 Z0 F1600
G1 X128.795 Y46.625 Z0 F1600
G1 X128.867 Y46.609 Z0 F1600
G1 X128.968 Y46.509 Z0 F1600
G1 X129.049 Y46.405 Z0 F1600
G1 X129.159 Y46.251 Z0 F1600
G1 X129.881 Y45.214 Z0 F1600
G1 X130.36 Y44.531 Z0 F1600
G1 X130.696 Y44.048 Z0 F1600
G1 X131.74 Y42.57 Z0 F1600
G1 X132.824 Y41.047 Z0 F1600
G1 X133.069 Y40.708 Z0 F1600
G1 X133.167 Y40.568 Z0 F1600
G1 X133.218 Y40.488 Z0 F1600
G1 X133.232 Y40.451 Z0 F1600
G1 X133.218 Y40.414 Z0 F1600
G1 X133.16 Y40.321 Z0 F1600
G1 X133.107 Y40.243 Z0 F1600
G1 X132.566 Y39.471 Z0 F1600
G1 X132.375 Y39.193 Z0 F1600
G1 X132.237 Y38.984 Z0 F1600
G1 X132.097 Y38.753 Z0 F1600
G1 X132.067 Y38.713 Z0 F1600
G0 Z3.5 F1000
G0 X131.322 Y43.705 Z2.1 
G1 Z0 F1000
G1 X131.275 Y43.759 Z0 F1600
G1 X131.183 Y43.888 Z0 F1600
G1 X131.086 Y44.031 Z0 F1600
G1 X130.989 Y44.169 Z0 F1600
G1 X130.489 Y44.9 Z0 F1600
G1 X130.219 Y45.289 Z0 F1600
G1 X130.129 Y45.427 Z0 F1600
G1 X130.118 Y45.45 Z0 F1600
G1 X130.507 Y45.648 Z0 F1600
G1 X130.89 Y45.816 Z0 F1600
G1 X130.95 Y45.791 Z0 F1600
G1 X131.035 Y45.693 Z0 F1600
G1 X131.126 Y45.577 Z0 F1600
G1 X131.3 Y45.361 Z0 F1600
G1 X131.481 Y45.129 Z0 F1600
G1 X131.556 Y45.04 Z0 F1600
G1 X131.584 Y45.004 Z0 F1600
G1 X131.617 Y44.973 Z0 F1600
G1 X131.668 Y44.984 Z0 F1600
G1 X131.985 Y45.072 Z0 F1600
G1 X132.316 Y45.138 Z0 F1600
G1 X132.42 Y45.156 Z0 F1600
G1 X132.464 Y45.187 Z0 F1600
G1 X132.479 Y45.239 Z0 F1600
G1 X132.506 Y45.355 Z0 F1600
G1 X132.541 Y45.518 Z0 F1600
G1 X132.621 Y45.911 Z0 F1600
G1 X132.657 Y46.068 Z0 F1600
G1 X132.685 Y46.172 Z0 F1600
G1 X132.703 Y46.213 Z0 F1600
G1 X132.77 Y46.22 Z0 F1600
G1 X132.932 Y46.225 Z0 F1600
G1 X133.165 Y46.229 Z0 F1600
G1 X134.159 Z0 F1600
G1 X134.188 Y46.186 Z0 F1600
G1 X134.218 Y46.103 Z0 F1600
G1 X134.25 Y45.964 Z0 F1600
G1 X134.409 Y45.156 Z0 F1600
G1 X134.585 Y45.132 Z0 F1600
G1 X134.785 Y45.095 Z0 F1600
G1 X135.017 Y45.04 Z0 F1600
G1 X135.273 Y44.973 Z0 F1600
G1 X135.604 Y45.394 Z0 F1600
G1 X135.831 Y45.686 Z0 F1600
G1 X135.903 Y45.769 Z0 F1600
G1 X135.951 Y45.807 Z0 F1600
G1 X135.99 Y45.817 Z0 F1600
G1 X136.399 Y45.636 Z0 F1600
G1 X136.765 Y45.434 Z0 F1600
G1 X136.757 Y45.411 Z0 F1600
G1 X136.534 Y45.101 Z0 F1600
G1 X135.969 Y44.282 Z0 F1600
G1 X135.661 Y43.829 Z0 F1600
G1 X135.596 Y43.742 Z0 F1600
G1 X135.558 Y43.705 Z0 F1600
G1 X135.503 Y43.723 Z0 F1600
G1 X135.399 Y43.766 Z0 F1600
G1 X135.092 Y43.882 Z0 F1600
G1 X134.734 Y43.986 Z0 F1600
G1 X134.367 Y44.069 Z0 F1600
G1 X134.033 Y44.118 Z0 F1600
G1 X133.443 Y44.138 Z0 F1600
G1 X132.845 Y44.109 Z0 F1600
G1 X132.474 Y44.055 Z0 F1600
G1 X132.104 Y43.974 Z0 F1600
G1 X131.755 Y43.872 Z0 F1600
G1 X131.451 Y43.756 Z0 F1600
G1 X131.366 Y43.72 Z0 F1600
G1 X131.322 Y43.705 Z0 F1600
G0 Z3.5 F1000
G0 X123.006 Y47.718 Z2.1 
G1 Z0 F1000
G1 Y29.265 Z0 F1600
G1 X143.494 Z0 F1600
G1 Y47.718 Z0 F1600
G1 X123.006 Z0 F1600
G0 Z3.5 F1000
G0 X127.604 Y52.613 Z2.1 
G1 Z0 F1000
G1 X132.737 Y51.33 Z0 F1600
G1 Y56.462 Z0 F1600
G1 X127.604 Y55.179 Z0 F1600
G1 Y52.613 Z0 F1600
G0 Z3.5 F1000
G0 X127.091 Y53.896 Z2.1 
G1 Z0 F1000
G1 X139.408 Z0 F1600
G0 Z3.5 F1000
G0 X137.612 Z2.1 
G1 Z0 F1000
G1 X137.586 Y54.155 Z0 F1600
G1 X137.511 Y54.396 Z0 F1600
G1 X137.393 Y54.614 Z0 F1600
G1 X137.236 Y54.804 Z0 F1600
G1 X137.046 Y54.96 Z0 F1600
G1 X136.829 Y55.079 Z0 F1600
G1 X136.588 Y55.153 Z0 F1600
G1 X136.329 Y55.179 Z0 F1600
G1 X136.071 Y55.153 Z0 F1600
G1 X135.83 Y55.079 Z0 F1600
G1 X135.612 Y54.96 Z0 F1600
G1 X135.422 Y54.804 Z0 F1600
G1 X135.265 Y54.614 Z0 F1600
G1 X135.147 Y54.396 Z0 F1600
G1 X135.072 Y54.155 Z0 F1600
G1 X135.046 Y53.896 Z0 F1600
G1 X135.072 Y53.638 Z0 F1600
G1 X135.147 Y53.397 Z0 F1600
G1 X135.265 Y53.179 Z0 F1600
G1 X135.422 Y52.989 Z0 F1600
G1 X135.612 Y52.832 Z0 F1600
G1 X135.83 Y52.714 Z0 F1600
G1 X136.071 Y52.639 Z0 F1600
G1 X136.329 Y52.613 Z0 F1600
G1 X136.588 Y52.639 Z0 F1600
G1 X136.829 Y52.714 Z0 F1600
G1 X137.046 Y52.832 Z0 F1600
G1 X137.236 Y52.989 Z0 F1600
G1 X137.393 Y53.179 Z0 F1600
G1 X137.511 Y53.397 Z0 F1600
G1 X137.586 Y53.638 Z0 F1600
G1 X137.612 Y53.896 Z0 F1600
G0 Z3.5 F1000
G0 X138.895 Z2.1 
G1 Z0 F1000
G1 X138.882 Y54.159 Z0 F1600
G1 X138.843 Y54.413 Z0 F1600
G1 X138.78 Y54.659 Z0 F1600
G1 X138.694 Y54.895 Z0 F1600
G1 X138.457 Y55.331 Z0 F1600
G1 X138.144 Y55.711 Z0 F1600
G1 X137.764 Y56.024 Z0 F1600
G1 X137.328 Y56.261 Z0 F1600
G1 X137.092 Y56.347 Z0 F1600
G1 X136.846 Y56.41 Z0 F1600
G1 X136.591 Y56.449 Z0 F1600
G1 X136.329 Y56.462 Z0 F1600
G1 X136.067 Y56.449 Z0 F1600
G1 X135.812 Y56.41 Z0 F1600
G1 X135.566 Y56.347 Z0 F1600
G1 X135.33 Y56.261 Z0 F1600
G1 X134.894 Y56.024 Z0 F1600
G1 X134.515 Y55.711 Z0 F1600
G1 X134.201 Y55.331 Z0 F1600
G1 X133.965 Y54.895 Z0 F1600
G1 X133.878 Y54.659 Z0 F1600
G1 X133.815 Y54.413 Z0 F1600
G1 X133.776 Y54.159 Z0 F1600
G1 X133.763 Y53.896 Z0 F1600
G1 X133.776 Y53.634 Z0 F1600
G1 X133.815 Y53.379 Z0 F1600
G1 X133.878 Y53.133 Z0 F1600
G1 X133.965 Y52.897 Z0 F1600
G1 X134.201 Y52.462 Z0 F1600
G1 X134.515 Y52.082 Z0 F1600
G1 X134.894 Y51.768 Z0 F1600
G1 X135.33 Y51.532 Z0 F1600
G1 X135.566 Y51.446 Z0 F1600
G1 X135.812 Y51.382 Z0 F1600
G1 X136.067 Y51.343 Z0 F1600
G1 X136.329 Y51.33 Z0 F1600
G1 X136.591 Y51.343 Z0 F1600
G1 X136.846 Y51.382 Z0 F1600
G1 X137.092 Y51.446 Z0 F1600
G1 X137.328 Y51.532 Z0 F1600
G1 X137.764 Y51.768 Z0 F1600
G1 X138.144 Y52.082 Z0 F1600
G1 X138.457 Y52.462 Z0 F1600
G1 X138.694 Y52.897 Z0 F1600
G1 X138.78 Y53.133 Z0 F1600
G1 X138.843 Y53.379 Z0 F1600
G1 X138.882 Y53.634 Z0 F1600
G1 X138.895 Y53.896 Z0 F1600
G0 Z3.5 F1000
G0 X143.514 Y52.357 Z2.1 
G1 Z0 F1000
G1 X146.08 Z0 F1600
G0 Z3.5 F1000
G0 X136.329 Y50.817 Z2.1 
G1 Z0 F1000
G1 Y56.976 Z0 F1600
G0 Z3.5 F1000
G0 X127.639 Y63.118 Z2.1 
G1 Z0 F1000
G1 X128.015 Y63.564 Z0 F1600
G1 X128.378 Y64.022 Z0 F1600
G1 X128.727 Y64.491 Z0 F1600
G1 X129.062 Y64.97 Z0 F1600
G1 X129.382 Y65.459 Z0 F1600
G1 X129.687 Y65.957 Z0 F1600
G1 X129.977 Y66.464 Z0 F1600
G1 X130.252 Y66.98 Z0 F1600
G1 X130.511 Y67.503 Z0 F1600
G1 X130.754 Y68.035 Z0 F1600
G1 X130.981 Y68.573 Z0 F1600
G1 X131.192 Y69.118 Z0 F1600
G1 X131.387 Y69.669 Z0 F1600
G1 X131.565 Y70.225 Z0 F1600
G0 Z3.5 F1000
G0 Z2.1 
G1 Z0 F1000
G1 X131.686 Y70.644 Z0 F1600
G1 X131.799 Y71.066 Z0 F1600
G0 Z3.5 F1000
G0 Z2.1 
G1 Z0 F1000
G1 X114.152 Y81.255 Z0 F1600
G0 Z3.5 F1000
G0 Z2.1 
G1 Z0 F1000
G1 Y83.612 Z0 F1600
G0 Z3.5 F1000
G0 X113.306 Y83.124 Z2.1 
G1 Z0 F1000
G1 Y80.767 Z0 F1600
G0 Z3.5 F1000
G0 Z2.1 
G1 Z0 F1000
G1 X94.469 Y69.891 Z0 F1600
G0 Z3.5 F1000
G0 Z2.1 
G1 Z0 F1000
G1 X94.171 Y70.906 Z0 F1600
G1 X93.929 Y71.936 Z0 F1600
G0 Z3.5 F1000
G0 Z2.1 
G1 Z0 F1000
G1 X93.796 Y72.65 Z0 F1600
G1 X93.69 Y73.369 Z0 F1600
G0 Z3.5 F1000
G0 Z2.1 
G1 Z0 F1000
G1 X93.643 Y73.764 Z0 F1600
G1 X93.604 Y74.159 Z0 F1600
G1 X93.573 Y74.556 Z0 F1600
G1 X93.55 Y74.953 Z0 F1600
G1 X93.536 Y75.35 Z0 F1600
G1 X93.53 Y75.747 Z0 F1600
G1 Y76.145 Z0 F1600
G1 X93.541 Y76.542 Z0 F1600
G1 X93.559 Y76.939 Z0 F1600
G1 X93.585 Y77.336 Z0 F1600
G1 X93.62 Y77.732 Z0 F1600
G1 X93.662 Y78.127 Z0 F1600
G1 X93.712 Y78.522 Z0 F1600
G1 X93.771 Y78.915 Z0 F1600
G0 Z3.5 F1000
G0 Z2.1 
G1 Z0 F1000
G1 X93.984 Y80.041 Z0 F1600
G1 X94.263 Y81.152 Z0 F1600
G0 Z3.5 F1000
G0 Z2.1 
G1 Z0 F1000
G1 X112.461 Y91.658 Z0 F1600
G0 Z3.5 F1000
G0 Z2.1 
G1 Z0 F1000
G1 X112.76 Y91.798 Z0 F1600
G1 X113.082 Y91.888 Z0 F1600
G1 X113.425 Y91.927 Z0 F1600
G1 X113.785 Y91.915 Z0 F1600
G1 X114.16 Y91.854 Z0 F1600
G1 X114.547 Y91.743 Z0 F1600
G1 X114.944 Y91.582 Z0 F1600
G1 X115.347 Y91.372 Z0 F1600
G0 Z3.5 F1000
G0 Z2.1 
G1 Z0 F1000
G1 X118.584 Y89.503 Z0 F1600
G0 Z3.5 F1000
G0 Z2.1 
G1 Z0 F1000
G1 X118.697 Y89.436 Z0 F1600
G1 X118.807 Y89.367 Z0 F1600
G1 X118.913 Y89.297 Z0 F1600
G1 X119.015 Y89.225 Z0 F1600
G1 X119.114 Y89.151 Z0 F1600
G1 X119.208 Y89.076 Z0 F1600
G1 X119.299 Y89 Z0 F1600
G1 X119.384 Y88.923 Z0 F1600
G1 X119.466 Y88.845 Z0 F1600
G1 X119.543 Y88.766 Z0 F1600
G1 X119.615 Y88.686 Z0 F1600
G1 X119.682 Y88.606 Z0 F1600
G1 X119.744 Y88.525 Z0 F1600
G1 X119.801 Y88.445 Z0 F1600
G0 Z3.5 F1000
G0 Z2.1 
G1 Z0 F1000
G1 X93.69 Y73.369 Z0 F1600
G0 Z3.5 F1000
G0 X93.929 Y71.936 Z2.1 
G1 Z0 F1000
G1 X118.068 Y85.873 Z0 F1600
G0 Z3.5 F1000
G0 Z2.1 
G1 Z0 F1000
G1 X118.216 Y85.967 Z0 F1600
G1 X118.363 Y86.078 Z0 F1600
G1 X118.508 Y86.205 Z0 F1600
G1 X118.651 Y86.348 Z0 F1600
G1 X118.791 Y86.507 Z0 F1600
G1 X118.928 Y86.679 Z0 F1600
G1 X119.059 Y86.864 Z0 F1600
G1 X119.186 Y87.062 Z0 F1600
G1 X119.307 Y87.271 Z0 F1600
G1 X119.421 Y87.49 Z0 F1600
G1 X119.528 Y87.718 Z0 F1600
G1 X119.627 Y87.954 Z0 F1600
G1 X119.718 Y88.197 Z0 F1600
G1 X119.801 Y88.445 Z0 F1600
G0 Z3.5 F1000
G0 X115.347 Y91.372 Z2.1 
G1 Z0 F1000
G1 X93.771 Y78.915 Z0 F1600
G0 Z3.5 F1000
G0 X89.451 Y87.341 Z2.1 
G1 Z0 F1000
G1 Y89.933 Z0 F1600
G0 Z3.5 F1000
G0 X89.456 Y90.058 Z2.1 
G1 Z0 F1000
G1 X89.435 Y90.307 Z0 F1600
G1 X89.376 Y90.563 Z0 F1600
G1 X89.282 Y90.817 Z0 F1600
G1 X89.157 Y91.063 Z0 F1600
G1 X89.006 Y91.295 Z0 F1600
G1 X88.833 Y91.503 Z0 F1600
G1 X88.641 Y91.682 Z0 F1600
G1 X88.436 Y91.825 Z0 F1600
G0 Z3.5 F1000
G0 Z2.1 
G1 Z0 F1000
G1 X87.626 Y92.292 Z0 F1600
G0 Z3.5 F1000
G0 Z2.1 
G1 Z0 F1000
G1 X87.408 Y92.395 Z0 F1600
G1 X87.168 Y92.468 Z0 F1600
G0 Z3.5 F1000
G0 Z2.1 
G1 Z0 F1000
G1 X30.705 Y59.869 Z0 F1600
G0 Z3.5 F1000
G0 X30.802 Y59.479 Z2.1 
G1 Z0 F1000
G1 X30.755 Y59.207 Z0 F1600
G1 X30.618 Y58.947 Z0 F1600
G1 X30.397 Y58.708 Z0 F1600
G1 X30.097 Y58.497 Z0 F1600
G0 Z3.5 F1000
G0 Z2.1 
G1 Z0 F1000
G1 X18.191 Y51.623 Z0 F1600
G0 Z3.5 F1000
G0 Z2.1 
G1 Z0 F1000
G1 Y46.32 Z0 F1600
G0 Z3.5 F1000
G0 Z2.1 
G1 Z0 F1000
G1 X17.918 Y46.185 Z0 F1600
G1 X17.618 Y46.076 Z0 F1600
G1 X17.296 Y45.994 Z0 F1600
G1 X16.96 Y45.94 Z0 F1600
G1 X16.613 Y45.915 Z0 F1600
G1 X16.262 Y45.92 Z0 F1600
G1 X15.912 Y45.954 Z0 F1600
G1 X15.57 Y46.019 Z0 F1600
G1 X15.248 Y46.113 Z0 F1600
G1 X14.959 Y46.232 Z0 F1600
G1 X14.705 Y46.372 Z0 F1600
G1 X14.49 Y46.531 Z0 F1600
G1 X14.318 Y46.706 Z0 F1600
G1 X14.191 Y46.895 Z0 F1600
G1 X14.112 Y47.095 Z0 F1600
G1 X14.085 Y47.302 Z0 F1600
G0 Z3.5 F1000
G0 Z2.1 
G1 Z0 F1000
G1 Y52.605 Z0 F1600
G0 Z3.5 F1000
G0 Z2.1 
G1 Z0 F1000
G1 X14.132 Y52.877 Z0 F1600
G1 X14.268 Y53.137 Z0 F1600
G1 X14.489 Y53.376 Z0 F1600
G1 X14.79 Y53.587 Z0 F1600
G0 Z3.5 F1000
G0 Z2.1 
G1 Z0 F1000
G1 X17.223 Y54.992 Z0 F1600
G0 Z3.5 F1000
G0 Z2.1 
G1 Z0 F1000
G1 X18.001 Y54.791 Z0 F1600
G1 X18.809 Y54.668 Z0 F1600
G1 X19.631 Y54.621 Z0 F1600
G1 X20.451 Y54.651 Z0 F1600
G1 X21.252 Y54.754 Z0 F1600
G1 X22.02 Y54.931 Z0 F1600
G1 X22.736 Y55.179 Z0 F1600
G1 X23.386 Y55.497 Z0 F1600
G0 Z3.5 F1000
G0 Z2.1 
G1 Z0 F1000
G1 X23.731 Y55.717 Z0 F1600
G1 X24.034 Y55.953 Z0 F1600
G1 X24.294 Y56.204 Z0 F1600
G1 X24.51 Y56.468 Z0 F1600
G1 X24.68 Y56.743 Z0 F1600
G1 X24.804 Y57.027 Z0 F1600
G1 X24.879 Y57.317 Z0 F1600
G1 X24.904 Y57.613 Z0 F1600
G0 Z3.5 F1000
G0 Z2.1 
G1 Z0 F1000
G1 X24.863 Y57.989 Z0 F1600
G1 X24.741 Y58.358 Z0 F1600
G1 X24.54 Y58.715 Z0 F1600
G1 X24.262 Y59.056 Z0 F1600
G0 Z3.5 F1000
G0 Z2.1 
G1 Z0 F1000
G1 Y56.17 Z0 F1600
G0 Z3.5 F1000
G0 Y59.056 Z2.1 
G1 Z0 F1000
G1 X26.695 Y60.461 Z0 F1600
G0 Z3.5 F1000
G0 Z2.1 
G1 Z0 F1000
G1 X26.969 Y60.597 Z0 F1600
G1 X27.269 Y60.706 Z0 F1600
G1 X27.59 Y60.787 Z0 F1600
G1 X27.927 Y60.841 Z0 F1600
G1 X28.274 Y60.866 Z0 F1600
G1 X28.625 Y60.861 Z0 F1600
G1 X28.974 Y60.827 Z0 F1600
G1 X29.317 Y60.762 Z0 F1600
G1 X29.639 Y60.668 Z0 F1600
G1 X29.928 Y60.55 Z0 F1600
G1 X30.181 Y60.41 Z0 F1600
G1 X30.396 Y60.25 Z0 F1600
G1 X30.569 Y60.075 Z0 F1600
G1 X30.696 Y59.886 Z0 F1600
G1 X30.775 Y59.686 Z0 F1600
G1 X30.802 Y59.479 Z0 F1600
G0 Z3.5 F1000
G0 Z2.1 
G1 Z0 F1000
G1 Y56.193 Z0 F1600
G0 Z3.5 F1000
G0 X30.785 Y56.127 Z2.1 
G1 Z0 F1000
G1 X89.456 Y90.058 Z0 F1600
G0 Z3.5 F1000
G0 X88.436 Y91.825 Z2.1 
G1 Z0 F1000
G1 X30.84 Y58.605 Z0 F1600
G0 Z3.5 F1000
G0 X29.077 Y59.086 Z2.1 
G1 Z0 F1000
G1 X28.758 Y58.964 Z0 F1600
G1 X28.396 Y58.923 Z0 F1600
G1 X28.034 Y58.964 Z0 F1600
G1 X27.716 Y59.086 Z0 F1600
G0 Z3.5 F1000
G0 X27.861 Y59.017 Z2.1 
G1 Z0 F1000
G1 X27.794 Y59.107 Z0 F1600
G1 X27.771 Y59.204 Z0 F1600
G0 Z3.5 F1000
G0 Z2.1 
G1 Z0 F1000
G1 X27.82 Y59.344 Z0 F1600
G1 X27.954 Y59.459 Z0 F1600
G1 X28.153 Y59.537 Z0 F1600
G1 X28.396 Y59.565 Z0 F1600
G1 X28.64 Y59.537 Z0 F1600
G1 X28.838 Y59.459 Z0 F1600
G1 X28.972 Y59.344 Z0 F1600
G1 X29.022 Y59.204 Z0 F1600
G0 Z3.5 F1000
G0 Z2.1 
G1 Z0 F1000
G1 X28.999 Y59.107 Z0 F1600
G1 X28.932 Y59.017 Z0 F1600
G0 Z3.5 F1000
G0 X29.077 Y59.086 Z2.1 
G1 Z0 F1000
G1 X29.2 Y59.173 Z0 F1600
G1 X29.288 Y59.27 Z0 F1600
G1 X29.341 Y59.373 Z0 F1600
G1 X29.358 Y59.479 Z0 F1600
G1 X29.341 Y59.585 Z0 F1600
G1 X29.288 Y59.688 Z0 F1600
G1 X29.2 Y59.785 Z0 F1600
G1 X29.077 Y59.872 Z0 F1600
G1 X28.758 Y59.994 Z0 F1600
G1 X28.396 Y60.034 Z0 F1600
G1 X28.034 Y59.994 Z0 F1600
G1 X27.716 Y59.872 Z0 F1600
G1 X27.593 Y59.785 Z0 F1600
G1 X27.505 Y59.688 Z0 F1600
G1 X27.452 Y59.585 Z0 F1600
G1 X27.434 Y59.479 Z0 F1600
G1 X27.452 Y59.373 Z0 F1600
G1 X27.505 Y59.27 Z0 F1600
G1 X27.593 Y59.173 Z0 F1600
G1 X27.716 Y59.086 Z0 F1600
G0 Z3.5 F1000
G0 X30.097 Y53.194 Z2.1 
G1 Z0 F1000
G1 X21.423 Y48.186 Z0 F1600
G0 Z3.5 F1000
G0 Z2.1 
G1 Z0 F1000
G1 X18.191 Y46.32 Z0 F1600
G0 Z3.5 F1000
G0 Y51.623 Z2.1 
G1 Z0 F1000
G1 X17.918 Y51.487 Z0 F1600
G1 X17.618 Y51.378 Z0 F1600
G1 X17.296 Y51.297 Z0 F1600
G1 X16.96 Y51.243 Z0 F1600
G1 X16.613 Y51.218 Z0 F1600
G1 X16.262 Y51.223 Z0 F1600
G1 X15.912 Y51.257 Z0 F1600
G1 X15.57 Y51.322 Z0 F1600
G1 X15.248 Y51.416 Z0 F1600
G1 X14.959 Y51.534 Z0 F1600
G1 X14.705 Y51.674 Z0 F1600
G1 X14.49 Y51.834 Z0 F1600
G1 X14.318 Y52.009 Z0 F1600
G1 X14.191 Y52.198 Z0 F1600
G1 X14.112 Y52.397 Z0 F1600
G1 X14.085 Y52.605 Z0 F1600
G0 Z3.5 F1000
G0 Y52.423 Z2.1 
G1 Z0 F1000
G1 X10.537 Y54.471 Z0 F1600
G0 Z3.5 F1000
G0 Z2.1 
G1 Z0 F1000
G1 Y57.063 Z0 F1600
G0 Z3.5 F1000
G0 Z2.1 
G1 Z0 F1000
G1 X10.557 Y57.283 Z0 F1600
G1 X10.615 Y57.469 Z0 F1600
G1 X10.709 Y57.618 Z0 F1600
G1 X10.836 Y57.724 Z0 F1600
G0 Z3.5 F1000
G0 Z2.1 
G1 Z0 F1000
G1 X10.992 Y57.781 Z0 F1600
G1 X11.167 Y57.788 Z0 F1600
G1 X11.358 Y57.745 Z0 F1600
G1 X11.558 Y57.652 Z0 F1600
G0 Z3.5 F1000
G0 Z2.1 
G1 Z0 F1000
G1 X12.367 Y57.185 Z0 F1600
G0 Z3.5 F1000
G0 Z2.1 
G1 Z0 F1000
G1 X12.585 Y57.082 Z0 F1600
G1 X12.826 Y57.01 Z0 F1600
G0 Z3.5 F1000
G0 Z2.1 
G1 Z0 F1000
G1 X80.705 Y96.2 Z0 F1600
G0 Z3.5 F1000
G0 Z2.1 
G1 Z0 F1000
G1 X80.579 Y96.338 Z0 F1600
G1 X80.4 Y96.464 Z0 F1600
G0 Z3.5 F1000
G0 Z2.1 
G1 Z0 F1000
G1 X79.591 Y96.931 Z0 F1600
G0 Z3.5 F1000
G0 Z2.1 
G1 Z0 F1000
G1 X79.391 Y97.024 Z0 F1600
G1 X79.201 Y97.067 Z0 F1600
G1 X79.025 Y97.06 Z0 F1600
G1 X78.87 Y97.003 Z0 F1600
G0 Z3.5 F1000
G0 Z2.1 
G1 Z0 F1000
G1 X10.836 Y57.724 Z0 F1600
G0 Z3.5 F1000
G0 X11.558 Y57.652 Z2.1 
G1 Z0 F1000
G1 X79.591 Y96.931 Z0 F1600
G0 Z3.5 F1000
G0 X80.705 Y96.2 Z2.1 
G1 Z0 F1000
G1 X80.623 Y95.989 Z0 F1600
G1 X80.519 Y95.805 Z0 F1600
G1 X80.486 Y95.758 Z0 F1600
G1 X80.452 Y95.715 Z0 F1600
G1 X80.417 Y95.676 Z0 F1600
G1 X80.382 Y95.64 Z0 F1600
G1 X80.345 Y95.608 Z0 F1600
G1 X80.308 Y95.58 Z0 F1600
G1 X80.272 Y95.557 Z0 F1600
G0 Z3.5 F1000
G0 Z2.1 
G1 Z0 F1000
G1 X13.259 Y56.867 Z0 F1600
G0 Z3.5 F1000
G0 Z2.1 
G1 Z0 F1000
G1 X13.222 Y56.848 Z0 F1600
G1 X13.185 Y56.833 Z0 F1600
G1 X13.149 Y56.823 Z0 F1600
G1 X13.113 Y56.817 Z0 F1600
G1 X13.078 Z0 F1600
G1 X13.044 Y56.82 Z0 F1600
G1 X13.011 Y56.829 Z0 F1600
G1 X12.979 Y56.842 Z0 F1600
G1 X12.949 Y56.859 Z0 F1600
G1 X12.921 Y56.881 Z0 F1600
G1 X12.894 Y56.907 Z0 F1600
G1 X12.869 Y56.937 Z0 F1600
G1 X12.846 Y56.971 Z0 F1600
G1 X12.826 Y57.01 Z0 F1600
G0 Z3.5 F1000
G0 X13.259 Y56.867 Z2.1 
G1 Z0 F1000
G1 X12.068 Y56.179 Z0 F1600
G0 Z3.5 F1000
G0 Z2.1 
G1 Z0 F1000
G1 Y55.59 Z0 F1600
G0 Z3.5 F1000
G0 Z2.1 
G1 Z0 F1000
G1 X11.048 Y55.001 Z0 F1600
G0 Z3.5 F1000
G0 Z2.1 
G1 Z0 F1000
G1 Y56.424 Z0 F1600
G0 Z3.5 F1000
G0 Z2.1 
G1 Z0 F1000
G1 X11.108 Y56.365 Z0 F1600
G1 X11.174 Y56.311 Z0 F1600
G1 X11.245 Y56.262 Z0 F1600
G1 X11.32 Y56.219 Z0 F1600
G1 X11.397 Y56.182 Z0 F1600
G1 X11.477 Y56.152 Z0 F1600
G1 X11.558 Y56.129 Z0 F1600
G1 X11.639 Y56.113 Z0 F1600
G1 X11.719 Y56.105 Z0 F1600
G1 X11.796 Z0 F1600
G1 X11.871 Y56.112 Z0 F1600
G1 X11.942 Y56.127 Z0 F1600
G1 X12.008 Y56.15 Z0 F1600
G1 X12.068 Y56.179 Z0 F1600
G0 Z3.5 F1000
G0 Y55.59 Z2.1 
G1 Z0 F1000
G1 X79.081 Y94.28 Z0 F1600
G0 Z3.5 F1000
G0 Z2.1 
G1 Z0 F1000
G1 X79.292 Y94.402 Z0 F1600
G0 Z3.5 F1000
G0 Z2.1 
G1 Z0 F1000
G1 Y94.991 Z0 F1600
G0 Z3.5 F1000
G0 X79.081 Y94.869 Z2.1 
G1 Z0 F1000
G1 Y94.28 Z0 F1600
G0 Z3.5 F1000
G0 Z2.1 
G1 Z0 F1000
G1 X84.694 Y91.04 Z0 F1600
G0 Z3.5 F1000
G0 X84.905 Y91.162 Z2.1 
G1 Z0 F1000
G1 X79.292 Y94.402 Z0 F1600
G0 Z3.5 F1000
G0 X80.715 Y92.218 Z2.1 
G1 Z0 F1000
G1 X80.68 Y92.014 Z0 F1600
G1 X80.578 Y91.819 Z0 F1600
G1 X80.412 Y91.64 Z0 F1600
G1 X80.187 Y91.481 Z0 F1600
G0 Z3.5 F1000
G0 Z2.1 
G1 Z0 F1000
G1 X79.982 Y91.38 Z0 F1600
G1 X79.756 Y91.298 Z0 F1600
G1 X79.516 Y91.237 Z0 F1600
G1 X79.263 Y91.196 Z0 F1600
G1 X78.74 Y91.181 Z0 F1600
G1 X78.221 Y91.256 Z0 F1600
G1 X77.979 Y91.326 Z0 F1600
G1 X77.762 Y91.415 Z0 F1600
G1 X77.572 Y91.52 Z0 F1600
G1 X77.411 Y91.639 Z0 F1600
G1 X77.282 Y91.771 Z0 F1600
G1 X77.186 Y91.913 Z0 F1600
G1 X77.127 Y92.062 Z0 F1600
G1 X77.107 Y92.218 Z0 F1600
G0 Z3.5 F1000
G0 Z2.1 
G1 Z0 F1000
G1 X77.144 Y92.428 Z0 F1600
G1 X77.249 Y92.623 Z0 F1600
G1 X77.415 Y92.8 Z0 F1600
G1 X77.635 Y92.954 Z0 F1600
G1 X77.902 Y93.082 Z0 F1600
G1 X78.209 Y93.178 Z0 F1600
G1 X78.547 Y93.238 Z0 F1600
G1 X78.911 Y93.26 Z0 F1600
G1 X79.275 Y93.238 Z0 F1600
G1 X79.613 Y93.178 Z0 F1600
G1 X79.92 Y93.082 Z0 F1600
G1 X80.187 Y92.954 Z0 F1600
G1 X80.407 Y92.8 Z0 F1600
G1 X80.573 Y92.623 Z0 F1600
G1 X80.678 Y92.428 Z0 F1600
G1 X80.715 Y92.218 Z0 F1600
G0 Z3.5 F1000
G0 X80.552 Y91.786 Z2.1 
G1 Z0 F1000
G1 X80.427 Y91.919 Z0 F1600
G1 X80.272 Y92.038 Z0 F1600
G1 X80.091 Y92.142 Z0 F1600
G1 X79.887 Y92.23 Z0 F1600
G1 X79.424 Y92.352 Z0 F1600
G1 X78.911 Y92.395 Z0 F1600
G1 X78.398 Y92.352 Z0 F1600
G1 X77.935 Y92.23 Z0 F1600
G1 X77.731 Y92.142 Z0 F1600
G1 X77.55 Y92.038 Z0 F1600
G1 X77.395 Y91.919 Z0 F1600
G1 X77.269 Y91.786 Z0 F1600
G0 Z3.5 F1000
G0 X78.141 Y91.354 Z2.1 
G1 Z0 F1000
G1 X78.157 Y91.443 Z0 F1600
G1 X78.202 Y91.527 Z0 F1600
G1 X78.273 Y91.602 Z0 F1600
G1 X78.367 Y91.668 Z0 F1600
G1 X78.611 Y91.763 Z0 F1600
G1 X78.911 Y91.798 Z0 F1600
G1 X79.211 Y91.763 Z0 F1600
G1 X79.455 Y91.668 Z0 F1600
G1 X79.549 Y91.602 Z0 F1600
G1 X79.62 Y91.527 Z0 F1600
G1 X79.665 Y91.443 Z0 F1600
G1 X79.681 Y91.354 Z0 F1600
G0 Z3.5 F1000
G0 Z2.1 
G1 Z0 F1000
G1 X79.677 Y91.313 Z0 F1600
G1 X79.668 Y91.272 Z0 F1600
G0 Z3.5 F1000
G0 X79.269 Y91.197 Z2.1 
G1 Z0 F1000
G1 X79.094 Y91.236 Z0 F1600
G1 X78.911 Y91.248 Z0 F1600
G1 X78.728 Y91.236 Z0 F1600
G1 X78.552 Y91.197 Z0 F1600
G0 Z3.5 F1000
G0 X78.154 Y91.272 Z2.1 
G1 Z0 F1000
G1 X78.144 Y91.313 Z0 F1600
G1 X78.141 Y91.354 Z0 F1600
G0 Z3.5 F1000
G0 X75.006 Y90.364 Z2.1 
G1 Z0 F1000
G1 X75.283 Y89.994 Z0 F1600
G1 X75.594 Y89.652 Z0 F1600
G1 X75.936 Y89.341 Z0 F1600
G1 X76.306 Y89.064 Z0 F1600
G1 X76.702 Y88.824 Z0 F1600
G1 X77.123 Y88.621 Z0 F1600
G1 X77.565 Y88.459 Z0 F1600
G1 X78.026 Y88.341 Z0 F1600
G1 X78.504 Y88.268 Z0 F1600
G1 X78.996 Y88.243 Z0 F1600
G1 X79.487 Y88.268 Z0 F1600
G1 X79.965 Y88.341 Z0 F1600
G1 X80.426 Y88.459 Z0 F1600
G1 X80.868 Y88.621 Z0 F1600
G1 X81.289 Y88.824 Z0 F1600
G1 X81.685 Y89.064 Z0 F1600
G1 X82.056 Y89.341 Z0 F1600
G1 X82.397 Y89.652 Z0 F1600
G1 X82.708 Y89.994 Z0 F1600
G1 X82.985 Y90.364 Z0 F1600
G1 X83.226 Y90.761 Z0 F1600
G1 X83.428 Y91.181 Z0 F1600
G1 X83.59 Y91.623 Z0 F1600
G1 X83.708 Y92.084 Z0 F1600
G1 X83.781 Y92.562 Z0 F1600
G1 X83.806 Y93.054 Z0 F1600
G1 X83.781 Y93.545 Z0 F1600
G1 X83.708 Y94.023 Z0 F1600
G1 X83.59 Y94.484 Z0 F1600
G1 X83.428 Y94.926 Z0 F1600
G1 X83.226 Y95.347 Z0 F1600
G1 X82.985 Y95.743 Z0 F1600
G1 X82.708 Y96.114 Z0 F1600
G1 X82.397 Y96.455 Z0 F1600
G1 X82.056 Y96.766 Z0 F1600
G1 X81.685 Y97.043 Z0 F1600
G1 X81.289 Y97.284 Z0 F1600
G1 X80.868 Y97.486 Z0 F1600
G1 X80.426 Y97.648 Z0 F1600
G1 X79.965 Y97.767 Z0 F1600
G1 X79.487 Y97.839 Z0 F1600
G1 X78.996 Y97.864 Z0 F1600
G1 X78.504 Y97.839 Z0 F1600
G1 X78.026 Y97.767 Z0 F1600
G1 X77.565 Y97.648 Z0 F1600
G1 X77.123 Y97.486 Z0 F1600
G1 X76.702 Y97.284 Z0 F1600
G1 X76.306 Y97.043 Z0 F1600
G1 X75.936 Y96.766 Z0 F1600
G1 X75.594 Y96.455 Z0 F1600
G1 X75.283 Y96.114 Z0 F1600
G1 X75.006 Y95.743 Z0 F1600
G1 X74.765 Y95.347 Z0 F1600
G1 X74.563 Y94.926 Z0 F1600
G1 X74.401 Y94.484 Z0 F1600
G1 X74.283 Y94.023 Z0 F1600
G1 X74.21 Y93.545 Z0 F1600
G1 X74.185 Y93.054 Z0 F1600
G1 X74.21 Y92.562 Z0 F1600
G1 X74.283 Y92.084 Z0 F1600
G1 X74.401 Y91.623 Z0 F1600
G1 X74.563 Y91.181 Z0 F1600
G1 X74.765 Y90.761 Z0 F1600
G1 X75.006 Y90.364 Z0 F1600
G0 Z3.5 F1000
G0 X84.399 Y94.4 Z2.1 
G1 Z0 F1000
G1 Y94.668 Z0 F1600
G1 X84.918 Z0 F1600
G1 Y96.461 Z0 F1600
G1 X84.353 Y96.347 Z0 F1600
G1 Y96.637 Z0 F1600
G1 X84.915 Y96.75 Z0 F1600
G1 X85.233 Z0 F1600
G1 Y94.668 Z0 F1600
G1 X85.752 Z0 F1600
G1 Y94.4 Z0 F1600
G1 X84.399 Z0 F1600
G0 Z3.5 F1000
G0 X89.456 Y87.465 Z2.1 
G1 Z0 F1000
G1 X30.097 Y53.194 Z0 F1600
G0 Z3.5 F1000
G0 X17.171 Y52.212 Z2.1 
G1 Z0 F1000
G1 X16.852 Y52.09 Z0 F1600
G1 X16.49 Y52.05 Z0 F1600
G1 X16.128 Y52.09 Z0 F1600
G1 X15.81 Y52.212 Z0 F1600
G0 Z3.5 F1000
G0 X15.955 Y52.144 Z2.1 
G1 Z0 F1000
G1 X15.888 Y52.233 Z0 F1600
G1 X15.865 Y52.33 Z0 F1600
G0 Z3.5 F1000
G0 Z2.1 
G1 Z0 F1000
G1 X15.914 Y52.471 Z0 F1600
G1 X16.048 Y52.585 Z0 F1600
G1 X16.247 Y52.663 Z0 F1600
G1 X16.49 Y52.691 Z0 F1600
G1 X16.734 Y52.663 Z0 F1600
G1 X16.933 Y52.585 Z0 F1600
G1 X17.067 Y52.471 Z0 F1600
G1 X17.116 Y52.33 Z0 F1600
G0 Z3.5 F1000
G0 Z2.1 
G1 Z0 F1000
G1 X17.093 Y52.233 Z0 F1600
G1 X17.026 Y52.144 Z0 F1600
G0 Z3.5 F1000
G0 X17.171 Y52.212 Z2.1 
G1 Z0 F1000
G1 X17.294 Y52.299 Z0 F1600
G1 X17.382 Y52.396 Z0 F1600
G1 X17.435 Y52.499 Z0 F1600
G1 X17.453 Y52.605 Z0 F1600
G1 X17.435 Y52.711 Z0 F1600
G1 X17.382 Y52.814 Z0 F1600
G1 X17.294 Y52.911 Z0 F1600
G1 X17.171 Y52.998 Z0 F1600
G1 X16.852 Y53.12 Z0 F1600
G1 X16.49 Y53.161 Z0 F1600
G1 X16.128 Y53.12 Z0 F1600
G1 X15.81 Y52.998 Z0 F1600
G1 X15.687 Y52.911 Z0 F1600
G1 X15.599 Y52.814 Z0 F1600
G1 X15.546 Y52.711 Z0 F1600
G1 X15.528 Y52.605 Z0 F1600
G1 X15.546 Y52.499 Z0 F1600
G1 X15.599 Y52.396 Z0 F1600
G1 X15.687 Y52.299 Z0 F1600
G1 X15.81 Y52.212 Z0 F1600
G0 Z3.5 F1000
G0 X14.271 Y53.14 Z2.1 
G1 Z0 F1000
G1 X11.048 Y55.001 Z0 F1600
G0 Z3.5 F1000
G0 X12.068 Y55.59 Z2.1 
G1 Z0 F1000
G1 X15.164 Y53.803 Z0 F1600
G0 Z3.5 F1000
G0 X15.282 Y54.668 Z2.1 
G1 Z0 F1000
G1 X15.457 Y54.706 Z0 F1600
G1 X15.64 Y54.719 Z0 F1600
G1 X15.823 Y54.706 Z0 F1600
G1 X15.998 Y54.668 Z0 F1600
G0 Z3.5 F1000
G0 X16.397 Y54.743 Z2.1 
G1 Z0 F1000
G1 X16.406 Y54.783 Z0 F1600
G1 X16.41 Y54.824 Z0 F1600
G0 Z3.5 F1000
G0 Z2.1 
G1 Z0 F1000
G1 X16.394 Y54.914 Z0 F1600
G1 X16.349 Y54.997 Z0 F1600
G1 X16.278 Y55.073 Z0 F1600
G1 X16.184 Y55.139 Z0 F1600
G1 X15.94 Y55.234 Z0 F1600
G1 X15.64 Y55.269 Z0 F1600
G1 X15.34 Y55.234 Z0 F1600
G1 X15.096 Y55.139 Z0 F1600
G1 X15.002 Y55.073 Z0 F1600
G1 X14.931 Y54.997 Z0 F1600
G1 X14.886 Y54.914 Z0 F1600
G1 X14.87 Y54.824 Z0 F1600
G0 Z3.5 F1000
G0 Z2.1 
G1 Z0 F1000
G1 X14.874 Y54.783 Z0 F1600
G1 X14.883 Y54.743 Z0 F1600
G0 Z3.5 F1000
G0 X13.999 Y55.256 Z2.1 
G1 Z0 F1000
G1 X14.124 Y55.389 Z0 F1600
G1 X14.279 Y55.508 Z0 F1600
G1 X14.46 Y55.612 Z0 F1600
G1 X14.664 Y55.7 Z0 F1600
G1 X15.127 Y55.823 Z0 F1600
G1 X15.64 Y55.866 Z0 F1600
G1 X16.153 Y55.823 Z0 F1600
G1 X16.616 Y55.7 Z0 F1600
G1 X16.82 Y55.612 Z0 F1600
G1 X17.001 Y55.508 Z0 F1600
G1 X17.156 Y55.389 Z0 F1600
G1 X17.281 Y55.256 Z0 F1600
G0 Z3.5 F1000
G0 X16.916 Y54.952 Z2.1 
G1 Z0 F1000
G1 X16.711 Y54.85 Z0 F1600
G1 X16.486 Y54.768 Z0 F1600
G1 X16.245 Y54.707 Z0 F1600
G1 X15.992 Y54.667 Z0 F1600
G1 X15.469 Y54.652 Z0 F1600
G1 X14.95 Y54.726 Z0 F1600
G1 X14.708 Y54.797 Z0 F1600
G1 X14.491 Y54.885 Z0 F1600
G1 X14.301 Y54.99 Z0 F1600
G1 X14.14 Y55.11 Z0 F1600
G1 X14.011 Y55.241 Z0 F1600
G1 X13.915 Y55.383 Z0 F1600
G1 X13.856 Y55.533 Z0 F1600
G1 X13.836 Y55.688 Z0 F1600
G0 Z3.5 F1000
G0 Z2.1 
G1 Z0 F1000
G1 X13.873 Y55.898 Z0 F1600
G1 X13.978 Y56.094 Z0 F1600
G1 X14.144 Y56.271 Z0 F1600
G1 X14.364 Y56.425 Z0 F1600
G1 X14.631 Y56.552 Z0 F1600
G1 X14.938 Y56.648 Z0 F1600
G1 X15.276 Y56.709 Z0 F1600
G1 X15.64 Y56.73 Z0 F1600
G1 X16.004 Y56.709 Z0 F1600
G1 X16.342 Y56.648 Z0 F1600
G1 X16.649 Y56.552 Z0 F1600
G1 X16.916 Y56.425 Z0 F1600
G1 X17.136 Y56.271 Z0 F1600
G1 X17.302 Y56.094 Z0 F1600
G1 X17.407 Y55.898 Z0 F1600
G1 X17.444 Y55.688 Z0 F1600
G0 Z3.5 F1000
G0 Z2.1 
G1 Z0 F1000
G1 X17.409 Y55.484 Z0 F1600
G1 X17.307 Y55.29 Z0 F1600
G1 X17.141 Y55.111 Z0 F1600
G1 X16.916 Y54.952 Z0 F1600
G0 Z3.5 F1000
G0 X12.367 Y57.185 Z2.1 
G1 Z0 F1000
G1 X11.048 Y56.424 Z0 F1600
G0 Z3.5 F1000
G0 X6.486 Y52.357 Z2.1 
G1 Z0 F1000
G1 X3.92 Z0 F1600
G0 Z3.5 F1000
G0 Y78.017 Z2.1 
G1 Z0 F1000
G1 X9.052 Z0 F1600
G0 Z3.5 F1000
G0 X10.152 Y86.297 Z2.1 
G1 Z0 F1000
G1 Y94.813 Z0 F1600
G0 Z3.5 F1000
G0 Z2.1 
G1 Z0 F1000
G1 Y97.988 Z0 F1600
G0 Z3.5 F1000
G0 Z2.1 
G1 Z0 F1000
G1 X10.182 Y98.279 Z0 F1600
G1 X10.266 Y98.55 Z0 F1600
G1 X10.399 Y98.795 Z0 F1600
G1 X10.575 Y99.009 Z0 F1600
G1 X10.789 Y99.185 Z0 F1600
G1 X11.034 Y99.318 Z0 F1600
G1 X11.305 Y99.402 Z0 F1600
G1 X11.595 Y99.432 Z0 F1600
G0 Z3.5 F1000
G0 Z2.1 
G1 Z0 F1000
G1 X12.74 Z0 F1600
G0 Z3.5 F1000
G0 Z2.1 
G1 Z0 F1000
G1 X13.279 Z0 F1600
G0 Z3.5 F1000
G0 Z2.1 
G1 Z0 F1000
G1 Y98.951 Z0 F1600
G0 Z3.5 F1000
G0 Z2.1 
G1 Z0 F1000
G1 X11.595 Y97.267 Z0 F1600
G0 Z3.5 F1000
G0 Z2.1 
G1 Z0 F1000
G1 X10.874 Y97.566 Z0 F1600
G0 Z3.5 F1000
G0 Z2.1 
G1 Z0 F1000
G1 X12.74 Y99.432 Z0 F1600
G0 Z3.5 F1000
G0 X10.874 Y97.566 Z2.1 
G1 Z0 F1000
G1 Y95.824 Z0 F1600
G0 Z3.5 F1000
G0 Z2.1 
G1 Z0 F1000
G1 X11.595 Y96.545 Z0 F1600
G0 Z3.5 F1000
G0 Z2.1 
G1 Z0 F1000
G1 Y97.267 Z0 F1600
G0 Z3.5 F1000
G0 Y96.545 Z2.1 
G1 Z0 F1000
G1 X20.736 Z0 F1600
G0 Z3.5 F1000
G0 Y95.824 Z2.1 
G1 Z0 F1000
G1 X10.874 Z0 F1600
G0 Z3.5 F1000
G0 X10.152 Y94.813 Z2.1 
G1 Z0 F1000
G1 X20.736 Z0 F1600
G0 Z3.5 F1000
G0 Z2.1 
G1 Z0 F1000
G1 Y101.308 Z0 F1600
G0 Z3.5 F1000
G0 Z2.1 
G1 Z0 F1000
G1 X25.546 Z0 F1600
G0 Z3.5 F1000
G0 Z2.1 
G1 Z0 F1000
G1 Y94.813 Z0 F1600
G0 Z3.5 F1000
G0 Z2.1 
G1 Z0 F1000
G1 X20.736 Z0 F1600
G0 Z3.5 F1000
G0 X25.546 Z2.1 
G1 Z0 F1000
G1 Y86.297 Z0 F1600
G0 Z3.5 F1000
G0 Y87.644 Z2.1 
G1 Z0 F1000
G1 X10.152 Z0 F1600
G0 Z3.5 F1000
G0 Z2.1 
G1 Z0 F1000
G1 X11.836 Y87.364 Z0 F1600
G1 Y87.925 Z0 F1600
G1 X10.152 Y87.644 Z0 F1600
G0 Z3.5 F1000
G0 X16.12 Y89.429 Z2.1 
G1 Z0 F1000
G1 X16.241 Y89.318 Z0 F1600
G1 X16.439 Y89.207 Z0 F1600
G1 X16.639 Y89.152 Z0 F1600
G1 X16.85 Z0 F1600
G1 X17.046 Y89.207 Z0 F1600
G1 X17.204 Y89.306 Z0 F1600
G1 X17.313 Y89.461 Z0 F1600
G1 X17.348 Y89.594 Z0 F1600
G1 X17.359 Y89.759 Z0 F1600
G1 X17.324 Y89.913 Z0 F1600
G1 X17.236 Y90.047 Z0 F1600
G1 X17.046 Y90.19 Z0 F1600
G1 X16.871 Y90.257 Z0 F1600
G1 X16.696 Y90.278 Z0 F1600
G1 X16.527 Z0 F1600
G1 X16.66 Z0 F1600
G1 X16.839 Y90.313 Z0 F1600
G1 X17.046 Y90.422 Z0 F1600
G1 X17.236 Y90.566 Z0 F1600
G1 X17.292 Y90.755 Z0 F1600
G1 X17.257 Y90.966 Z0 F1600
G1 X17.18 Y91.141 Z0 F1600
G1 X17.015 Y91.275 Z0 F1600
G1 X16.815 Y91.331 Z0 F1600
G1 X16.629 Z0 F1600
G1 X16.397 Y91.229 Z0 F1600
G1 X16.219 Y91.096 Z0 F1600
G0 Z3.5 F1000
G0 X17.922 Y91.033 Z2.1 
G1 Z0 F1000
G1 X18.068 Y91.173 Z0 F1600
G1 X18.243 Y91.285 Z0 F1600
G1 X18.464 Y91.341 Z0 F1600
G1 X18.654 Y91.306 Z0 F1600
G1 X18.85 Y91.208 Z0 F1600
G1 X18.973 Y91.043 Z0 F1600
G1 X19.029 Y90.797 Z0 F1600
G1 X19.015 Y90.59 Z0 F1600
G1 X18.906 Y90.334 Z0 F1600
G1 X18.706 Y90.047 Z0 F1600
G1 X18.464 Y89.748 Z0 F1600
G1 X18.243 Y89.517 Z0 F1600
G1 X17.944 Y89.185 Z0 F1600
G1 X19.194 Z0 F1600
G0 Z3.5 F1000
G0 X23.863 Y87.925 Z2.1 
G1 Z0 F1000
G1 Y87.364 Z0 F1600
G1 X25.546 Y87.644 Z0 F1600
G1 X23.863 Y87.925 Z0 F1600
G0 Z3.5 F1000
G0 X25.546 Y94.813 Z2.1 
G1 Z0 F1000
G1 X35.415 Z0 F1600
G0 Z3.5 F1000
G0 X34.068 Z2.1 
G1 Z0 F1000
G1 Y101.308 Z0 F1600
G0 Z3.5 F1000
G0 Z2.1 
G1 Z0 F1000
G1 X33.787 Y99.624 Z0 F1600
G1 X34.349 Z0 F1600
G1 X34.068 Y101.308 Z0 F1600
G0 Z3.5 F1000
G0 X35.415 Z2.1 
G1 Z0 F1000
G1 X25.546 Z0 F1600
G0 Z3.5 F1000
G0 X25.147 Y105.957 Z2.1 
G1 Z0 F1000
G1 Y109.035 Z0 F1600
G0 Z3.5 F1000
G0 Z2.1 
G1 Z0 F1000
G1 Y110.575 Z0 F1600
G0 Z3.5 F1000
G0 Z2.1 
G1 Z0 F1000
G1 Y116.733 Z0 F1600
G0 Z3.5 F1000
G0 Z2.1 
G1 Z0 F1000
G1 X25.82 Z0 F1600
G0 Z3.5 F1000
G0 Z2.1 
G1 Z0 F1000
G1 Y115.698 Z0 F1600
G0 Z3.5 F1000
G0 Z2.1 
G1 Z0 F1000
G1 X26.879 Z0 F1600
G0 Z3.5 F1000
G0 Z2.1 
G1 Z0 F1000
G1 Y111.609 Z0 F1600
G0 Z3.5 F1000
G0 Z2.1 
G1 Z0 F1000
G1 Y108.001 Z0 F1600
G0 Z3.5 F1000
G0 Z2.1 
G1 Z0 F1000
G1 Y107.402 Z0 F1600
G0 Z3.5 F1000
G0 Y107.4 Z2.1 
G1 Z0 F1000
G1 X27.6 Z0 F1600
G0 Z3.5 F1000
G0 Z2.1 
G1 Z0 F1000
G1 X29.284 Y109.084 Z0 F1600
G0 Z3.5 F1000
G0 Z2.1 
G1 Z0 F1000
G1 X29.765 Z0 F1600
G0 Z3.5 F1000
G0 Z2.1 
G1 Z0 F1000
G1 Y107.4 Z0 F1600
G0 Z3.5 F1000
G0 Z2.1 
G1 Z0 F1000
G1 Y107.05 Z0 F1600
G0 Z3.5 F1000
G0 Z2.1 
G1 Z0 F1000
G1 X29.686 Y106.819 Z0 F1600
G1 X29.572 Y106.608 Z0 F1600
G1 X29.426 Y106.422 Z0 F1600
G1 X29.253 Y106.262 Z0 F1600
G1 X29.057 Y106.133 Z0 F1600
G1 X28.84 Y106.037 Z0 F1600
G1 X28.608 Y105.977 Z0 F1600
G1 X28.365 Y105.957 Z0 F1600
G0 Z3.5 F1000
G0 X25.147 Z2.1 
G1 Z0 F1000
G1 X31.641 Z0 F1600
G0 Z3.5 F1000
G0 Z2.1 
G1 Z0 F1000
G1 Y107.05 Z0 F1600
G0 Z3.5 F1000
G0 Z2.1 
G1 Z0 F1000
G1 Y110.767 Z0 F1600
G0 Z3.5 F1000
G0 Z2.1 
G1 Z0 F1000
G1 X26.879 Z0 F1600
G0 Z3.5 F1000
G0 X25.82 Z2.1 
G1 Z0 F1000
G1 X25.147 Z0 F1600
G0 Z3.5 F1000
G0 Y110.575 Z2.1 
G1 Z0 F1000
G1 X25.82 Z0 F1600
G0 Z3.5 F1000
G0 Z2.1 
G1 Z0 F1000
G1 Y111.609 Z0 F1600
G0 Z3.5 F1000
G0 Z2.1 
G1 Z0 F1000
G1 X26.879 Z0 F1600
G0 Z3.5 F1000
G0 X25.82 Y110.575 Z2.1 
G1 Z0 F1000
G1 Y109.035 Z0 F1600
G0 Z3.5 F1000
G0 Z2.1 
G1 Z0 F1000
G1 Y108.001 Z0 F1600
G0 Z3.5 F1000
G0 Z2.1 
G1 Z0 F1000
G1 X26.879 Z0 F1600
G0 Z3.5 F1000
G0 X25.82 Y109.035 Z2.1 
G1 Z0 F1000
G1 X25.147 Z0 F1600
G0 Z3.5 F1000
G0 X26.879 Y115.698 Z2.1 
G1 Z0 F1000
G1 Y119.306 Z0 F1600
G0 Z3.5 F1000
G0 Z2.1 
G1 Z0 F1000
G1 Y119.908 Z0 F1600
G0 Z3.5 F1000
G0 Z2.1 
G1 Z0 F1000
G1 X27.6 Z0 F1600
G0 Z3.5 F1000
G0 Z2.1 
G1 Z0 F1000
G1 X29.284 Y118.224 Z0 F1600
G0 Z3.5 F1000
G0 Z2.1 
G1 Z0 F1000
G1 X29.765 Z0 F1600
G0 Z3.5 F1000
G0 Z2.1 
G1 Z0 F1000
G1 Y119.908 Z0 F1600
G0 Z3.5 F1000
G0 Z2.1 
G1 Z0 F1000
G1 X29.736 Y120.198 Z0 F1600
G1 X29.652 Y120.469 Z0 F1600
G1 X29.518 Y120.714 Z0 F1600
G1 X29.342 Y120.928 Z0 F1600
G1 X29.129 Y121.104 Z0 F1600
G1 X28.883 Y121.237 Z0 F1600
G1 X28.613 Y121.321 Z0 F1600
G1 X28.322 Y121.351 Z0 F1600
G0 Z3.5 F1000
G0 Z2.1 
G1 Z0 F1000
G1 X25.147 Z0 F1600
G0 Z3.5 F1000
G0 Z2.1 
G1 Z0 F1000
G1 Y118.272 Z0 F1600
G0 Z3.5 F1000
G0 Z2.1 
G1 Z0 F1000
G1 X25.82 Z0 F1600
G0 Z3.5 F1000
G0 Z2.1 
G1 Z0 F1000
G1 Y119.306 Z0 F1600
G0 Z3.5 F1000
G0 Z2.1 
G1 Z0 F1000
G1 X26.879 Z0 F1600
G0 Z3.5 F1000
G0 X25.82 Y118.272 Z2.1 
G1 Z0 F1000
G1 Y116.733 Z0 F1600
G0 Z3.5 F1000
G0 X25.147 Z2.1 
G1 Z0 F1000
G1 Y118.272 Z0 F1600
G0 Z3.5 F1000
G0 X21.112 Y126.773 Z2.1 
G1 Z0 F1000
G1 Y129.339 Z0 F1600
G0 Z3.5 F1000
G0 X8.855 Y127.538 Z2.1 
G1 Z0 F1000
G1 Y127.389 Z0 F1600
G1 X8.101 Z0 F1600
G1 Y127.538 Z0 F1600
G1 X8.39 Z0 F1600
G1 Y128.537 Z0 F1600
G1 X8.075 Y128.474 Z0 F1600
G1 Y128.635 Z0 F1600
G1 X8.389 Y128.698 Z0 F1600
G1 X8.566 Z0 F1600
G1 Y127.538 Z0 F1600
G1 X8.855 Z0 F1600
G0 Z3.5 F1000
G0 X33.652 Z2.1 
G1 Z0 F1000
G1 X34.069 Y127.963 Z0 F1600
G1 X34.146 Y128.045 Z0 F1600
G1 X34.218 Y128.133 Z0 F1600
G1 X34.265 Y128.206 Z0 F1600
G1 X34.29 Y128.272 Z0 F1600
G1 X34.299 Y128.337 Z0 F1600
G1 X34.28 Y128.431 Z0 F1600
G1 X34.225 Y128.507 Z0 F1600
G1 X34.141 Y128.556 Z0 F1600
G1 X34.035 Y128.573 Z0 F1600
G1 X33.949 Y128.565 Z0 F1600
G1 X33.859 Y128.544 Z0 F1600
G1 X33.763 Y128.507 Z0 F1600
G1 X33.661 Y128.456 Z0 F1600
G1 Y128.635 Z0 F1600
G1 X33.765 Y128.673 Z0 F1600
G1 X33.861 Y128.7 Z0 F1600
G1 X33.95 Y128.716 Z0 F1600
G1 X34.031 Y128.722 Z0 F1600
G1 X34.214 Y128.696 Z0 F1600
G1 X34.356 Y128.62 Z0 F1600
G1 X34.446 Y128.501 Z0 F1600
G1 X34.477 Y128.348 Z0 F1600
G1 X34.469 Y128.27 Z0 F1600
G1 X34.447 Y128.195 Z0 F1600
G1 X34.404 Y128.116 Z0 F1600
G1 X34.336 Y128.025 Z0 F1600
G1 X34.197 Y127.878 Z0 F1600
G1 X33.865 Y127.538 Z0 F1600
G1 X34.484 Z0 F1600
G1 Y127.389 Z0 F1600
G1 X33.652 Z0 F1600
G1 Y127.538 Z0 F1600
G0 Z3.5 F1000
G0 X46.773 Y126.773 Z2.1 
G1 Z0 F1000
G1 Y129.339 Z0 F1600
G0 Z3.5 F1000
G0 X47.249 Y123.28 Z2.1 
G1 Z0 F1000
G1 Y102.827 Z0 F1600
G0 Z3.5 F1000
G0 X47.247 Y103.01 Z2.1 
G1 Z0 F1000
G1 X49.775 Z0 F1600
G0 Z3.5 F1000
G0 Y103.237 Z2.1 
G1 Z0 F1000
G1 Y102.783 Z0 F1600
G1 X51.46 Y103.01 Z0 F1600
G1 X49.775 Y103.237 Z0 F1600
G0 Z3.5 F1000
G0 X49.657 Y105.91 Z2.1 
G1 Z0 F1000
G1 X56.148 Z0 F1600
G0 Z3.5 F1000
G0 Z2.1 
G1 Z0 F1000
G1 X56.633 Y105.959 Z0 F1600
G1 X57.085 Y106.099 Z0 F1600
G1 X57.493 Y106.321 Z0 F1600
G1 X57.849 Y106.615 Z0 F1600
G1 X58.143 Y106.971 Z0 F1600
G1 X58.365 Y107.379 Z0 F1600
G1 X58.505 Y107.831 Z0 F1600
G1 X58.554 Y108.315 Z0 F1600
G1 X58.505 Y108.8 Z0 F1600
G1 X58.365 Y109.252 Z0 F1600
G1 X58.143 Y109.66 Z0 F1600
G1 X57.849 Y110.016 Z0 F1600
G1 X57.493 Y110.31 Z0 F1600
G1 X57.085 Y110.532 Z0 F1600
G1 X56.633 Y110.672 Z0 F1600
G1 X56.148 Y110.721 Z0 F1600
G0 Z3.5 F1000
G0 Z2.1 
G1 Z0 F1000
G1 X52.707 Z0 F1600
G0 Z3.5 F1000
G0 Z2.1 
G1 Z0 F1000
G1 X48.775 Z0 F1600
G0 Z3.5 F1000
G0 Z2.1 
G1 Z0 F1000
G1 X45.723 Z0 F1600
G0 Z3.5 F1000
G0 Z2.1 
G1 Z0 F1000
G1 X42.752 Z0 F1600
G0 Z3.5 F1000
G0 Z2.1 
G1 Z0 F1000
G1 X39.311 Z0 F1600
G0 Z3.5 F1000
G0 Z2.1 
G1 Z0 F1000
G1 X38.826 Y110.672 Z0 F1600
G1 X38.375 Y110.532 Z0 F1600
G1 X37.966 Y110.31 Z0 F1600
G1 X37.61 Y110.016 Z0 F1600
G1 X37.317 Y109.66 Z0 F1600
G1 X37.095 Y109.252 Z0 F1600
G1 X36.955 Y108.8 Z0 F1600
G1 X36.906 Y108.315 Z0 F1600
G1 X36.955 Y107.831 Z0 F1600
G1 X37.095 Y107.379 Z0 F1600
G1 X37.317 Y106.971 Z0 F1600
G1 X37.61 Y106.615 Z0 F1600
G1 X37.966 Y106.321 Z0 F1600
G1 X38.375 Y106.099 Z0 F1600
G1 X38.826 Y105.959 Z0 F1600
G1 X39.311 Y105.91 Z0 F1600
G0 Z3.5 F1000
G0 Z2.1 
G1 Z0 F1000
G1 X49.657 Z0 F1600
G0 Z3.5 F1000
G0 X49.167 Y107.185 Z2.1 
G1 Z0 F1000
G1 X48.937 Y107.124 Z0 F1600
G1 X48.707 Y107.075 Z0 F1600
G0 Z3.5 F1000
G0 X48.241 Y107.007 Z2.1 
G1 Z0 F1000
G1 X47.985 Y106.988 Z0 F1600
G1 X47.73 Y106.982 Z0 F1600
G0 Z3.5 F1000
G0 Z2.1 
G1 Z0 F1000
G1 X48.159 Y106.999 Z0 F1600
G1 X48.579 Y107.051 Z0 F1600
G1 X48.991 Y107.137 Z0 F1600
G1 X49.39 Y107.254 Z0 F1600
G1 X49.777 Y107.403 Z0 F1600
G1 X50.149 Y107.581 Z0 F1600
G1 X50.505 Y107.787 Z0 F1600
G1 X50.843 Y108.02 Z0 F1600
G1 X51.161 Y108.28 Z0 F1600
G1 X51.458 Y108.564 Z0 F1600
G1 X51.733 Y108.872 Z0 F1600
G1 X51.983 Y109.202 Z0 F1600
G1 X52.207 Y109.553 Z0 F1600
G1 X52.404 Y109.924 Z0 F1600
G1 X52.571 Y110.314 Z0 F1600
G1 X52.707 Y110.721 Z0 F1600
G0 Z3.5 F1000
G0 X55.706 Y108.758 Z2.1 
G1 Z0 F1000
G1 X55.905 Y108.892 Z0 F1600
G1 X56.148 Y108.941 Z0 F1600
G1 X56.392 Y108.892 Z0 F1600
G1 X56.591 Y108.758 Z0 F1600
G1 X56.725 Y108.559 Z0 F1600
G1 X56.774 Y108.315 Z0 F1600
G1 X56.725 Y108.072 Z0 F1600
G1 X56.591 Y107.873 Z0 F1600
G1 X56.392 Y107.739 Z0 F1600
G1 X56.148 Y107.69 Z0 F1600
G1 X55.905 Y107.739 Z0 F1600
G1 X55.706 Y107.873 Z0 F1600
G1 X55.572 Y108.072 Z0 F1600
G1 X55.523 Y108.315 Z0 F1600
G1 X55.572 Y108.559 Z0 F1600
G1 X55.706 Y108.758 Z0 F1600
G0 Z3.5 F1000
G0 X55.351 Y108.853 Z2.1 
G1 Z0 F1000
G1 X55.468 Y108.996 Z0 F1600
G1 X55.611 Y109.113 Z0 F1600
G1 X55.774 Y109.202 Z0 F1600
G1 X55.955 Y109.258 Z0 F1600
G1 X56.148 Y109.278 Z0 F1600
G1 X56.342 Y109.258 Z0 F1600
G1 X56.523 Y109.202 Z0 F1600
G1 X56.686 Y109.113 Z0 F1600
G1 X56.829 Y108.996 Z0 F1600
G1 X56.946 Y108.853 Z0 F1600
G1 X57.035 Y108.69 Z0 F1600
G1 X57.091 Y108.509 Z0 F1600
G1 X57.111 Y108.315 Z0 F1600
G1 X57.091 Y108.121 Z0 F1600
G1 X57.035 Y107.941 Z0 F1600
G1 X56.946 Y107.777 Z0 F1600
G1 X56.829 Y107.635 Z0 F1600
G1 X56.686 Y107.518 Z0 F1600
G1 X56.523 Y107.429 Z0 F1600
G1 X56.342 Y107.373 Z0 F1600
G1 X56.148 Y107.353 Z0 F1600
G1 X55.955 Y107.373 Z0 F1600
G1 X55.774 Y107.429 Z0 F1600
G1 X55.611 Y107.518 Z0 F1600
G1 X55.468 Y107.635 Z0 F1600
G1 X55.351 Y107.777 Z0 F1600
G1 X55.262 Y107.941 Z0 F1600
G1 X55.206 Y108.121 Z0 F1600
G1 X55.186 Y108.315 Z0 F1600
G1 X55.206 Y108.509 Z0 F1600
G1 X55.262 Y108.69 Z0 F1600
G1 X55.351 Y108.853 Z0 F1600
G0 Z3.5 F1000
G0 X58.443 Y109.037 Z2.1 
G1 Z0 F1000
G1 X139.986 Z0 F1600
G0 Z3.5 F1000
G0 Z2.1 
G1 Z0 F1000
G1 X140.067 Y108.778 Z0 F1600
G1 X140.095 Y108.498 Z0 F1600
G0 Z3.5 F1000
G0 X139.373 Y109.037 Z2.1 
G1 Z0 F1000
G1 Y118.177 Z0 F1600
G0 Z3.5 F1000
G0 X139.986 Z2.1 
G1 Z0 F1000
G1 X43.99 Z0 F1600
G0 Z3.5 F1000
G0 Z2.1 
G1 Z0 F1000
G1 X43.909 Y118.436 Z0 F1600
G1 X43.881 Y118.717 Z0 F1600
G0 Z3.5 F1000
G0 X44.603 Y118.177 Z2.1 
G1 Z0 F1000
G1 Y108.031 Z0 F1600
G0 Z3.5 F1000
G0 X46.292 Y107.185 Z2.1 
G1 Z0 F1000
G1 X46.652 Y107.095 Z0 F1600
G1 X47.011 Y107.032 Z0 F1600
G1 X47.37 Y106.994 Z0 F1600
G1 X47.73 Y106.982 Z0 F1600
G0 Z3.5 F1000
G0 Z2.1 
G1 Z0 F1000
G1 X47.301 Y106.999 Z0 F1600
G1 X46.88 Y107.051 Z0 F1600
G1 X46.469 Y107.137 Z0 F1600
G1 X46.069 Y107.254 Z0 F1600
G1 X45.683 Y107.403 Z0 F1600
G1 X45.311 Y107.581 Z0 F1600
G1 X44.955 Y107.787 Z0 F1600
G1 X44.617 Y108.02 Z0 F1600
G1 X44.299 Y108.28 Z0 F1600
G1 X44.001 Y108.564 Z0 F1600
G1 X43.727 Y108.872 Z0 F1600
G1 X43.477 Y109.202 Z0 F1600
G1 X43.253 Y109.553 Z0 F1600
G1 X43.056 Y109.924 Z0 F1600
G1 X42.889 Y110.314 Z0 F1600
G1 X42.752 Y110.721 Z0 F1600
G0 Z3.5 F1000
G0 X43.881 Z2.1 
G1 Z0 F1000
G1 Y119.861 Z0 F1600
G0 Z3.5 F1000
G0 Z2.1 
G1 Z0 F1000
G1 Y121.304 Z0 F1600
G0 Z3.5 F1000
G0 Z2.1 
G1 Z0 F1000
G1 X140.095 Z0 F1600
G0 Z3.5 F1000
G0 Z2.1 
G1 Z0 F1000
G1 Y119.861 Z0 F1600
G0 Z3.5 F1000
G0 Z2.1 
G1 Z0 F1000
G1 Y118.717 Z0 F1600
G0 Z3.5 F1000
G0 Z2.1 
G1 Z0 F1000
G1 X140.067 Y118.436 Z0 F1600
G1 X139.986 Y118.177 Z0 F1600
G0 Z3.5 F1000
G0 X140.095 Y118.717 Z2.1 
G1 Z0 F1000
G1 Y107.353 Z0 F1600
G0 Z3.5 F1000
G0 Z2.1 
G1 Z0 F1000
G1 Y105.91 Z0 F1600
G0 Z3.5 F1000
G0 Z2.1 
G1 Z0 F1000
G1 X56.148 Z0 F1600
G0 Z3.5 F1000
G0 X58.353 Y107.353 Z2.1 
G1 Z0 F1000
G1 X140.095 Z0 F1600
G0 Z3.5 F1000
G0 X136.995 Y109.037 Z2.1 
G1 Z0 F1000
G1 X137.228 Y109.174 Z0 F1600
G1 X137.396 Y109.377 Z0 F1600
G1 X137.485 Y109.624 Z0 F1600
G1 Y109.895 Z0 F1600
G1 X137.391 Y110.148 Z0 F1600
G1 X137.221 Y110.349 Z0 F1600
G1 X136.994 Y110.481 Z0 F1600
G1 X136.727 Y110.528 Z0 F1600
G1 X136.461 Y110.481 Z0 F1600
G1 X136.234 Y110.349 Z0 F1600
G1 X136.064 Y110.148 Z0 F1600
G1 X135.97 Y109.895 Z0 F1600
G1 Y109.624 Z0 F1600
G1 X136.059 Y109.377 Z0 F1600
G1 X136.226 Y109.174 Z0 F1600
G1 X136.46 Y109.037 Z0 F1600
G0 Z3.5 F1000
G0 X135.074 Z2.1 
G1 Z0 F1000
G1 X134.976 Y109.325 Z0 F1600
G1 X134.929 Y109.62 Z0 F1600
G1 Y109.915 Z0 F1600
G1 X134.979 Y110.204 Z0 F1600
G1 X135.074 Y110.481 Z0 F1600
G1 X135.214 Y110.74 Z0 F1600
G1 X135.396 Y110.976 Z0 F1600
G1 X135.62 Y111.183 Z0 F1600
G1 X135.876 Y111.349 Z0 F1600
G1 X136.149 Y111.468 Z0 F1600
G1 X136.435 Y111.539 Z0 F1600
G1 X136.727 Y111.563 Z0 F1600
G1 X137.019 Y111.539 Z0 F1600
G1 X137.305 Y111.468 Z0 F1600
G1 X137.579 Y111.349 Z0 F1600
G1 X137.834 Y111.183 Z0 F1600
G1 X138.058 Y110.976 Z0 F1600
G1 X138.241 Y110.74 Z0 F1600
G1 X138.38 Y110.481 Z0 F1600
G1 X138.476 Y110.204 Z0 F1600
G1 X138.525 Y109.915 Z0 F1600
G1 Y109.62 Z0 F1600
G1 X138.479 Y109.325 Z0 F1600
G1 X138.381 Y109.037 Z0 F1600
G0 Z3.5 F1000
G0 X140.095 Y111.461 Z2.1 
G1 Z0 F1000
G1 Y121.304 Z0 F1600
G0 Z3.5 F1000
G0 Y119.861 Z2.1 
G1 Z0 F1000
G1 X43.881 Z0 F1600
G0 Z3.5 F1000
G0 Y121.304 Z2.1 
G1 Z0 F1000
G1 Y111.461 Z0 F1600
G0 Z3.5 F1000
G0 Y112.808 Z2.1 
G1 Z0 F1000
G1 X45.565 Y112.527 Z0 F1600
G1 Y113.088 Z0 F1600
G1 X43.881 Y112.808 Z0 F1600
G0 Z3.5 F1000
G0 Z2.1 
G1 Z0 F1000
G1 X140.095 Z0 F1600
G0 Z3.5 F1000
G0 Z2.1 
G1 Z0 F1000
G1 X138.411 Y113.088 Z0 F1600
G1 Y112.527 Z0 F1600
G1 X140.095 Y112.808 Z0 F1600
G0 Z3.5 F1000
G0 X136.727 Y115.652 Z2.1 
G1 Z0 F1000
G1 X136.501 Y115.666 Z0 F1600
G1 X136.282 Y115.708 Z0 F1600
G1 X136.07 Y115.776 Z0 F1600
G1 X135.87 Y115.869 Z0 F1600
G1 X135.682 Y115.986 Z0 F1600
G1 X135.509 Y116.125 Z0 F1600
G1 X135.354 Y116.286 Z0 F1600
G1 X135.218 Y116.468 Z0 F1600
G1 X135.106 Y116.664 Z0 F1600
G1 X135.021 Y116.871 Z0 F1600
G1 X134.962 Y117.085 Z0 F1600
G1 X134.93 Y117.304 Z0 F1600
G1 X134.925 Y117.525 Z0 F1600
G1 X134.947 Y117.746 Z0 F1600
G1 X134.997 Y117.965 Z0 F1600
G1 X135.074 Y118.177 Z0 F1600
G0 Z3.5 F1000
G0 X136.46 Z2.1 
G1 Z0 F1000
G1 X136.226 Y118.04 Z0 F1600
G1 X136.059 Y117.837 Z0 F1600
G1 X135.969 Y117.59 Z0 F1600
G1 Y117.32 Z0 F1600
G1 X136.064 Y117.066 Z0 F1600
G1 X136.234 Y116.865 Z0 F1600
G1 X136.461 Y116.733 Z0 F1600
G1 X136.727 Y116.686 Z0 F1600
G0 Z3.5 F1000
G0 Z2.1 
G1 Z0 F1000
G1 X136.994 Y116.733 Z0 F1600
G1 X137.221 Y116.865 Z0 F1600
G1 X137.391 Y117.066 Z0 F1600
G1 X137.485 Y117.32 Z0 F1600
G1 Y117.59 Z0 F1600
G1 X137.396 Y117.837 Z0 F1600
G1 X137.228 Y118.04 Z0 F1600
G1 X136.995 Y118.177 Z0 F1600
G0 Z3.5 F1000
G0 X138.381 Z2.1 
G1 Z0 F1000
G1 X138.458 Y117.965 Z0 F1600
G1 X138.508 Y117.746 Z0 F1600
G1 X138.53 Y117.525 Z0 F1600
G1 X138.525 Y117.304 Z0 F1600
G1 X138.493 Y117.085 Z0 F1600
G1 X138.434 Y116.871 Z0 F1600
G1 X138.348 Y116.664 Z0 F1600
G1 X138.237 Y116.468 Z0 F1600
G1 X138.101 Y116.286 Z0 F1600
G1 X137.946 Y116.125 Z0 F1600
G1 X137.773 Y115.986 Z0 F1600
G1 X137.585 Y115.869 Z0 F1600
G1 X137.385 Y115.776 Z0 F1600
G1 X137.173 Y115.708 Z0 F1600
G1 X136.953 Y115.666 Z0 F1600
G1 X136.727 Y115.652 Z0 F1600
G0 Z3.5 F1000
G0 X144.56 Y116.325 Z2.1 
G1 Z0 F1000
G1 X145.042 Z0 F1600
G1 X144.801 Y116.976 Z0 F1600
G1 X144.56 Y116.325 Z0 F1600
G0 Z3.5 F1000
G0 X144.507 Y116.177 Z2.1 
G1 Z0 F1000
G1 X144.387 Y115.841 Z0 F1600
G1 X144.2 Z0 F1600
G1 X144.7 Y117.151 Z0 F1600
G1 X144.901 Z0 F1600
G1 X145.4 Y115.841 Z0 F1600
G1 X145.216 Z0 F1600
G1 X145.097 Y116.177 Z0 F1600
G1 X144.507 Z0 F1600
G0 Z3.5 F1000
G0 X136.819 Y127.524 Z2.1 
G1 Z0 F1000
G1 X136.901 Y127.585 Z0 F1600
G1 X136.953 Y127.682 Z0 F1600
G1 X136.97 Y127.809 Z0 F1600
G1 X136.953 Y127.936 Z0 F1600
G1 X136.901 Y128.032 Z0 F1600
G1 X136.819 Y128.093 Z0 F1600
G1 X136.712 Y128.114 Z0 F1600
G1 X136.605 Y128.093 Z0 F1600
G1 X136.523 Y128.032 Z0 F1600
G1 X136.47 Y127.936 Z0 F1600
G1 X136.453 Y127.809 Z0 F1600
G1 X136.47 Y127.682 Z0 F1600
G1 X136.523 Y127.585 Z0 F1600
G1 X136.605 Y127.524 Z0 F1600
G1 X136.712 Y127.503 Z0 F1600
G1 X136.819 Y127.524 Z0 F1600
G0 Z3.5 F1000
G0 X136.89 Y127.394 Z2.1 
G1 Z0 F1000
G1 X136.712 Y127.363 Z0 F1600
G1 X136.605 Y127.374 Z0 F1600
G1 X136.511 Y127.407 Z0 F1600
G1 X136.431 Y127.461 Z0 F1600
G1 X136.364 Y127.537 Z0 F1600
G1 X136.312 Y127.634 Z0 F1600
G1 X136.274 Y127.75 Z0 F1600
G1 X136.252 Y127.886 Z0 F1600
G1 X136.244 Y128.042 Z0 F1600
G1 X136.253 Y128.189 Z0 F1600
G1 X136.281 Y128.321 Z0 F1600
G1 X136.327 Y128.437 Z0 F1600
G1 X136.391 Y128.537 Z0 F1600
G1 X136.471 Y128.618 Z0 F1600
G1 X136.564 Y128.676 Z0 F1600
G1 X136.669 Y128.71 Z0 F1600
G1 X136.787 Y128.722 Z0 F1600
G1 X136.854 Y128.718 Z0 F1600
G1 X136.922 Y128.709 Z0 F1600
G1 X136.991 Y128.692 Z0 F1600
G1 X137.063 Y128.669 Z0 F1600
G1 Y128.508 Z0 F1600
G1 X136.996 Y128.536 Z0 F1600
G1 X136.929 Y128.556 Z0 F1600
G1 X136.861 Y128.569 Z0 F1600
G1 X136.794 Y128.573 Z0 F1600
G1 X136.639 Y128.543 Z0 F1600
G1 X136.526 Y128.454 Z0 F1600
G1 X136.453 Y128.306 Z0 F1600
G1 X136.42 Y128.096 Z0 F1600
G1 X136.479 Y128.164 Z0 F1600
G1 X136.55 Y128.213 Z0 F1600
G1 X136.632 Y128.244 Z0 F1600
G1 X136.722 Y128.254 Z0 F1600
G1 X136.899 Y128.224 Z0 F1600
G1 X137.034 Y128.134 Z0 F1600
G1 X137.12 Y127.993 Z0 F1600
G1 X137.148 Y127.809 Z0 F1600
G1 X137.119 Y127.627 Z0 F1600
G1 X137.029 Y127.485 Z0 F1600
G1 X136.89 Y127.394 Z0 F1600
G0 Z3.5 F1000
G0 X123.755 Y126.773 Z2.1 
G1 Z0 F1000
G1 Y129.339 Z0 F1600
G0 Z3.5 F1000
G0 X111.383 Y128.698 Z2.1 
G1 Z0 F1000
G1 Y128.549 Z0 F1600
G1 X110.85 Z0 F1600
G1 Y128.228 Z0 F1600
G1 X110.889 Y128.24 Z0 F1600
G1 X110.927 Y128.248 Z0 F1600
G1 X110.966 Y128.253 Z0 F1600
G1 X111.004 Z0 F1600
G1 X111.201 Y128.224 Z0 F1600
G1 X111.352 Y128.134 Z0 F1600
G1 X111.408 Y128.069 Z0 F1600
G1 X111.448 Y127.993 Z0 F1600
G1 X111.472 Y127.906 Z0 F1600
G1 X111.48 Y127.809 Z0 F1600
G1 X111.472 Y127.709 Z0 F1600
G1 X111.447 Y127.621 Z0 F1600
G1 X111.406 Y127.545 Z0 F1600
G1 X111.348 Y127.48 Z0 F1600
G1 X111.19 Y127.392 Z0 F1600
G1 X110.977 Y127.363 Z0 F1600
G1 X110.894 Y127.367 Z0 F1600
G1 X110.809 Y127.377 Z0 F1600
G1 X110.722 Y127.395 Z0 F1600
G1 X110.633 Y127.419 Z0 F1600
G1 Y127.597 Z0 F1600
G1 X110.713 Y127.56 Z0 F1600
G1 X110.796 Y127.533 Z0 F1600
G1 X110.882 Y127.518 Z0 F1600
G1 X110.974 Y127.512 Z0 F1600
G1 X111.11 Y127.532 Z0 F1600
G1 X111.214 Y127.592 Z0 F1600
G1 X111.28 Y127.686 Z0 F1600
G1 X111.302 Y127.809 Z0 F1600
G1 X111.28 Y127.931 Z0 F1600
G1 X111.214 Y128.025 Z0 F1600
G1 X111.11 Y128.085 Z0 F1600
G1 X110.974 Y128.105 Z0 F1600
G1 X110.903 Y128.101 Z0 F1600
G1 X110.832 Y128.089 Z0 F1600
G1 X110.761 Y128.069 Z0 F1600
G1 X110.688 Y128.04 Z0 F1600
G1 Y128.698 Z0 F1600
G1 X111.383 Z0 F1600
G0 Z3.5 F1000
G0 X98.095 Y129.339 Z2.1 
G1 Z0 F1000
G1 Y126.773 Z0 F1600
G0 Z3.5 F1000
G0 X85.449 Y127.845 Z2.1 
G1 Z0 F1000
G1 Y128.544 Z0 F1600
G1 X85.002 Y127.845 Z0 F1600
G1 X85.449 Z0 F1600
G0 Z3.5 F1000
G0 X85.625 Z2.1 
G1 Z0 F1000
G1 X85.812 Z0 F1600
G1 Y127.697 Z0 F1600
G1 X85.625 Z0 F1600
G1 Y127.389 Z0 F1600
G1 X85.449 Z0 F1600
G1 Y127.697 Z0 F1600
G1 X84.858 Z0 F1600
G1 Y127.868 Z0 F1600
G1 X85.403 Y128.698 Z0 F1600
G1 X85.625 Z0 F1600
G1 Y127.845 Z0 F1600
G0 Z3.5 F1000
G0 X72.434 Y129.339 Z2.1 
G1 Z0 F1000
G1 Y124.207 Z0 F1600
G0 Z3.5 F1000
G0 X60.087 Y127.528 Z2.1 
G1 Z0 F1000
G1 X60.029 Y127.469 Z0 F1600
G1 X59.868 Y127.39 Z0 F1600
G1 X59.65 Y127.363 Z0 F1600
G1 X59.567 Y127.367 Z0 F1600
G1 X59.481 Y127.379 Z0 F1600
G1 X59.392 Y127.4 Z0 F1600
G1 X59.3 Y127.428 Z0 F1600
G1 Y127.599 Z0 F1600
G1 X59.378 Y127.561 Z0 F1600
G1 X59.462 Y127.534 Z0 F1600
G1 X59.551 Y127.518 Z0 F1600
G1 X59.645 Y127.512 Z0 F1600
G1 X59.792 Y127.529 Z0 F1600
G1 X59.899 Y127.578 Z0 F1600
G1 X59.964 Y127.659 Z0 F1600
G1 X59.986 Y127.769 Z0 F1600
G1 X59.966 Y127.872 Z0 F1600
G1 X59.905 Y127.95 Z0 F1600
G1 X59.808 Y127.999 Z0 F1600
G1 X59.679 Y128.016 Z0 F1600
G1 X59.527 Z0 F1600
G1 Y128.161 Z0 F1600
G1 X59.686 Z0 F1600
G1 X59.802 Y128.174 Z0 F1600
G1 X59.886 Y128.213 Z0 F1600
G1 X59.938 Y128.277 Z0 F1600
G1 X59.956 Y128.364 Z0 F1600
G1 X59.938 Y128.453 Z0 F1600
G1 X59.884 Y128.519 Z0 F1600
G1 X59.797 Y128.559 Z0 F1600
G1 X59.679 Y128.573 Z0 F1600
G1 X59.604 Y128.569 Z0 F1600
G1 X59.523 Y128.557 Z0 F1600
G1 X59.436 Y128.537 Z0 F1600
G1 X59.34 Y128.508 Z0 F1600
G1 Y128.666 Z0 F1600
G1 X59.438 Y128.69 Z0 F1600
G1 X59.529 Y128.708 Z0 F1600
G1 X59.615 Y128.718 Z0 F1600
G1 X59.695 Y128.722 Z0 F1600
G1 X59.876 Y128.699 Z0 F1600
G1 X60.014 Y128.63 Z0 F1600
G1 X60.102 Y128.522 Z0 F1600
G1 X60.132 Y128.382 Z0 F1600
G1 X60.116 Y128.282 Z0 F1600
G1 X60.069 Y128.199 Z0 F1600
G1 X59.994 Y128.135 Z0 F1600
G1 X59.892 Y128.095 Z0 F1600
G1 X60.006 Y128.053 Z0 F1600
G1 X60.091 Y127.982 Z0 F1600
G1 X60.145 Y127.885 Z0 F1600
G1 X60.162 Y127.769 Z0 F1600
G1 X60.154 Y127.678 Z0 F1600
G1 X60.129 Y127.597 Z0 F1600
G1 X60.087 Y127.528 Z0 F1600
G0 Z3.5 F1000
G0 X51.46 Y123.242 Z2.1 
G1 Z0 F1000
G1 X49.775 Y123.469 Z0 F1600
G1 Y123.015 Z0 F1600
G1 X51.46 Y123.242 Z0 F1600
G0 Z3.5 F1000
G0 X49.775 Z2.1 
G1 Z0 F1000
G1 X47.247 Z0 F1600
G0 Z3.5 F1000
G0 X46.981 Y118.177 Z2.1 
G1 Z0 F1000
G1 X46.748 Y118.04 Z0 F1600
G1 X46.58 Y117.837 Z0 F1600
G1 X46.491 Y117.59 Z0 F1600
G1 Y117.32 Z0 F1600
G1 X46.585 Y117.066 Z0 F1600
G1 X46.755 Y116.865 Z0 F1600
G1 X46.982 Y116.733 Z0 F1600
G1 X47.249 Y116.686 Z0 F1600
G0 Z3.5 F1000
G0 Z2.1 
G1 Z0 F1000
G1 X47.515 Y116.733 Z0 F1600
G1 X47.743 Y116.865 Z0 F1600
G1 X47.913 Y117.066 Z0 F1600
G1 X48.006 Y117.32 Z0 F1600
G1 Y117.59 Z0 F1600
G1 X47.917 Y117.837 Z0 F1600
G1 X47.75 Y118.04 Z0 F1600
G1 X47.517 Y118.177 Z0 F1600
G0 Z3.5 F1000
G0 X48.902 Z2.1 
G1 Z0 F1000
G1 X48.979 Y117.965 Z0 F1600
G1 X49.029 Y117.746 Z0 F1600
G1 X49.051 Y117.525 Z0 F1600
G1 X49.046 Y117.304 Z0 F1600
G1 X49.014 Y117.085 Z0 F1600
G1 X48.955 Y116.871 Z0 F1600
G1 X48.87 Y116.664 Z0 F1600
G1 X48.758 Y116.468 Z0 F1600
G1 X48.622 Y116.286 Z0 F1600
G1 X48.467 Y116.125 Z0 F1600
G1 X48.294 Y115.986 Z0 F1600
G1 X48.107 Y115.869 Z0 F1600
G1 X47.906 Y115.776 Z0 F1600
G1 X47.694 Y115.708 Z0 F1600
G1 X47.475 Y115.666 Z0 F1600
G1 X47.249 Y115.652 Z0 F1600
G0 Z3.5 F1000
G0 Z2.1 
G1 Z0 F1000
G1 X47.023 Y115.666 Z0 F1600
G1 X46.803 Y115.708 Z0 F1600
G1 X46.592 Y115.776 Z0 F1600
G1 X46.391 Y115.869 Z0 F1600
G1 X46.203 Y115.986 Z0 F1600
G1 X46.03 Y116.125 Z0 F1600
G1 X45.875 Y116.286 Z0 F1600
G1 X45.739 Y116.468 Z0 F1600
G1 X45.628 Y116.664 Z0 F1600
G1 X45.542 Y116.871 Z0 F1600
G1 X45.483 Y117.085 Z0 F1600
G1 X45.451 Y117.304 Z0 F1600
G1 X45.446 Y117.525 Z0 F1600
G1 X45.468 Y117.746 Z0 F1600
G1 X45.518 Y117.965 Z0 F1600
G1 X45.595 Y118.177 Z0 F1600
G0 Z3.5 F1000
G0 X47.249 Y110.528 Z2.1 
G1 Z0 F1000
G1 X47.404 Y110.513 Z0 F1600
G1 X47.548 Y110.468 Z0 F1600
G1 X47.679 Y110.397 Z0 F1600
G1 X47.793 Y110.303 Z0 F1600
G1 X47.887 Y110.189 Z0 F1600
G1 X47.958 Y110.058 Z0 F1600
G1 X48.003 Y109.914 Z0 F1600
G1 X48.018 Y109.759 Z0 F1600
G1 X48.003 Y109.603 Z0 F1600
G1 X47.958 Y109.459 Z0 F1600
G1 X47.887 Y109.328 Z0 F1600
G1 X47.793 Y109.214 Z0 F1600
G1 X47.679 Y109.12 Z0 F1600
G1 X47.548 Y109.049 Z0 F1600
G1 X47.404 Y109.005 Z0 F1600
G1 X47.249 Y108.989 Z0 F1600
G1 X47.094 Y109.005 Z0 F1600
G1 X46.949 Y109.049 Z0 F1600
G1 X46.818 Y109.12 Z0 F1600
G1 X46.704 Y109.214 Z0 F1600
G1 X46.61 Y109.328 Z0 F1600
G1 X46.539 Y109.459 Z0 F1600
G1 X46.495 Y109.603 Z0 F1600
G1 X46.479 Y109.759 Z0 F1600
G1 X46.495 Y109.914 Z0 F1600
G1 X46.539 Y110.058 Z0 F1600
G1 X46.61 Y110.189 Z0 F1600
G1 X46.704 Y110.303 Z0 F1600
G1 X46.818 Y110.397 Z0 F1600
G1 X46.949 Y110.468 Z0 F1600
G1 X47.094 Y110.513 Z0 F1600
G1 X47.249 Y110.528 Z0 F1600
G0 Z3.5 F1000
G0 X45.973 Y111.034 Z2.1 
G1 Z0 F1000
G1 X46.24 Y111.254 Z0 F1600
G1 X46.547 Y111.421 Z0 F1600
G1 X46.885 Y111.526 Z0 F1600
G1 X47.249 Y111.563 Z0 F1600
G1 X47.612 Y111.526 Z0 F1600
G1 X47.951 Y111.421 Z0 F1600
G1 X48.257 Y111.254 Z0 F1600
G1 X48.524 Y111.034 Z0 F1600
G1 X48.745 Y110.767 Z0 F1600
G1 X48.911 Y110.461 Z0 F1600
G1 X49.016 Y110.122 Z0 F1600
G1 X49.053 Y109.759 Z0 F1600
G1 X49.016 Y109.395 Z0 F1600
G1 X48.911 Y109.056 Z0 F1600
G1 X48.745 Y108.75 Z0 F1600
G1 X48.524 Y108.483 Z0 F1600
G1 X48.257 Y108.263 Z0 F1600
G1 X47.951 Y108.096 Z0 F1600
G1 X47.612 Y107.991 Z0 F1600
G1 X47.249 Y107.955 Z0 F1600
G1 X46.885 Y107.991 Z0 F1600
G1 X46.547 Y108.096 Z0 F1600
G1 X46.24 Y108.263 Z0 F1600
G1 X45.973 Y108.483 Z0 F1600
G1 X45.753 Y108.75 Z0 F1600
G1 X45.586 Y109.056 Z0 F1600
G1 X45.481 Y109.395 Z0 F1600
G1 X45.445 Y109.759 Z0 F1600
G1 X45.481 Y110.122 Z0 F1600
G1 X45.586 Y110.461 Z0 F1600
G1 X45.753 Y110.767 Z0 F1600
G1 X45.973 Y111.034 Z0 F1600
G0 Z3.5 F1000
G0 X39.753 Y108.758 Z2.1 
G1 Z0 F1000
G1 X39.887 Y108.559 Z0 F1600
G1 X39.936 Y108.315 Z0 F1600
G1 X39.887 Y108.072 Z0 F1600
G1 X39.753 Y107.873 Z0 F1600
G1 X39.555 Y107.739 Z0 F1600
G1 X39.311 Y107.69 Z0 F1600
G1 X39.068 Y107.739 Z0 F1600
G1 X38.869 Y107.873 Z0 F1600
G1 X38.735 Y108.072 Z0 F1600
G1 X38.686 Y108.315 Z0 F1600
G1 X38.735 Y108.559 Z0 F1600
G1 X38.869 Y108.758 Z0 F1600
G1 X39.068 Y108.892 Z0 F1600
G1 X39.311 Y108.941 Z0 F1600
G1 X39.555 Y108.892 Z0 F1600
G1 X39.753 Y108.758 Z0 F1600
G0 Z3.5 F1000
G0 X40.109 Y108.853 Z2.1 
G1 Z0 F1000
G1 X40.198 Y108.69 Z0 F1600
G1 X40.254 Y108.509 Z0 F1600
G1 X40.273 Y108.315 Z0 F1600
G1 X40.254 Y108.121 Z0 F1600
G1 X40.198 Y107.941 Z0 F1600
G1 X40.109 Y107.777 Z0 F1600
G1 X39.992 Y107.635 Z0 F1600
G1 X39.849 Y107.518 Z0 F1600
G1 X39.686 Y107.429 Z0 F1600
G1 X39.505 Y107.373 Z0 F1600
G1 X39.311 Y107.353 Z0 F1600
G1 X39.117 Y107.373 Z0 F1600
G1 X38.937 Y107.429 Z0 F1600
G1 X38.773 Y107.518 Z0 F1600
G1 X38.631 Y107.635 Z0 F1600
G1 X38.513 Y107.777 Z0 F1600
G1 X38.425 Y107.941 Z0 F1600
G1 X38.368 Y108.121 Z0 F1600
G1 X38.349 Y108.315 Z0 F1600
G1 X38.368 Y108.509 Z0 F1600
G1 X38.425 Y108.69 Z0 F1600
G1 X38.513 Y108.853 Z0 F1600
G1 X38.631 Y108.996 Z0 F1600
G1 X38.773 Y109.113 Z0 F1600
G1 X38.937 Y109.202 Z0 F1600
G1 X39.117 Y109.258 Z0 F1600
G1 X39.311 Y109.278 Z0 F1600
G1 X39.505 Y109.258 Z0 F1600
G1 X39.686 Y109.202 Z0 F1600
G1 X39.849 Y109.113 Z0 F1600
G1 X39.992 Y108.996 Z0 F1600
G1 X40.109 Y108.853 Z0 F1600
G0 Z3.5 F1000
G0 X35.994 Y100.615 Z2.1 
G1 Z0 F1000
G1 Y99.734 Z0 F1600
G1 X36.9 Y99.669 Z0 F1600
G1 X36.931 Y99.689 Z0 F1600
G1 X36.835 Y99.874 Z0 F1600
G1 X36.79 Y100.055 Z0 F1600
G1 X36.811 Y100.304 Z0 F1600
G1 X36.951 Y100.55 Z0 F1600
G1 X37.166 Y100.67 Z0 F1600
G1 X37.446 Y100.701 Z0 F1600
G1 X37.686 Y100.646 Z0 F1600
G1 X37.888 Y100.506 Z0 F1600
G1 X38.029 Y100.335 Z0 F1600
G1 X38.093 Y100.089 Z0 F1600
G1 X38.082 Y99.925 Z0 F1600
G1 X38.018 Y99.754 Z0 F1600
G1 X37.931 Y99.604 Z0 F1600
G1 X37.813 Y99.464 Z0 F1600
G0 Z3.5 F1000
G0 X37.899 Y98.914 Z2.1 
G1 Z0 F1000
G1 Y98.742 Z0 F1600
G1 X38.071 Z0 F1600
G1 Y98.914 Z0 F1600
G1 X37.899 Z0 F1600
G0 Z3.5 F1000
G0 X37.802 Y96.912 Z2.1 
G1 Z0 F1000
G1 X37.91 Y97.03 Z0 F1600
G1 X38.018 Y97.223 Z0 F1600
G1 X38.071 Y97.418 Z0 F1600
G1 Y97.623 Z0 F1600
G1 X38.018 Y97.814 Z0 F1600
G1 X37.921 Y97.968 Z0 F1600
G1 X37.771 Y98.074 Z0 F1600
G1 X37.641 Y98.108 Z0 F1600
G1 X37.481 Y98.118 Z0 F1600
G1 X37.33 Y98.084 Z0 F1600
G1 X37.2 Y97.998 Z0 F1600
G1 X37.06 Y97.814 Z0 F1600
G1 X36.995 Y97.643 Z0 F1600
G1 X36.975 Y97.472 Z0 F1600
G1 Y97.308 Z0 F1600
G1 Y97.438 Z0 F1600
G1 X36.941 Y97.612 Z0 F1600
G1 X36.835 Y97.814 Z0 F1600
G1 X36.695 Y97.998 Z0 F1600
G1 X36.51 Y98.053 Z0 F1600
G1 X36.305 Y98.019 Z0 F1600
G1 X36.135 Y97.944 Z0 F1600
G1 X36.005 Y97.783 Z0 F1600
G1 X35.95 Y97.588 Z0 F1600
G1 Y97.407 Z0 F1600
G1 X36.049 Y97.182 Z0 F1600
G1 X36.179 Y97.008 Z0 F1600
G0 Z3.5 F1000
G0 X36.104 Y95.891 Z2.1 
G1 Z0 F1000
G1 X36.114 Y95.535 Z0 F1600
G1 X35.974 Y95.901 Z0 F1600
G1 X38.039 Z0 F1600
G1 Y95.361 Z0 F1600
G1 Y96.427 Z0 F1600
G0 Z3.5 F1000
G0 X34.349 Y96.497 Z2.1 
G1 Z0 F1000
G1 X33.787 Z0 F1600
G1 X34.068 Y94.813 Z0 F1600
G1 X34.349 Y96.497 Z0 F1600
G0 Z3.5 F1000
G0 X6.486 Y103.678 Z2.1 
G1 Z0 F1000
G1 X3.92 Z0 F1600
G0 Z3.5 F1000
G0 X85.965 Y116.228 Z2.1 
G1 Z0 F1000
G1 X86.112 Y116.37 Z0 F1600
G1 X86.288 Y116.483 Z0 F1600
G1 X86.511 Y116.539 Z0 F1600
G1 X86.701 Y116.504 Z0 F1600
G1 X86.899 Y116.405 Z0 F1600
G1 X87.022 Y116.239 Z0 F1600
G1 X87.079 Y115.992 Z0 F1600
G1 X87.065 Y115.784 Z0 F1600
G1 X86.955 Y115.526 Z0 F1600
G1 X86.754 Y115.236 Z0 F1600
G1 X86.511 Y114.936 Z0 F1600
G1 X86.288 Y114.703 Z0 F1600
G1 X85.988 Y114.37 Z0 F1600
G1 X87.245 Z0 F1600
G0 Z3.5 F1000
G0 X87.923 Y114.592 Z2.1 
G1 Z0 F1000
G1 X88.057 Y114.448 Z0 F1600
G1 X88.191 Y114.337 Z0 F1600
G1 X88.346 Y114.325 Z0 F1600
G1 X88.558 Y114.37 Z0 F1600
G1 X88.78 Y114.592 Z0 F1600
G1 X88.879 Y114.827 Z0 F1600
G1 X88.925 Y115.092 Z0 F1600
G1 X88.946 Y115.459 Z0 F1600
G1 X88.925 Y115.805 Z0 F1600
G1 X88.844 Y116.137 Z0 F1600
G1 X88.735 Y116.348 Z0 F1600
G1 X88.558 Y116.483 Z0 F1600
G1 X88.399 Y116.539 Z0 F1600
G1 X88.269 Y116.528 Z0 F1600
G1 X88.057 Y116.405 Z0 F1600
G1 X87.912 Y116.204 Z0 F1600
G1 X87.811 Y115.882 Z0 F1600
G1 X87.778 Y115.547 Z0 F1600
G1 X87.767 Y115.215 Z0 F1600
G1 X87.811 Y114.905 Z0 F1600
G1 X87.923 Y114.592 Z0 F1600
G0 Z3.5 F1000
G0 X89.58 Y114.905 Z2.1 
G1 Z0 F1000
G1 X89.691 Y114.592 Z0 F1600
G1 X89.825 Y114.448 Z0 F1600
G1 X89.959 Y114.337 Z0 F1600
G1 X90.115 Y114.325 Z0 F1600
G1 X90.327 Y114.37 Z0 F1600
G1 X90.549 Y114.592 Z0 F1600
G1 X90.648 Y114.827 Z0 F1600
G1 X90.694 Y115.092 Z0 F1600
G1 X90.715 Y115.459 Z0 F1600
G1 X90.694 Y115.805 Z0 F1600
G1 X90.613 Y116.137 Z0 F1600
G1 X90.503 Y116.348 Z0 F1600
G1 X90.327 Y116.483 Z0 F1600
G1 X90.168 Y116.539 Z0 F1600
G1 X90.037 Y116.528 Z0 F1600
G1 X89.825 Y116.405 Z0 F1600
G1 X89.681 Y116.204 Z0 F1600
G1 X89.58 Y115.882 Z0 F1600
G1 X89.546 Y115.547 Z0 F1600
G1 X89.535 Y115.215 Z0 F1600
G1 X89.58 Y114.905 Z0 F1600
G0 Z3.5 F1000
G0 X114.152 Y81.255 Z2.1 
G1 Z0 F1000
G1 X113.306 Y80.767 Z0 F1600
G0 Z3.5 F1000
G0 Z2.1 
G1 Z0 F1000
G1 X131.565 Y70.225 Z0 F1600
G0 Z3.5 F1000
G0 X127.639 Y63.118 Z2.1 
G1 Z0 F1000
G1 X127.332 Y62.773 Z0 F1600
G1 X127.018 Y62.436 Z0 F1600
G1 X126.695 Y62.106 Z0 F1600
G1 X126.365 Y61.785 Z0 F1600
G1 X126.028 Y61.471 Z0 F1600
G1 X125.683 Y61.165 Z0 F1600
G1 X125.33 Y60.867 Z0 F1600
G1 X124.971 Y60.578 Z0 F1600
G1 X124.605 Y60.298 Z0 F1600
G1 X124.233 Y60.026 Z0 F1600
G1 X123.854 Y59.763 Z0 F1600
G1 X123.469 Y59.509 Z0 F1600
G1 X123.078 Y59.265 Z0 F1600
G1 X122.682 Y59.029 Z0 F1600
G0 Z3.5 F1000
G0 Z2.1 
G1 Z0 F1000
G1 X122.28 Y58.803 Z0 F1600
G1 X121.873 Y58.587 Z0 F1600
G1 X121.46 Y58.381 Z0 F1600
G1 X121.043 Y58.184 Z0 F1600
G1 X120.622 Y57.998 Z0 F1600
G1 X120.196 Y57.821 Z0 F1600
G1 X119.766 Y57.654 Z0 F1600
G1 X119.332 Y57.498 Z0 F1600
G1 X118.895 Y57.352 Z0 F1600
G1 X118.454 Y57.217 Z0 F1600
G1 X118.01 Y57.092 Z0 F1600
G1 X117.564 Y56.977 Z0 F1600
G1 X117.114 Y56.874 Z0 F1600
G1 X116.663 Y56.781 Z0 F1600
G0 Z3.5 F1000
G0 Z2.1 
G1 Z0 F1000
G1 X127.639 Y63.118 Z0 F1600
G0 Z3.5 F1000
G0 X117.728 Y69.572 Z2.1 
G1 Z0 F1000
G1 X118.208 Y69.878 Z0 F1600
G1 X118.629 Y70.207 Z0 F1600
G1 X118.992 Y70.556 Z0 F1600
G1 X119.293 Y70.924 Z0 F1600
G1 X119.53 Y71.307 Z0 F1600
G1 X119.702 Y71.702 Z0 F1600
G1 X119.807 Y72.106 Z0 F1600
G1 X119.842 Y72.518 Z0 F1600
G0 Z3.5 F1000
G0 Z2.1 
G1 Z0 F1000
G1 X119.805 Y72.944 Z0 F1600
G1 X119.695 Y73.358 Z0 F1600
G1 X119.517 Y73.757 Z0 F1600
G1 X119.275 Y74.14 Z0 F1600
G1 X118.971 Y74.504 Z0 F1600
G1 X118.609 Y74.848 Z0 F1600
G1 X118.194 Y75.168 Z0 F1600
G1 X117.728 Y75.464 Z0 F1600
G1 X117.216 Y75.733 Z0 F1600
G1 X116.66 Y75.973 Z0 F1600
G1 X116.065 Y76.182 Z0 F1600
G1 X115.435 Y76.357 Z0 F1600
G1 X114.772 Y76.497 Z0 F1600
G1 X114.08 Y76.6 Z0 F1600
G1 X113.364 Y76.663 Z0 F1600
G1 X112.626 Y76.684 Z0 F1600
G1 X111.888 Y76.663 Z0 F1600
G1 X111.172 Y76.6 Z0 F1600
G1 X110.48 Y76.497 Z0 F1600
G1 X109.817 Y76.357 Z0 F1600
G1 X109.186 Y76.182 Z0 F1600
G1 X108.591 Y75.973 Z0 F1600
G1 X108.036 Y75.733 Z0 F1600
G1 X107.523 Y75.464 Z0 F1600
G1 X107.058 Y75.168 Z0 F1600
G1 X106.642 Y74.848 Z0 F1600
G1 X106.281 Y74.504 Z0 F1600
G1 X105.977 Y74.14 Z0 F1600
G1 X105.734 Y73.757 Z0 F1600
G1 X105.556 Y73.358 Z0 F1600
G1 X105.447 Y72.944 Z0 F1600
G1 X105.41 Y72.518 Z0 F1600
G0 Z3.5 F1000
G0 Z2.1 
G1 Z0 F1000
G1 X105.43 Y72.204 Z0 F1600
G1 X105.491 Y71.895 Z0 F1600
G1 X105.59 Y71.593 Z0 F1600
G1 X105.727 Y71.297 Z0 F1600
G1 X105.9 Y71.009 Z0 F1600
G1 X106.108 Y70.73 Z0 F1600
G1 X106.351 Y70.461 Z0 F1600
G1 X106.626 Y70.204 Z0 F1600
G1 X106.933 Y69.958 Z0 F1600
G1 X107.27 Y69.726 Z0 F1600
G1 X107.636 Y69.508 Z0 F1600
G1 X108.031 Y69.306 Z0 F1600
G1 X108.452 Y69.119 Z0 F1600
G1 X108.899 Y68.951 Z0 F1600
G1 X109.37 Y68.8 Z0 F1600
G1 X109.864 Y68.669 Z0 F1600
G1 X110.892 Y68.474 Z0 F1600
G1 X111.94 Y68.371 Z0 F1600
G1 X112.993 Y68.357 Z0 F1600
G1 X114.034 Y68.432 Z0 F1600
G1 X115.044 Y68.593 Z0 F1600
G1 X116.008 Y68.838 Z0 F1600
G1 X116.467 Y68.991 Z0 F1600
G1 X116.908 Y69.165 Z0 F1600
G1 X117.329 Y69.359 Z0 F1600
G1 X117.728 Y69.572 Z0 F1600
G0 Z3.5 F1000
G0 X115.705 Y69.062 Z2.1 
G1 Z0 F1000
G1 X115.692 Y68.898 Z0 F1600
G1 X115.653 Y68.736 Z0 F1600
G0 Z3.5 F1000
G0 X115.705 Y69.062 Z2.1 
G1 Z0 F1000
G1 X115.689 Y69.243 Z0 F1600
G1 X115.642 Y69.42 Z0 F1600
G1 X115.566 Y69.59 Z0 F1600
G1 X115.463 Y69.754 Z0 F1600
G1 X115.179 Y70.055 Z0 F1600
G1 X114.803 Y70.319 Z0 F1600
G1 X114.347 Y70.536 Z0 F1600
G1 X113.824 Y70.7 Z0 F1600
G1 X113.246 Y70.803 Z0 F1600
G1 X112.626 Y70.839 Z0 F1600
G1 X112.005 Y70.803 Z0 F1600
G1 X111.427 Y70.7 Z0 F1600
G1 X110.904 Y70.536 Z0 F1600
G1 X110.449 Y70.319 Z0 F1600
G1 X110.073 Y70.055 Z0 F1600
G1 X109.789 Y69.754 Z0 F1600
G1 X109.685 Y69.59 Z0 F1600
G1 X109.61 Y69.42 Z0 F1600
G1 X109.563 Y69.243 Z0 F1600
G1 X109.547 Y69.062 Z0 F1600
G0 Z3.5 F1000
G0 Z2.1 
G1 Z0 F1000
G1 X109.56 Y68.898 Z0 F1600
G1 X109.599 Y68.736 Z0 F1600
G0 Z3.5 F1000
G0 X111.192 Y68.435 Z2.1 
G1 Z0 F1000
G1 X111.536 Y68.525 Z0 F1600
G1 X111.893 Y68.588 Z0 F1600
G1 X112.257 Y68.627 Z0 F1600
G1 X112.626 Y68.64 Z0 F1600
G1 X112.994 Y68.627 Z0 F1600
G1 X113.359 Y68.588 Z0 F1600
G1 X113.715 Y68.525 Z0 F1600
G1 X114.06 Y68.435 Z0 F1600
G0 Z3.5 F1000
