G90 ; Absolutno pozicioniranje
G21 ; Milimetri
;LightBurn 1.6.04
;Custom GCode device profile, absolute coords
;Bounds: X88.81 Y33.76 to X141.19 Y48.24
G00 G17 G40 G21 G54
G90
M4
;Cut @ 1500 mm/min, 90% power

M8
G0 Z3.5 F1000
G0 X88.809 Y33.762 Z3.500
G1 Z0 F1000
;Layer C00
G1 X89.203 Y34.420 F1000
G1 X89.668 Y35.073 F1000
G1 X90.180 Y35.725 F1000
G1 X90.714 Y36.376 F1000
G1 X91.245 Y37.031 F1000
G1 X91.748 Y37.691 F1000
G1 X92.198 Y38.359 F1000
G1 X92.569 Y39.038 F1000
G1 X93.416 Y40.170 F1000
G1 X94.265 Y41.375 F1000
G1 X94.716 Y41.961 F1000
G1 X95.197 Y42.512 F1000
G1 X95.720 Y43.011 F1000
G1 X96.293 Y43.439 F1000
G1 X96.757 Y44.016 F1000
G1 X97.241 Y44.525 F1000
G1 X97.474 Y44.739 F1000
G1 X97.693 Y44.917 F1000
G1 X97.889 Y45.053 F1000
G1 X98.058 Y45.141 F1000
G1 X98.192 Y45.174 F1000
G1 X98.285 Y45.146 F1000
; --- FIX Y Backlash: -0.800mm ---
G0 X98.285 Y44.346 F1200
G1 X98.329 Y44.251 F1000
G1 X98.318 Y44.083 F1000
G1 X98.290 Y43.969 F1000
G1 X98.246 Y43.835 F1000
; --- FIX X Backlash: -0.700mm ---
G0 X97.546 Y43.835 F1200
G1 X97.485 Y43.679 F1000
G1 X97.406 Y43.501 F1000
G1 X97.309 Y43.299 F1000
G1 X97.192 Y43.074 F1000
G1 X97.054 Y42.824 F1000
G1 X96.895 Y42.549 F1000
G1 X96.484 Y41.842 F1000
G1 X96.090 Y41.230 F1000
G1 X95.713 Y40.687 F1000
G1 X95.007 Y39.714 F1000
G1 X94.677 Y39.235 F1000
G1 X94.360 Y38.729 F1000
G1 X94.056 Y38.172 F1000
G1 X93.773 Y37.875 F1000
G1 X93.558 Y37.604 F1000
G1 X93.407 Y37.359 F1000
G1 X93.317 Y37.143 F1000
G1 X93.286 Y36.957 F1000
G1 X93.309 Y36.803 F1000
; --- FIX X Backlash: 0.700mm ---
G0 X94.009 Y36.803 F1200
G1 X94.083 Y36.682 F1000
G1 X94.206 Y36.596 F1000
G1 X94.375 Y36.547 F1000
G1 X94.585 Y36.536 F1000
G1 X94.835 Y36.565 F1000
; --- FIX Y Backlash: 0.800mm ---
G0 X94.835 Y37.365 F1200
G1 X95.121 Y37.435 F1000
G1 X95.440 Y37.548 F1000
G1 X95.788 Y37.705 F1000
G1 X96.162 Y37.909 F1000
G1 X96.561 Y38.161 F1000
G1 X97.149 Y38.805 F1000
G1 X97.783 Y39.531 F1000
G1 X97.914 Y39.660 F1000
G1 X98.024 Y39.751 F1000
G1 X98.109 Y39.795 F1000
G1 X98.164 Y39.784 F1000
; --- FIX Y Backlash: -0.800mm ---
G0 X98.164 Y38.984 F1200
G1 X98.185 Y38.909 F1000
G1 X98.166 Y38.760 F1000
G1 X98.141 Y38.656 F1000
G1 X98.104 Y38.530 F1000
G1 X98.055 Y38.382 F1000
; --- FIX X Backlash: -0.700mm ---
G0 X97.355 Y38.382 F1200
G1 X97.293 Y38.210 F1000
G1 X97.183 Y38.015 F1000
G1 X97.090 Y37.776 F1000
G1 X97.014 Y37.504 F1000
G1 X96.957 Y37.210 F1000
G1 X96.902 Y36.602 F1000
G1 X96.935 Y36.041 F1000
; --- FIX X Backlash: 0.700mm ---
G0 X97.635 Y36.041 F1200
G1 X97.687 Y35.807 F1000
G1 X97.763 Y35.618 F1000
G1 X97.866 Y35.485 F1000
G1 X97.996 Y35.421 F1000
G1 X98.155 Y35.436 F1000
; --- FIX Y Backlash: 0.800mm ---
G0 X98.155 Y36.236 F1200
G1 X98.343 Y36.341 F1000
G1 X98.448 Y36.431 F1000
G1 X98.561 Y36.548 F1000
G1 X98.682 Y36.693 F1000
G1 X98.811 Y36.868 F1000
G1 X99.432 Y37.987 F1000
G0 Z3.5 F1000
; --- FIX Y Backlash: -0.800mm ---
G0 X99.432 Y37.187 F1200
G0 X101.708 Y35.083 Z3.500
G1 Z0 F1000
; --- FIX X Backlash: -0.700mm ---
G0 X101.008 Y35.083 F1200
G1 X100.788 Y34.849 F1000
G1 X100.601 Y34.640 F1000
G1 X100.443 Y34.455 F1000
G1 X100.315 Y34.293 F1000
G1 X100.216 Y34.154 F1000
G1 X100.142 Y34.036 F1000
G1 X100.094 Y33.939 F1000
G1 X100.071 Y33.862 F1000
G1 X100.071 Y33.804 F1000
G1 X100.090 Y33.765 F1000
G1 X100.130 Y33.743 F1000
; --- FIX X Backlash: 0.700mm ---
G0 X100.830 Y33.743 F1200
G1 X100.889 Y33.737 F1000
G1 X101.057 Y33.772 F1000
; --- FIX Y Backlash: 0.800mm ---
G0 X101.057 Y34.572 F1200
G1 X101.285 Y34.664 F1000
G1 X101.561 Y34.805 F1000
G1 X101.874 Y34.990 F1000
G1 X102.215 Y35.211 F1000
G1 X102.572 Y35.461 F1000
G1 X103.293 Y36.025 F1000
G1 X103.953 Y36.628 F1000
G1 X104.793 Y37.432 F1000
G1 X105.173 Y37.804 F1000
G1 X105.535 Y38.176 F1000
G1 X105.885 Y38.565 F1000
G1 X106.230 Y38.987 F1000
G1 X106.575 Y39.456 F1000
G1 X106.926 Y39.990 F1000
G1 X107.305 Y40.376 F1000
G1 X107.673 Y40.787 F1000
G1 X108.042 Y41.231 F1000
G1 X108.425 Y41.715 F1000
G1 X109.293 Y42.838 F1000
G1 X109.803 Y43.494 F1000
G1 X110.083 Y43.849 F1000
G1 X110.382 Y44.224 F1000
G1 X110.610 Y44.453 F1000
G1 X110.882 Y44.693 F1000
G1 X111.193 Y44.943 F1000
G1 X111.536 Y45.201 F1000
G1 X112.295 Y45.733 F1000
G1 X113.109 Y46.274 F1000
G1 X113.929 Y46.809 F1000
G1 X114.704 Y47.325 F1000
G1 X115.060 Y47.570 F1000
G1 X115.386 Y47.806 F1000
G1 X115.676 Y48.029 F1000
G1 X115.924 Y48.238 F1000
; --- FIX Y Backlash: -0.800mm ---
G0 X115.924 Y47.438 F1200
G1 X115.908 Y47.169 F1000
; --- FIX X Backlash: -0.700mm ---
G0 X115.208 Y47.169 F1200
G1 X115.120 Y46.879 F1000
G1 X114.969 Y46.570 F1000
G1 X114.764 Y46.245 F1000
G1 X114.515 Y45.909 F1000
G1 X114.229 Y45.563 F1000
G1 X113.918 Y45.211 F1000
G1 X113.589 Y44.856 F1000
G1 X112.916 Y44.151 F1000
G1 X112.283 Y43.473 F1000
G1 X112.005 Y43.152 F1000
G1 X111.764 Y42.846 F1000
G1 X111.569 Y42.560 F1000
G1 X111.430 Y42.297 F1000
G1 X110.918 Y41.578 F1000
G1 X110.364 Y40.916 F1000
G1 X109.237 Y39.673 F1000
G1 X108.718 Y39.044 F1000
G1 X108.264 Y38.381 F1000
G1 X108.070 Y38.028 F1000
G1 X107.902 Y37.658 F1000
G1 X107.764 Y37.267 F1000
G1 X107.659 Y36.853 F1000
; --- FIX X Backlash: 0.700mm ---
G0 X108.359 Y36.853 F1200
G1 X108.560 Y36.619 F1000
G1 X108.782 Y36.446 F1000
G1 X109.022 Y36.329 F1000
G1 X109.278 Y36.262 F1000
G1 X109.548 Y36.241 F1000
G1 X109.829 Y36.260 F1000
; --- FIX Y Backlash: 0.800mm ---
G0 X109.829 Y37.060 F1200
G1 X110.118 Y37.113 F1000
G1 X110.414 Y37.195 F1000
G1 X111.014 Y37.426 F1000
G1 X111.610 Y37.709 F1000
G1 X112.181 Y38.002 F1000
G1 X112.866 Y38.339 F1000
G1 X113.044 Y38.446 F1000
G1 X113.237 Y38.579 F1000
G1 X113.440 Y38.732 F1000
G1 X113.858 Y39.076 F1000
G1 X114.262 Y39.436 F1000
G1 X114.447 Y39.608 F1000
G1 X114.614 Y39.768 F1000
G1 X114.760 Y39.910 F1000
G1 X114.879 Y40.030 F1000
G1 X114.967 Y40.121 F1000
G1 X115.019 Y40.179 F1000
G1 X115.030 Y40.197 F1000
G1 X114.996 Y40.172 F1000
; --- FIX X Backlash: -0.700mm ---
G0 X114.296 Y40.172 F1200
; --- FIX Y Backlash: -0.800mm ---
G0 X114.296 Y39.372 F1200
G1 X114.187 Y39.046 F1000
G1 X114.105 Y38.755 F1000
G1 X114.049 Y38.497 F1000
G1 X114.017 Y38.271 F1000
G1 X114.009 Y38.076 F1000
G1 X114.022 Y37.910 F1000
G1 X114.055 Y37.771 F1000
; --- FIX X Backlash: 0.700mm ---
G0 X114.755 Y37.771 F1200
G1 X114.808 Y37.659 F1000
G1 X114.879 Y37.571 F1000
G1 X114.966 Y37.507 F1000
G1 X115.069 Y37.465 F1000
G1 X115.186 Y37.443 F1000
G1 X115.457 Y37.454 F1000
; --- FIX Y Backlash: 0.800mm ---
G0 X115.457 Y38.254 F1200
G1 X115.768 Y38.331 F1000
G1 X116.110 Y38.460 F1000
G1 X116.472 Y38.631 F1000
G1 X116.843 Y38.832 F1000
G1 X117.213 Y39.051 F1000
G1 X117.573 Y39.278 F1000
G1 X117.911 Y39.500 F1000
G1 X118.480 Y39.885 F1000
G1 X118.574 Y39.861 F1000
G1 X118.639 Y39.824 F1000
G1 X118.677 Y39.776 F1000
; --- FIX Y Backlash: -0.800mm ---
G0 X118.677 Y38.976 F1200
G1 X118.689 Y38.917 F1000
G1 X118.649 Y38.772 F1000
; --- FIX X Backlash: -0.700mm ---
G0 X117.949 Y38.772 F1200
G1 X117.835 Y38.594 F1000
G1 X117.664 Y38.391 F1000
G1 X117.453 Y38.169 F1000
G1 X116.976 Y37.696 F1000
G1 X116.744 Y37.457 F1000
G1 X116.538 Y37.227 F1000
G1 X116.377 Y37.010 F1000
G1 X116.275 Y36.816 F1000
G1 X116.253 Y36.728 F1000
G1 X116.253 Y36.648 F1000
G1 X116.273 Y36.577 F1000
G1 X116.321 Y36.516 F1000
; --- FIX X Backlash: 0.700mm ---
G0 X117.021 Y36.516 F1200
G1 X117.096 Y36.465 F1000
G1 X117.201 Y36.425 F1000
G1 X117.338 Y36.396 F1000
G1 X117.509 Y36.381 F1000
G1 X117.690 Y36.398 F1000
G1 X117.855 Y36.410 F1000
G1 X117.996 Y36.404 F1000
G1 X118.102 Y36.368 F1000
G1 X118.163 Y36.290 F1000
G1 X118.170 Y36.156 F1000
G1 X118.150 Y36.064 F1000
G1 X118.113 Y35.954 F1000
; --- FIX X Backlash: -0.700mm ---
G0 X117.413 Y35.954 F1200
G1 X117.357 Y35.824 F1000
G1 X117.281 Y35.673 F1000
G1 X116.995 Y35.310 F1000
G1 X116.727 Y34.872 F1000
G1 X116.614 Y34.648 F1000
G1 X116.521 Y34.432 F1000
G1 X116.455 Y34.232 F1000
G1 X116.420 Y34.058 F1000
G1 X116.420 Y33.918 F1000
G1 X116.466 Y33.822 F1000
; --- FIX X Backlash: 0.700mm ---
G0 X117.166 Y33.822 F1200
G1 X117.259 Y33.777 F1000
G1 X117.404 Y33.793 F1000
G1 X117.499 Y33.827 F1000
; --- FIX Y Backlash: 0.800mm ---
G0 X117.499 Y34.627 F1200
G1 X117.608 Y34.679 F1000
G1 X117.734 Y34.751 F1000
G1 X117.877 Y34.843 F1000
G1 X118.036 Y34.957 F1000
G1 X118.214 Y35.095 F1000
G1 X118.411 Y35.256 F1000
G1 X118.627 Y35.442 F1000
G1 X118.926 Y35.621 F1000
G1 X119.193 Y35.806 F1000
G1 X119.435 Y35.996 F1000
G1 X119.657 Y36.193 F1000
G1 X120.063 Y36.606 F1000
G1 X120.870 Y37.521 F1000
G1 X121.360 Y38.027 F1000
G1 X121.645 Y38.293 F1000
G1 X121.964 Y38.568 F1000
G1 X122.323 Y38.853 F1000
G1 X122.727 Y39.148 F1000
G1 X123.713 Y40.320 F1000
G1 X124.685 Y41.413 F1000
G1 X125.636 Y42.417 F1000
G1 X126.563 Y43.326 F1000
G1 X127.015 Y43.743 F1000
G1 X127.459 Y44.133 F1000
G1 X127.893 Y44.495 F1000
G1 X128.318 Y44.829 F1000
G1 X128.733 Y45.134 F1000
G1 X129.137 Y45.408 F1000
G1 X129.529 Y45.651 F1000
G1 X129.908 Y45.863 F1000
G1 X130.395 Y46.157 F1000
G1 X130.847 Y46.376 F1000
G1 X131.264 Y46.536 F1000
G1 X131.646 Y46.652 F1000
G1 X131.991 Y46.740 F1000
G1 X132.299 Y46.813 F1000
G1 X132.570 Y46.889 F1000
G1 X132.803 Y46.981 F1000
G1 X132.979 Y47.020 F1000
G1 X133.111 Y46.977 F1000
; --- FIX Y Backlash: -0.800mm ---
G0 X133.111 Y46.177 F1200
G1 X133.204 Y46.062 F1000
G1 X133.261 Y45.884 F1000
G1 X133.285 Y45.653 F1000
G1 X133.280 Y45.379 F1000
G1 X133.249 Y45.070 F1000
; --- FIX X Backlash: -0.700mm ---
G0 X132.549 Y45.070 F1200
G1 X132.496 Y44.737 F1000
G1 X132.338 Y44.035 F1000
G1 X132.133 Y43.349 F1000
G1 X132.022 Y43.035 F1000
G1 X131.910 Y42.754 F1000
G1 X131.799 Y42.515 F1000
G1 X131.695 Y42.327 F1000
G1 X130.998 Y41.124 F1000
G1 X130.349 Y39.896 F1000
G1 X130.062 Y39.269 F1000
G1 X129.810 Y38.634 F1000
G1 X129.601 Y37.987 F1000
G1 X129.443 Y37.329 F1000
G1 X129.491 Y37.222 F1000
; --- FIX X Backlash: 0.700mm ---
G0 X130.191 Y37.222 F1200
G1 X130.255 Y37.143 F1000
G1 X130.336 Y37.092 F1000
G1 X130.432 Y37.065 F1000
G1 X130.665 Y37.080 F1000
; --- FIX Y Backlash: 0.800mm ---
G0 X130.665 Y37.880 F1200
G1 X130.946 Y37.977 F1000
G1 X131.269 Y38.142 F1000
G1 X131.625 Y38.364 F1000
G1 X132.007 Y38.628 F1000
G1 X132.407 Y38.923 F1000
G1 X133.229 Y39.554 F1000
G1 X134.030 Y40.153 F1000
G1 X134.403 Y40.410 F1000
G1 X134.747 Y40.620 F1000
G1 X135.056 Y40.772 F1000
G1 X135.320 Y40.852 F1000
G1 X135.405 Y41.146 F1000
G1 X135.558 Y41.461 F1000
G1 X135.747 Y41.754 F1000
G1 X135.940 Y41.984 F1000
G1 X136.028 Y42.061 F1000
G1 X136.105 Y42.108 F1000
G1 X136.166 Y42.117 F1000
G1 X136.208 Y42.085 F1000
; --- FIX Y Backlash: -0.800mm ---
G0 X136.208 Y41.285 F1200
G1 X136.227 Y41.205 F1000
G1 X136.218 Y41.073 F1000
G1 X136.177 Y40.883 F1000
; --- FIX X Backlash: -0.700mm ---
G0 X135.477 Y40.883 F1200
G1 X135.401 Y40.630 F1000
G1 X135.123 Y40.137 F1000
G1 X134.773 Y39.673 F1000
G1 X134.408 Y39.231 F1000
G1 X134.084 Y38.805 F1000
G1 X133.955 Y38.597 F1000
G1 X133.857 Y38.391 F1000
G1 X133.798 Y38.186 F1000
G1 X133.784 Y37.982 F1000
G1 X133.822 Y37.778 F1000
; --- FIX X Backlash: 0.700mm ---
G0 X134.522 Y37.778 F1200
G1 X134.619 Y37.572 F1000
G1 X134.783 Y37.366 F1000
G1 X135.020 Y37.157 F1000
G1 X135.241 Y36.873 F1000
G1 X135.441 Y36.577 F1000
G0 Z3.5 F1000
; --- FIX Y Backlash: 0.800mm ---
G0 X135.441 Y37.377 F1200
G0 X141.191 Y44.531 Z3.500
G1 Z0 F1000
; --- FIX X Backlash: -0.700mm ---
G0 X140.491 Y44.531 F1200
G1 X139.719 Y44.499 F1000
G1 X139.023 Y44.476 F1000
G1 X138.387 Y44.458 F1000
G1 X136.659 Y44.419 F1000
G1 X135.480 Y44.383 F1000
G1 X134.829 Y44.356 F1000
G1 X134.115 Y44.320 F1000
G1 X133.319 Y44.273 F1000
; --- FIX Y Backlash: -0.800mm ---
G0 X133.319 Y43.473 F1200
G1 X132.424 Y43.412 F1000
G1 X131.412 Y43.336 F1000
G1 X130.265 Y43.243 F1000
G1 X128.967 Y43.130 F1000
G1 X127.499 Y42.996 F1000
G1 X125.596 Y42.982 F1000
G1 X123.656 Y42.894 F1000
G1 X121.716 Y42.757 F1000
G1 X119.814 Y42.601 F1000
G1 X119.646 Y42.471 F1000
G1 X119.534 Y42.361 F1000
G1 X119.473 Y42.271 F1000
G1 X119.457 Y42.199 F1000
G1 X119.481 Y42.141 F1000
; --- FIX X Backlash: 0.700mm ---
G0 X120.181 Y42.141 F1200
G1 X120.238 Y42.096 F1000
G1 X120.323 Y42.062 F1000
G1 X120.431 Y42.036 F1000
G1 X120.975 Y41.978 F1000
G1 X121.426 Y41.890 F1000
M9

G90
G1 Z10 F800
M2 ; Konec G-kode