;LightBurn 1.6.04
;Custom GCode device profile, absolute coords
;Bounds: X47.3 Y43.78 to X82.71 Y89.68
G00 G17 G40 G21 G54
G90
M3
G1 Z10 F1000
;Scan @ 1600 mm/min, 80% power

M8
G0 Z4.8F1000
G0 X55.849Y43.78Z4.8
G1 Z0F1000
;Layer C1
G91
G1 X0.667Z0S0F1800
G1 X1.159Z0S800F1800
G1 X14.68Z0S0F1800
G1 X1.121Z0S800F1800
G1 X0.666Z0S0F1800
G1 X1.272Y0.9Z0F1800
G1 X-0.667Z0F1800
G1 X-2.984Z0S800F1800
G1 X-13.505Z0S0F1800
G1 X-3.047Z0S800F1800
G1 X-0.667Z0S0F1800
G1 X-1.77Y0.9Z0F1800
G1 X0.667Z0F1800
G1 X5.405Z0S800F1800
G1 X12.32Z0S0F1800
G1 X5.374Z0S800F1800
G1 X0.667Z0S0F1800
G1 X-0.501Y0.9Z0F1800
G1 X-0.667Z0F1800
G1 X-5.471Z0S800F1800
G1 X-11.129Z0S0F1800
G1 X-5.465Z0S800F1800
G1 X-0.667Z0S0F1800
G1 X0.496Y0.9Z0F1800
G1 X0.667Z0F1800
G1 X5.575Z0S800F1800
G1 X9.911Z0S0F1800
G1 X5.571Z0S800F1800
G1 X0.666Z0S0F1800
G1 X-0.5Y0.9Z0F1800
G1 X-0.667Z0F1800
G1 X-5.694Z0S800F1800
G1 X-8.663Z0S0F1800
G1 X-5.697Z0S800F1800
G1 X-0.667Z0S0F1800
G1 X0.476Y0.9Z0F1800
G1 X0.666Z0F1800
G1 X5.858Z0S800F1800
G1 X7.379Z0S0F1800
G1 X5.859Z0S800F1800
G1 X0.667Z0S0F1800
G1 X-0.458Y0.9Z0F1800
G1 X-0.667Z0F1800
G1 X-5.691Z0S800F1800
G1 X-6.859Z0S0F1800
G1 X-5.619Z0S800F1800
G1 X-0.667Z0S0F1800
G1 X0.435Y0.9Z0F1800
G1 X0.666Z0F1800
G1 X3.732Z0S800F1800
G1 X2.193Z0S0F1800
G1 X0.747Z0S800F1800
G1 X3.978Z0S0F1800
G1 X0.701Z0S800F1800
G1 X2.146Z0S0F1800
G1 X3.795Z0S800F1800
G1 X0.667Z0S0F1800
G1 X-0.423Y0.9Z0F1800
G1 X-0.666Z0F1800
G1 X-1.895Z0S800F1800
G1 X-2.135Z0S0F1800
G1 X-3.139Z0S800F1800
G1 X-2.167Z0S0F1800
G1 X-3.109Z0S800F1800
G1 X-2.176Z0S0F1800
G1 X-1.82Z0S800F1800
G1 X-0.667Z0S0F1800
G1 X2.511Y0.9Z0F1800
G1 X0.667Z0F1800
G1 X5.398Z0S800F1800
G1 X1.362Z0S0F1800
G1 X4.623Z0S800F1800
G1 X0.667Z0S0F1800
G1 X1.442Y0.9Z0F1800
G1 X-0.667Z0F1800
G1 X-5.397Z0S800F1800
G1 X-1.3Z0S0F1800
G1 X-7.656Z0S800F1800
G1 X-0.667Z0S0F1800
G1 X0.048Y0.9Z0F1800
G1 X0.667Z0F1800
G1 X8.255Z0S800F1800
G1 X1.272Z0S0F1800
G1 X4.879Z0S800F1800
G1 X0.667Z0S0F1800
G1 X-0.3Y0.9Z0F1800
G1 X-0.667Z0F1800
G1 X-3.996Z0S800F1800
G1 X-1.263Z0S0F1800
G1 X-8.565Z0S800F1800
G1 X-0.667Z0S0F1800
G1 X0.311Y0.9Z0F1800
G1 X0.667Z0F1800
G1 X8.793Z0S800F1800
G1 X1.244Z0S0F1800
G1 X3.159Z0S800F1800
G1 X0.667Z0S0F1800
G1 X-0.347Y0.9Z0F1800
G1 X-0.666Z0F1800
G1 X-2.338Z0S800F1800
G1 X-1.215Z0S0F1800
G1 X-8.953Z0S800F1800
G1 X-0.667Z0S0F1800
G1 X0.392Y0.9Z0F1800
G1 X0.667Z0F1800
G1 X9.037Z0S800F1800
G1 X1.21Z0S0F1800
G1 X1.502Z0S800F1800
G1 X0.666Z0S0F1800
G1 X-0.367Y0.9Z0F1800
G1 X-0.667Z0F1800
G1 X-0.675Z0S800F1800
G1 X-1.215Z0S0F1800
G1 X-9.05Z0S800F1800
G1 X-0.666Z0S0F1800
G1 X0.492Y0.9Z0F1800
G1 X0.667Z0F1800
G1 X8.994Z0S800F1800
G1 X0.667Z0S0F1800
G1 X0.424Y0.9Z0F1800
G1 X-0.666Z0F1800
G1 X-8.881Z0S800F1800
G1 X-0.667Z0S0F1800
G1 X0.575Y0.9Z0F1800
G1 X0.667Z0F1800
G1 X8.721Z0S800F1800
G1 X0.666Z0S0F1800
G1 X0.408Y0.9Z0F1800
G1 X-0.667Z0F1800
G1 X-8.527Z0S800F1800
G1 X-1.289Z0S0F1800
G1 X-0.792Z0S800F1800
G1 X-0.666Z0S0F1800
G1 X-0.41Y0.9Z0F1800
G1 X0.667Z0F1800
G1 X1.787Z0S800F1800
G1 X1.323Z0S0F1800
G1 X8.308Z0S800F1800
G1 X0.667Z0S0F1800
G1 X0.399Y0.9Z0F1800
G1 X-0.667Z0F1800
G1 X-8.076Z0S800F1800
G1 X-1.34Z0S0F1800
G1 X-2.804Z0S800F1800
G1 X-0.666Z0S0F1800
G1 X-0.4Y0.9Z0F1800
G1 X0.667Z0F1800
G1 X3.83Z0S800F1800
G1 X1.345Z0S0F1800
G1 X7.842Z0S800F1800
G1 X0.667Z0S0F1800
G1 X0.4Y0.9Z0F1800
G1 X-0.667Z0F1800
G1 X-7.611Z0S800F1800
G1 X-1.343Z0S0F1800
G1 X-4.856Z0S800F1800
G1 X-0.667Z0S0F1800
G1 X-0.393Y0.9Z0F1800
G1 X0.667Z0F1800
G1 X5.881Z0S800F1800
G1 X1.342Z0S0F1800
G1 X7.38Z0S800F1800
G1 X0.666Z0S0F1800
G1 X0.396Y0.9Z0F1800
G1 X-0.667Z0F1800
G1 X-7.137Z0S800F1800
G1 X-1.385Z0S0F1800
G1 X-6.877Z0S800F1800
G1 X-0.666Z0S0F1800
G1 X-0.397Y0.9Z0F1800
G1 X0.667Z0F1800
G1 X6.83Z0S800F1800
G1 X2.468Z0S0F1800
G1 X6.892Z0S800F1800
G1 X0.666Z0S0F1800
G1 X0.395Y0.9Z0F1800
G1 X-0.667Z0F1800
G1 X-6.641Z0S800F1800
G1 X-3.763Z0S0F1800
G1 X-6.577Z0S800F1800
G1 X-0.666Z0S0F1800
G1 X-0.398Y0.9Z0F1800
G1 X0.667Z0F1800
G1 X6.331Z0S800F1800
G1 X5.064Z0S0F1800
G1 X6.377Z0S800F1800
G1 X0.667Z0S0F1800
G1 X0.395Y0.9Z0F1800
G1 X-0.667Z0F1800
G1 X-6.127Z0S800F1800
G1 X-6.347Z0S0F1800
G1 X-6.092Z0S800F1800
G1 X-0.667Z0S0F1800
G1 X-0.398Y0.9Z0F1800
G1 X0.667Z0F1800
G1 X5.848Z0S800F1800
G1 X7.635Z0S0F1800
G1 X5.875Z0S800F1800
G1 X0.667Z0S0F1800
G1 X0.394Y0.9Z0F1800
G1 X-0.666Z0F1800
G1 X-5.624Z0S800F1800
G1 X-8.922Z0S0F1800
G1 X-5.604Z0S800F1800
G1 X-0.667Z0S0F1800
G1 X-0.396Y0.9Z0F1800
G1 X0.667Z0F1800
G1 X5.358Z0S800F1800
G1 X10.21Z0S0F1800
G1 X5.372Z0S800F1800
G1 X0.667Z0S0F1800
G1 X0.394Y0.9Z0F1800
G1 X-0.667Z0F1800
G1 X-5.122Z0S800F1800
G1 X-11.496Z0S0F1800
G1 X-5.111Z0S800F1800
G1 X-0.667Z0S0F1800
G1 X-0.392Y0.9Z0F1800
G1 X0.666Z0F1800
G1 X4.868Z0S800F1800
G1 X12.776Z0S0F1800
G1 X4.873Z0S800F1800
G1 X0.666Z0S0F1800
G1 X0.395Y0.9Z0F1800
G1 X-0.667Z0F1800
G1 X-4.623Z0S800F1800
G1 X-14.055Z0S0F1800
G1 X-4.633Z0S800F1800
G1 X-0.666Z0S0F1800
G1 X-0.398Y0.9Z0F1800
G1 X0.667Z0F1800
G1 X4.393Z0S800F1800
G1 X15.336Z0S0F1800
G1 X4.374Z0S800F1800
G1 X0.666Z0S0F1800
G1 X0.395Y0.9Z0F1800
G1 X-0.667Z0F1800
G1 X-4.124Z0S800F1800
G1 X-16.616Z0S0F1800
G1 X-4.15Z0S800F1800
G1 X-0.667Z0S0F1800
G1 X-0.393Y0.9Z0F1800
G1 X0.667Z0F1800
G1 X3.906Z0S800F1800
G1 X17.895Z0S0F1800
G1 X3.876Z0S800F1800
G1 X0.667Z0S0F1800
G1 X0.397Y0.9Z0F1800
G1 X-0.667Z0F1800
G1 X-3.64Z0S800F1800
G1 X-19.163Z0S0F1800
G1 X-3.665Z0S800F1800
G1 X-0.667Z0S0F1800
G1 X-0.384Y0.9Z0F1800
G1 X0.667Z0F1800
G1 X3.418Z0S800F1800
G1 X20.425Z0S0F1800
G1 X3.404Z0S800F1800
G1 X0.667Z0S0F1800
G1 X0.391Y0.9Z0F1800
G1 X-0.667Z0F1800
G1 X-3.161Z0S800F1800
G1 X-21.683Z0S0F1800
G1 X-3.187Z0S800F1800
G1 X-0.666Z0S0F1800
G1 X-0.381Y0.9Z0F1800
G1 X0.667Z0F1800
G1 X2.938Z0S800F1800
G1 X22.943Z0S0F1800
G1 X2.924Z0S800F1800
G1 X0.666Z0S0F1800
G1 X0.385Y0.9Z0F1800
G1 X-0.666Z0F1800
G1 X-2.684Z0S800F1800
G1 X-24.201Z0S0F1800
G1 X-2.694Z0S800F1800
G1 X-0.667Z0S0F1800
G1 X-0.387Y0.9Z0F1800
G1 X0.667Z0F1800
G1 X2.449Z0S800F1800
G1 X25.458Z0S0F1800
G1 X2.443Z0S800F1800
G1 X0.667Z0S0F1800
G1 X0.385Y0.9Z0F1800
G1 X-0.667Z0F1800
G1 X-2.202Z0S800F1800
G1 X-26.71Z0S0F1800
G1 X-2.207Z0S800F1800
G1 X-0.667Z0S0F1800
G1 X-0.384Y0.9Z0F1800
G1 X0.667Z0F1800
G1 X1.967Z0S800F1800
G1 X27.956Z0S0F1800
G1 X1.965Z0S800F1800
G1 X0.667Z0S0F1800
G1 X0.379Y0.9Z0F1800
G1 X-0.666Z0F1800
G1 X-1.71Z0S800F1800
G1 X-29.216Z0S0F1800
G1 X-1.724Z0S800F1800
G1 X-0.667Z0S0F1800
G1 X-0.381Y0.9Z0F1800
G1 X0.666Z0F1800
G1 X1.478Z0S800F1800
G1 X30.459Z0S0F1800
G1 X1.465Z0S800F1800
G1 X0.666Z0S0F1800
G1 X0.341Y0.9Z0F1800
G1 X-0.667Z0F1800
G1 X-1.183Z0S800F1800
G1 X-31.732Z0S0F1800
G1 X-1.156Z0S800F1800
G1 X-0.667Z0S0F1800
G90
M9
M5
G1 Z10 F1000
G90
G1 Z10 F800
