;LightBurn 1.6.04
;Custom GCode device profile, absolute coords
;Bounds: X6 Y7 to X64 Y35
G00 G17 G40 G21 G54
G90
M3
G1 Z10 F1000
;Cut @ 444 mm/min, 80% power

M8
G0 Z4.8F800
G0 X10.918Y14.315Z4.8F1500
G1 Z0F1500
;Layer C3
G1 X10.275Y14.55Z0S800F1500
G1 X9.663Y14.845Z0F1500
G1 X9.086Y15.195Z0F1500
G1 X8.547Y15.598Z0F1500
G1 X8.05Y16.05Z0F1500
G1 X7.598Y16.547Z0F1500
G1 X7.195Y17.086Z0F1500
G1 X6.845Y17.663Z0F1500
G1 X6.55Y18.275Z0F1500
G1 X6.315Y18.918Z0F1500
G1 X6.142Y19.589Z0F1500
G1 X6.036Y20.284Z0F1500
G1 X6Y21Z0F1500
G1 X6.036Y21.716Z0F1500
G1 X6.142Y22.411Z0F1500
G1 X6.315Y23.082Z0F1500
G1 X6.55Y23.725Z0F1500
G1 X6.845Y24.337Z0F1500
G1 X7.195Y24.914Z0F1500
G1 X7.598Y25.453Z0F1500
G1 X8.05Y25.95Z0F1500
G1 X8.547Y26.402Z0F1500
G1 X9.086Y26.805Z0F1500
G1 X9.663Y27.155Z0F1500
G1 X10.275Y27.45Z0F1500
G1 X10.918Y27.685Z0F1500
G1 X11.589Y27.858Z0F1500
G1 X12.284Y27.964Z0F1500
G1 X13Y28Z0F1500
G1 X13.716Y27.964Z0F1500
G1 X14.411Y27.858Z0F1500
G1 X15.082Y27.685Z0F1500
G1 X15.725Y27.45Z0F1500
G1 X16.337Y27.155Z0F1500
G1 X16.914Y26.805Z0F1500
G1 X17.453Y26.402Z0F1500
G1 X17.95Y25.95Z0F1500
G1 X18.402Y25.453Z0F1500
G1 X18.805Y24.914Z0F1500
G1 X19.155Y24.337Z0F1500
G1 X19.45Y23.725Z0F1500
G1 X19.685Y23.082Z0F1500
G1 X19.858Y22.411Z0F1500
G1 X19.964Y21.716Z0F1500
G1 X20Y21Z0F1500
G1 X19.964Y20.284Z0F1500
G1 X19.858Y19.589Z0F1500
G1 X19.685Y18.918Z0F1500
G1 X19.45Y18.275Z0F1500
G1 X19.155Y17.663Z0F1500
G1 X18.805Y17.086Z0F1500
G1 X18.402Y16.547Z0F1500
G1 X17.95Y16.05Z0F1500
G1 X17.453Y15.598Z0F1500
G1 X16.914Y15.195Z0F1500
G1 X16.337Y14.845Z0F1500
G1 X15.725Y14.55Z0F1500
G1 X15.082Y14.315Z0F1500
G1 X14.411Y14.142Z0F1500
G1 X13.716Y14.036Z0F1500
G1 X13Y14Z0F1500
G1 X12.284Y14.036Z0F1500
G1 X11.589Y14.142Z0F1500
G1 X10.918Y14.315Z0F1500
G0 Z4.8F800
G0 X26.845Y18.14Z4.8F1500
G1 Z0F1500
G1 X26.55Y18.665Z0F1500
G1 X26.315Y19.216Z0F1500
G1 X26.142Y19.791Z0F1500
G1 X26.036Y20.387Z0F1500
G1 X26Y21Z0F1500
G1 X26.036Y21.613Z0F1500
G1 X26.142Y22.209Z0F1500
G1 X26.315Y22.784Z0F1500
G1 X26.55Y23.335Z0F1500
G1 X26.845Y23.86Z0F1500
G1 X27.195Y24.355Z0F1500
G1 X27.598Y24.817Z0F1500
G1 X28.05Y25.243Z0F1500
G1 X28.547Y25.63Z0F1500
G1 X29.086Y25.975Z0F1500
G1 X29.663Y26.276Z0F1500
G1 X30.275Y26.528Z0F1500
G1 X30.918Y26.73Z0F1500
G1 X31.589Y26.878Z0F1500
G1 X32.284Y26.969Z0F1500
G1 X33Y27Z0F1500
G1 X33.716Y26.969Z0F1500
G1 X34.411Y26.878Z0F1500
G1 X35.082Y26.73Z0F1500
G1 X35.725Y26.528Z0F1500
G1 X36.337Y26.276Z0F1500
G1 X36.914Y25.975Z0F1500
G1 X37.453Y25.63Z0F1500
G1 X37.95Y25.243Z0F1500
G1 X38.402Y24.817Z0F1500
G1 X38.805Y24.355Z0F1500
G1 X39.155Y23.86Z0F1500
G1 X39.45Y23.335Z0F1500
G1 X39.685Y22.784Z0F1500
G1 X39.858Y22.209Z0F1500
G1 X39.964Y21.613Z0F1500
G1 X40Y21Z0F1500
G1 X39.964Y20.387Z0F1500
G1 X39.858Y19.791Z0F1500
G1 X39.685Y19.216Z0F1500
G1 X39.45Y18.665Z0F1500
G1 X39.155Y18.14Z0F1500
G1 X38.805Y17.645Z0F1500
G1 X38.402Y17.183Z0F1500
G1 X37.95Y16.757Z0F1500
G1 X37.453Y16.37Z0F1500
G1 X36.914Y16.025Z0F1500
G1 X36.337Y15.724Z0F1500
G1 X35.725Y15.472Z0F1500
G1 X35.082Y15.27Z0F1500
G1 X34.411Y15.122Z0F1500
G1 X33.716Y15.031Z0F1500
G1 X33Y15Z0F1500
G1 X32.284Y15.031Z0F1500
G1 X31.589Y15.122Z0F1500
G1 X30.918Y15.27Z0F1500
G1 X30.275Y15.472Z0F1500
G1 X29.663Y15.724Z0F1500
G1 X29.086Y16.025Z0F1500
G1 X28.547Y16.37Z0F1500
G1 X28.05Y16.757Z0F1500
G1 X27.598Y17.183Z0F1500
G1 X27.195Y17.645Z0F1500
G1 X26.845Y18.14Z0F1500
G0 Z4.8F800
G0 X43.225Y20.513Z4.8F1500
G1 Z0F1500
G1 X43.102Y20.992Z0F1500
G1 X43.026Y21.489Z0F1500
G1 X43Y22Z0F1500
G1 X43.026Y22.511Z0F1500
G1 X43.102Y23.008Z0F1500
G1 X43.225Y23.487Z0F1500
G1 X43.393Y23.946Z0F1500
G1 X43.603Y24.383Z0F1500
G1 X43.854Y24.796Z0F1500
G1 X44.142Y25.18Z0F1500
G1 X44.464Y25.536Z0F1500
G1 X44.82Y25.858Z0F1500
G1 X45.204Y26.146Z0F1500
G1 X45.617Y26.397Z0F1500
G1 X46.054Y26.607Z0F1500
G1 X46.513Y26.775Z0F1500
G1 X46.992Y26.898Z0F1500
G1 X47.489Y26.974Z0F1500
G1 X48Y27Z0F1500
G1 X48.511Y26.974Z0F1500
G1 X49.008Y26.898Z0F1500
G1 X49.487Y26.775Z0F1500
G1 X49.946Y26.607Z0F1500
G1 X50.383Y26.397Z0F1500
G1 X50.796Y26.146Z0F1500
G1 X51.18Y25.858Z0F1500
G1 X51.536Y25.536Z0F1500
G1 X51.858Y25.18Z0F1500
G1 X52.146Y24.796Z0F1500
G1 X52.397Y24.383Z0F1500
G1 X52.607Y23.946Z0F1500
G1 X52.775Y23.487Z0F1500
G1 X52.898Y23.008Z0F1500
G1 X52.974Y22.511Z0F1500
G1 X53Y22Z0F1500
G1 X52.974Y21.489Z0F1500
G1 X52.898Y20.992Z0F1500
G1 X52.775Y20.513Z0F1500
G1 X52.607Y20.054Z0F1500
G1 X52.397Y19.617Z0F1500
G1 X52.146Y19.204Z0F1500
G1 X51.858Y18.82Z0F1500
G1 X51.536Y18.464Z0F1500
G1 X51.18Y18.142Z0F1500
G1 X50.796Y17.854Z0F1500
G1 X50.383Y17.603Z0F1500
G1 X49.946Y17.393Z0F1500
G1 X49.487Y17.225Z0F1500
G1 X49.008Y17.102Z0F1500
G1 X48.511Y17.026Z0F1500
G1 X48Y17Z0F1500
G1 X47.489Y17.026Z0F1500
G1 X46.992Y17.102Z0F1500
G1 X46.513Y17.225Z0F1500
G1 X46.054Y17.393Z0F1500
G1 X45.617Y17.603Z0F1500
G1 X45.204Y17.854Z0F1500
G1 X44.82Y18.142Z0F1500
G1 X44.464Y18.464Z0F1500
G1 X44.142Y18.82Z0F1500
G1 X43.854Y19.204Z0F1500
G1 X43.603Y19.617Z0F1500
G1 X43.393Y20.054Z0F1500
G1 X43.225Y20.513Z0F1500
G0 Z4.8F800
G0 X24.63Y17.501Z4.8F1500
G1 Z0F1500
G1 X24.406Y18.179Z0F1500
G1 X24.23Y18.868Z0F1500
G1 X24.103Y19.569Z0F1500
G1 X24.026Y20.28Z0F1500
G1 X24Y21Z0F1500
G1 X24.026Y21.72Z0F1500
G1 X24.103Y22.431Z0F1500
G1 X24.23Y23.132Z0F1500
G1 X24.406Y23.821Z0F1500
G1 X24.63Y24.499Z0F1500
G1 X24.899Y25.163Z0F1500
G1 X25.214Y25.814Z0F1500
G1 X25.572Y26.449Z0F1500
G1 X25.972Y27.07Z0F1500
G1 X26.414Y27.673Z0F1500
G1 X26.895Y28.26Z0F1500
G1 X27.416Y28.828Z0F1500
G1 X27.973Y29.376Z0F1500
G1 X28.567Y29.905Z0F1500
G1 X29.196Y30.413Z0F1500
G1 X29.858Y30.899Z0F1500
G1 X30.552Y31.363Z0F1500
G1 X31.278Y31.803Z0F1500
G1 X32.034Y32.219Z0F1500
G1 X32.818Y32.609Z0F1500
G1 X33.629Y32.973Z0F1500
G1 X34.467Y33.31Z0F1500
G1 X35.329Y33.619Z0F1500
G1 X36.215Y33.9Z0F1500
G1 X37.123Y34.15Z0F1500
G1 X38.053Y34.371Z0F1500
G1 X39.002Y34.559Z0F1500
G1 X39.969Y34.716Z0F1500
G1 X40.954Y34.839Z0F1500
G1 X41.955Y34.928Z0F1500
G1 X42.971Y34.982Z0F1500
G1 X44Y35Z0F1500
G1 X45.029Y34.982Z0F1500
G1 X46.045Y34.928Z0F1500
G1 X47.046Y34.839Z0F1500
G1 X48.031Y34.716Z0F1500
G1 X48.998Y34.559Z0F1500
G1 X49.947Y34.371Z0F1500
G1 X50.877Y34.15Z0F1500
G1 X51.785Y33.9Z0F1500
G1 X52.671Y33.619Z0F1500
G1 X53.533Y33.31Z0F1500
G1 X54.371Y32.973Z0F1500
G1 X55.182Y32.609Z0F1500
G1 X55.966Y32.219Z0F1500
G1 X56.722Y31.803Z0F1500
G1 X57.448Y31.363Z0F1500
G1 X58.142Y30.899Z0F1500
G1 X58.804Y30.413Z0F1500
G1 X59.433Y29.905Z0F1500
G1 X60.027Y29.376Z0F1500
G1 X60.584Y28.828Z0F1500
G1 X61.105Y28.26Z0F1500
G1 X61.586Y27.673Z0F1500
G1 X62.028Y27.07Z0F1500
G1 X62.428Y26.449Z0F1500
G1 X62.786Y25.814Z0F1500
G1 X63.101Y25.163Z0F1500
G1 X63.37Y24.499Z0F1500
G1 X63.594Y23.821Z0F1500
G1 X63.77Y23.132Z0F1500
G1 X63.897Y22.431Z0F1500
G1 X63.974Y21.72Z0F1500
G1 X64Y21Z0F1500
G1 X63.974Y20.28Z0F1500
G1 X63.897Y19.569Z0F1500
G1 X63.77Y18.868Z0F1500
G1 X63.594Y18.179Z0F1500
G1 X63.37Y17.501Z0F1500
G1 X63.101Y16.837Z0F1500
G1 X62.786Y16.186Z0F1500
G1 X62.428Y15.551Z0F1500
G1 X62.028Y14.93Z0F1500
G1 X61.586Y14.327Z0F1500
G1 X61.105Y13.74Z0F1500
G1 X60.584Y13.172Z0F1500
G1 X60.027Y12.624Z0F1500
G1 X59.433Y12.095Z0F1500
G1 X58.804Y11.587Z0F1500
G1 X58.142Y11.101Z0F1500
G1 X57.448Y10.637Z0F1500
G1 X56.722Y10.197Z0F1500
G1 X55.966Y9.781Z0F1500
G1 X55.182Y9.391Z0F1500
G1 X54.371Y9.027Z0F1500
G1 X53.533Y8.69Z0F1500
G1 X52.671Y8.381Z0F1500
G1 X51.785Y8.1Z0F1500
G1 X50.877Y7.85Z0F1500
G1 X49.947Y7.629Z0F1500
G1 X48.998Y7.441Z0F1500
G1 X48.031Y7.284Z0F1500
G1 X47.046Y7.161Z0F1500
G1 X46.045Y7.072Z0F1500
G1 X45.029Y7.018Z0F1500
G1 X44Y7Z0F1500
G1 X42.971Y7.018Z0F1500
G1 X41.955Y7.072Z0F1500
G1 X40.954Y7.161Z0F1500
G1 X39.969Y7.284Z0F1500
G1 X39.002Y7.441Z0F1500
G1 X38.053Y7.629Z0F1500
G1 X37.123Y7.85Z0F1500
G1 X36.215Y8.1Z0F1500
G1 X35.329Y8.381Z0F1500
G1 X34.467Y8.69Z0F1500
G1 X33.629Y9.027Z0F1500
G1 X32.818Y9.391Z0F1500
G1 X32.034Y9.781Z0F1500
G1 X31.278Y10.197Z0F1500
G1 X30.552Y10.637Z0F1500
G1 X29.858Y11.101Z0F1500
G1 X29.196Y11.587Z0F1500
G1 X28.567Y12.095Z0F1500
G1 X27.973Y12.624Z0F1500
G1 X27.416Y13.172Z0F1500
G1 X26.895Y13.74Z0F1500
G1 X26.414Y14.327Z0F1500
G1 X25.972Y14.93Z0F1500
G1 X25.572Y15.551Z0F1500
G1 X25.214Y16.186Z0F1500
G1 X24.899Y16.837Z0F1500
G1 X24.63Y17.501Z0F1500
M9
M5
G1 Z10 F1000
G90
G1 Z10 F800
G1 X120 F1500
