G90 ; Force absolute mode
;LightBurn 1.6.04
;Custom GCode device profile, absolute coords
;Bounds: X4.5 Y3.5 to X51.5 Y43.22
G00 G17 G40 G21 G54
M3
G1 Z10 F1000
;Offset @ 1498.998 mm/min, 80% power
M8
G0 Z4.800 F800
G0 X31.831 Y9.019 Z4.800 F1500
G1 Z0 F1500
;Layer C1
G1 X32.132 Y9.058 F1500
G1 X32.419 Y9.121 Z0 F1500
G1 X32.692 Y9.207 Z0 F1500
G1 X32.932 Y9.306 Z0 F1500
G1 X33.157 Y9.423 Z0 F1500
G1 X33.351 Y9.548 Z0 F1500
G1 X33.516 Y9.676 Z0 F1500
G1 X33.654 Y9.806 Z0 F1500
G1 X33.766 Y9.935 Z0 F1500
G1 X33.847 Y10.049 Z0 F1500
G1 X33.906 Y10.154 Z0 F1500
G1 X33.948 Y10.253 Z0 F1500
G1 X33.973 Y10.333 Z0 F1500
G1 X33.987 Y10.417 Z0 F1500
G1 X33.992 Y10.500 Z0 F1500
G1 X33.987 Y10.583 Z0 F1500
G1 X33.973 Y10.667 Z0 F1500
G1 X33.948 Y10.747 Z0 F1500
G1 X33.906 Y10.846 Z0 F1500
; --- FIX X Backlash ---
G1 X33.106 Y10.846 F500
G1 X33.047 Y10.951 Z0 F1500
G1 X32.966 Y11.065 Z0 F1500
G1 X32.855 Y11.193 Z0 F1500
G1 X32.716 Y11.324 Z0 F1500
G1 X32.551 Y11.452 Z0 F1500
G1 X32.357 Y11.577 Z0 F1500
G1 X32.132 Y11.694 Z0 F1500
G1 X31.892 Y11.793 Z0 F1500
G1 X31.619 Y11.879 Z0 F1500
G1 X31.332 Y11.942 Z0 F1500
G1 X31.031 Y11.981 Z0 F1500
G1 X30.700 Y11.996 Z0 F1500
G1 X30.369 Y11.981 Z0 F1500
G1 X30.068 Y11.942 Z0 F1500
; --- FIX Y Backlash ---
G1 X30.068 Y11.042 F500
G1 X29.781 Y10.979 Z0 F1500
G1 X29.508 Y10.893 Z0 F1500
G1 X29.268 Y10.794 Z0 F1500
G1 X29.043 Y10.677 Z0 F1500
G1 X28.849 Y10.552 Z0 F1500
G1 X28.684 Y10.424 Z0 F1500
G1 X28.545 Y10.293 Z0 F1500
G1 X28.434 Y10.165 Z0 F1500
G1 X28.353 Y10.051 Z0 F1500
G1 X28.294 Y9.946 Z0 F1500
G1 X28.252 Y9.847 Z0 F1500
G1 X28.227 Y9.767 Z0 F1500
G1 X28.213 Y9.683 Z0 F1500
G1 X28.208 Y9.600 Z0 F1500
G1 X28.213 Y9.517 Z0 F1500
G1 X28.227 Y9.433 Z0 F1500
G1 X28.252 Y9.353 Z0 F1500
G1 X28.294 Y9.254 Z0 F1500
; --- FIX X Backlash ---
G1 X29.094 Y9.254 F500
G1 X29.153 Y9.149 Z0 F1500
G1 X29.234 Y9.035 Z0 F1500
G1 X29.346 Y8.906 Z0 F1500
G1 X29.484 Y8.776 Z0 F1500
G1 X29.649 Y8.648 Z0 F1500
G1 X29.843 Y8.523 Z0 F1500
G1 X30.068 Y8.406 Z0 F1500
G1 X30.308 Y8.307 Z0 F1500
G1 X30.581 Y8.221 Z0 F1500
G1 X30.868 Y8.158 Z0 F1500
G1 X31.169 Y8.119 Z0 F1500
G1 X31.500 Y8.104 Z0 F1500
G1 X31.831 Y8.119 Z0 F1500
G0 Z4.800 F800
G0 X34.943 Y8.102 Z4.800 F1500
G1 Z0 F1500
; --- FIX Y Backlash ---
G1 X34.943 Y9.002 F500
G1 X35.118 Y9.249 Z0 F1500
G1 X35.253 Y9.490 Z0 F1500
G1 X35.361 Y9.741 Z0 F1500
G1 X35.435 Y9.987 Z0 F1500
G1 X35.479 Y10.240 Z0 F1500
G1 X35.495 Y10.500 Z0 F1500
G1 X35.479 Y10.760 Z0 F1500
G1 X35.435 Y11.013 Z0 F1500
; --- FIX X Backlash ---
G1 X34.635 Y11.013 F500
G1 X34.561 Y11.259 Z0 F1500
G1 X34.453 Y11.510 Z0 F1500
G1 X34.318 Y11.751 Z0 F1500
G1 X34.143 Y11.998 Z0 F1500
G1 X33.936 Y12.235 Z0 F1500
G1 X33.696 Y12.462 Z0 F1500
G1 X33.416 Y12.680 Z0 F1500
G1 X33.106 Y12.878 Z0 F1500
G1 X32.773 Y13.052 Z0 F1500
G1 X32.397 Y13.207 Z0 F1500
G1 X32.012 Y13.328 Z0 F1500
G1 X31.593 Y13.420 Z0 F1500
G1 X31.151 Y13.478 Z0 F1500
G1 X30.700 Y13.498 Z0 F1500
G1 X30.249 Y13.478 Z0 F1500
; --- FIX Y Backlash ---
G1 X30.249 Y12.578 F500
G1 X29.807 Y12.520 Z0 F1500
G1 X29.388 Y12.428 Z0 F1500
G1 X29.003 Y12.307 Z0 F1500
G1 X28.627 Y12.152 Z0 F1500
G1 X28.294 Y11.978 Z0 F1500
G1 X27.984 Y11.780 Z0 F1500
G1 X27.704 Y11.562 Z0 F1500
G1 X27.464 Y11.335 Z0 F1500
G1 X27.257 Y11.098 Z0 F1500
G1 X27.082 Y10.851 Z0 F1500
G1 X26.947 Y10.610 Z0 F1500
G1 X26.839 Y10.359 Z0 F1500
G1 X26.765 Y10.113 Z0 F1500
G1 X26.721 Y9.860 Z0 F1500
G1 X26.705 Y9.600 Z0 F1500
G1 X26.721 Y9.340 Z0 F1500
G1 X26.765 Y9.087 Z0 F1500
; --- FIX X Backlash ---
G1 X27.565 Y9.087 F500
G1 X27.639 Y8.841 Z0 F1500
G1 X27.747 Y8.590 Z0 F1500
G1 X27.882 Y8.349 Z0 F1500
G1 X28.057 Y8.102 Z0 F1500
G1 X28.264 Y7.865 Z0 F1500
G1 X28.504 Y7.638 Z0 F1500
G1 X28.784 Y7.420 Z0 F1500
G1 X29.094 Y7.222 Z0 F1500
G1 X29.427 Y7.048 Z0 F1500
G1 X29.803 Y6.893 Z0 F1500
G1 X30.188 Y6.772 Z0 F1500
G1 X30.607 Y6.680 Z0 F1500
G1 X31.049 Y6.622 Z0 F1500
G1 X31.500 Y6.602 Z0 F1500
G1 X31.951 Y6.622 Z0 F1500
; --- FIX Y Backlash ---
G1 X31.951 Y7.522 F500
G1 X32.393 Y7.580 Z0 F1500
G1 X32.812 Y7.672 Z0 F1500
G1 X33.197 Y7.793 Z0 F1500
G1 X33.573 Y7.948 Z0 F1500
G1 X33.906 Y8.122 Z0 F1500
G1 X34.216 Y8.320 Z0 F1500
G1 X34.496 Y8.538 Z0 F1500
G1 X34.736 Y8.765 Z0 F1500
G1 X34.943 Y9.002 Z0 F1500
G0 Z4.800 F800
G0 X36.896 Y11.363 Z4.800 F1500
G1 Z0 F1500
; --- FIX X Backlash ---
G1 X36.096 Y11.363 F500
G1 X35.972 Y11.773 Z0 F1500
G1 X35.804 Y12.169 Z0 F1500
G1 X35.584 Y12.560 Z0 F1500
G1 X35.327 Y12.922 Z0 F1500
G1 X35.019 Y13.275 Z0 F1500
G1 X34.670 Y13.605 Z0 F1500
G1 X34.287 Y13.903 Z0 F1500
G1 X33.860 Y14.177 Z0 F1500
G1 X33.405 Y14.414 Z0 F1500
G1 X32.912 Y14.617 Z0 F1500
G1 X32.391 Y14.781 Z0 F1500
G1 X31.855 Y14.898 Z0 F1500
G1 X31.284 Y14.974 Z0 F1500
G1 X30.700 Y14.999 Z0 F1500
G1 X30.116 Y14.974 Z0 F1500
; --- FIX Y Backlash ---
G1 X30.116 Y14.074 F500
G1 X29.545 Y13.998 Z0 F1500
G1 X29.009 Y13.881 Z0 F1500
G1 X28.488 Y13.717 Z0 F1500
G1 X27.995 Y13.514 Z0 F1500
G1 X27.540 Y13.277 Z0 F1500
G1 X27.113 Y13.003 Z0 F1500
G1 X26.730 Y12.705 Z0 F1500
G1 X26.381 Y12.375 Z0 F1500
G1 X26.073 Y12.022 Z0 F1500
G1 X25.816 Y11.660 Z0 F1500
G1 X25.596 Y11.269 Z0 F1500
G1 X25.428 Y10.873 Z0 F1500
G1 X25.304 Y10.463 Z0 F1500
G1 X25.228 Y10.037 Z0 F1500
G1 X25.203 Y9.600 Z0 F1500
G1 X25.228 Y9.163 Z0 F1500
; --- FIX X Backlash ---
G1 X26.028 Y9.163 F500
G1 X26.104 Y8.737 Z0 F1500
G1 X26.228 Y8.327 Z0 F1500
G1 X26.396 Y7.931 Z0 F1500
G1 X26.616 Y7.540 Z0 F1500
G1 X26.873 Y7.178 Z0 F1500
G1 X27.181 Y6.825 Z0 F1500
G1 X27.530 Y6.495 Z0 F1500
G1 X27.913 Y6.197 Z0 F1500
G1 X28.340 Y5.923 Z0 F1500
G1 X28.795 Y5.686 Z0 F1500
G1 X29.288 Y5.483 Z0 F1500
G1 X29.809 Y5.319 Z0 F1500
G1 X30.345 Y5.202 Z0 F1500
G1 X30.916 Y5.126 Z0 F1500
G1 X31.500 Y5.101 Z0 F1500
G1 X32.084 Y5.126 Z0 F1500
; --- FIX Y Backlash ---
G1 X32.084 Y6.026 F500
G1 X32.655 Y6.102 Z0 F1500
G1 X33.191 Y6.219 Z0 F1500
G1 X33.712 Y6.383 Z0 F1500
G1 X34.205 Y6.586 Z0 F1500
G1 X34.660 Y6.823 Z0 F1500
G1 X35.087 Y7.097 Z0 F1500
G1 X35.470 Y7.395 Z0 F1500
G1 X35.819 Y7.725 Z0 F1500
G1 X36.127 Y8.078 Z0 F1500
G1 X36.384 Y8.440 Z0 F1500
G1 X36.604 Y8.831 Z0 F1500
G1 X36.772 Y9.227 Z0 F1500
G1 X36.896 Y9.637 Z0 F1500
G1 X36.972 Y10.063 Z0 F1500
G1 X36.997 Y10.500 Z0 F1500
G1 X36.972 Y10.937 Z0 F1500
; --- FIX X Backlash ---
G1 X36.172 Y10.937 F500
G1 X36.096 Y11.363 Z0 F1500
G0 Z4.800 F800
G0 X35.650 Y14.743 Z4.800 F1500
G1 Z0 F1500
G1 X35.153 Y15.130 Z0 F1500
G1 X34.614 Y15.475 Z0 F1500
G1 X34.036 Y15.776 Z0 F1500
G1 X33.425 Y16.028 Z0 F1500
G1 X32.782 Y16.230 Z0 F1500
G1 X32.111 Y16.378 Z0 F1500
G1 X31.416 Y16.469 Z0 F1500
G1 X30.700 Y16.500 Z0 F1500
G1 X29.984 Y16.469 Z0 F1500
; --- FIX Y Backlash ---
G1 X29.984 Y15.569 F500
G1 X29.289 Y15.478 Z0 F1500
G1 X28.618 Y15.330 Z0 F1500
G1 X27.975 Y15.128 Z0 F1500
G1 X27.364 Y14.876 Z0 F1500
G1 X26.786 Y14.575 Z0 F1500
G1 X26.247 Y14.230 Z0 F1500
G1 X25.750 Y13.843 Z0 F1500
G1 X25.299 Y13.416 Z0 F1500
G1 X24.895 Y12.954 Z0 F1500
G1 X24.545 Y12.460 Z0 F1500
G1 X24.250 Y11.935 Z0 F1500
G1 X24.015 Y11.384 Z0 F1500
G1 X23.842 Y10.809 Z0 F1500
G1 X23.736 Y10.213 Z0 F1500
G1 X23.700 Y9.600 Z0 F1500
G1 X23.736 Y8.987 Z0 F1500
; --- FIX X Backlash ---
G1 X24.536 Y8.987 F500
G1 X24.642 Y8.391 Z0 F1500
G1 X24.815 Y7.816 Z0 F1500
G1 X25.050 Y7.265 Z0 F1500
G1 X25.345 Y6.740 Z0 F1500
G1 X25.695 Y6.246 Z0 F1500
G1 X26.099 Y5.784 Z0 F1500
G1 X26.550 Y5.357 Z0 F1500
G1 X27.047 Y4.970 Z0 F1500
G1 X27.586 Y4.625 Z0 F1500
G1 X28.164 Y4.324 Z0 F1500
G1 X28.775 Y4.072 Z0 F1500
G1 X29.418 Y3.870 Z0 F1500
G1 X30.089 Y3.722 Z0 F1500
G1 X30.784 Y3.631 Z0 F1500
G1 X31.500 Y3.600 Z0 F1500
G1 X32.216 Y3.631 Z0 F1500
; --- FIX Y Backlash ---
G1 X32.216 Y4.531 F500
G1 X32.911 Y4.622 Z0 F1500
G1 X33.582 Y4.770 Z0 F1500
G1 X34.225 Y4.972 Z0 F1500
G1 X34.836 Y5.224 Z0 F1500
G1 X35.414 Y5.525 Z0 F1500
G1 X35.953 Y5.870 Z0 F1500
G1 X36.450 Y6.257 Z0 F1500
G1 X36.901 Y6.684 Z0 F1500
G1 X37.305 Y7.146 Z0 F1500
G1 X37.655 Y7.640 Z0 F1500
G1 X37.950 Y8.165 Z0 F1500
G1 X38.185 Y8.716 Z0 F1500
G1 X38.358 Y9.291 Z0 F1500
G1 X38.464 Y9.887 Z0 F1500
G1 X38.500 Y10.500 Z0 F1500
G1 X38.464 Y11.113 Z0 F1500
; --- FIX X Backlash ---
G1 X37.664 Y11.113 F500
G1 X37.558 Y11.709 Z0 F1500
G1 X37.385 Y12.284 Z0 F1500
G1 X37.150 Y12.835 Z0 F1500
G1 X36.855 Y13.360 Z0 F1500
G1 X36.505 Y13.854 Z0 F1500
G1 X36.101 Y14.316 Z0 F1500
G1 X35.650 Y14.743 Z0 F1500
;Cut @ 444 mm/min, 80% power
M8
G0 Z4.800 F800
; --- FIX X Backlash ---
G1 X36.450 Y14.743 F500
; --- FIX Y Backlash ---
G1 X36.450 Y13.843 F500
G0 X41.893 Y12.546 Z4.800 F1500
G1 Z0 F1500
;Layer C3
; --- FIX Y Backlash ---
G1 X41.893 Y13.446 F500
G1 X42.103 Y13.883 Z0 F1500
G1 X42.354 Y14.296 Z0 F1500
G1 X42.642 Y14.680 Z0 F1500
G1 X42.964 Y15.036 Z0 F1500
G1 X43.320 Y15.358 Z0 F1500
G1 X43.704 Y15.646 Z0 F1500
G1 X44.117 Y15.897 Z0 F1500
G1 X44.554 Y16.107 Z0 F1500
G1 X45.013 Y16.275 Z0 F1500
G1 X45.492 Y16.398 Z0 F1500
G1 X45.989 Y16.474 Z0 F1500
G1 X46.500 Y16.500 Z0 F1500
G1 X47.011 Y16.474 Z0 F1500
; --- FIX Y Backlash ---
G1 X47.011 Y15.574 F500
G1 X47.508 Y15.498 Z0 F1500
G1 X47.987 Y15.375 Z0 F1500
G1 X48.446 Y15.207 Z0 F1500
G1 X48.883 Y14.997 Z0 F1500
G1 X49.296 Y14.746 Z0 F1500
G1 X49.680 Y14.458 Z0 F1500
G1 X50.036 Y14.136 Z0 F1500
G1 X50.358 Y13.780 Z0 F1500
G1 X50.646 Y13.396 Z0 F1500
G1 X50.897 Y12.983 Z0 F1500
G1 X51.107 Y12.546 Z0 F1500
G1 X51.275 Y12.087 Z0 F1500
G1 X51.398 Y11.608 Z0 F1500
G1 X51.474 Y11.111 Z0 F1500
G1 X51.500 Y10.600 Z0 F1500
G1 X51.474 Y10.089 Z0 F1500
; --- FIX X Backlash ---
G1 X50.674 Y10.089 F500
G1 X50.598 Y9.592 Z0 F1500
G1 X50.475 Y9.113 Z0 F1500
G1 X50.307 Y8.654 Z0 F1500
G1 X50.097 Y8.217 Z0 F1500
G1 X49.846 Y7.804 Z0 F1500
G1 X49.558 Y7.420 Z0 F1500
G1 X49.236 Y7.064 Z0 F1500
G1 X48.880 Y6.742 Z0 F1500
G1 X48.496 Y6.454 Z0 F1500
G1 X48.083 Y6.203 Z0 F1500
G1 X47.646 Y5.993 Z0 F1500
G1 X47.187 Y5.825 Z0 F1500
G1 X46.708 Y5.702 Z0 F1500
G1 X46.211 Y5.626 Z0 F1500
G1 X45.700 Y5.600 Z0 F1500
G1 X45.189 Y5.626 Z0 F1500
; --- FIX Y Backlash ---
G1 X45.189 Y6.526 F500
G1 X44.692 Y6.602 Z0 F1500
G1 X44.213 Y6.725 Z0 F1500
G1 X43.754 Y6.893 Z0 F1500
G1 X43.317 Y7.103 Z0 F1500
G1 X42.904 Y7.354 Z0 F1500
G1 X42.520 Y7.642 Z0 F1500
G1 X42.164 Y7.964 Z0 F1500
G1 X41.842 Y8.320 Z0 F1500
G1 X41.554 Y8.704 Z0 F1500
G1 X41.303 Y9.117 Z0 F1500
G1 X41.093 Y9.554 Z0 F1500
G1 X40.925 Y10.013 Z0 F1500
G1 X40.802 Y10.492 Z0 F1500
G1 X40.726 Y10.989 Z0 F1500
G1 X40.700 Y11.500 Z0 F1500
G1 X40.726 Y12.011 Z0 F1500
; --- FIX X Backlash ---
G1 X41.526 Y12.011 F500
G1 X41.602 Y12.508 Z0 F1500
G1 X41.725 Y12.987 Z0 F1500
G1 X41.893 Y13.446 Z0 F1500
G0 Z4.800 F800
; --- FIX X Backlash ---
G1 X41.093 Y13.446 F500
; --- FIX Y Backlash ---
G1 X41.093 Y12.546 F500
G0 X17.558 Y11.011 Z4.800 F1500
G1 Z0 F1500
; --- FIX X Backlash ---
G1 X18.358 Y11.011 F500
G1 X18.464 Y10.316 Z0 F1500
G1 X18.500 Y9.600 Z0 F1500
G1 X18.464 Y8.884 Z0 F1500
; --- FIX X Backlash ---
G1 X17.664 Y8.884 F500
G1 X17.558 Y8.189 Z0 F1500
G1 X17.385 Y7.518 Z0 F1500
G1 X17.150 Y6.875 Z0 F1500
G1 X16.855 Y6.263 Z0 F1500
G1 X16.505 Y5.686 Z0 F1500
G1 X16.102 Y5.147 Z0 F1500
G1 X15.650 Y4.650 Z0 F1500
G1 X15.153 Y4.198 Z0 F1500
G1 X14.614 Y3.795 Z0 F1500
G1 X14.037 Y3.445 Z0 F1500
G1 X13.425 Y3.150 Z0 F1500
G1 X12.782 Y2.915 Z0 F1500
G1 X12.111 Y2.742 Z0 F1500
G1 X11.416 Y2.636 Z0 F1500
G1 X10.700 Y2.600 Z0 F1500
G1 X9.984 Y2.636 Z0 F1500
; --- FIX Y Backlash ---
G1 X9.984 Y3.536 F500
G1 X9.289 Y3.642 Z0 F1500
G1 X8.618 Y3.815 Z0 F1500
G1 X7.975 Y4.050 Z0 F1500
G1 X7.363 Y4.345 Z0 F1500
G1 X6.786 Y4.695 Z0 F1500
G1 X6.247 Y5.098 Z0 F1500
G1 X5.750 Y5.550 Z0 F1500
G1 X5.298 Y6.047 Z0 F1500
G1 X4.895 Y6.586 Z0 F1500
G1 X4.545 Y7.163 Z0 F1500
G1 X4.250 Y7.775 Z0 F1500
G1 X4.015 Y8.418 Z0 F1500
G1 X3.842 Y9.089 Z0 F1500
G1 X3.736 Y9.784 Z0 F1500
G1 X3.700 Y10.500 Z0 F1500
G1 X3.736 Y11.216 Z0 F1500
; --- FIX X Backlash ---
G1 X4.536 Y11.216 F500
G1 X4.642 Y11.911 Z0 F1500
G1 X4.815 Y12.582 Z0 F1500
G1 X5.050 Y13.225 Z0 F1500
G1 X5.345 Y13.837 Z0 F1500
G1 X5.695 Y14.414 Z0 F1500
G1 X6.098 Y14.953 Z0 F1500
G1 X6.550 Y15.450 Z0 F1500
G1 X7.047 Y15.902 Z0 F1500
G1 X7.586 Y16.305 Z0 F1500
G1 X8.163 Y16.655 Z0 F1500
G1 X8.775 Y16.950 Z0 F1500
G1 X9.418 Y17.185 Z0 F1500
G1 X10.089 Y17.358 Z0 F1500
G1 X10.784 Y17.464 Z0 F1500
G1 X11.500 Y17.500 Z0 F1500
G1 X12.216 Y17.464 Z0 F1500
; --- FIX Y Backlash ---
G1 X12.216 Y16.564 F500
G1 X12.911 Y16.458 Z0 F1500
G1 X13.582 Y16.285 Z0 F1500
G1 X14.225 Y16.050 Z0 F1500
G1 X14.837 Y15.755 Z0 F1500
G1 X15.414 Y15.405 Z0 F1500
G1 X15.953 Y15.002 Z0 F1500
G1 X16.450 Y14.550 Z0 F1500
G1 X16.902 Y14.053 Z0 F1500
G1 X17.305 Y13.514 Z0 F1500
G1 X17.655 Y12.937 Z0 F1500
G1 X17.950 Y12.325 Z0 F1500
G1 X18.185 Y11.682 Z0 F1500
G1 X18.358 Y11.011 Z0 F1500
;Scan @ 555 mm/min, 90% power
M8
G0 Z4.800 F800
; --- FIX Y Backlash ---
G1 X18.358 Y11.911 F500
G0 X20.941 Y21.219 Z4.800 F1500
G1 Z0 F1500
;Layer C1
G1 Z2.500 F800 ; Lift S=0
G1 X21.589 F1500
G1 Z0 F800 ; Drop S>0
G1 X35.411 F1500
G1 Z2.500 F800 ; Lift S=0
G1 X36.059 F1500
G1 X41.954 Y23.219 Z2.500 F1500
; --- FIX X Backlash ---
G1 X41.154 Y23.219 F500
G1 X40.507 Z2.500 F1500
G1 Z0 F800 ; Drop S>0
G1 X14.893 F1500
G1 Z2.500 F800 ; Lift S=0
G1 X14.246 F1500
G1 X11.012 Y25.219 Z2.500 F1500
; --- FIX X Backlash ---
G1 X11.812 Y25.219 F500
G1 X12.459 Z2.500 F1500
G1 Z0 F800 ; Drop S>0
G1 X44.541 F1500
G1 Z2.500 F800 ; Lift S=0
G1 X45.188 F1500
G1 X47.238 Y27.219 Z2.500 F1500
; --- FIX X Backlash ---
G1 X46.438 Y27.219 F500
G1 X45.790 Z2.500 F1500
G1 Z0 F800 ; Drop S>0
G1 X9.610 F1500
G1 Z2.500 F800 ; Lift S=0
G1 X8.962 F1500
G1 X7.717 Y29.219 Z2.500 F1500
; --- FIX X Backlash ---
G1 X8.517 Y29.219 F500
G1 X9.164 Z2.500 F1500
G1 Z0 F800 ; Drop S>0
G1 X47.836 F1500
G1 Z2.500 F800 ; Lift S=0
G1 X48.483 F1500
G1 X49.070 Y31.219 Z2.500 F1500
; --- FIX X Backlash ---
G1 X48.270 Y31.219 F500
G1 X47.622 Z2.500 F1500
G1 Z0 F800 ; Drop S>0
G1 X7.778 F1500
G1 Z2.500 F800 ; Lift S=0
G1 X7.130 F1500
G1 Y33.219 Z2.500 F1500
; --- FIX X Backlash ---
G1 X7.930 Y33.219 F500
G1 X8.578 Z2.500 F1500
G1 Z0 F800 ; Drop S>0
G1 X48.422 F1500
G1 Z2.500 F800 ; Lift S=0
G1 X49.070 F1500
; --- FIX X Backlash ---
G1 X48.270 Y33.219 F500
G1 X47.683 Y35.219 Z2.500 F1500
G1 X47.036 Z2.500 F1500
G1 Z0 F800 ; Drop S>0
G1 X8.364 F1500
G1 Z2.500 F800 ; Lift S=0
G1 X7.717 F1500
; --- FIX X Backlash ---
G1 X8.517 Y35.219 F500
G1 X9.762 Y37.219 Z2.500 F1500
G1 X10.410 Z2.500 F1500
G1 Z0 F800 ; Drop S>0
G1 X46.590 F1500
G1 Z2.500 F800 ; Lift S=0
G1 X47.238 F1500
; --- FIX X Backlash ---
G1 X46.438 Y37.219 F500
G1 X44.388 Y39.219 Z2.500 F1500
G1 X43.741 Z2.500 F1500
G1 Z0 F800 ; Drop S>0
G1 X11.659 F1500
G1 Z2.500 F800 ; Lift S=0
G1 X11.012 F1500
; --- FIX X Backlash ---
G1 X11.812 Y39.219 F500
G1 X15.046 Y41.219 Z2.500 F1500
G1 X15.693 Z2.500 F1500
G1 Z0 F800 ; Drop S>0
G1 X41.307 F1500
G1 Z2.500 F800 ; Lift S=0
G1 X41.954 F1500
; --- FIX X Backlash ---
G1 X41.154 Y41.219 F500
G1 X35.259 Y43.219 Z2.500 F1500
G1 X34.611 Z2.500 F1500
G1 Z0 F800 ; Drop S>0
G1 X20.789 F1500
G1 Z2.500 F800 ; Lift S=0
G1 X20.141 F1500
M9
M5
G1 Z10 F1000
G1 Z10 F800
; --- FIX X Backlash ---
G1 X20.941 Y43.219 F500
G1 X120 F1500