;LightBurn 1.6.04
;Custom GCode device profile, absolute coords
;Bounds: X4.5 Y3.5 to X51.5 Y42.72
G00 G17 G40 G21 G54
G90
M3
G1 Z10 F1000
;Cut @ 444 mm/min, 80% power

M8
G0 Z4.8F800
G0 X7.586Y4.695Z4.8F1500
G1 Z0F1500
;Layer C3
G1 X7.047Y5.098Z0S800F1500
G1 X6.55Y5.55Z0F1500
G1 X6.098Y6.047Z0F1500
G1 X5.695Y6.586Z0F1500
G1 X5.345Y7.163Z0F1500
G1 X5.05Y7.775Z0F1500
G1 X4.815Y8.418Z0F1500
G1 X4.642Y9.089Z0F1500
G1 X4.536Y9.784Z0F1500
G1 X4.5Y10.5Z0F1500
G1 X4.536Y11.216Z0F1500
G1 X4.642Y11.911Z0F1500
G1 X4.815Y12.582Z0F1500
G1 X5.05Y13.225Z0F1500
G1 X5.345Y13.837Z0F1500
G1 X5.695Y14.414Z0F1500
G1 X6.098Y14.953Z0F1500
G1 X6.55Y15.45Z0F1500
G1 X7.047Y15.902Z0F1500
G1 X7.586Y16.305Z0F1500
G1 X8.163Y16.655Z0F1500
G1 X8.775Y16.95Z0F1500
G1 X9.418Y17.185Z0F1500
G1 X10.089Y17.358Z0F1500
G1 X10.784Y17.464Z0F1500
G1 X11.5Y17.5Z0F1500
G1 X12.216Y17.464Z0F1500
G1 X12.911Y17.358Z0F1500
G1 X13.582Y17.185Z0F1500
G1 X14.225Y16.95Z0F1500
G1 X14.837Y16.655Z0F1500
G1 X15.414Y16.305Z0F1500
G1 X15.953Y15.902Z0F1500
G1 X16.45Y15.45Z0F1500
G1 X16.902Y14.953Z0F1500
G1 X17.305Y14.414Z0F1500
G1 X17.655Y13.837Z0F1500
G1 X17.95Y13.225Z0F1500
G1 X18.185Y12.582Z0F1500
G1 X18.358Y11.911Z0F1500
G1 X18.464Y11.216Z0F1500
G1 X18.5Y10.5Z0F1500
G1 X18.464Y9.784Z0F1500
G1 X18.358Y9.089Z0F1500
G1 X18.185Y8.418Z0F1500
G1 X17.95Y7.775Z0F1500
G1 X17.655Y7.163Z0F1500
G1 X17.305Y6.586Z0F1500
G1 X16.902Y6.047Z0F1500
G1 X16.45Y5.55Z0F1500
G1 X15.953Y5.098Z0F1500
G1 X15.414Y4.695Z0F1500
G1 X14.837Y4.345Z0F1500
G1 X14.225Y4.05Z0F1500
G1 X13.582Y3.815Z0F1500
G1 X12.911Y3.642Z0F1500
G1 X12.216Y3.536Z0F1500
G1 X11.5Y3.5Z0F1500
G1 X10.784Y3.536Z0F1500
G1 X10.089Y3.642Z0F1500
G1 X9.418Y3.815Z0F1500
G1 X8.775Y4.05Z0F1500
G1 X8.163Y4.345Z0F1500
G1 X7.586Y4.695Z0F1500
G0 Z4.8F800
G0 X25.05Y8.165Z4.8F1500
G1 Z0F1500
G1 X24.815Y8.716Z0F1500
G1 X24.642Y9.291Z0F1500
G1 X24.536Y9.887Z0F1500
G1 X24.5Y10.5Z0F1500
G1 X24.536Y11.113Z0F1500
G1 X24.642Y11.709Z0F1500
G1 X24.815Y12.284Z0F1500
G1 X25.05Y12.835Z0F1500
G1 X25.345Y13.36Z0F1500
G1 X25.695Y13.855Z0F1500
G1 X26.098Y14.317Z0F1500
G1 X26.55Y14.743Z0F1500
G1 X27.047Y15.13Z0F1500
G1 X27.586Y15.475Z0F1500
G1 X28.163Y15.776Z0F1500
G1 X28.775Y16.028Z0F1500
G1 X29.418Y16.23Z0F1500
G1 X30.089Y16.378Z0F1500
G1 X30.784Y16.469Z0F1500
G1 X31.5Y16.5Z0F1500
G1 X32.216Y16.469Z0F1500
G1 X32.911Y16.378Z0F1500
G1 X33.582Y16.23Z0F1500
G1 X34.225Y16.028Z0F1500
G1 X34.837Y15.776Z0F1500
G1 X35.414Y15.475Z0F1500
G1 X35.953Y15.13Z0F1500
G1 X36.45Y14.743Z0F1500
G1 X36.902Y14.317Z0F1500
G1 X37.305Y13.855Z0F1500
G1 X37.655Y13.36Z0F1500
G1 X37.95Y12.835Z0F1500
G1 X38.185Y12.284Z0F1500
G1 X38.358Y11.709Z0F1500
G1 X38.464Y11.113Z0F1500
G1 X38.5Y10.5Z0F1500
G1 X38.464Y9.887Z0F1500
G1 X38.358Y9.291Z0F1500
G1 X38.185Y8.716Z0F1500
G1 X37.95Y8.165Z0F1500
G1 X37.655Y7.64Z0F1500
G1 X37.305Y7.145Z0F1500
G1 X36.902Y6.683Z0F1500
G1 X36.45Y6.257Z0F1500
G1 X35.953Y5.87Z0F1500
G1 X35.414Y5.525Z0F1500
G1 X34.837Y5.224Z0F1500
G1 X34.225Y4.972Z0F1500
G1 X33.582Y4.77Z0F1500
G1 X32.911Y4.622Z0F1500
G1 X32.216Y4.531Z0F1500
G1 X31.5Y4.5Z0F1500
G1 X30.784Y4.531Z0F1500
G1 X30.089Y4.622Z0F1500
G1 X29.418Y4.77Z0F1500
G1 X28.775Y4.972Z0F1500
G1 X28.163Y5.224Z0F1500
G1 X27.586Y5.525Z0F1500
G1 X27.047Y5.87Z0F1500
G1 X26.55Y6.257Z0F1500
G1 X26.098Y6.683Z0F1500
G1 X25.695Y7.145Z0F1500
G1 X25.345Y7.64Z0F1500
G1 X25.05Y8.165Z0F1500
G0 Z4.8F800
G0 X41.725Y10.013Z4.8F1500
G1 Z0F1500
G1 X41.602Y10.492Z0F1500
G1 X41.526Y10.989Z0F1500
G1 X41.5Y11.5Z0F1500
G1 X41.526Y12.011Z0F1500
G1 X41.602Y12.508Z0F1500
G1 X41.725Y12.987Z0F1500
G1 X41.893Y13.446Z0F1500
G1 X42.103Y13.883Z0F1500
G1 X42.354Y14.296Z0F1500
G1 X42.642Y14.68Z0F1500
G1 X42.964Y15.036Z0F1500
G1 X43.32Y15.358Z0F1500
G1 X43.704Y15.646Z0F1500
G1 X44.117Y15.897Z0F1500
G1 X44.554Y16.107Z0F1500
G1 X45.013Y16.275Z0F1500
G1 X45.492Y16.398Z0F1500
G1 X45.989Y16.474Z0F1500
G1 X46.5Y16.5Z0F1500
G1 X47.011Y16.474Z0F1500
G1 X47.508Y16.398Z0F1500
G1 X47.987Y16.275Z0F1500
G1 X48.446Y16.107Z0F1500
G1 X48.883Y15.897Z0F1500
G1 X49.296Y15.646Z0F1500
G1 X49.68Y15.358Z0F1500
G1 X50.036Y15.036Z0F1500
G1 X50.358Y14.68Z0F1500
G1 X50.646Y14.296Z0F1500
G1 X50.897Y13.883Z0F1500
G1 X51.107Y13.446Z0F1500
G1 X51.275Y12.987Z0F1500
G1 X51.398Y12.508Z0F1500
G1 X51.474Y12.011Z0F1500
G1 X51.5Y11.5Z0F1500
G1 X51.474Y10.989Z0F1500
G1 X51.398Y10.492Z0F1500
G1 X51.275Y10.013Z0F1500
G1 X51.107Y9.554Z0F1500
G1 X50.897Y9.117Z0F1500
G1 X50.646Y8.704Z0F1500
G1 X50.358Y8.32Z0F1500
G1 X50.036Y7.964Z0F1500
G1 X49.68Y7.642Z0F1500
G1 X49.296Y7.354Z0F1500
G1 X48.883Y7.103Z0F1500
G1 X48.446Y6.893Z0F1500
G1 X47.987Y6.725Z0F1500
G1 X47.508Y6.602Z0F1500
G1 X47.011Y6.526Z0F1500
G1 X46.5Y6.5Z0F1500
G1 X45.989Y6.526Z0F1500
G1 X45.492Y6.602Z0F1500
G1 X45.013Y6.725Z0F1500
G1 X44.554Y6.893Z0F1500
G1 X44.117Y7.103Z0F1500
G1 X43.704Y7.354Z0F1500
G1 X43.32Y7.642Z0F1500
G1 X42.964Y7.964Z0F1500
G1 X42.642Y8.32Z0F1500
G1 X42.354Y8.704Z0F1500
G1 X42.103Y9.117Z0F1500
G1 X41.893Y9.554Z0F1500
G1 X41.725Y10.013Z0F1500
;Scan @ 555 mm/min, 90% power

M8
G0 Z4.8F800
G0 X18.97Y21.719Z4.8F1500
G1 Z0F1500
;Layer C1
G91
G1 X0.648Z0S0F1500
G1 X17.764Z0S900F1500
G1 X0.648Z0S0F1500
G1 X6.483Y3Z0F1500
G1 X-0.647Z0F1500
G1 X-30.732Z0S900F1500
G1 X-0.647Z0S0F1500
G1 X-3.104Y3Z0F1500
G1 X0.647Z0F1500
G1 X36.94Z0S900F1500
G1 X0.647Z0S0F1500
G1 X1.362Y3Z0F1500
G1 X-0.648Z0F1500
G1 X-39.662Z0S900F1500
G1 X-0.648Z0S0F1500
G1 Y3Z0F1500
G1 X0.648Z0F1500
G1 X39.662Z0S900F1500
G1 X0.648Z0S0F1500
G1 X-1.362Y3Z0F1500
G1 X-0.647Z0F1500
G1 X-36.94Z0S900F1500
G1 X-0.647Z0S0F1500
G1 X3.104Y3Z0F1500
G1 X0.647Z0F1500
G1 X30.732Z0S900F1500
G1 X0.647Z0S0F1500
G1 X-6.483Y3Z0F1500
G1 X-0.648Z0F1500
G1 X-17.764Z0S900F1500
G1 X-0.648Z0S0F1500
G90
M9
M5
G1 Z10 F1000
G90
G1 Z10 F800
G1 X120 F1500
